;PYCAM-META-DATA: Filename: /media/martoio/MARTOIO/ME43/std_lib/svg/012-piece-of-cake.svg
;PYCAM-META-DATA: Timestamp: 2017-12-06 01:58:16.894903
;PYCAM-META-DATA: Version: 0.5.1
;Estimated machine time: 10 minutes
G40 (disable tool radius compensation)
G49 (disable tool length compensation)
G80 (cancel modal motion)
G54 (select coordinate system 1)
G90 (disable incremental moves)
G21 (metric)
G61 (exact path mode)
F400.00000
S1.00000
;PYCAM_TOOLPATH_SETTINGS: START
;[Bounds]
;maxz = 0.0
;maxx = 163.4489
;maxy = 130.33285
;minx = -8.9499
;miny = -5.93935
;minz = 0.0
;
;[Tool]
;torus_radius = 0.25
;speed = 1.0
;shape = CylindricalCutter
;tool_radius = 0.5
;feedrate = 400.0
;
;[Process]
;engrave_offset = 0.0
;step_down = 1.0
;generator = EngraveCutter
;postprocessor = SimpleCutter
;overlap_percent = 0
;milling_style = conventional
;material_allowance = 0.0
;pocketing_type = none
;path_direction = x
;
;PYCAM_TOOLPATH_SETTINGS: END
T1 M6
G0 Z-25.0000
 X89.2907 Y101.3325
G1 Z-40.0000
 X88.9815 Y101.3395
 X88.6764 Y101.3635
 X88.3756 Y101.4015
 X88.0794 Y101.4545
 X87.7886 Y101.5215
 X87.5032 Y101.6025
 X87.2236 Y101.6975
 X86.9504 Y101.8055
 X86.6838 Y101.9255
 X86.4243 Y102.0585
 X86.1721 Y102.2045
 X85.9278 Y102.3605
 X85.6917 Y102.5285
 X85.4640 Y102.7075
 X85.2456 Y102.8965
 X85.0362 Y103.0955
 X84.8367 Y103.3055
 X84.6472 Y103.5235
 X84.4682 Y103.7515
 X84.3001 Y103.9865
 X84.1432 Y104.2315
 X83.9981 Y104.4835
 X83.8649 Y104.7425
 X83.7440 Y105.0095
 X83.6360 Y105.2835
 X83.5411 Y105.5625
 X83.4597 Y105.8485
 X83.3924 Y106.1395
 X83.3393 Y106.4355
 X83.3008 Y106.7375
 X83.2775 Y107.0425
