;PYCAM-META-DATA: Filename: /media/martoio/MARTOIO/ME43/std_lib/svg/012-piece-of-cake.svg
;PYCAM-META-DATA: Timestamp: 2017-12-06 01:58:16.894903
;PYCAM-META-DATA: Version: 0.5.1
;Estimated machine time: 10 minutes
G40 (disable tool radius compensation)
G49 (disable tool length compensation)
G80 (cancel modal motion)
G54 (select coordinate system 1)
G90 (disable incremental moves)
G21 (metric)
G61 (exact path mode)
F400.00000
S1.00000
;PYCAM_TOOLPATH_SETTINGS: START
;[Bounds]
;maxz = 0.0
;maxx = 163.4489
;maxy = 130.33285
;minx = -8.9499
;miny = -5.93935
;minz = 0.0
;
;[Tool]
;torus_radius = 0.25
;speed = 1.0
;shape = CylindricalCutter
;tool_radius = 0.5
;feedrate = 400.0
;
;[Process]
;engrave_offset = 0.0
;step_down = 1.0
;generator = EngraveCutter
;postprocessor = SimpleCutter
;overlap_percent = 0
;milling_style = conventional
;material_allowance = 0.0
;pocketing_type = none
;path_direction = x
;
;PYCAM_TOOLPATH_SETTINGS: END
T1 M6
G0 Z-25.0000
 X89.2907 Y101.3325
G1 Z-40.0000
 X88.9815 Y101.3395
 X88.6764 Y101.3635
 X88.3756 Y101.4015
 X88.0794 Y101.4545
 X87.7886 Y101.5215
 X87.5032 Y101.6025
 X87.2236 Y101.6975
 X86.9504 Y101.8055
 X86.6838 Y101.9255
 X86.4243 Y102.0585
 X86.1721 Y102.2045
 X85.9278 Y102.3605
 X85.6917 Y102.5285
 X85.4640 Y102.7075
 X85.2456 Y102.8965
 X85.0362 Y103.0955
 X84.8367 Y103.3055
 X84.6472 Y103.5235
 X84.4682 Y103.7515
 X84.3001 Y103.9865
 X84.1432 Y104.2315
 X83.9981 Y104.4835
 X83.8649 Y104.7425
 X83.7440 Y105.0095
 X83.6360 Y105.2835
 X83.5411 Y105.5625
 X83.4597 Y105.8485
 X83.3924 Y106.1395
 X83.3393 Y106.4355
 X83.3008 Y106.7375
 X83.2775 Y107.0425
 X83.2697 Y107.3525
 X83.2775 Y107.6625
 X83.3008 Y107.9675
 X83.3393 Y108.2695
 X83.3924 Y108.5655
 X83.4597 Y108.8565
 X83.5411 Y109.1425
 X83.6360 Y109.4225
 X83.7440 Y109.6955
 X83.8649 Y109.9625
 X83.9981 Y110.2215
 X84.1432 Y110.4745
 X84.3001 Y110.7185
 X84.4682 Y110.9545
 X84.6472 Y111.1815
 X84.8367 Y111.4005
 X85.0362 Y111.6095
 X85.2456 Y111.8085
 X85.4640 Y111.9985
 X85.6917 Y112.1765
 X85.9278 Y112.3445
 X86.1721 Y112.5015
 X86.4243 Y112.6465
 X86.6838 Y112.7795
 X86.9504 Y112.9005
 X87.2236 Y113.0085
 X87.5032 Y113.1025
 X87.7886 Y113.1835
 X88.0794 Y113.2515
 X88.3756 Y113.3045
 X88.6764 Y113.3425
 X88.9815 Y113.3655
 X89.2907 Y113.3735
 X89.5997 Y113.3655
 X89.9047 Y113.3425
 X90.2056 Y113.3045
 X90.5015 Y113.2515
 X90.7925 Y113.1835
 X91.0779 Y113.1025
 X91.3574 Y113.0085
 X91.6306 Y112.9005
 X91.8971 Y112.7795
 X92.1567 Y112.6465
 X92.4088 Y112.5015
 X92.6531 Y112.3445
 X92.8892 Y112.1765
 X93.1168 Y111.9985
 X93.3353 Y111.8085
 X93.5446 Y111.6095
 X93.7442 Y111.4005
 X93.9336 Y111.1815
 X94.1126 Y110.9545
 X94.2807 Y110.7185
 X94.4375 Y110.4745
 X94.5828 Y110.2215
 X94.7160 Y109.9625
 X94.8368 Y109.6955
 X94.9449 Y109.4225
 X95.0397 Y109.1425
 X95.1210 Y108.8565
 X95.1885 Y108.5655
 X95.2415 Y108.2695
 X95.2799 Y107.9675
 X95.3032 Y107.6625
 X95.3111 Y107.3525
 X95.3032 Y107.0425
 X95.2799 Y106.7375
 X95.2415 Y106.4355
 X95.1885 Y106.1395
 X95.1210 Y105.8485
 X95.0397 Y105.5625
 X94.9449 Y105.2835
 X94.8368 Y105.0095
 X94.7160 Y104.7425
 X94.5828 Y104.4835
 X94.4375 Y104.2315
 X94.2807 Y103.9865
 X94.1126 Y103.7515
 X93.9336 Y103.5235
 X93.7442 Y103.3055
 X93.5446 Y103.0955
 X93.3353 Y102.8965
 X93.1168 Y102.7075
 X92.8892 Y102.5285
 X92.6531 Y102.3605
 X92.4088 Y102.2045
 X92.1567 Y102.0585
 X91.8971 Y101.9255
 X91.6306 Y101.8055
 X91.3574 Y101.6975
 X91.0779 Y101.6025
 X90.7925 Y101.5215
 X90.5015 Y101.4545
 X90.2056 Y101.4015
 X89.9047 Y101.3635
 X89.5997 Y101.3395
 X89.2907 Y101.3325
G0 Z-25.0000
 Y119.3935
G1 Z-40.0000
 X88.6718 Y119.3785
 X88.0610 Y119.3315
 X87.4589 Y119.2555
 X86.8665 Y119.1485
 X86.2843 Y119.0145
