;PYCAM-META-DATA: Filename: /media/martoio/MARTOIO/ME43/std_lib/svg/012-piece-of-cake.svg
;PYCAM-META-DATA: Timestamp: 2017-12-06 01:58:16.894903
;PYCAM-META-DATA: Version: 0.5.1
;Estimated machine time: 10 minutes
G40 (disable tool radius compensation)
G49 (disable tool length compensation)
G80 (cancel modal motion)
G54 (select coordinate system 1)
G90 (disable incremental moves)
G21 (metric)
G61 (exact path mode)
F400.00000
S1.00000
;PYCAM_TOOLPATH_SETTINGS: START
;[Bounds]
;maxz = 0.0
;maxx = 163.4489
;maxy = 130.33285
;minx = -8.9499
;miny = -5.93935
;minz = 0.0
;
;[Tool]
;torus_radius = 0.25
;speed = 1.0
;shape = CylindricalCutter
;tool_radius = 0.5
;feedrate = 400.0
;
;[Process]
;engrave_offset = 0.0
;step_down = 1.0
;generator = EngraveCutter
;postprocessor = SimpleCutter
;overlap_percent = 0
;milling_style = conventional
;material_allowance = 0.0
;pocketing_type = none
;path_direction = x
;
;PYCAM_TOOLPATH_SETTINGS: END
T1 M6
G0 Z25.0000
 X89.2907 Y101.3325
G1 Z-40.0000
 X88.9815 Y101.3395
 X88.6764 Y101.3635
 X88.3756 Y101.4015
 X88.0794 Y101.4545
 X87.7886 Y101.5215
 X87.5032 Y101.6025
 X87.2236 Y101.6975
 X86.9504 Y101.8055
 X86.6838 Y101.9255
 X86.4243 Y102.0585
 X86.1721 Y102.2045
 X85.9278 Y102.3605
 X85.6917 Y102.5285
 X85.4640 Y102.7075
 X85.2456 Y102.8965
 X85.0362 Y103.0955
 X84.8367 Y103.3055
 X84.6472 Y103.5235
 X84.4682 Y103.7515
 X84.3001 Y103.9865
 X84.1432 Y104.2315
 X83.9981 Y104.4835
 X83.8649 Y104.7425
 X83.7440 Y105.0095
 X83.6360 Y105.2835
 X83.5411 Y105.5625
 X83.4597 Y105.8485
 X83.3924 Y106.1395
 X83.3393 Y106.4355
 X83.3008 Y106.7375
 X83.2775 Y107.0425
 X83.2697 Y107.3525
 X83.2775 Y107.6625
 X83.3008 Y107.9675
 X83.3393 Y108.2695
 X83.3924 Y108.5655
 X83.4597 Y108.8565
 X83.5411 Y109.1425
 X83.6360 Y109.4225
 X83.7440 Y109.6955
 X83.8649 Y109.9625
 X83.9981 Y110.2215
 X84.1432 Y110.4745
 X84.3001 Y110.7185
 X84.4682 Y110.9545
 X84.6472 Y111.1815
 X84.8367 Y111.4005
 X85.0362 Y111.6095
 X85.2456 Y111.8085
 X85.4640 Y111.9985
 X85.6917 Y112.1765
 X85.9278 Y112.3445
 X86.1721 Y112.5015
 X86.4243 Y112.6465
 X86.6838 Y112.7795
 X86.9504 Y112.9005
 X87.2236 Y113.0085
 X87.5032 Y113.1025
 X87.7886 Y113.1835
 X88.0794 Y113.2515
 X88.3756 Y113.3045
 X88.6764 Y113.3425
 X88.9815 Y113.3655
 X89.2907 Y113.3735
 X89.5997 Y113.3655
 X89.9047 Y113.3425
 X90.2056 Y113.3045
 X90.5015 Y113.2515
 X90.7925 Y113.1835
 X91.0779 Y113.1025
 X91.3574 Y113.0085
 X91.6306 Y112.9005
 X91.8971 Y112.7795
 X92.1567 Y112.6465
 X92.4088 Y112.5015
 X92.6531 Y112.3445
 X92.8892 Y112.1765
 X93.1168 Y111.9985
 X93.3353 Y111.8085
 X93.5446 Y111.6095
 X93.7442 Y111.4005
 X93.9336 Y111.1815
 X94.1126 Y110.9545
 X94.2807 Y110.7185
 X94.4375 Y110.4745
 X94.5828 Y110.2215
 X94.7160 Y109.9625
 X94.8368 Y109.6955
 X94.9449 Y109.4225
 X95.0397 Y109.1425
 X95.1210 Y108.8565
 X95.1885 Y108.5655
 X95.2415 Y108.2695
 X95.2799 Y107.9675
 X95.3032 Y107.6625
 X95.3111 Y107.3525
 X95.3032 Y107.0425
 X95.2799 Y106.7375
 X95.2415 Y106.4355
 X95.1885 Y106.1395
 X95.1210 Y105.8485
 X95.0397 Y105.5625
 X94.9449 Y105.2835
 X94.8368 Y105.0095
 X94.7160 Y104.7425
 X94.5828 Y104.4835
 X94.4375 Y104.2315
 X94.2807 Y103.9865
 X94.1126 Y103.7515
 X93.9336 Y103.5235
 X93.7442 Y103.3055
 X93.5446 Y103.0955
 X93.3353 Y102.8965
 X93.1168 Y102.7075
 X92.8892 Y102.5285
 X92.6531 Y102.3605
 X92.4088 Y102.2045
 X92.1567 Y102.0585
 X91.8971 Y101.9255
 X91.6306 Y101.8055
 X91.3574 Y101.6975
 X91.0779 Y101.6025
 X90.7925 Y101.5215
 X90.5015 Y101.4545
 X90.2056 Y101.4015
 X89.9047 Y101.3635
 X89.5997 Y101.3395
 X89.2907 Y101.3325
G0 Z25.0000
 Y119.3935
G1 Z-40.0000
 X88.6718 Y119.3785
 X88.0610 Y119.3315
 X87.4589 Y119.2555
 X86.8665 Y119.1485
 X86.2843 Y119.0145
 X85.7133 Y118.8515
 X85.1540 Y118.6625
 X84.6074 Y118.4465
 X84.0742 Y118.2045
 X83.5550 Y117.9385
 X83.0508 Y117.6485
 X82.5622 Y117.3355
 X82.0900 Y116.9985
 X81.6350 Y116.6415
 X81.1979 Y116.2625
 X80.7796 Y115.8635
 X80.3806 Y115.4455
 X80.0018 Y115.0085
 X79.6442 Y114.5535
 X79.3081 Y114.0805
 X78.9946 Y113.5925
 X78.7044 Y113.0875
 X78.4382 Y112.5685
 X78.1968 Y112.0355
 X77.9810 Y111.4885
 X77.7914 Y110.9295
 X77.6289 Y110.3585
 X77.4943 Y109.7765
 X77.3882 Y109.1845
 X77.3115 Y108.5825
 X77.2649 Y107.9715
 X77.2493 Y107.3525
 X77.2649 Y106.7335
 X77.3115 Y106.1235
 X77.3882 Y105.5205
 X77.4943 Y104.9285
 X77.6289 Y104.3465
 X77.7914 Y103.7755
 X77.9810 Y103.2165
 X78.1968 Y102.6695
 X78.4382 Y102.1365
 X78.7044 Y101.6175
 X78.9946 Y101.1125
 X79.3081 Y100.6245
 X79.6442 Y100.1525
 X80.0018 Y99.6975
 X80.3806 Y99.2605
 X80.7796 Y98.8415
 X81.1979 Y98.4425
 X81.6350 Y98.0645
 X82.0900 Y97.7065
 X82.5622 Y97.3705
 X83.0508 Y97.0565
 X83.5550 Y96.7665
 X84.0742 Y96.5005
 X84.6074 Y96.2585
 X85.1540 Y96.0435
 X85.7133 Y95.8535
 X86.2843 Y95.6915
 X86.8665 Y95.5565
 X87.4589 Y95.4505
 X88.0610 Y95.3735
 X88.6718 Y95.3265
 X89.2907 Y95.3115
 X89.9094 Y95.3265
 X90.5201 Y95.3735
 X91.1222 Y95.4505
 X91.7146 Y95.5565
 X92.2967 Y95.6915
 X92.8678 Y95.8535
 X93.4269 Y96.0435
 X93.9735 Y96.2585
 X94.5068 Y96.5005
 X95.0258 Y96.7665
 X95.5301 Y97.0565
 X96.0188 Y97.3705
 X96.4908 Y97.7065
 X96.9458 Y98.0645
 X97.3829 Y98.4425
 X97.8014 Y98.8415
 X98.2003 Y99.2605
 X98.5790 Y99.6975
 X98.9367 Y100.1525
 X99.2726 Y100.6245
 X99.5863 Y101.1125
 X99.8764 Y101.6175
 X100.1426 Y102.1365
 X100.3840 Y102.6695
 X100.5999 Y103.2165
 X100.7894 Y103.7755
 X100.9519 Y104.3465
 X101.0865 Y104.9285
 X101.1926 Y105.5205
 X101.2693 Y106.1235
 X101.3158 Y106.7335
 X101.3317 Y107.3525
 X101.3158 Y107.9715
 X101.2693 Y108.5825
 X101.1926 Y109.1845
 X101.0865 Y109.7765
 X100.9519 Y110.3585
 X100.7894 Y110.9295
 X100.5999 Y111.4885
 X100.3840 Y112.0355
 X100.1426 Y112.5685
 X99.8764 Y113.0875
 X99.5863 Y113.5925
 X99.2726 Y114.0805
 X98.9367 Y114.5535
 X98.5790 Y115.0085
 X98.2003 Y115.4455
 X97.8014 Y115.8635
 X97.3829 Y116.2625
 X96.9458 Y116.6415
 X96.4908 Y116.9985
 X96.0188 Y117.3355
 X95.5301 Y117.6485
 X95.0258 Y117.9385
 X94.5068 Y118.2045
 X93.9735 Y118.4465
 X93.4269 Y118.6625
 X92.8678 Y118.8515
 X92.2967 Y119.0145
 X91.7146 Y119.1485
 X91.1222 Y119.2555
 X90.5201 Y119.3315
 X89.9094 Y119.3785
 X89.2907 Y119.3935
G0 Z25.0000
 X131.3870 Y92.8255
G1 Z-40.0000
 X131.3190 Y93.1255
 X131.2220 Y93.4135
 X131.0990 Y93.6865
 X130.9510 Y93.9445
 X130.7790 Y94.1845
 X130.5870 Y94.4065
 X130.3750 Y94.6075
 X130.1460 Y94.7875
 X129.9000 Y94.9445
 X129.6420 Y95.0765
 X129.3710 Y95.1815
 X129.0900 Y95.2595
 X128.8000 Y95.3085
 X128.5050 Y95.3255
 X128.2050 Y95.3115
 X127.9020 Y95.2635
 X25.5479 Y77.2010
 X25.2475 Y77.1323
 X24.9610 Y77.0354
 X24.6897 Y76.9123
 X24.4347 Y76.7648
 X24.1976 Y76.5943
 X23.9793 Y76.4028
 X23.7813 Y76.1921
 X23.6044 Y75.9639
 X23.4504 Y75.7197
 X23.3201 Y75.4617
 X23.2151 Y75.1911
 X23.1364 Y74.9100
 X23.0853 Y74.6202
 X23.0631 Y74.3232
 X23.0710 Y74.0209
 X23.1101 Y73.7149
 X23.1704 Y73.4470
 X23.2531 Y73.1899
 X23.3569 Y72.9446
 X23.4808 Y72.7120
 X23.6235 Y72.4928
 X23.7835 Y72.2882
 X23.9599 Y72.0988
 X24.1513 Y71.9257
 X24.3564 Y71.7695
 X24.5739 Y71.6314
 X24.8028 Y71.5121
 X25.0418 Y71.4125
 X25.2894 Y71.3335
 X25.5447 Y71.2759
 X25.8063 Y71.2407
 X26.0728 Y71.2288
 X26.3322 Y71.2395
 X26.5967 Y71.2771
 X128.9490 Y89.3391
 X129.2490 Y89.4079
 X129.5360 Y89.5050
 X129.8070 Y89.6285
 X130.0610 Y89.7764
 X130.2980 Y89.9473
 X130.5160 Y90.1395
 X130.7140 Y90.3505
 X130.8900 Y90.5795
 X131.0440 Y90.8235
 X131.1740 Y91.0815
 X131.2790 Y91.3525
 X131.3580 Y91.6335
 X131.4100 Y91.9225
 X131.4320 Y92.2195
 X131.4250 Y92.5205
 X131.3870 Y92.8255
G0 Z25.0000
 Y68.7414
G1 Z-40.0000
 X131.3190 Y69.0414
 X131.2220 Y69.3285
 X131.0990 Y69.6013
 X130.9510 Y69.8584
 X130.7790 Y70.0981
 X130.5870 Y70.3192
 X130.3750 Y70.5202
 X130.1460 Y70.6995
 X129.9000 Y70.8557
 X129.6420 Y70.9874
 X129.3710 Y71.0931
 X129.0900 Y71.1713
 X128.8000 Y71.2206
 X128.5050 Y71.2396
 X128.2050 Y71.2267
 X127.9020 Y71.1806
 X25.5479 Y53.1186
 X25.2475 Y53.0498
 X24.9612 Y52.9527
 X24.6901 Y52.8293
 X24.4356 Y52.6813
 X24.1988 Y52.5104
 X23.9808 Y52.3186
 X23.7831 Y52.1075
 X23.6065 Y51.8788
 X23.4526 Y51.6345
 X23.3226 Y51.3761
 X23.2176 Y51.1056
 X23.1387 Y50.8246
 X23.0874 Y50.5350
 X23.0647 Y50.2386
 X23.0719 Y49.9371
 X23.1101 Y49.6321
 X23.1704 Y49.3642
 X23.2531 Y49.1071
 X23.3569 Y48.8617
 X23.4808 Y48.6291
 X23.6235 Y48.4097
 X23.7835 Y48.2050
 X23.9599 Y48.0156
 X24.1513 Y47.8423
 X24.3564 Y47.6860
 X24.5739 Y47.5477
 X24.8028 Y47.4284
 X25.0418 Y47.3286
 X25.2894 Y47.2495
 X25.5447 Y47.1918
 X25.8063 Y47.1567
 X26.0728 Y47.1447
 X26.3322 Y47.1554
 X26.5967 Y47.1931
 X128.9490 Y65.2563
 X129.2490 Y65.3250
 X129.5360 Y65.4220
 X129.8070 Y65.5452
 X130.0610 Y65.6931
 X130.2980 Y65.8638
 X130.5160 Y66.0554
 X130.7140 Y66.2666
 X130.8900 Y66.4952
 X131.0440 Y66.7395
 X131.1740 Y66.9977
 X131.2790 Y67.2682
 X131.3580 Y67.5491
 X131.4100 Y67.8386
 X131.4320 Y68.1350
 X131.4250 Y68.4366
 X131.3870 Y68.7414
G0 Z25.0000
 X129.5030 Y95.1075
G1 Z-40.0000
 X127.9530 Y95.7005
 X126.3340 Y96.3095
 X124.6470 Y96.9305
 X122.8940 Y97.5595
 X121.0740 Y98.1955
 X119.1890 Y98.8335
 X117.2380 Y99.4715
 X115.2230 Y100.1055
 X113.1430 Y100.7325
 X111.0000 Y101.3505
 X108.7950 Y101.9545
 X106.5270 Y102.5435
 X104.1978 Y103.1125
 X101.8075 Y103.6595
 X99.3568 Y104.1805
 X96.8464 Y104.6735
 X96.5456 Y104.7125
 X96.2468 Y104.7205
 X95.9521 Y104.6995
 X95.6632 Y104.6505
 X95.3821 Y104.5745
 X95.1106 Y104.4725
 X94.8506 Y104.3465
 X94.6039 Y104.1965
 X94.3725 Y104.0235
 X94.1582 Y103.8295
 X93.9628 Y103.6145
 X93.7883 Y103.3815
 X93.6365 Y103.1295
 X93.5094 Y102.8605
 X93.4086 Y102.5765
 X93.3363 Y102.2775
 X93.2946 Y101.9725
 X93.2843 Y101.6705
 X93.3040 Y101.3735
 X93.3525 Y101.0825
 X93.4286 Y100.8005
 X93.5310 Y100.5285
 X93.6586 Y100.2685
 X93.8101 Y100.0225
 X93.9844 Y99.7915
 X94.1803 Y99.5785
 X94.3964 Y99.3835
 X94.6314 Y99.2105
 X94.8844 Y99.0595
 X95.1540 Y98.9335
 X95.4390 Y98.8325
 X95.7383 Y98.7605
 X97.9701 Y98.3235
 X100.1540 Y97.8625
 X102.2894 Y97.3795
 X104.3760 Y96.8775
 X106.4130 Y96.3585
 X108.4000 Y95.8255
 X110.3370 Y95.2805
 X112.2230 Y94.7255
 X114.0570 Y94.1625
 X115.8390 Y93.5955
 X117.5690 Y93.0265
 X119.2460 Y92.4565
 X120.8700 Y91.8885
 X122.4390 Y91.3255
 X123.9540 Y90.7705
 X125.4140 Y90.2235
 Y46.6639
 X29.0828 Y29.6618
 Y72.6907
 X69.1753 Y101.3265
 X70.5174 Y101.3095
 X71.8792 Y101.2775
 X73.2657 Y101.2295
 X74.6824 Y101.1655
 X76.1347 Y101.0865
 X77.6281 Y100.9905
 X79.1676 Y100.8775
 X80.7590 Y100.7475
 X81.0637 Y100.7365
 X81.3631 Y100.7565
 X81.6551 Y100.8055
 X81.9382 Y100.8825
 X82.2107 Y100.9865
 X82.4707 Y101.1165
 X82.7167 Y101.2695
 X82.9467 Y101.4455
 X83.1592 Y101.6425
 X83.3524 Y101.8595
 X83.5246 Y102.0945
 X83.6739 Y102.3455
 X83.7989 Y102.6135
 X83.8978 Y102.8945
 X83.9686 Y103.1885
 X84.0099 Y103.4945
 X84.0201 Y103.8015
 X83.9997 Y104.1035
 X83.9500 Y104.3965
 X83.8722 Y104.6805
 X83.7681 Y104.9535
 X83.6388 Y105.2135
 X83.4856 Y105.4585
 X83.3100 Y105.6885
 X83.1135 Y105.8995
 X82.8974 Y106.0915
 X82.6629 Y106.2625
 X82.4115 Y106.4115
 X82.1446 Y106.5355
 X81.8636 Y106.6335
 X81.5700 Y106.7035
 X81.2649 Y106.7455
 X79.4690 Y106.8905
 X77.7344 Y107.0145
 X76.0540 Y107.1195
 X74.4207 Y107.2045
 X72.8275 Y107.2695
 X71.2674 Y107.3165
 X69.7329 Y107.3435
 X68.2175 Y107.3525
 X67.7518 Y107.3165
 X67.2989 Y107.2105
 X66.8674 Y107.0355
 X66.4658 Y106.7935
 X24.3201 Y76.6885
 X24.0397 Y76.4609
 X23.7910 Y76.2038
 X23.5756 Y75.9209
 X23.3953 Y75.6154
 X23.2521 Y75.2910
 X23.1476 Y74.9511
 X23.0836 Y74.5991
 X23.0618 Y74.2384
 Y26.0732
 X23.0800 Y25.7436
 X23.1338 Y25.4202
 X23.2219 Y25.1057
 X23.3433 Y24.8031
 X23.4971 Y24.5150
 X23.6817 Y24.2443
 X23.8963 Y23.9939
 X24.1396 Y23.7664
 X24.3513 Y23.6049
 X24.5740 Y23.4634
 X24.8067 Y23.3427
 X25.0479 Y23.2428
 X25.2964 Y23.1645
 X25.5508 Y23.1079
 X25.8100 Y23.0738
 X26.0728 Y23.0624
 X26.3347 Y23.0750
 X26.5967 Y23.1103
 X128.9490 Y41.1725
 X129.2140 Y41.2316
 X129.4690 Y41.3128
 X129.7130 Y41.4152
 X129.9440 Y41.5375
 X130.1630 Y41.6785
 X130.3680 Y41.8371
 X130.5580 Y42.0123
 X130.7310 Y42.2027
 X130.8880 Y42.4071
 X131.0280 Y42.6245
 X131.1480 Y42.8536
 X131.2490 Y43.0934
 X131.3290 Y43.3427
 X131.3870 Y43.6000
 X131.4230 Y43.8646
 X131.4350 Y44.1352
 Y92.3015
 X131.4260 Y92.5335
 X131.4000 Y92.7615
 X131.3570 Y92.9855
 X131.2970 Y93.2035
 X131.2220 Y93.4155
 X131.1320 Y93.6205
 X131.0270 Y93.8185
 X130.9070 Y94.0065
 X130.7740 Y94.1865
 X130.6280 Y94.3545
 X130.4690 Y94.5125
 X130.2980 Y94.6585
 X130.1150 Y94.7915
 X129.9220 Y94.9115
 X129.7170 Y95.0175
 X129.5030 Y95.1075
G0 Z25.0000
 X129.7260 Y61.0534
G1 Z-40.0000
 X129.4420 Y61.1720
 X129.1530 Y61.2598
 X128.8600 Y61.3172
 X128.5670 Y61.3453
 X128.2750 Y61.3446
 X127.9850 Y61.3157
 X127.7010 Y61.2595
 X127.4240 Y61.1767
 X127.1560 Y61.0678
 X126.9000 Y60.9336
 X126.6570 Y60.7750
 X126.4280 Y60.5924
 X126.2180 Y60.3868
 X126.0260 Y60.1586
 X125.8560 Y59.9089
 X125.7090 Y59.6379
 X125.5910 Y59.3539
 X125.5030 Y59.0649
 X125.4450 Y58.7727
 X125.4170 Y58.4795
 X125.4180 Y58.1874
 X125.4470 Y57.8982
 X125.5040 Y57.6142
 X125.5870 Y57.3374
 X125.6960 Y57.0696
 X125.8310 Y56.8131
 X125.9900 Y56.5698
 X126.1730 Y56.3417
 X126.3790 Y56.1310
 X126.6080 Y55.9395
 X126.8590 Y55.7695
 X127.1310 Y55.6227
 X128.1060 Y55.1468
 X129.0520 Y54.6643
 X129.9710 Y54.1753
 X130.8600 Y53.6800
 X131.7220 Y53.1788
 X132.5550 Y52.6716
 X133.3580 Y52.1588
 X134.1330 Y51.6407
 X134.8780 Y51.1172
 X135.5940 Y50.5889
 X136.2800 Y50.0556
 X136.9360 Y49.5179
 X137.5620 Y48.9757
 X138.1580 Y48.4293
 X138.7230 Y47.8789
 X139.2580 Y47.3247
 X139.7610 Y46.7671
 X140.2340 Y46.2061
 X140.6750 Y45.6420
 X141.0850 Y45.0748
 X141.4630 Y44.5049
 X141.8100 Y43.9325
 X142.1240 Y43.3577
 X142.4060 Y42.7809
 X142.6560 Y42.2021
 X142.8730 Y41.6217
 X143.0570 Y41.0398
 X143.2080 Y40.4564
 X143.3250 Y39.8721
 X143.4100 Y39.2870
 X143.4610 Y38.7010
 X143.4780 Y38.1147
 X143.4560 Y37.4281
 X143.3890 Y36.7450
 X143.2800 Y36.0657
 X143.1280 Y35.3904
 X142.9340 Y34.7196
 X142.6980 Y34.0531
 X142.4210 Y33.3913
 X142.1040 Y32.7345
 X141.7470 Y32.0829
 X141.3500 Y31.4367
 X140.9150 Y30.7961
 X140.4420 Y30.1616
 X139.9310 Y29.5329
 X139.3830 Y28.9107
 X138.7980 Y28.2952
 X138.1770 Y27.6864
 X137.5210 Y27.0846
 X136.8310 Y26.4902
 X136.1060 Y25.9031
 X135.3470 Y25.3239
 X134.5550 Y24.7527
 X133.7310 Y24.1896
 X132.8750 Y23.6349
 X131.9870 Y23.0889
 X131.0690 Y22.5520
 X130.1200 Y22.0241
 X129.1420 Y21.5054
 X128.1340 Y20.9964
 X127.0980 Y20.4974
 X126.0340 Y20.0082
 X124.9430 Y19.5295
 X123.8240 Y19.0611
 X122.6790 Y18.6038
 X121.5090 Y18.1571
 X120.3140 Y17.7218
 X119.0930 Y17.2979
 X117.8490 Y16.8859
 X116.5820 Y16.4856
 X115.2910 Y16.0975
 X113.9780 Y15.7218
 X112.6440 Y15.3586
 X111.2880 Y15.0084
 X109.9120 Y14.6711
 X108.5150 Y14.3472
 X107.1000 Y14.0370
 X105.6650 Y13.7403
 X104.2115 Y13.4578
 X102.7407 Y13.1893
 X101.2525 Y12.9356
 X99.7476 Y12.6963
 X98.2268 Y12.4721
 X96.6903 Y12.2629
 X95.1389 Y12.0693
 X93.5732 Y11.8913
 X91.9936 Y11.7291
 X90.4008 Y11.5829
 X88.7953 Y11.4531
 X87.1776 Y11.3399
 X85.5485 Y11.2434
 X83.9083 Y11.1639
 X82.2578 Y11.1018
 X80.5974 Y11.0571
 X78.9276 Y11.0300
 X77.2493 Y11.0210
 X75.5707 Y11.0300
 X73.9010 Y11.0571
 X72.2406 Y11.1018
 X70.5899 Y11.1639
 X68.9497 Y11.2434
 X67.3204 Y11.3399
 X65.7028 Y11.4531
 X64.0972 Y11.5829
 X62.5043 Y11.7291
 X60.9247 Y11.8913
 X59.3589 Y12.0693
 X57.8075 Y12.2629
 X56.2711 Y12.4721
 X54.7501 Y12.6963
 X53.2453 Y12.9356
 X51.7571 Y13.1893
 X50.2861 Y13.4578
 X48.8329 Y13.7403
 X47.3982 Y14.0370
 X45.9822 Y14.3472
 X44.5858 Y14.6711
 X43.2094 Y15.0084
 X41.8537 Y15.3586
 X40.5192 Y15.7218
 X39.2064 Y16.0975
 X37.9160 Y16.4856
 X36.6483 Y16.8859
 X35.4043 Y17.2979
 X34.1842 Y17.7218
 X32.9886 Y18.1571
 X31.8182 Y18.6038
 X30.6736 Y19.0611
 X29.5553 Y19.5295
 X28.4638 Y20.0082
 X27.3999 Y20.4974
 X26.3637 Y20.9964
 X25.3563 Y21.5054
 X24.3779 Y22.0241
 X23.4292 Y22.5520
 X22.5107 Y23.0889
 X21.6232 Y23.6349
 X20.7669 Y24.1896
 X19.9428 Y24.7527
 X19.1510 Y25.3239
 X18.3924 Y25.9031
 X17.6674 Y26.4902
 X16.9767 Y27.0846
 X16.3208 Y27.6864
 X15.7002 Y28.2952
 X15.1156 Y28.9107
 X14.5674 Y29.5329
 X14.0563 Y30.1616
 X13.5829 Y30.7961
 X13.1476 Y31.4367
 X12.7511 Y32.0829
 X12.3939 Y32.7345
 X12.0767 Y33.3913
 X11.7999 Y34.0531
 X11.5641 Y34.7196
 X11.3699 Y35.3904
 X11.2179 Y36.0657
 X11.1086 Y36.7450
 X11.0426 Y37.4281
 X11.0205 Y38.1147
 X11.0374 Y38.7010
 X11.0883 Y39.2870
 X11.1726 Y39.8721
 X11.2905 Y40.4564
 X11.4416 Y41.0398
 X11.6257 Y41.6217
 X11.8427 Y42.2023
 X12.0922 Y42.7810
 X12.3743 Y43.3579
 X12.6886 Y43.9327
 X13.0350 Y44.5052
 X13.4133 Y45.0752
 X13.8232 Y45.6424
 X14.2646 Y46.2067
 X14.7374 Y46.7678
 X15.2412 Y47.3257
 X15.7759 Y47.8800
 X16.3413 Y48.4304
 X16.9372 Y48.9771
 X17.5635 Y49.5195
 X18.2199 Y50.0575
 X18.9061 Y50.5911
 X19.6222 Y51.1198
 X20.3678 Y51.6435
 X21.1426 Y52.1621
 X21.9467 Y52.6752
 X22.7797 Y53.1828
 X23.6415 Y53.6845
 X24.5319 Y54.1803
 X25.4507 Y54.6698
 X26.3975 Y55.1529
 X27.3725 Y55.6293
 X27.6444 Y55.7761
 X27.8953 Y55.9461
 X28.1243 Y56.1375
 X28.3307 Y56.3484
 X28.5138 Y56.5763
 X28.6729 Y56.8195
 X28.8074 Y57.0760
 X28.9164 Y57.3436
 X28.9994 Y57.6206
 X29.0558 Y57.9045
 X29.0846 Y58.1936
 X29.0853 Y58.4859
 X29.0572 Y58.7791
 X28.9996 Y59.0714
 X28.9118 Y59.3607
 X28.7931 Y59.6450
 X28.6453 Y59.9168
 X28.4744 Y60.1675
 X28.2824 Y60.3963
 X28.0711 Y60.6025
 X27.8426 Y60.7854
 X27.5990 Y60.9443
 X27.3424 Y61.0788
 X27.0747 Y61.1875
 X26.7979 Y61.2704
 X26.5142 Y61.3264
 X26.2254 Y61.3550
 X25.9336 Y61.3553
 X25.6408 Y61.3267
 X25.3493 Y61.2685
 X25.0608 Y61.1800
 X24.7775 Y61.0603
 X23.5989 Y60.4831
 X22.4540 Y59.8941
 X21.3432 Y59.2935
 X20.2667 Y58.6817
 X19.2247 Y58.0589
 X18.2174 Y57.4254
 X17.2451 Y56.7816
 X16.3079 Y56.1277
 X15.4063 Y55.4639
 X14.5403 Y54.7904
 X13.7102 Y54.1078
 X12.9164 Y53.4160
 X12.1589 Y52.7156
 X11.4380 Y52.0068
 X10.7540 Y51.2896
 X10.1072 Y50.5646
 X9.4977 Y49.8320
 X8.9257 Y49.0921
 X8.3917 Y48.3450
 X7.8957 Y47.5911
 X7.4379 Y46.8307
 X7.0188 Y46.0641
 X6.6385 Y45.2914
 X6.2971 Y44.5131
 X5.9951 Y43.7293
 X5.7325 Y42.9406
 X5.5097 Y42.1467
 X5.3268 Y41.3484
 X5.1842 Y40.5457
 X5.0820 Y39.7391
 X5.0205 Y38.9286
 X5.0000 Y38.1147
 X5.0231 Y37.2474
 X5.0922 Y36.3860
 X5.2068 Y35.5311
 X5.3663 Y34.6829
 X5.5701 Y33.8416
 X5.8178 Y33.0073
 X6.1088 Y32.1802
 X6.4427 Y31.3609
 X6.8189 Y30.5492
 X7.2367 Y29.7457
 X7.6959 Y28.9504
 X8.1957 Y28.1638
 X8.7357 Y27.3859
 X9.3154 Y26.6170
 X9.9342 Y25.8574
 X10.5916 Y25.1072
 X11.2871 Y24.3670
 X12.0201 Y23.6366
 X12.7902 Y22.9164
 X13.5967 Y22.2067
 X14.4393 Y21.5077
 X15.3173 Y20.8196
 X16.2303 Y20.1428
 X17.1776 Y19.4774
 X18.1588 Y18.8236
 X19.1733 Y18.1818
 X20.2207 Y17.5521
 X21.3004 Y16.9349
 X22.4119 Y16.3302
 X23.5546 Y15.7385
 X24.7281 Y15.1597
 X25.9317 Y14.5945
 X27.1650 Y14.0428
 X28.4275 Y13.5050
 X29.7185 Y12.9813
 X31.0376 Y12.4717
 X32.3844 Y11.9768
 X33.7582 Y11.4968
 X35.1586 Y11.0317
 X36.5849 Y10.5820
 X38.0367 Y10.1478
 X39.5135 Y9.7293
 X41.0146 Y9.3268
 X42.5396 Y8.9407
 X44.0881 Y8.5710
 X45.6593 Y8.2179
 X47.2529 Y7.8820
 X48.8682 Y7.5632
 X50.5049 Y7.2618
 X52.1622 Y6.9782
 X53.8399 Y6.7125
 X55.5372 Y6.4650
 X57.2536 Y6.2359
 X58.9886 Y6.0254
 X60.7418 Y5.8339
 X62.5126 Y5.6614
 X64.3006 Y5.5084
 X66.1049 Y5.3750
 X67.9254 Y5.2616
 X69.7613 Y5.1679
 X71.6121 Y5.0949
 X73.4775 Y5.0424
 X75.3567 Y5.0107
 X77.2493 Y5.0000
 X79.1418 Y5.0107
 X81.0208 Y5.0424
 X82.8861 Y5.0949
 X84.7369 Y5.1679
 X86.5728 Y5.2616
 X88.3932 Y5.3750
 X90.1975 Y5.5084
 X91.9854 Y5.6614
 X93.7561 Y5.8339
 X95.5093 Y6.0254
 X97.2443 Y6.2359
 X98.9608 Y6.4650
 X100.6581 Y6.7125
 X102.3356 Y6.9782
 X103.9929 Y7.2618
 X105.6300 Y7.5632
 X107.2450 Y7.8820
 X108.8380 Y8.2179
 X110.4100 Y8.5710
 X111.9580 Y8.9407
 X113.4830 Y9.3268
 X114.9840 Y9.7293
 X116.4610 Y10.1478
 X117.9130 Y10.5820
 X119.3390 Y11.0317
 X120.7400 Y11.4968
 X122.1130 Y11.9768
 X123.4600 Y12.4717
 X124.7790 Y12.9813
 X126.0700 Y13.5050
 X127.3330 Y14.0428
 X128.5660 Y14.5945
 X129.7700 Y15.1597
 X130.9430 Y15.7385
 X132.0860 Y16.3302
 X133.1970 Y16.9349
 X134.2770 Y17.5521
 X135.3250 Y18.1818
 X136.3390 Y18.8236
 X137.3200 Y19.4774
 X138.2680 Y20.1428
 X139.1810 Y20.8196
 X140.0590 Y21.5077
 X140.9010 Y22.2067
 X141.7080 Y22.9164
 X142.4780 Y23.6366
 X143.2110 Y24.3670
 X143.9070 Y25.1072
 X144.5640 Y25.8574
 X145.1830 Y26.6170
 X145.7630 Y27.3859
 X146.3030 Y28.1638
 X146.8030 Y28.9504
 X147.2610 Y29.7457
 X147.6790 Y30.5492
 X148.0560 Y31.3609
 X148.3890 Y32.1802
 X148.6810 Y33.0073
 X148.9280 Y33.8416
 X149.1320 Y34.6829
 X149.2920 Y35.5311
 X149.4060 Y36.3860
 X149.4750 Y37.2474
 X149.4990 Y38.1147
 X149.4780 Y38.9286
 X149.4170 Y39.7391
 X149.3140 Y40.5457
 X149.1720 Y41.3484
 X148.9890 Y42.1467
 X148.7670 Y42.9404
 X148.5030 Y43.7293
 X148.2010 Y44.5129
 X147.8600 Y45.2913
 X147.4790 Y46.0638
 X147.0610 Y46.8304
 X146.6030 Y47.5907
 X146.1070 Y48.3445
 X145.5740 Y49.0914
 X145.0010 Y49.8313
 X144.3920 Y50.5638
 X143.7450 Y51.2886
 X143.0610 Y52.0054
 X142.3410 Y52.7142
 X141.5830 Y53.4143
 X140.7900 Y54.1057
 X139.9600 Y54.7882
 X139.0940 Y55.4611
 X138.1930 Y56.1246
 X137.2560 Y56.7782
 X136.2840 Y57.4217
 X135.2770 Y58.0546
 X134.2350 Y58.6770
 X133.1590 Y59.2882
 X132.0490 Y59.8882
 X130.9040 Y60.4767
 X129.7260 Y61.0534
G0 Z25.0000
 X109.1770 Y43.4667
G1 Z-40.0000
 X108.8770 Y43.5411
 X108.5770 Y43.5841
 X108.2800 Y43.5966
 X107.9850 Y43.5796
 X107.6970 Y43.5343
 X107.4160 Y43.4616
 X107.1440 Y43.3625
 X106.8840 Y43.2382
 X106.6360 Y43.0896
 X106.4040 Y42.9178
 X106.1880 Y42.7238
 X105.9910 Y42.5085
 X105.8140 Y42.2731
 X105.6600 Y42.0185
 X105.5300 Y41.7459
 X105.4260 Y41.4561
 X105.3520 Y41.1564
 X105.3090 Y40.8567
 X105.2960 Y40.5588
 X105.3130 Y40.2646
 X105.3580 Y39.9760
 X105.4310 Y39.6950
 X105.5300 Y39.4232
 X105.6540 Y39.1628
 X105.8030 Y38.9153
 X105.9750 Y38.6827
 X106.1690 Y38.4670
 X106.3840 Y38.2699
 X106.6200 Y38.0932
 X106.8740 Y37.9391
 X107.1470 Y37.8091
 X107.4360 Y37.7050
 X108.1180 Y37.4922
 X108.7460 Y37.2832
 X109.3250 Y37.0784
 X109.8550 Y36.8784
 X110.3390 Y36.6839
 X110.7780 Y36.4954
 X111.1750 Y36.3136
 X111.5320 Y36.1391
 X111.8510 Y35.9722
 X112.1340 Y35.8139
 X112.3820 Y35.6646
 X112.5980 Y35.5249
 X112.7840 Y35.3952
 X112.9410 Y35.2764
 X113.0730 Y35.1689
 X113.1800 Y35.0734
 X112.9380 Y34.8528
 X112.6350 Y34.6253
 X112.2690 Y34.3914
 X111.8430 Y34.1524
 X111.3570 Y33.9091
 X110.8100 Y33.6624
 X110.2040 Y33.4131
 X109.5390 Y33.1624
 X108.8160 Y32.9110
 X108.0340 Y32.6599
 X107.1960 Y32.4100
 X106.3000 Y32.1622
 X105.3480 Y31.9177
 X104.3406 Y31.6771
 X103.2776 Y31.4413
 X102.1600 Y31.2114
 X100.9879 Y30.9884
 X99.7622 Y30.7729
 X98.4832 Y30.5661
 X97.1515 Y30.3689
 X95.7676 Y30.1821
 X94.3322 Y30.0068
 X92.8456 Y29.8438
 X91.3082 Y29.6939
 X89.7208 Y29.5582
 X88.0837 Y29.4377
 X86.3976 Y29.3331
 X84.6631 Y29.2454
 X82.8804 Y29.1757
 X81.0501 Y29.1247
 X79.1729 Y29.0935
 X77.2493 Y29.0828
 X76.1451 Y29.0867
 X75.0446 Y29.0978
 X73.9483 Y29.1164
 X72.8571 Y29.1422
 X71.7715 Y29.1752
 X70.6922 Y29.2153
 X69.6200 Y29.2625
 X68.5554 Y29.3167
 X67.4993 Y29.3778
 X66.4521 Y29.4457
 X65.4146 Y29.5203
 X64.3875 Y29.6016
 X63.3714 Y29.6893
 X62.3671 Y29.7836
 X61.3751 Y29.8845
 X60.3963 Y29.9916
 X59.4311 Y30.1049
 X58.4804 Y30.2243
 X57.5447 Y30.3500
 X56.6249 Y30.4817
 X55.7214 Y30.6193
 X54.8350 Y30.7628
 X53.9665 Y30.9121
 X53.1164 Y31.0671
 X52.2854 Y31.2277
 X51.4742 Y31.3938
 X50.6835 Y31.5654
 X49.9139 Y31.7425
 X49.1661 Y31.9249
 X48.4410 Y32.1124
 X47.7389 Y32.3052
 X47.0607 Y32.5031
 X46.7628 Y32.5773
 X46.4646 Y32.6200
 X46.1676 Y32.6324
 X45.8743 Y32.6153
 X45.5860 Y32.5700
 X45.3050 Y32.4974
 X45.0331 Y32.3984
 X44.7721 Y32.2741
 X44.5240 Y32.1256
 X44.2907 Y31.9538
 X44.0742 Y31.7599
 X43.8764 Y31.5447
 X43.6990 Y31.3093
 X43.5442 Y31.0549
 X43.4138 Y30.7823
 X43.3096 Y30.4925
 X43.2354 Y30.1928
 X43.1926 Y29.8928
 X43.1803 Y29.5946
 X43.1972 Y29.3002
 X43.2426 Y29.0113
 X43.3153 Y28.7299
 X43.4143 Y28.4578
 X43.5386 Y28.1970
 X43.6872 Y27.9493
 X43.8592 Y27.7166
 X44.0532 Y27.5009
 X44.2685 Y27.3038
 X44.5040 Y27.1275
 X44.7586 Y26.9738
 X45.0315 Y26.8445
 X45.3214 Y26.7414
 X46.0596 Y26.5253
 X46.8200 Y26.3150
 X47.6021 Y26.1107
 X48.4051 Y25.9124
 X49.2289 Y25.7202
 X50.0725 Y25.5341
 X50.9357 Y25.3542
 X51.8176 Y25.1806
 X52.7182 Y25.0134
 X53.6364 Y24.8525
 X54.5719 Y24.6982
 X55.5243 Y24.5503
 X56.4928 Y24.4091
 X57.4769 Y24.2745
 X58.4763 Y24.1466
 X59.4900 Y24.0254
 X60.5178 Y23.9113
 X61.5592 Y23.8039
 X62.6135 Y23.7035
 X63.6801 Y23.6102
 X64.7587 Y23.5239
 X65.8485 Y23.4449
 X66.9492 Y23.3731
 X68.0599 Y23.3085
 X69.1804 Y23.2513
 X70.3100 Y23.2016
 X71.4483 Y23.1593
 X72.5946 Y23.1246
 X73.7483 Y23.0974
 X74.9090 Y23.0779
 X76.0761 Y23.0663
 X77.2493 Y23.0624
 X77.4756 Y23.0627
 X77.7493 Y23.0636
 X78.0690 Y23.0657
 X78.4329 Y23.0691
 X78.8393 Y23.0738
 X79.2867 Y23.0803
 X79.7733 Y23.0889
 X80.2978 Y23.0997
 X80.8582 Y23.1131
 X81.4529 Y23.1292
 X82.0806 Y23.1482
 X82.7392 Y23.1707
 X83.4275 Y23.1966
 X84.1436 Y23.2263
 X84.8860 Y23.2600
 X85.6528 Y23.2979
 X86.4428 Y23.3404
 X87.2540 Y23.3878
 X88.0850 Y23.4402
 X88.9340 Y23.4978
 X89.7996 Y23.5610
 X90.6799 Y23.6300
 X91.5733 Y23.7050
 X92.4783 Y23.7863
 X93.3932 Y23.8742
 X94.3165 Y23.9689
 X95.2463 Y24.0707
 X96.1811 Y24.1797
 X97.1193 Y24.2963
 X98.0593 Y24.4207
 X98.9994 Y24.5532
 X99.9381 Y24.6941
 X100.8733 Y24.8435
 X101.8040 Y25.0017
 X102.7282 Y25.1691
 X103.6443 Y25.3456
 X104.5507 Y25.5318
 X105.4460 Y25.7278
 X106.3280 Y25.9339
 X107.1960 Y26.1504
 X108.0470 Y26.3775
 X108.8800 Y26.6154
 X109.6940 Y26.8643
 X110.4870 Y27.1247
 X111.2570 Y27.3967
 X112.0030 Y27.6804
 X112.7230 Y27.9763
 X113.4150 Y28.2846
 X114.0780 Y28.6054
 X114.7090 Y28.9392
 X115.3090 Y29.2860
 X115.8740 Y29.6463
 X116.4030 Y30.0200
 X116.8950 Y30.4078
 X117.3480 Y30.8096
 X117.7600 Y31.2259
 X118.1290 Y31.6567
 X118.4550 Y32.1024
 X118.7350 Y32.5632
 X118.9680 Y33.0395
 X119.1520 Y33.5313
 X119.2850 Y34.0392
 X119.3660 Y34.5631
 X119.3940 Y35.1034
 X119.3720 Y35.5897
 X119.3070 Y36.0591
 X119.2020 Y36.5117
 X119.0580 Y36.9475
 X118.8800 Y37.3671
 X118.6680 Y37.7706
 X118.4250 Y38.1584
 X118.1530 Y38.5304
 X117.8550 Y38.8873
 X117.5330 Y39.2291
 X117.1900 Y39.5561
 X116.8280 Y39.8686
 X116.4490 Y40.1670
 X116.0550 Y40.4511
 X115.6490 Y40.7216
 X115.2340 Y40.9786
 X114.8110 Y41.2224
 X114.3830 Y41.4532
 X113.9520 Y41.6713
 X113.5210 Y41.8770
 X113.0920 Y42.0703
 X112.6670 Y42.2518
 X112.2490 Y42.4217
 X111.8400 Y42.5800
 X111.4430 Y42.7273
 X111.0590 Y42.8635
 X110.6910 Y42.9892
 X110.3420 Y43.1045
 X110.0140 Y43.2096
 X109.7080 Y43.3049
 X109.4290 Y43.3904
 X109.1770 Y43.4667
G0 Z25.0000
G0 Z25.0000
M2 (end program)
