;PYCAM-META-DATA: Filename: /media/martoio/MARTOIO/ME43/std_lib/svg/001-seal.svg
;PYCAM-META-DATA: Timestamp: 2017-12-06 01:45:34.150831
;PYCAM-META-DATA: Version: 0.5.1
;Estimated machine time: 14 minutes
G40 (disable tool radius compensation)
G49 (disable tool length compensation)
G80 (cancel modal motion)
G54 (select coordinate system 1)
G90 (disable incremental moves)
G21 (metric)
G61 (exact path mode)
F400.00000
S1.00000
;PYCAM_TOOLPATH_SETTINGS: START
;[Bounds]
;maxz = 0.0
;maxx = 203.183449599
;maxy = 200.417095
;minx = -12.5621317817
;miny = -12.310645
;minz = 0.0
;
;[Tool]
;torus_radius = 0.25
;speed = 1.0
;shape = CylindricalCutter
;tool_radius = 0.5
;feedrate = 400.0
;
;[Process]
;engrave_offset = 0.0
;step_down = 1.0
;generator = EngraveCutter
;postprocessor = SimpleCutter
;overlap_percent = 0
;milling_style = conventional
;material_allowance = 0.0
;pocketing_type = none
;path_direction = x
;
;PYCAM_TOOLPATH_SETTINGS: END
T1 M6
G0 Z5.0000
 X95.3117 Y69.2112
G1 Z0.0000
 X94.2031 Y69.2245
 X93.1264 Y69.2637
 X92.0818 Y69.3280
 X91.0684 Y69.4163
 X90.0858 Y69.5285
 X89.1336 Y69.6632
 X88.2111 Y69.8197
 X87.3179 Y69.9976
 X86.4539 Y70.1958
 X85.6181 Y70.4133
 X84.8103 Y70.6498
 X84.0301 Y70.9043
 X83.2768 Y71.1758
 X82.5501 Y71.4637
 X81.8493 Y71.7673
 X81.1742 Y72.0856
 X80.5241 Y72.4178
 X79.8987 Y72.7633
 X79.2974 Y73.1213
 X78.7198 Y73.4907
 X78.1656 Y73.8712
 X77.6337 Y74.2616
 X77.1243 Y74.6612
 X76.6367 Y75.0692
 X76.1704 Y75.4848
 X75.7249 Y75.9074
 X75.2999 Y76.3361
 X74.8946 Y76.7700
 X74.5087 Y77.2083
 X74.1417 Y77.6503
 X73.7933 Y78.0953
 X73.4627 Y78.5423
 X73.7247 Y78.5891
 X74.7193 Y78.7692
 X75.7399 Y78.9558
 X76.6897 Y79.1308
 X77.6657 Y79.3089
 X78.6679 Y79.4883
 X79.6959 Y79.6675
 X80.7491 Y79.8442
 X81.8272 Y80.0173
 X82.9299 Y80.1847
 X84.0568 Y80.3446
 X85.2076 Y80.4953
 X86.3814 Y80.6351
 X87.5786 Y80.7619
 X88.7982 Y80.8746
 X90.0402 Y80.9710
 X91.3041 Y81.0495
 X92.5893 Y81.1081
 X93.8957 Y81.1453
 X95.3117 Y81.1607
 X96.7274 Y81.1468
 X98.1198 Y81.1062
 X99.4883 Y81.0415
 X100.8321 Y80.9543
 X102.1509 Y80.8472
 X103.4446 Y80.7220
 X104.7122 Y80.5812
 X105.9537 Y80.4267
 X107.1683 Y80.2607
 X108.3556 Y80.0853
 X109.5152 Y79.9027
 X110.6466 Y79.7152
 X111.7496 Y79.5250
 X112.8232 Y79.3336
 X113.8673 Y79.1438
 X114.8814 Y78.9576
 X116.0367 Y78.7450
 X117.1587 Y78.5423
 X116.8282 Y78.0953
 X116.4796 Y77.6503
 X116.1127 Y77.2083
 X115.7268 Y76.7700
 X115.3216 Y76.3361
 X114.8964 Y75.9074
 X114.4511 Y75.4848
 X113.9848 Y75.0692
 X113.4971 Y74.6612
 X112.9877 Y74.2616
 X112.4563 Y73.8712
 X111.9019 Y73.4907
 X111.3246 Y73.1213
 X110.7233 Y72.7633
 X110.0979 Y72.4178
 X109.4479 Y72.0856
 X108.7729 Y71.7673
 X108.0723 Y71.4637
 X107.3457 Y71.1758
 X106.5924 Y70.9043
 X105.8122 Y70.6498
 X105.0046 Y70.4133
 X104.1689 Y70.1958
 X103.3049 Y69.9976
 X102.4118 Y69.8197
 X101.4894 Y69.6632
 X100.5372 Y69.5285
 X99.5548 Y69.4163
 X98.5414 Y69.3280
 X97.4966 Y69.2637
 X96.4202 Y69.2245
 X95.3117 Y69.2112
G0 Z5.0000
 X131.9188 Y88.7727
G1 Z0.0000
 X131.8351 Y88.4279
 X130.9251 Y88.5467
 X130.0576 Y88.6512
 X129.2337 Y88.7427
 X128.4571 Y88.8220
 X127.7282 Y88.8897
 X127.0496 Y88.9470
 X126.4227 Y88.9947
 X125.8496 Y89.0337
 X125.3318 Y89.0648
 X124.8714 Y89.0891
 X124.4704 Y89.1071
 X124.1304 Y89.1200
 X123.8533 Y89.1286
 X123.6411 Y89.1339
 X123.4956 Y89.1368
 X123.4183 Y89.1380
 X123.3993
 X123.1303 Y89.1244
 X122.8692 Y89.0847
 X122.6167 Y89.0201
 X122.3747 Y88.9320
 X122.1443 Y88.8214
 X121.9268 Y88.6901
 X121.7236 Y88.5391
 X121.5358 Y88.3695
 X121.3649 Y88.1830
 X121.2124 Y87.9807
 X121.0794 Y87.7641
 X120.9671 Y87.5342
 X120.8772 Y87.2925
 X120.8107 Y87.0402
 X120.7689 Y86.7788
 X120.7536 Y86.5093
 X120.7652 Y86.2387
 X120.8036 Y85.9758
 X120.8669 Y85.7218
 X120.9542 Y85.4782
 X121.0642 Y85.2463
 X121.1952 Y85.0273
 X121.3461 Y84.8227
 X121.5157 Y84.6337
 X121.7023 Y84.4618
 X121.9051 Y84.3081
 X122.1224 Y84.1743
 X122.3532 Y84.0612
 X122.5957 Y83.9706
 X122.8488 Y83.9036
 X123.1116 Y83.8618
 X123.3822 Y83.8463
 X123.4193 Y83.8456
 X123.4996 Y83.8437
 X123.6219 Y83.8406
 X123.7857 Y83.8356
 X123.9897 Y83.8281
 X124.2331 Y83.8181
 X124.5147 Y83.8047
 X124.8336 Y83.7878
 X125.1892 Y83.7668
 X125.5801 Y83.7415
 X126.0056 Y83.7114
 X126.4647 Y83.6758
 X126.9562 Y83.6345
 X127.4794 Y83.5873
 X128.0332 Y83.5333
 X128.6169 Y83.4723
 X128.1661 Y83.2879
 X127.6809 Y83.1399
 X127.1602 Y83.0268
 X126.6018 Y82.9472
 X126.0044 Y82.8996
 X125.3661 Y82.8825
 X124.6854 Y82.8945
 X123.9604 Y82.9338
 X123.1898 Y82.9994
 X122.3716 Y83.0896
 X121.5042 Y83.2026
 X120.5861 Y83.3375
 X119.6153 Y83.4925
 X118.5906 Y83.6661
 X117.5098 Y83.8567
 X116.3716 Y84.0633
 X115.8393 Y84.1616
 X114.7849 Y84.3553
 X113.6992 Y84.5527
 X112.5822 Y84.7516
 X111.4339 Y84.9494
 X110.2547 Y85.1442
 X109.0451 Y85.3340
 X107.8049 Y85.5160
 X106.5346 Y85.6884
 X105.2343 Y85.8490
 X103.9042 Y85.9953
 X102.5446 Y86.1251
 X101.1556 Y86.2364
 X99.7377 Y86.3268
 X98.2908 Y86.3942
 X96.8156 Y86.4362
 X95.3117 Y86.4507
 X93.6468 Y86.4321
 X92.0179 Y86.3799
 X90.7751 Y86.3188
 X89.5537 Y86.2406
 X88.3539 Y86.1470
 X87.1756 Y86.0392
 X86.0192 Y85.9187
 X84.8848 Y85.7871
 X83.7724 Y85.6456
 X82.6823 Y85.4956
 X81.6148 Y85.3385
 X80.5697 Y85.1760
 X79.5474 Y85.0092
 X78.5479 Y84.8396
 X77.5718 Y84.6686
 X76.6184 Y84.4977
 X75.6886 Y84.3282
 X74.7822 Y84.1616
 X74.2309 Y84.0597
 X73.0928 Y83.8532
 X72.0121 Y83.6626
 X70.9874 Y83.4891
 X70.0169 Y83.3343
 X69.0991 Y83.1998
 X68.2321 Y83.0870
 X67.4142 Y82.9972
 X66.6439 Y82.9321
 X65.9196 Y82.8932
 X65.2393 Y82.8820
 X64.6017 Y82.8998
 X64.0047 Y82.9481
 X63.4471 Y83.0288
 X62.9268 Y83.1428
 X62.4424 Y83.2919
 X61.9923 Y83.4776
 X62.5826 Y83.5382
 X63.1428 Y83.5918
 X63.6716 Y83.6387
 X64.1683 Y83.6795
 X64.6314 Y83.7146
 X65.0604 Y83.7442
 X65.4542 Y83.7691
 X65.8116 Y83.7896
 X66.1314 Y83.8058
 X66.4131 Y83.8187
 X66.6554 Y83.8284
 X66.8573 Y83.8353
 X67.0179 Y83.8401
 X67.1361 Y83.8428
 X67.2108 Y83.8441
 X67.2411 Y83.8445
 X67.5113 Y83.8603
 X67.7737 Y83.9026
 X68.0267 Y83.9696
 X68.2689 Y84.0606
 X68.4996 Y84.1736
 X68.7167 Y84.3078
 X68.9193 Y84.4614
 X69.1059 Y84.6334
 X69.2754 Y84.8226
 X69.4263 Y85.0272
 X69.5573 Y85.2463
 X69.6671 Y85.4782
 X69.7544 Y85.7218
 X69.8178 Y85.9758
 X69.8562 Y86.2387
 X69.8679 Y86.5093
 X69.8524 Y86.7788
 X69.8108 Y87.0401
 X69.7443 Y87.2923
 X69.6542 Y87.5338
 X69.5421 Y87.7637
 X69.4089 Y87.9802
 X69.2563 Y88.1822
 X69.0857 Y88.3686
 X68.8979 Y88.5379
 X68.6946 Y88.6888
 X68.4772 Y88.8201
 X68.2466 Y88.9306
 X68.0046 Y89.0186
 X67.7523 Y89.0831
 X67.4911 Y89.1227
 X67.2221 Y89.1361
 X67.2032
 X67.1259 Y89.1353
 X66.9803 Y89.1328
 X66.7679 Y89.1276
 X66.4908 Y89.1191
 X66.1509 Y89.1062
 X65.7497 Y89.0879
 X65.2894 Y89.0638
 X64.7718 Y89.0328
 X64.1986 Y88.9938
 X63.5716 Y88.9462
 X62.8929 Y88.8888
 X62.1643 Y88.8211
 X61.3874 Y88.7422
 X60.5643 Y88.6508
 X59.6968 Y88.5463
 X58.7867 Y88.4279
 X58.7022 Y88.7727
 X58.5496 Y89.5041
 X58.4277 Y90.2453
 X58.3362 Y90.9951
 X58.2749 Y91.7524
 X59.1912 Y91.7312
 X60.0649 Y91.7067
 X60.8939 Y91.6797
 X61.6763 Y91.6505
 X62.4096 Y91.6200
 X63.0921 Y91.5885
 X63.7214 Y91.5569
 X64.2956 Y91.5258
 X64.8126 Y91.4959
 X65.2702 Y91.4678
 X65.6664 Y91.4419
 X65.9991 Y91.4191
 X66.2662 Y91.4000
 X66.4657 Y91.3848
 X66.5953 Y91.3748
 X66.6533 Y91.3701
 X66.9241 Y91.3594
 X67.1892 Y91.3763
 X67.4473 Y91.4191
 X67.6973 Y91.4865
 X67.9374 Y91.5776
 X68.1662 Y91.6907
 X68.3823 Y91.8251
 X68.5843 Y91.9793
 X68.7707 Y92.1521
 X68.9402 Y92.3422
 X69.0911 Y92.5484
 X69.2221 Y92.7696
 X69.3317 Y93.0043
 X69.4187 Y93.2516
 X69.4813 Y93.5098
 X69.5183 Y93.7782
 X69.5278 Y94.0489
 X69.5104 Y94.3141
 X69.4674 Y94.5723
 X69.3996 Y94.8220
 X69.3086 Y95.0619
 X69.1952 Y95.2906
 X69.0609 Y95.5066
 X68.9071 Y95.7084
 X68.7344 Y95.8946
 X68.5447 Y96.0638
 X68.3388 Y96.2146
 X68.1179 Y96.3455
 X67.8836 Y96.4549
 X67.6366 Y96.5418
 X67.3783 Y96.6043
 X67.1102 Y96.6411
 X66.9916 Y96.6513
 X66.8107 Y96.6665
 X66.5687 Y96.6853
 X66.2673 Y96.7081
 X65.9086 Y96.7338
 X65.4938 Y96.7619
 X65.0251 Y96.7919
 X64.5037 Y96.8236
 X63.9317 Y96.8561
 X63.3104 Y96.8887
 X62.6419 Y96.9213
 X61.9274 Y96.9530
 X61.1692 Y96.9833
 X60.3684 Y97.0119
 X59.5273 Y97.0382
 X58.6469 Y97.0612
 X58.8783 Y98.1114
 X59.1613 Y99.1597
 X59.4951 Y100.2044
 X59.8786 Y101.2438
 X60.5643 Y101.0527
 X61.2118 Y100.8666
 X61.8209 Y100.6866
 X62.3903 Y100.5134
 X62.9197 Y100.3486
 X63.4081 Y100.1923
 X63.8549 Y100.0458
 X64.2596 Y99.9102
 X64.6212 Y99.7861
 X64.9389 Y99.6746
 X65.2126 Y99.5767
 X65.4408 Y99.4933
 X65.6233 Y99.4253
 X65.7593 Y99.3737
 X65.8479 Y99.3392
 X65.8886 Y99.3231
 X66.3827 Y99.1777
 X66.8808 Y99.1303
 X67.2693 Y99.1592
 X67.6464 Y99.2438
 X68.0064 Y99.3820
 X68.3429 Y99.5708
 X68.6501 Y99.8078
 X68.9216 Y100.0905
 X69.1516 Y100.4161
 X69.3339 Y100.7822
 X69.4229 Y101.0382
 X69.4846 Y101.2964
 X69.5196 Y101.5561
 X69.5283 Y101.8147
 X69.5121 Y102.0708
 X69.4712 Y102.3228
 X69.4067 Y102.5688
 X69.3189 Y102.8072
 X69.2089 Y103.0361
 X69.0774 Y103.2538
 X68.9251 Y103.4587
 X68.7527 Y103.6489
 X68.5608 Y103.8227
 X68.3504 Y103.9786
 X68.1219 Y104.1146
 X67.8764 Y104.2288
 X67.8033 Y104.2581
 X67.6919 Y104.3021
 X67.5428 Y104.3598
 X67.3564 Y104.4308
 X67.1334 Y104.5146
 X66.8741 Y104.6101
 X66.5789 Y104.7168
 X66.2483 Y104.8340
 X65.8831 Y104.9611
 X65.4832 Y105.0972
 X65.0497 Y105.2418
 X64.5827 Y105.3941
 X64.0827 Y105.5535
 X63.5504 Y105.7191
 X62.9862 Y105.8906
 X62.3903 Y106.0668
 X62.8803 Y106.7873
 X63.4179 Y107.5268
 X64.0051 Y108.2817
 X64.6438 Y109.0484
 X65.3358 Y109.8231
 X66.0831 Y110.6022
 X66.8874 Y111.3817
 X67.7506 Y112.1583
 X68.6743 Y112.9279
 X69.6609 Y113.6871
 X70.7122 Y114.4320
 X71.8296 Y115.1588
 X73.0153 Y115.8642
 X74.2712 Y116.5441
 X75.5991 Y117.1951
 X77.0006 Y117.8130
 X77.2969 Y117.1982
 X77.4054 Y116.9963
 X77.6313 Y116.5797
 X77.7742 Y116.3385
 X77.9947 Y115.9732
 X78.1551 Y115.7254
 X78.3876 Y115.3807
 X78.5594 Y115.1362
 X78.8096 Y114.8003
 X78.9868 Y114.5679
 X79.2696 Y114.2199
 X79.4384 Y114.0168
 X79.8171 Y113.5931
 X79.9138 Y113.4844
 X80.4098 Y112.9743
 X80.5804 Y112.8107
 X80.9332 Y112.4763
 X81.1491 Y112.2853
 X81.4827 Y111.9962
 X81.7156 Y111.8031
 X82.0546 Y111.5328
 X82.2977 Y111.3467
 X82.6544 Y111.0864
 X82.8969 Y110.9126
 X83.2898 Y110.6491
 X83.5138 Y110.5008
 X84.0496 Y110.1718
 X84.1493 Y110.1097
 X84.7988 Y109.7446
 X85.0139 Y109.6326
 X85.4723 Y109.3984
 X85.7376 Y109.2709
 X86.1613 Y109.0748
 X86.4491 Y108.9486
 X86.8728 Y108.7696
 X87.1656 Y108.6545
 X87.6064 Y108.4891
 X87.8939 Y108.3856
 X88.3818 Y108.2237
 X88.6331 Y108.1424
 X89.3242 Y107.9410
 X89.3858 Y107.9237
 X90.1492 Y107.7328
 X90.3969 Y107.6795
 X90.9258 Y107.5674
 X91.2273 Y107.5123
 X91.7181 Y107.4295
 X92.0388 Y107.3813
 X92.5229 Y107.3157
 X92.8483 Y107.2794
 X93.3497 Y107.2313
 X93.6629 Y107.2054
 X94.2142 Y107.1746
 X94.4831 Y107.1609
 X95.3098 Y107.1455
 X96.1367 Y107.1609
 X96.4053 Y107.1746
 X96.9564 Y107.2054
 X97.2701 Y107.2313
 X97.7714 Y107.2794
 X98.0951 Y107.3157
 X98.5827 Y107.3813
 X98.9011 Y107.4295
 X99.3942 Y107.5141
 X99.6917 Y107.5674
 X100.2294 Y107.6808
 X100.4688 Y107.7328
 X101.2371 Y107.9237
 X101.2749 Y107.9361
 X101.9897 Y108.1424
 X102.2291 Y108.2201
 X102.7304 Y108.3873
 X103.0044 Y108.4856
 X103.4608 Y108.6558
 X103.7398 Y108.7678
 X104.1791 Y108.9522
 X104.4531 Y109.0712
 X104.8957 Y109.2762
 X105.1439 Y109.3950
 X105.6294 Y109.6450
 X105.8172 Y109.7409
 X106.4769 Y110.1132
 X106.5149 Y110.1375
 X107.1126 Y110.5043
 X107.3056 Y110.6317
 X107.7312 Y110.9174
 X107.9516 Y111.0746
 X108.3322 Y111.3536
 X108.5544 Y111.5239
 X108.9178 Y111.8137
 X109.1299 Y111.9873
 X109.4916 Y112.3027
 X109.6794 Y112.4697
 X110.0736 Y112.8419
 X110.2046 Y112.9677
 X110.7131 Y113.4893
 X110.7492 Y113.5307
 X111.1902 Y114.0251
 X111.3277 Y114.1922
 X111.6412 Y114.5781
 X111.7982 Y114.7813
 X112.0704 Y115.1500
 X112.2251 Y115.3669
 X112.4769 Y115.7427
 X112.6179 Y115.9632
 X112.8611 Y116.3626
 X112.9831 Y116.5713
 X113.2398 Y117.0432
 X113.3192 Y117.1896
 X113.6187 Y117.8130
 X115.0202 Y117.1951
 X116.3482 Y116.5441
 X117.6041 Y115.8642
 X118.7898 Y115.1588
 X119.9073 Y114.4320
 X120.9584 Y113.6871
 X121.9452 Y112.9279
 X122.8692 Y112.1583
 X123.7323 Y111.3817
 X124.5366 Y110.6022
 X125.2837 Y109.8231
 X125.9758 Y109.0484
 X126.6144 Y108.2817
 X127.2018 Y107.5268
 X127.7394 Y106.7873
 X128.2292 Y106.0668
 X127.6334 Y105.8906
 X127.0692 Y105.7191
 X126.5368 Y105.5535
 X126.0371 Y105.3941
 X125.5701 Y105.2418
 X125.1366 Y105.0972
 X124.7368 Y104.9611
 X124.3716 Y104.8340
 X124.0412 Y104.7168
 X123.7461 Y104.6101
 X123.4868 Y104.5146
 X123.2639 Y104.4308
 X123.0777 Y104.3598
 X122.9289 Y104.3021
 X122.8178 Y104.2581
 X122.7451 Y104.2288
 X122.4993 Y104.1146
 X122.2711 Y103.9786
 X122.0607 Y103.8231
 X121.8688 Y103.6492
 X121.6966 Y103.4592
 X121.5443 Y103.2545
 X121.4129 Y103.0370
 X121.3031 Y102.8083
 X121.2153 Y102.5703
 X121.1509 Y102.3244
 X121.1099 Y102.0728
 X121.0937 Y101.8168
 X121.1024 Y101.5587
 X121.1372 Y101.2995
 X121.1987 Y101.0413
 X121.2876 Y100.7857
 X121.4697 Y100.4188
 X121.6996 Y100.0924
 X121.9711 Y99.8093
 X122.2781 Y99.5718
 X122.6147 Y99.3826
 X122.9747 Y99.2442
 X123.3519 Y99.1593
 X123.7407 Y99.1303
 X124.2383 Y99.1777
 X124.7312 Y99.3231
 X124.7693 Y99.3384
 X124.8559 Y99.3722
 X124.9902 Y99.4232
 X125.1714 Y99.4907
 X125.3987 Y99.5739
 X125.6714 Y99.6717
 X125.9889 Y99.7830
 X126.3504 Y99.9071
 X126.7553 Y100.0428
 X127.2027 Y100.1896
 X127.6919 Y100.3460
 X128.2224 Y100.5114
 X128.7931 Y100.6851
 X129.4037 Y100.8655
 X130.0538 Y101.0521
 X130.7413 Y101.2438
 X131.1251 Y100.2044
 X131.4588 Y99.1597
 X131.7413 Y98.1114
 X131.9738 Y97.0612
 X131.0938 Y97.0383
 X130.2526 Y97.0125
 X129.4518 Y96.9839
 X128.6934 Y96.9536
 X127.9792 Y96.9219
 X127.3107 Y96.8896
 X126.6894 Y96.8567
 X126.1174 Y96.8242
 X125.5962 Y96.7927
 X125.1274 Y96.7624
 X124.7127 Y96.7342
 X124.3541 Y96.7083
 X124.0528 Y96.6856
 X123.8108 Y96.6665
 X123.6297 Y96.6513
 X123.5113 Y96.6411
 X123.2428 Y96.6043
 X122.9843 Y96.5418
 X122.7372 Y96.4549
 X122.5024 Y96.3455
 X122.2817 Y96.2146
 X122.0758 Y96.0638
 X121.8859 Y95.8946
 X121.7136 Y95.7084
 X121.5598 Y95.5066
 X121.4256 Y95.2906
 X121.3124 Y95.0619
 X121.2214 Y94.8220
 X121.1539 Y94.5723
 X121.1108 Y94.3141
 X121.0934 Y94.0489
 X121.1032 Y93.7782
 X121.1399 Y93.5101
 X121.2027 Y93.2517
 X121.2894 Y93.0044
 X121.3991 Y92.7697
 X121.5301 Y92.5487
 X121.6809 Y92.3427
 X121.8502 Y92.1526
 X122.0367 Y91.9800
 X122.2388 Y91.8258
 X122.4548 Y91.6915
 X122.6836 Y91.5782
 X122.9237 Y91.4873
 X123.1737 Y91.4197
 X123.4318 Y91.3768
 X123.6971 Y91.3598
 X123.9678 Y91.3701
 X124.0258 Y91.3751
 X124.1554 Y91.3853
 X124.3548 Y91.4005
 X124.6219 Y91.4197
 X124.9546 Y91.4427
 X125.3508 Y91.4686
 X125.8082 Y91.4967
 X126.3251 Y91.5266
 X126.8992 Y91.5576
 X127.5283 Y91.5891
 X128.2108 Y91.6203
 X128.9442 Y91.6507
 X129.7264 Y91.6798
 X130.5551 Y91.7069
 X131.4301 Y91.7312
 X132.3463 Y91.7524
 X132.2851 Y90.9951
 X132.1938 Y90.2453
 X132.0713 Y89.5041
 X131.9188 Y88.7727
G0 Z5.0000
 X144.7213 Y85.7857
G1 Z0.0000
 X143.7113 Y86.0601
 X142.7151 Y86.3187
 X141.7338 Y86.5623
 X140.7676 Y86.7913
 X139.8176 Y87.0062
 X138.8851 Y87.2078
 X137.9701 Y87.3961
 X137.0726 Y87.5720
 X137.0751 Y87.5791
 X137.2876 Y88.6132
 X137.4513 Y89.6603
 X137.5688 Y90.7191
 X137.6401 Y91.7873
 X139.4988 Y91.7633
 X141.4288 Y91.7178
 X143.4201 Y91.6482
 X145.4638 Y91.5518
 X147.5526 Y91.4262
 X149.6751 Y91.2682
 X151.8238 Y91.0753
 X153.9901 Y90.8449
 X154.1151 Y88.7732
 X154.2876 Y86.6612
 X154.5063 Y84.5101
 X154.7701 Y82.3201
 X152.3501 Y83.2861
 X149.8676 Y84.1864
 X147.3251 Y85.0201
 X144.7213 Y85.7857
G0 Z5.0000
 X153.6563 Y104.8387
G1 Z0.0000
 X153.7426 Y102.7348
 X153.8076 Y100.5936
 X153.8513 Y98.4147
 X153.8713 Y96.1984
 X151.6613 Y96.4260
 X149.4763 Y96.6159
 X147.3226 Y96.7706
 X145.2101 Y96.8928
 X143.1451 Y96.9852
 X141.1376 Y97.0508
 X139.1951 Y97.0920
 X137.3263 Y97.1116
 X137.0751 Y98.4678
 X136.7551 Y99.8217
 X136.3663 Y101.1701
 X135.9101 Y102.5101
 X136.8176 Y102.7032
 X137.7538 Y102.8938
 X138.7213 Y103.0812
 X139.7151 Y103.2643
 X140.7388 Y103.4427
 X141.7888 Y103.6151
 X142.8651 Y103.7808
 X143.9688 Y103.9392
 X145.0976 Y104.0893
 X146.2501 Y104.2303
 X147.4276 Y104.3614
 X148.6288 Y104.4817
 X149.8526 Y104.5904
 X151.0988 Y104.6868
 X152.3663 Y104.7697
 X153.6563 Y104.8387
G0 Z5.0000
 X130.1076 Y131.2589
G1 Z0.0000
 X130.0976 Y130.8777
 X130.0688 Y130.5015
 X130.0213 Y130.1314
 X129.9564 Y129.7664
 X129.8737 Y129.4090
 X129.7741 Y129.0577
 X129.6576 Y128.7129
 X129.5249 Y128.3767
 X129.3766 Y128.0486
 X129.2131 Y127.7293
 X129.0348 Y127.4191
 X128.8421 Y127.1186
 X128.6357 Y126.8281
 X128.4157 Y126.5484
 X128.1829 Y126.2794
 X127.9377 Y126.0222
 X127.6804 Y125.7771
 X127.4117 Y125.5441
 X127.1318 Y125.3241
 X126.8416 Y125.1177
 X126.5411 Y124.9248
 X126.2308 Y124.7464
 X125.9116 Y124.5828
 X125.5832 Y124.4344
 X125.2469 Y124.3018
 X124.9027 Y124.1853
 X124.5513 Y124.0856
 X124.1929 Y124.0027
 X123.8282 Y123.9376
 X123.4573 Y123.8905
 X123.0812 Y123.8618
 X122.7001 Y123.8522
 X122.3188 Y123.8618
 X121.9426 Y123.8905
 X121.5719 Y123.9376
 X121.2072 Y124.0027
 X120.8488 Y124.0856
 X120.4973 Y124.1853
 X120.1532 Y124.3018
 X119.8167 Y124.4344
 X119.4886 Y124.5828
 X119.1692 Y124.7464
 X118.8591 Y124.9248
 X118.5586 Y125.1177
 X118.2681 Y125.3241
 X117.9884 Y125.5441
 X117.7196 Y125.7771
 X117.4624 Y126.0222
 X117.2171 Y126.2794
 X116.9843 Y126.5484
 X116.7644 Y126.8281
 X116.5579 Y127.1186
 X116.3652 Y127.4191
 X116.1868 Y127.7293
 X116.0233 Y128.0486
 X115.8749 Y128.3767
 X115.7424 Y128.7129
 X115.6259 Y129.0577
 X115.5261 Y129.4090
 X115.4434 Y129.7664
 X115.3783 Y130.1314
 X115.3312 Y130.5015
 X115.3027 Y130.8777
 X115.2929 Y131.2589
 X115.3027 Y131.6402
 X115.3312 Y132.0165
 X115.3783 Y132.3877
 X115.4434 Y132.7527
 X115.5261 Y133.1102
 X115.6259 Y133.4615
 X115.7424 Y133.8064
 X115.8749 Y134.1427
 X116.0233 Y134.4702
 X116.1868 Y134.7902
 X116.3652 Y135.1002
 X116.5579 Y135.4002
 X116.7644 Y135.6914
 X116.9843 Y135.9715
 X117.2171 Y136.2402
 X117.4624 Y136.4964
 X117.7196 Y136.7427
 X117.9884 Y136.9752
 X118.2681 Y137.1952
 X118.5586 Y137.4015
 X118.8591 Y137.5940
 X119.1692 Y137.7727
 X119.4886 Y137.9364
 X119.8167 Y138.0840
 X120.1532 Y138.2165
 X120.4973 Y138.3327
 X120.8488 Y138.4327
 X121.2072 Y138.5152
 X121.5719 Y138.5815
 X121.9426 Y138.6277
 X122.3188 Y138.6565
 X122.7001 Y138.6664
 X123.0812 Y138.6565
 X123.4573 Y138.6277
 X123.8282 Y138.5815
 X124.1929 Y138.5152
 X124.5513 Y138.4327
 X124.9027 Y138.3327
 X125.2469 Y138.2165
 X125.5832 Y138.0840
 X125.9116 Y137.9364
 X126.2308 Y137.7727
 X126.5411 Y137.5940
 X126.8416 Y137.4015
 X127.1318 Y137.1952
 X127.4117 Y136.9752
 X127.6804 Y136.7427
 X127.9377 Y136.4964
 X128.1829 Y136.2402
 X128.4157 Y135.9715
 X128.6357 Y135.6914
 X128.8421 Y135.4002
 X129.0348 Y135.1002
 X129.2131 Y134.7902
 X129.3766 Y134.4702
 X129.5249 Y134.1427
 X129.6576 Y133.8064
 X129.7741 Y133.4615
 X129.8737 Y133.1102
 X129.9564 Y132.7527
 X130.0213 Y132.3877
 X130.0688 Y132.0165
 X130.0976 Y131.6402
 X130.1076 Y131.2589
G0 Z5.0000
 X95.3098 Y121.2047
G1 Z0.0000
 X97.0732 Y121.1788
 X98.8084 Y121.1005
 X100.5147 Y120.9697
 X102.1912 Y120.7866
 X103.8368 Y120.5512
 X105.4509 Y120.2638
 X107.0326 Y119.9246
 X108.5804 Y119.5336
 X108.5598 Y119.4927
 X108.1756 Y118.8141
 X108.0982 Y118.6932
 X107.6464 Y118.0335
 X107.6037 Y117.9767
 X107.1041 Y117.3602
 X107.0437 Y117.2896
 X106.4841 Y116.6987
 X106.3787 Y116.5951
 X105.7711 Y116.0438
 X105.6794 Y115.9681
 X105.0166 Y115.4481
 X104.9906 Y115.4273
 X104.2721 Y114.9397
 X104.1501 Y114.8624
 X103.4127 Y114.4316
 X103.2799 Y114.3611
 X102.4809 Y113.9633
 X102.4429 Y113.9462
 X101.6228 Y113.6013
 X101.5024 Y113.5532
 X100.6584 Y113.2586
 X100.4948 Y113.2088
 X99.6161 Y112.9606
 X99.5009 Y112.9351
 X98.6153 Y112.7436
 X98.5259 Y112.7246
 X97.5924 Y112.5834
 X97.4129 Y112.5611
 X96.4758 Y112.4750
 X96.3104 Y112.4663
 X95.3117 Y112.4371
 X94.3124 Y112.4663
 X94.1469 Y112.4750
 X93.2099 Y112.5611
 X93.0292 Y112.5834
 X92.0973 Y112.7266
 X92.0062 Y112.7436
 X91.1242 Y112.9351
 X91.0051 Y112.9623
 X90.1303 Y113.2071
 X89.9631 Y113.2603
 X89.1227 Y113.5532
 X88.9952 Y113.6031
 X88.1854 Y113.9445
 X88.1388 Y113.9647
 X87.3462 Y114.3593
 X87.2071 Y114.4335
 X86.4749 Y114.8607
 X86.3457 Y114.9432
 X85.6341 Y115.4257
 X85.5978 Y115.4530
 X84.9471 Y115.9632
 X84.8487 Y116.0456
 X84.2477 Y116.5919
 X84.1357 Y116.7022
 X83.5791 Y117.2861
 X83.5121 Y117.3651
 X83.0232 Y117.9701
 X82.9728 Y118.0352
 X82.5252 Y118.6897
 X82.4459 Y118.8155
 X82.0634 Y119.4892
 X82.0411 Y119.5336
 X83.5892 Y119.9246
 X85.1707 Y120.2637
 X86.7848 Y120.5507
 X88.4306 Y120.7859
 X90.1071 Y120.9688
 X91.8131 Y121.0998
 X93.5477 Y121.1785
 X95.3098 Y121.2047
G0 Z5.0000
 X75.3263 Y131.2589
G1 Z0.0000
 X75.3166 Y130.8777
 X75.2881 Y130.5015
 X75.2411 Y130.1314
 X75.1759 Y129.7664
 X75.0931 Y129.4090
 X74.9933 Y129.0577
 X74.8769 Y128.7129
 X74.7443 Y128.3767
 X74.5961 Y128.0486
 X74.4326 Y127.7293
 X74.2542 Y127.4191
 X74.0616 Y127.1186
 X73.8551 Y126.8281
 X73.6353 Y126.5484
 X73.4024 Y126.2794
 X73.1573 Y126.0222
 X72.9001 Y125.7771
 X72.6314 Y125.5441
 X72.3516 Y125.3241
 X72.0613 Y125.1177
 X71.7609 Y124.9248
 X71.4509 Y124.7464
 X71.1317 Y124.5828
 X70.8036 Y124.4344
 X70.4672 Y124.3018
 X70.1233 Y124.1853
 X69.7719 Y124.0856
 X69.4136 Y124.0027
 X69.0491 Y123.9376
 X68.6786 Y123.8905
 X68.3024 Y123.8618
 X67.9214 Y123.8522
 X67.5402 Y123.8618
 X67.1639 Y123.8905
 X66.7933 Y123.9376
 X66.4286 Y124.0027
 X66.0702 Y124.0856
 X65.7187 Y124.1853
 X65.3746 Y124.3018
 X65.0381 Y124.4344
 X64.7099 Y124.5828
 X64.3906 Y124.7464
 X64.0804 Y124.9248
 X63.7799 Y125.1177
 X63.4894 Y125.3241
 X63.2098 Y125.5441
 X62.9408 Y125.7771
 X62.6837 Y126.0222
 X62.4384 Y126.2794
 X62.2056 Y126.5484
 X61.9858 Y126.8281
 X61.7792 Y127.1186
 X61.5867 Y127.4191
 X61.4084 Y127.7293
 X61.2448 Y128.0486
 X61.0964 Y128.3767
 X60.9639 Y128.7129
 X60.8474 Y129.0577
 X60.7477 Y129.4090
 X60.6649 Y129.7664
 X60.5999 Y130.1314
 X60.5527 Y130.5015
 X60.5242 Y130.8777
 X60.5144 Y131.2589
 X60.5242 Y131.6402
 X60.5527 Y132.0165
 X60.5999 Y132.3877
 X60.6649 Y132.7527
 X60.7477 Y133.1102
 X60.8474 Y133.4615
 X60.9639 Y133.8064
 X61.0964 Y134.1427
 X61.2448 Y134.4702
 X61.4084 Y134.7902
 X61.5867 Y135.1002
 X61.7792 Y135.4002
 X61.9858 Y135.6914
 X62.2056 Y135.9715
 X62.4384 Y136.2402
 X62.6837 Y136.4964
 X62.9408 Y136.7427
 X63.2098 Y136.9752
 X63.4894 Y137.1952
 X63.7799 Y137.4015
 X64.0804 Y137.5940
 X64.3906 Y137.7727
 X64.7099 Y137.9364
 X65.0381 Y138.0840
 X65.3746 Y138.2165
 X65.7187 Y138.3327
 X66.0702 Y138.4327
 X66.4286 Y138.5152
 X66.7933 Y138.5815
 X67.1639 Y138.6277
 X67.5402 Y138.6565
 X67.9214 Y138.6664
 X68.3024 Y138.6565
 X68.6786 Y138.6277
 X69.0491 Y138.5815
 X69.4136 Y138.5152
 X69.7719 Y138.4327
 X70.1233 Y138.3327
 X70.4672 Y138.2165
 X70.8036 Y138.0840
 X71.1317 Y137.9364
 X71.4509 Y137.7727
 X71.7609 Y137.5940
 X72.0613 Y137.4015
 X72.3516 Y137.1952
 X72.6314 Y136.9752
 X72.9001 Y136.7427
 X73.1573 Y136.4964
 X73.4024 Y136.2402
 X73.6353 Y135.9715
 X73.8551 Y135.6914
 X74.0616 Y135.4002
 X74.2542 Y135.1002
 X74.4326 Y134.7902
 X74.5961 Y134.4702
 X74.7443 Y134.1427
 X74.8769 Y133.8064
 X74.9933 Y133.4615
 X75.0931 Y133.1102
 X75.1759 Y132.7527
 X75.2411 Y132.3877
 X75.2881 Y132.0165
 X75.3166 Y131.6402
 X75.3263 Y131.2589
G0 Z5.0000
 X53.2954 Y97.1098
G1 Z0.0000
 X51.4259 Y97.0902
 X49.4836 Y97.0491
 X47.4763 Y96.9837
 X45.4124 Y96.8913
 X43.2997 Y96.7692
 X41.1466 Y96.6148
 X38.9613 Y96.4254
 X36.7518 Y96.1984
 X36.7718 Y98.4194
 X36.8136 Y100.5995
 X36.8774 Y102.7391
 X36.9634 Y104.8387
 X38.2528 Y104.7695
 X39.5211 Y104.6861
 X40.7676 Y104.5897
 X41.9917 Y104.4807
 X43.1929 Y104.3602
 X44.3706 Y104.2291
 X45.5238 Y104.0879
 X46.6524 Y103.9380
 X47.7554 Y103.7797
 X48.8323 Y103.6138
 X49.8826 Y103.4416
 X50.9054 Y103.2633
 X51.9002 Y103.0803
 X52.8666 Y102.8932
 X53.8037 Y102.7030
 X54.7108 Y102.5101
 X54.2551 Y101.1701
 X53.8667 Y99.8215
 X53.5468 Y98.4672
 X53.2954 Y97.1098
G0 Z5.0000
 X45.9019 Y85.7857
G1 Z0.0000
 X43.2977 Y85.0201
 X40.7539 Y84.1864
 X38.2719 Y83.2861
 X35.8527 Y82.3201
 X36.1157 Y84.5101
 X36.3336 Y86.6615
 X36.5054 Y88.7739
 X36.6309 Y90.8467
 X38.7971 Y91.0766
 X40.9461 Y91.2688
 X43.0692 Y91.4266
 X45.1572 Y91.5522
 X47.2017 Y91.6484
 X49.1933 Y91.7178
 X51.1233 Y91.7633
 X52.9831 Y91.7873
 X53.0546 Y90.7191
 X53.1712 Y89.6606
 X53.3348 Y88.6137
 X53.5468 Y87.5804
 X53.5502 Y87.5720
 X52.6536 Y87.3961
 X51.7381 Y87.2078
 X50.8048 Y87.0062
 X49.8546 Y86.7913
 X48.8883 Y86.5623
 X47.9068 Y86.3187
 X46.9111 Y86.0601
 X45.9019 Y85.7857
G0 Z5.0000
 X185.3176 Y8.8792
G1 Z0.0000
 X185.2951 Y8.9211
 X185.2501 Y9.0086
 X185.1826 Y9.1413
 X185.0901 Y9.3182
 X184.9776 Y9.5385
 X184.8438 Y9.8017
 X184.6888 Y10.1069
 X184.5151 Y10.4533
 X184.3213 Y10.8404
 X184.1076 Y11.2673
 X183.8788 Y11.7332
 X183.6301 Y12.2375
 X183.3651 Y12.7793
 X183.0838 Y13.3580
 X182.7863 Y13.9728
 X182.4738 Y14.6229
 X182.1476 Y15.3077
 X181.8051 Y16.0263
 X181.4538 Y16.7781
 X181.0863 Y17.5622
 X180.7088 Y18.3779
 X180.3176 Y19.2247
 X179.9188 Y20.1016
 X179.5076 Y21.0080
 X179.0863 Y21.9428
 X178.6576 Y22.9058
 X178.2201 Y23.8959
 X177.7751 Y24.9125
 X177.3226 Y25.9548
 X176.8638 Y27.0220
 X176.3988 Y28.1135
 X175.9288 Y29.2285
 X175.4551 Y30.3663
 X174.9763 Y31.5258
 X174.4938 Y32.7069
 X174.0088 Y33.9083
 X173.5226 Y35.1297
 X173.0338 Y36.3699
 X172.5438 Y37.6285
 X172.0538 Y38.9047
 X171.5638 Y40.1977
 X171.0751 Y41.5067
 X170.5863 Y42.8311
 X170.1013 Y44.1700
 X169.6188 Y45.5227
 X169.1388 Y46.8887
 X168.6638 Y48.2668
 X168.1926 Y49.6566
 X167.7263 Y51.0575
 X167.2663 Y52.4682
 X166.8126 Y53.8885
 X166.3663 Y55.3173
 X165.9263 Y56.7541
 X165.4963 Y58.1981
 X165.0738 Y59.6484
 X164.6601 Y61.1044
 X164.2576 Y62.5656
 X163.8663 Y64.0307
 X163.4851 Y65.4993
 X163.1163 Y66.9706
 X162.7601 Y68.4438
 X162.4163 Y69.9186
 X162.0863 Y71.3936
 X161.7713 Y72.8682
 X162.7963 Y72.2351
 X163.8138 Y71.5781
 X164.8226 Y70.8968
 X165.8226 Y70.1907
 X166.8126 Y69.4594
 X167.7901 Y68.7024
 X168.7563 Y67.9194
 X169.7088 Y67.1098
 X170.6463 Y66.2734
 X171.5688 Y65.4095
 X172.4751 Y64.5177
 X173.3638 Y63.5976
 X174.2338 Y62.6487
 X175.0851 Y61.6708
 X175.9151 Y60.6632
 X176.7238 Y59.6255
 X176.9313 Y59.3829
 X177.1613 Y59.1715
 X177.4101 Y58.9915
 X177.6751 Y58.8432
 X177.9526 Y58.7271
 X178.2413 Y58.6436
 X178.5351 Y58.5932
 X178.8351 Y58.5763
 X179.2513 Y58.6092
 X179.6613 Y58.7087
 X180.0576 Y58.8759
 X180.4288 Y59.1121
 X180.6376 Y59.2866
 X180.8226 Y59.4773
 X180.9863 Y59.6826
 X181.1251 Y59.9003
 X181.2426 Y60.1290
 X181.3363 Y60.3663
 X181.4076 Y60.6107
 X181.4551 Y60.8602
 X181.4776 Y61.1132
 X181.4763 Y61.3673
 X181.4501 Y61.6212
 X181.3988 Y61.8727
 X181.3226 Y62.1201
 X181.2226 Y62.3616
 X181.0951 Y62.5951
 X180.9426 Y62.8188
 X179.9588 Y64.0785
 X178.9326 Y65.3116
 X177.8651 Y66.5180
 X176.7588 Y67.6976
 X175.6113 Y68.8496
 X174.4263 Y69.9741
 X173.2013 Y71.0708
 X171.9388 Y72.1392
 X170.6376 Y73.1790
 X169.3001 Y74.1897
 X167.9251 Y75.1714
 X166.5151 Y76.1237
 X165.0676 Y77.0462
 X163.5863 Y77.9383
 X162.0701 Y78.8001
 X160.5201 Y79.6311
 X160.1263 Y82.2819
 X159.7951 Y84.9138
 X159.5288 Y87.5222
 X159.3338 Y90.1025
 X160.9151 Y89.8281
 X162.4863 Y89.5275
 X164.0426 Y89.1996
 X165.5813 Y88.8433
 X167.0976 Y88.4578
 X168.5888 Y88.0418
 X170.0513 Y87.5941
 X171.4813 Y87.1138
 X172.8751 Y86.6001
 X174.2301 Y86.0517
 X175.5426 Y85.4673
 X176.8076 Y84.8461
 X178.0238 Y84.1871
 X179.1863 Y83.4892
 X180.2913 Y82.7512
 X181.3351 Y81.9722
 X181.7151 Y81.7220
 X182.1213 Y81.5446
 X182.5438 Y81.4388
 X182.9738 Y81.4038
 X183.2651 Y81.4200
 X183.5551 Y81.4682
 X183.8363 Y81.5481
 X184.1113 Y81.6593
 X184.3713 Y81.8016
 X184.6176 Y81.9741
 X184.8451 Y82.1771
 X185.0526 Y82.4097
 X185.2101 Y82.6303
 X185.3426 Y82.8615
 X185.4476 Y83.1009
 X185.5276 Y83.3468
 X185.5838 Y83.5976
 X185.6151 Y83.8508
 X185.6213 Y84.1052
 X185.6038 Y84.3586
 X185.5626 Y84.6092
 X185.4963 Y84.8550
 X185.4076 Y85.0942
 X185.2951 Y85.3251
 X185.1601 Y85.5458
 X185.0001 Y85.7541
 X184.8201 Y85.9486
 X184.6151 Y86.1271
 X183.3788 Y87.0494
 X182.0751 Y87.9203
 X180.7063 Y88.7409
 X179.2813 Y89.5132
 X177.8013 Y90.2379
 X176.2713 Y90.9169
 X174.6963 Y91.5516
 X173.0788 Y92.1431
 X171.4238 Y92.6929
 X169.7376 Y93.2026
 X168.0213 Y93.6735
 X166.2813 Y94.1067
 X164.5226 Y94.5041
 X162.7463 Y94.8670
 X160.9601 Y95.1964
 X159.1663 Y95.4941
 X159.1513 Y97.9227
 X159.1101 Y100.3097
 X159.0413 Y102.6557
 X158.9476 Y104.9614
 X160.3051 Y104.9489
 X161.6788 Y104.9182
 X163.0701 Y104.8683
 X164.4763 Y104.7986
 X165.8963 Y104.7081
 X167.3313 Y104.5962
 X168.7801 Y104.4621
 X170.2426 Y104.3050
 X171.7163 Y104.1239
 X173.2038 Y103.9183
 X174.7013 Y103.6874
 X176.2101 Y103.4302
 X177.7288 Y103.1462
 X179.2576 Y102.8343
 X180.7938 Y102.4938
 X182.3401 Y102.1241
 X182.6063 Y102.0723
 X182.8701 Y102.0481
 X183.1301 Y102.0501
 X183.3888 Y102.0780
 X183.6388 Y102.1303
 X183.8838 Y102.2062
 X184.1176 Y102.3050
 X184.3401 Y102.4253
 X184.5526 Y102.5665
 X184.7488 Y102.7272
 X184.9301 Y102.9070
 X185.0938 Y103.1043
 X185.2401 Y103.3187
 X185.3626 Y103.5491
 X185.4651 Y103.7942
 X185.5438 Y104.0532
 X185.5951 Y104.3195
 X185.6201 Y104.5843
 X185.6176 Y104.8463
 X185.5901 Y105.1038
 X185.5388 Y105.3552
 X185.4613 Y105.5990
 X185.3626 Y105.8333
 X185.2426 Y106.0567
 X185.1026 Y106.2678
 X184.9413 Y106.4647
 X184.7601 Y106.6458
 X184.5626 Y106.8095
 X184.3488 Y106.9543
 X184.1176 Y107.0785
 X183.8713 Y107.1804
 X183.6126 Y107.2588
 X181.9513 Y107.6567
 X180.3001 Y108.0228
 X178.6601 Y108.3581
 X177.0313 Y108.6633
 X175.4151 Y108.9393
 X173.8126 Y109.1871
 X172.2226 Y109.4074
 X170.6463 Y109.6009
 X169.0863 Y109.7688
 X167.5401 Y109.9120
 X166.0101 Y110.0308
 X164.4963 Y110.1268
 X163.0001 Y110.2003
 X161.5213 Y110.2526
 X160.0601 Y110.2839
 X158.6188 Y110.2958
 X158.3513 Y113.3501
 X158.0313 Y116.3251
 X157.6576 Y119.2211
 X157.2301 Y122.0391
 X156.7501 Y124.7794
 X156.2151 Y127.4431
 X155.6276 Y130.0302
 X154.9851 Y132.5427
 X154.2888 Y134.9802
 X153.5376 Y137.3440
 X152.7326 Y139.6339
 X151.8726 Y141.8514
 X150.9588 Y143.9977
 X149.9888 Y146.0727
 X148.9651 Y148.0765
 X147.8851 Y150.0115
 X147.2251 Y151.1139
 X146.5463 Y152.1939
 X145.8476 Y153.2514
 X145.1288 Y154.2852
 X144.3913 Y155.2952
 X143.6338 Y156.2815
 X142.8563 Y157.2464
 X142.0601 Y158.1864
 X141.2451 Y159.1039
 X140.4101 Y159.9977
 X139.5563 Y160.8689
 X138.6826 Y161.7165
 X137.7901 Y162.5414
 X136.8788 Y163.3427
 X135.9476 Y164.1214
 X134.9976 Y164.8764
 X136.4938 Y165.8014
 X138.0288 Y166.7065
 X139.6013 Y167.5902
 X141.2101 Y168.4465
 X142.8551 Y169.2752
 X144.5351 Y170.0690
 X146.2476 Y170.8265
 X147.9938 Y171.5452
 X148.2413 Y171.6565
 X148.4701 Y171.7902
 X148.6826 Y171.9440
 X148.8751 Y172.1164
 X149.0488 Y172.3039
 X149.2038 Y172.5077
 X149.3363 Y172.7240
 X149.4488 Y172.9527
 X149.5376 Y173.1889
 X149.6051 Y173.4352
 X149.6476 Y173.6864
 X149.6663 Y173.9427
 X149.6588 Y174.2014
 X149.6263 Y174.4602
 X149.5676 Y174.7190
 X149.4801 Y174.9752
 X149.3688 Y175.2227
 X149.2351 Y175.4527
 X149.0813 Y175.6639
 X148.9088 Y175.8577
 X148.7213 Y176.0327
 X148.5176 Y176.1864
 X148.3013 Y176.3202
 X148.0726 Y176.4314
 X147.8351 Y176.5214
 X147.5901 Y176.5890
 X147.3388 Y176.6315
 X147.0826 Y176.6502
 X146.8238 Y176.6427
 X146.5638 Y176.6102
 X146.3051 Y176.5514
 X146.0488 Y176.4640
 X143.8901 Y175.5727
 X141.7801 Y174.6264
 X139.7226 Y173.6327
 X137.7176 Y172.5952
 X135.7676 Y171.5202
 X133.8726 Y170.4152
 X132.0351 Y169.2827
 X130.2551 Y168.1302
 X128.7277 Y169.0139
 X127.1613 Y169.8502
 X125.5563 Y170.6377
 X123.9126 Y171.3752
 X124.5719 Y171.9427
 X125.2426 Y172.4964
 X125.9241 Y173.0340
 X126.6158 Y173.5539
 X127.3178 Y174.0564
 X128.0292 Y174.5377
 X128.7499 Y174.9964
 X129.4796 Y175.4314
 X130.2176 Y175.8427
 X130.9638 Y176.2264
 X131.7176 Y176.5814
 X132.4776 Y176.9052
 X133.2463 Y177.1989
 X134.0201 Y177.4589
 X134.8001 Y177.6827
 X135.5863 Y177.8714
 X135.8476 Y177.9415
 X136.0963 Y178.0365
 X136.3301 Y178.1527
 X136.5501 Y178.2902
 X136.7526 Y178.4477
 X136.9376 Y178.6239
 X137.1051 Y178.8139
 X137.2526 Y179.0214
 X137.3813 Y179.2414
 X137.4876 Y179.4727
 X137.5713 Y179.7115
 X137.6313 Y179.9615
 X137.6676 Y180.2190
 X137.6776 Y180.4814
 X137.6626 Y180.7452
 X137.6188 Y181.0140
 X137.5488 Y181.2740
 X137.4538 Y181.5240
 X137.3376 Y181.7589
 X137.1988 Y181.9777
 X137.0413 Y182.1802
 X136.8663 Y182.3664
 X136.6738 Y182.5327
 X136.4676 Y182.6802
 X136.2476 Y182.8089
 X136.0163 Y182.9152
 X135.7751 Y182.9989
 X135.5263 Y183.0589
 X135.2701 Y183.0952
 X135.0088 Y183.1064
 X134.7438 Y183.0890
 X134.4776 Y183.0452
 X133.3413 Y182.7714
 X132.2201 Y182.4377
 X131.1138 Y182.0489
 X130.0226 Y181.6077
 X128.9474 Y181.1177
 X127.8888 Y180.5839
 X126.8473 Y180.0052
 X125.8238 Y179.3890
 X124.8189 Y178.7364
 X123.8332 Y178.0527
 X122.8674 Y177.3377
 X121.9219 Y176.5952
 X120.9978 Y175.8315
 X120.0956 Y175.0464
 X119.2157 Y174.2452
 X118.3591 Y173.4302
 X117.0662 Y173.8202
 X115.7537 Y174.1840
 X114.4214 Y174.5227
 X113.0693 Y174.8377
 X111.6974 Y175.1264
 X110.3059 Y175.3902
 X108.8947 Y175.6289
 X107.4638 Y175.8440
 X106.0133 Y176.0327
 X104.5431 Y176.1964
 X103.0533 Y176.3352
 X101.5439 Y176.4477
 X100.0152 Y176.5365
 X98.4667 Y176.6002
 X96.8991 Y176.6377
 X95.3117 Y176.6502
 X93.7238 Y176.6377
 X92.1556 Y176.6002
 X90.6072 Y176.5365
 X89.0782 Y176.4477
 X87.5688 Y176.3340
 X86.0792 Y176.1952
 X84.6093 Y176.0315
 X83.1589 Y175.8427
 X81.7283 Y175.6289
 X80.3174 Y175.3890
 X78.9263 Y175.1252
 X77.5549 Y174.8352
 X76.2032 Y174.5215
 X74.8714 Y174.1814
 X73.5594 Y173.8177
 X72.2673 Y173.4289
 X71.4103 Y174.2439
 X70.5301 Y175.0439
 X69.6274 Y175.8289
 X68.7031 Y176.5940
 X67.7573 Y177.3340
 X66.7914 Y178.0489
 X65.8053 Y178.7339
 X64.8002 Y179.3877
 X63.7764 Y180.0039
 X62.7348 Y180.5815
 X61.6759 Y181.1164
 X60.6006 Y181.6064
 X59.5091 Y182.0464
 X58.4023 Y182.4364
 X57.2809 Y182.7690
 X56.1457 Y183.0439
 X55.8789 Y183.0865
 X55.6139 Y183.1039
 X55.3524 Y183.0927
 X55.0964 Y183.0577
 X54.8469 Y182.9964
 X54.6058 Y182.9115
 X54.3747 Y182.8052
 X54.1551 Y182.6789
 X53.9484 Y182.5302
 X53.7568 Y182.3627
 X53.5813 Y182.1777
 X53.4237 Y181.9740
 X53.2854 Y181.7552
 X53.1684 Y181.5214
 X53.0741 Y181.2727
 X53.0039 Y181.0127
 X52.9604 Y180.7427
 X52.9447 Y180.4789
 X52.9553 Y180.2177
 X52.9914 Y179.9602
 X53.0518 Y179.7102
 X53.1358 Y179.4702
 X53.2421 Y179.2402
 X53.3697 Y179.0190
 X53.5178 Y178.8127
 X53.6849 Y178.6214
 X53.8706 Y178.4465
 X54.0734 Y178.2889
 X54.2924 Y178.1515
 X54.5267 Y178.0352
 X54.7751 Y177.9389
 X55.0367 Y177.8702
 X55.8214 Y177.6827
 X56.6006 Y177.4565
 X57.3738 Y177.1977
 X58.1407 Y176.9052
 X58.9008 Y176.5802
 X59.6537 Y176.2252
 X60.3992 Y175.8415
 X61.1366 Y175.4314
 X61.8657 Y174.9952
 X62.5859 Y174.5352
 X63.2971 Y174.0539
 X63.9988 Y173.5514
 X64.6906 Y173.0315
 X65.3718 Y172.4927
 X66.0424 Y171.9402
 X66.7018 Y171.3727
 X65.0631 Y170.6327
 X63.4639 Y169.8427
 X61.9033 Y169.0052
 X60.3799 Y168.1202
 X58.5991 Y169.2739
 X56.7598 Y170.4065
 X54.8636 Y171.5139
 X52.9117 Y172.5902
 X50.9053 Y173.6277
 X48.8459 Y174.6239
 X46.7349 Y175.5714
 X44.5738 Y176.4640
 X44.3171 Y176.5514
 X44.0581 Y176.6102
 X43.7983 Y176.6427
 X43.5397 Y176.6490
 X43.2836 Y176.6315
 X43.0321 Y176.5877
 X42.7867 Y176.5214
 X42.5492 Y176.4314
 X42.3214 Y176.3190
 X42.1049 Y176.1852
 X41.9014 Y176.0315
 X41.7129 Y175.8577
 X41.5407 Y175.6639
 X41.3868 Y175.4514
 X41.2531 Y175.2227
 X41.1408 Y174.9752
 X41.0541 Y174.7190
 X40.9947 Y174.4602
 X40.9621 Y174.2002
 X40.9554 Y173.9414
 X40.9741 Y173.6852
 X41.0171 Y173.4339
 X41.0839 Y173.1877
 X41.1737 Y172.9502
 X41.2857 Y172.7227
 X41.4192 Y172.5064
 X41.5734 Y172.3027
 X41.7477 Y172.1139
 X41.9411 Y171.9427
 X42.1528 Y171.7889
 X42.3826 Y171.6552
 X42.6291 Y171.5427
 X44.3747 Y170.8252
 X46.0877 Y170.0664
 X47.7676 Y169.2715
 X49.4131 Y168.4427
 X51.0232 Y167.5840
 X52.5971 Y166.6990
 X54.1339 Y165.7914
 X55.6326 Y164.8639
 X54.4277 Y163.9002
 X53.2536 Y162.8977
 X52.1103 Y161.8577
 X50.9979 Y160.7802
 X49.9167 Y159.6652
 X48.8666 Y158.5127
 X47.8474 Y157.3215
 X46.8594 Y156.0940
 X45.9028 Y154.8290
 X44.9774 Y153.5252
 X44.0834 Y152.1852
 X43.2209 Y150.8077
 X42.3898 Y149.3915
 X41.5903 Y147.9377
 X40.8227 Y146.4477
 X40.0866 Y144.9189
 X39.9846 Y144.6677
 X39.9102 Y144.4127
 X39.8624 Y144.1552
 X39.8403 Y143.8977
 X39.8438 Y143.6415
 X39.8718 Y143.3877
 X39.9241 Y143.1377
 X39.9993 Y142.8952
 X40.0978 Y142.6615
 X40.2179 Y142.4377
 X40.3598 Y142.2252
 X40.5224 Y142.0265
 X40.7053 Y141.8440
 X40.9076 Y141.6777
 X41.1289 Y141.5302
 X41.3683 Y141.4027
 X41.6193 Y141.3014
 X41.8743 Y141.2264
 X42.1318 Y141.1789
 X42.3898 Y141.1565
 X42.6464 Y141.1602
 X42.9002 Y141.1877
 X43.1492 Y141.2402
 X43.3917 Y141.3152
 X43.6258 Y141.4139
 X43.8499 Y141.5340
 X44.0621 Y141.6764
 X44.2607 Y141.8390
 X44.4439 Y142.0215
 X44.6102 Y142.2240
 X44.7573 Y142.4452
 X44.8837 Y142.6852
 X45.6059 Y144.1814
 X46.3594 Y145.6377
 X47.1439 Y147.0527
 X47.9599 Y148.4264
 X48.8072 Y149.7602
 X49.6859 Y151.0527
 X50.5966 Y152.3052
 X51.5388 Y153.5164
 X52.5127 Y154.6877
 X53.5184 Y155.8190
 X54.5563 Y156.9102
 X55.6263 Y157.9602
 X56.7282 Y158.9702
 X57.8626 Y159.9414
 X59.0292 Y160.8714
 X60.2283 Y161.7627
 X61.2372 Y161.0277
 X62.2211 Y160.2914
 X63.1797 Y159.5564
 X64.1124 Y158.8240
 X65.0188 Y158.0952
 X65.8986 Y157.3714
 X66.7511 Y156.6552
 X67.5761 Y155.9464
 X68.3732 Y155.2489
 X69.1416 Y154.5627
 X69.8813 Y153.8889
 X70.5916 Y153.2302
 X71.2721 Y152.5877
 X71.9223 Y151.9640
 X72.5419 Y151.3577
 X73.1306 Y150.7740
 X73.6876 Y150.2127
 X74.2127 Y149.6739
 X74.7054 Y149.1615
 X75.1653 Y148.6764
 X75.5919 Y148.2202
 X75.9848 Y147.7939
 X76.3434 Y147.3990
 X76.6676 Y147.0377
 X76.9568 Y146.7115
 X77.2104 Y146.4214
 X77.4283 Y146.1689
 X77.6098 Y145.9565
 X77.7546 Y145.7852
 X77.8621 Y145.6565
 X77.9321 Y145.5714
 X77.9638 Y145.5327
 X78.1707 Y145.3027
 X78.3979 Y145.1027
 X78.6428 Y144.9327
 X78.9023 Y144.7927
 X79.1736 Y144.6839
 X79.4537 Y144.6052
 X79.7398 Y144.5577
 X80.0292 Y144.5414
 X80.4647 Y144.5777
 X80.8914 Y144.6852
 X81.3006 Y144.8664
 X81.6829 Y145.1227
 X81.8853 Y145.3027
 X82.0652 Y145.4977
 X82.2223 Y145.7077
 X82.3562 Y145.9289
 X82.4669 Y146.1615
 X82.5542 Y146.4002
 X82.6179 Y146.6477
 X82.6577 Y146.8977
 X82.6733 Y147.1515
 X82.6648 Y147.4065
 X82.6318 Y147.6590
 X82.5742 Y147.9090
 X82.4916 Y148.1540
 X82.3839 Y148.3927
 X82.2509 Y148.6239
 X82.0926 Y148.8427
 X82.0384 Y148.9102
 X81.9502 Y149.0177
 X81.8286 Y149.1652
 X81.6733 Y149.3514
 X81.4853 Y149.5739
 X81.2647 Y149.8327
 X81.0116 Y150.1252
 X80.7264 Y150.4514
 X80.4096 Y150.8089
 X80.0613 Y151.1964
 X79.6821 Y151.6139
 X79.2718 Y152.0589
 X78.8313 Y152.5302
 X78.3607 Y153.0277
 X77.8602 Y153.5477
 X77.3301 Y154.0915
 X76.7709 Y154.6565
 X76.1828 Y155.2402
 X75.5662 Y155.8440
 X74.9212 Y156.4640
 X74.2487 Y157.1014
 X73.5482 Y157.7527
 X72.8206 Y158.4177
 X72.0661 Y159.0940
 X71.2846 Y159.7815
 X70.4772 Y160.4789
 X69.6434 Y161.1852
 X68.7841 Y161.8977
 X67.8993 Y162.6152
 X66.9897 Y163.3377
 X66.0551 Y164.0627
 X65.0962 Y164.7902
 X66.4636 Y165.4964
 X67.8638 Y166.1627
 X69.2979 Y166.7889
 X70.7671 Y167.3739
 X71.2631 Y166.8264
 X71.7477 Y166.2790
 X72.2209 Y165.7327
 X72.6821 Y165.1889
 X73.1313 Y164.6477
 X73.5679 Y164.1114
 X73.9921 Y163.5802
 X74.4031 Y163.0564
 X74.8009 Y162.5389
 X75.1853 Y162.0315
 X75.5559 Y161.5340
 X75.9124 Y161.0464
 X76.2546 Y160.5727
 X76.5822 Y160.1114
 X76.8948 Y159.6639
 X77.1924 Y159.2327
 X77.4746 Y158.8189
 X77.7411 Y158.4214
 X77.9914 Y158.0439
 X78.2256 Y157.6864
 X78.4431 Y157.3490
 X78.6439 Y157.0352
 X78.8277 Y156.7439
 X78.9939 Y156.4764
 X79.1429 Y156.2352
 X79.2737 Y156.0215
 X79.3863 Y155.8352
 X79.4804 Y155.6764
 X79.5559 Y155.5489
 X79.6124 Y155.4527
 X79.6496 Y155.3890
 X79.6673 Y155.3577
 X79.8679 Y155.0527
 X80.1028 Y154.7840
 X80.3671 Y154.5539
 X80.6564 Y154.3627
 X80.9664 Y154.2115
 X81.2923 Y154.1014
 X81.6296 Y154.0352
 X81.9741 Y154.0127
 X82.3049 Y154.0327
 X82.6343 Y154.0965
 X82.9581 Y154.2040
 X83.2727 Y154.3552
 X83.5013 Y154.5002
 X83.7102 Y154.6639
 X83.8987 Y154.8452
 X84.0666 Y155.0427
 X84.2131 Y155.2527
 X84.3379 Y155.4764
 X84.4402 Y155.7090
 X84.5198 Y155.9502
 X84.5763 Y156.1964
 X84.6086 Y156.4489
 X84.6169 Y156.7040
 X84.6001 Y156.9602
 X84.5581 Y157.2152
 X84.4902 Y157.4690
 X84.3961 Y157.7165
 X84.2749 Y157.9590
 X84.2442 Y158.0127
 X84.1978 Y158.0940
 X84.1361 Y158.2015
 X84.0586 Y158.3340
 X83.9658 Y158.4914
 X83.8582 Y158.6727
 X83.7354 Y158.8764
 X83.5982 Y159.1027
 X83.4461 Y159.3502
 X83.2798 Y159.6189
 X83.0991 Y159.9065
 X82.9041 Y160.2140
 X82.6954 Y160.5389
 X82.4728 Y160.8815
 X82.2366 Y161.2414
 X81.9868 Y161.6164
 X81.7238 Y162.0064
 X81.4478 Y162.4115
 X81.1586 Y162.8302
 X80.8567 Y163.2602
 X80.5421 Y163.7027
 X80.2149 Y164.1565
 X79.8758 Y164.6214
 X79.5241 Y165.0952
 X79.1604 Y165.5764
 X78.7852 Y166.0677
 X78.3979 Y166.5652
 X77.9993 Y167.0690
 X77.5893 Y167.5777
 X77.1681 Y168.0915
 X76.7361 Y168.6102
 X76.2929 Y169.1315
 X78.4559 Y169.6540
 X80.6799 Y170.1064
 X82.9647 Y170.4889
 X85.3107 Y170.8014
 X87.7179 Y171.0452
 X90.1872 Y171.2177
 X92.7183 Y171.3214
 X95.3117 Y171.3564
 X97.9071 Y171.3214
 X100.4394 Y171.2177
 X102.9091 Y171.0452
 X105.3166 Y170.8014
 X107.6622 Y170.4889
 X109.9464 Y170.1064
 X112.1696 Y169.6540
 X114.3321 Y169.1315
 X113.8889 Y168.6102
 X113.4567 Y168.0915
 X113.0354 Y167.5777
 X112.6256 Y167.0690
 X112.2268 Y166.5652
 X111.8397 Y166.0677
 X111.4642 Y165.5764
 X111.1006 Y165.0952
 X110.7488 Y164.6214
 X110.4094 Y164.1565
 X110.0823 Y163.7027
 X109.7676 Y163.2602
 X109.4656 Y162.8302
 X109.1764 Y162.4115
 X108.9002 Y162.0064
 X108.6372 Y161.6164
 X108.3874 Y161.2414
 X108.1511 Y160.8815
 X107.9283 Y160.5389
 X107.7196 Y160.2140
 X107.5246 Y159.9065
 X107.3438 Y159.6189
 X107.1773 Y159.3502
 X107.0251 Y159.1027
 X106.8877 Y158.8764
 X106.7649 Y158.6727
 X106.6572 Y158.4914
 X106.5644 Y158.3340
 X106.4871 Y158.2015
 X106.4249 Y158.0940
 X106.3786 Y158.0127
 X106.3478 Y157.9590
 X106.2268 Y157.7165
 X106.1326 Y157.4677
 X106.0647 Y157.2152
 X106.0227 Y156.9602
 X106.0059 Y156.7040
 X106.0142 Y156.4489
 X106.0468 Y156.1964
 X106.1031 Y155.9490
 X106.1827 Y155.7077
 X106.2852 Y155.4752
 X106.4099 Y155.2514
 X106.5564 Y155.0414
 X106.7243 Y154.8440
 X106.9131 Y154.6627
 X107.1219 Y154.4977
 X107.3506 Y154.3527
 X107.6649 Y154.2027
 X107.9888 Y154.0965
 X108.3181 Y154.0327
 X108.6493 Y154.0127
 X108.9934 Y154.0352
 X109.3309 Y154.1014
 X109.6567 Y154.2115
 X109.9666 Y154.3627
 X110.2559 Y154.5539
 X110.5202 Y154.7840
 X110.7549 Y155.0527
 X110.9556 Y155.3577
 X110.9712 Y155.3852
 X111.0067 Y155.4465
 X111.0616 Y155.5402
 X111.1354 Y155.6652
 X111.2282 Y155.8215
 X111.3394 Y156.0064
 X111.4692 Y156.2190
 X111.6169 Y156.4590
 X111.7822 Y156.7252
 X111.9652 Y157.0152
 X112.1652 Y157.3290
 X112.3822 Y157.6664
 X112.6158 Y158.0240
 X112.8658 Y158.4015
 X113.1318 Y158.7989
 X113.4139 Y159.2140
 X113.7113 Y159.6465
 X114.0242 Y160.0940
 X114.3518 Y160.5564
 X114.6943 Y161.0327
 X115.0513 Y161.5202
 X115.4223 Y162.0190
 X115.8073 Y162.5290
 X116.2059 Y163.0464
 X116.6179 Y163.5727
 X117.0431 Y164.1052
 X117.4808 Y164.6440
 X117.9313 Y165.1864
 X118.3938 Y165.7327
 X118.8684 Y166.2815
 X119.3549 Y166.8302
 X119.8527 Y167.3789
 X121.3238 Y166.7939
 X122.7608 Y166.1689
 X124.1642 Y165.5027
 X125.5336 Y164.7977
 X124.5743 Y164.0702
 X123.6397 Y163.3440
 X122.7294 Y162.6214
 X121.8446 Y161.9027
 X120.9849 Y161.1902
 X120.1509 Y160.4839
 X119.3431 Y159.7865
 X118.5616 Y159.0990
 X117.8067 Y158.4214
 X117.0787 Y157.7565
 X116.3781 Y157.1039
 X115.7049 Y156.4677
 X115.0598 Y155.8465
 X114.4429 Y155.2427
 X113.8546 Y154.6577
 X113.2952 Y154.0927
 X112.7648 Y153.5502
 X112.2642 Y153.0290
 X111.7933 Y152.5315
 X111.3524 Y152.0602
 X110.9423 Y151.6152
 X110.5626 Y151.1977
 X110.2143 Y150.8089
 X109.8971 Y150.4514
 X109.6118 Y150.1252
 X109.3586 Y149.8315
 X109.1379 Y149.5727
 X108.9497 Y149.3502
 X108.7946 Y149.1639
 X108.6727 Y149.0165
 X108.5844 Y148.9090
 X108.5303 Y148.8415
 X108.3716 Y148.6214
 X108.2384 Y148.3915
 X108.1306 Y148.1527
 X108.0479 Y147.9077
 X107.9903 Y147.6577
 X107.9573 Y147.4052
 X107.9488 Y147.1502
 X107.9647 Y146.8977
 X108.0044 Y146.6465
 X108.0683 Y146.4002
 X108.1556 Y146.1602
 X108.2664 Y145.9289
 X108.4006 Y145.7077
 X108.5577 Y145.4977
 X108.7377 Y145.3027
 X108.9403 Y145.1227
 X109.3223 Y144.8664
 X109.7314 Y144.6852
 X110.1586 Y144.5777
 X110.5939 Y144.5414
 X110.8834 Y144.5577
 X111.1696 Y144.6052
 X111.4497 Y144.6827
 X111.7209 Y144.7927
 X111.9804 Y144.9314
 X112.2252 Y145.1014
 X112.4524 Y145.3027
 X112.6594 Y145.5327
 X112.6877 Y145.5664
 X112.7542 Y145.6477
 X112.8587 Y145.7740
 X113.0004 Y145.9427
 X113.1792 Y146.1527
 X113.3946 Y146.4027
 X113.6459 Y146.6902
 X113.9331 Y147.0152
 X114.2553 Y147.3752
 X114.6124 Y147.7690
 X115.0039 Y148.1952
 X115.4292 Y148.6515
 X115.8881 Y149.1365
 X116.3801 Y149.6490
 X116.9048 Y150.1877
 X117.4616 Y150.7502
 X118.0501 Y151.3352
 X118.6701 Y151.9414
 X119.3207 Y152.5664
 X120.0019 Y153.2115
 X120.7134 Y153.8714
 X121.4542 Y154.5464
 X122.2243 Y155.2339
 X123.0232 Y155.9339
 X123.8502 Y156.6452
 X124.7053 Y157.3639
 X125.5877 Y158.0890
 X126.4971 Y158.8202
 X127.4331 Y159.5564
 X128.3952 Y160.2939
 X129.3831 Y161.0315
 X130.3963 Y161.7690
 X131.3563 Y161.0602
 X132.2963 Y160.3265
 X133.2151 Y159.5677
 X134.1138 Y158.7815
 X134.9913 Y157.9715
 X135.8488 Y157.1352
 X136.6863 Y156.2727
 X137.5026 Y155.3839
 X138.3001 Y154.4702
 X139.0763 Y153.5315
 X139.8326 Y152.5652
 X140.5688 Y151.5740
 X141.2851 Y150.5564
 X141.9813 Y149.5127
 X142.6576 Y148.4427
 X143.3138 Y147.3465
 X144.3138 Y145.5527
 X145.2638 Y143.6927
 X146.1626 Y141.7627
 X147.0113 Y139.7640
 X147.8101 Y137.6965
 X148.5576 Y135.5589
 X149.2563 Y133.3502
 X149.9051 Y131.0689
 X150.5038 Y128.7168
 X151.0538 Y126.2915
 X151.5538 Y123.7927
 X152.0051 Y121.2199
 X152.4076 Y118.5723
 X152.7601 Y115.8496
 X153.0651 Y113.0508
 X153.3201 Y110.1753
 X151.8638 Y110.0977
 X150.4338 Y110.0026
 X149.0301 Y109.8913
 X147.6551 Y109.7651
 X146.3076 Y109.6248
 X144.9901 Y109.4715
 X143.7013 Y109.3063
 X142.4438 Y109.1303
 X141.2176 Y108.9447
 X140.0251 Y108.7505
 X138.8638 Y108.5486
 X137.7363 Y108.3402
 X136.6438 Y108.1267
 X135.5863 Y107.9086
 X134.5651 Y107.6873
 X133.5801 Y107.4638
 X133.1438 Y108.2063
 X132.8463 Y108.6790
 X132.5301 Y109.1609
 X132.1963 Y109.6513
 X131.8438 Y110.1496
 X131.4738 Y110.6548
 X131.0838 Y111.1657
 X130.6738 Y111.6821
 X130.2438 Y112.2027
 X129.7933 Y112.7267
 X129.3219 Y113.2532
 X128.8296 Y113.7816
 X128.3153 Y114.3107
 X127.7792 Y114.8400
 X127.2206 Y115.3682
 X126.6389 Y115.8950
 X126.0341 Y116.4191
 X125.4056 Y116.9397
 X124.7528 Y117.4561
 X124.0758 Y117.9673
 X123.3737 Y118.4726
 X122.6462 Y118.9708
 X121.8931 Y119.4616
 X121.1138 Y119.9437
 X120.3081 Y120.4165
 X119.4752 Y120.8788
 X118.6152 Y121.3302
 X117.7273 Y121.7694
 X116.8112 Y122.1959
 X115.8666 Y122.6087
 X114.8931 Y123.0067
 X113.8902 Y123.3896
 X112.8576 Y123.7561
 X112.8504
 X111.8482 Y124.0866
 X110.8322 Y124.3959
 X109.8028 Y124.6843
 X108.7604 Y124.9516
 X107.7051 Y125.1977
 X106.6371 Y125.4223
 X105.5567 Y125.6260
 X104.4639 Y125.8083
 X103.3594 Y125.9692
 X102.2429 Y126.1088
 X101.1152 Y126.2271
 X99.9759 Y126.3240
 X98.8258 Y126.3992
 X97.6649 Y126.4531
 X96.4934 Y126.4853
 X95.3117 Y126.4961
 X94.1296 Y126.4853
 X92.9581 Y126.4531
 X91.7969 Y126.3992
 X90.6466 Y126.3240
 X89.5073 Y126.2271
 X88.3792 Y126.1088
 X87.2627 Y125.9692
 X86.1581 Y125.8083
 X85.0652 Y125.6260
 X83.9844 Y125.4223
 X82.9164 Y125.1977
 X81.8608 Y124.9516
 X80.8183 Y124.6843
 X79.7889 Y124.3959
 X78.7729 Y124.0866
 X77.7707 Y123.7561
 X77.7657
 X76.7331 Y123.3896
 X75.7301 Y123.0067
 X74.7564 Y122.6087
 X73.8118 Y122.1959
 X72.8959 Y121.7694
 X72.0081 Y121.3302
 X71.1479 Y120.8788
 X70.3152 Y120.4165
 X69.5093 Y119.9437
 X68.7301 Y119.4616
 X67.9769 Y118.9708
 X67.2496 Y118.4726
 X66.5474 Y117.9673
 X65.8703 Y117.4561
 X65.2176 Y116.9397
 X64.5889 Y116.4191
 X63.9841 Y115.8950
 X63.4024 Y115.3682
 X62.8438 Y114.8400
 X62.3077 Y114.3107
 X61.7937 Y113.7816
 X61.3011 Y113.2532
 X60.8299 Y112.7267
 X60.3796 Y112.2027
 X59.9497 Y111.6821
 X59.5399 Y111.1657
 X59.1497 Y110.6548
 X58.7789 Y110.1496
 X58.4268 Y109.6513
 X58.0929 Y109.1609
 X57.7773 Y108.6790
 X57.4792 Y108.2063
 X57.0437 Y107.4638
 X56.0582 Y107.6873
 X55.0363 Y107.9086
 X53.9783 Y108.1267
 X52.8853 Y108.3406
 X51.7579 Y108.5490
 X50.5966 Y108.7508
 X49.4024 Y108.9453
 X48.1761 Y109.1311
 X46.9184 Y109.3071
 X45.6299 Y109.4722
 X44.3116 Y109.6255
 X42.9638 Y109.7657
 X41.5877 Y109.8919
 X40.1839 Y110.0031
 X38.7531 Y110.0978
 X37.2961 Y110.1753
 X37.4317 Y111.7914
 X37.5826 Y113.3825
 X37.7483 Y114.9482
 X37.9294 Y116.4896
 X38.1256 Y118.0063
 X38.3371 Y119.4991
 X38.5638 Y120.9678
 X38.8058 Y122.4132
 X39.0634 Y123.8351
 X39.3363 Y125.2338
 X39.6249 Y126.6098
 X39.9291 Y127.9633
 X40.2488 Y129.2952
 X40.5844 Y130.6039
 X40.9357 Y131.8915
 X41.3027 Y133.1577
 X41.3667 Y133.4202
 X41.4033 Y133.6839
 X41.4134 Y133.9452
 X41.3977 Y134.2040
 X41.3568 Y134.4577
 X41.2922 Y134.7040
 X41.2046 Y134.9427
 X41.0947 Y135.1714
 X40.9634 Y135.3890
 X40.8117 Y135.5927
 X40.6406 Y135.7827
 X40.4508 Y135.9552
 X40.2433 Y136.1102
 X40.0189 Y136.2452
 X39.7787 Y136.3589
 X39.5233 Y136.4489
 X39.2602 Y136.5140
 X38.9969 Y136.5502
 X38.7353 Y136.5602
 X38.4769 Y136.5452
 X38.2236 Y136.5039
 X37.9766 Y136.4389
 X37.7379 Y136.3514
 X37.5091 Y136.2414
 X37.2917 Y136.1102
 X37.0877 Y135.9590
 X36.8983 Y135.7877
 X36.7254 Y135.5977
 X36.5706 Y135.3902
 X36.4357 Y135.1652
 X36.3219 Y134.9252
 X36.2314 Y134.6702
 X35.8411 Y133.3227
 X35.4678 Y131.9539
 X35.1113 Y130.5615
 X34.7718 Y129.1477
 X34.4492 Y127.7095
 X34.1433 Y126.2487
 X33.8542 Y124.7642
 X33.5818 Y123.2558
 X33.3261 Y121.7232
 X33.0871 Y120.1663
 X32.8647 Y118.5843
 X32.6586 Y116.9776
 X32.4692 Y115.3454
 X32.2962 Y113.6876
 X32.1397 Y112.0040
 X31.9993 Y110.2941
 X30.5573 Y110.2819
 X29.0966 Y110.2501
 X27.6179 Y110.1977
 X26.1214 Y110.1241
 X24.6082 Y110.0281
 X23.0783 Y109.9089
 X21.5329 Y109.7659
 X19.9722 Y109.5981
 X18.3968 Y109.4043
 X16.8074 Y109.1842
 X15.2046 Y108.9366
 X13.5888 Y108.6607
 X11.9608 Y108.3558
 X10.3210 Y108.0208
 X8.6701 Y107.6549
 X7.0087 Y107.2574
 X6.7495 Y107.1791
 X6.5042 Y107.0771
 X6.2739 Y106.9527
 X6.0594 Y106.8079
 X5.8618 Y106.6442
 X5.6820 Y106.4629
 X5.5211 Y106.2661
 X5.3799 Y106.0552
 X5.2595 Y105.8316
 X5.1608 Y105.5972
 X5.0848 Y105.3534
 X5.0325 Y105.1021
 X5.0047 Y104.8446
 X5.0027 Y104.5826
 X5.0273 Y104.3177
 X5.0794 Y104.0516
 X5.1577 Y103.7925
 X5.2598 Y103.5472
 X5.3840 Y103.3168
 X5.5289 Y103.1023
 X5.6926 Y102.9048
 X5.8737 Y102.7250
 X6.0705 Y102.5641
 X6.2814 Y102.4228
 X6.5048 Y102.3023
 X6.7390 Y102.2038
 X6.9826 Y102.1277
 X7.2338 Y102.0754
 X7.4910 Y102.0477
 X7.7528 Y102.0456
 X8.0173 Y102.0703
 X8.2831 Y102.1223
 X9.8288 Y102.4918
 X11.3660 Y102.8320
 X12.8943 Y103.1436
 X14.4129 Y103.4275
 X15.9214 Y103.6843
 X17.4190 Y103.9152
 X18.9053 Y104.1208
 X20.3797 Y104.3017
 X21.8414 Y104.4587
 X23.2902 Y104.5928
 X24.7251 Y104.7047
 X26.1457 Y104.7951
 X27.5514 Y104.8647
 X28.9417 Y104.9146
 X30.3161 Y104.9455
 X31.6736 Y104.9578
 X31.5803 Y102.6586
 X31.5127 Y100.3155
 X31.4714 Y97.9271
 X31.4567 Y95.4923
 X29.6629 Y95.1947
 X27.8761 Y94.8652
 X26.1008 Y94.5026
 X24.3411 Y94.1053
 X22.6011 Y93.6719
 X20.8856 Y93.2013
 X19.1984 Y92.6918
 X17.5442 Y92.1419
 X15.9270 Y91.5505
 X14.3512 Y90.9159
 X12.8212 Y90.2369
 X11.3412 Y89.5121
 X9.9156 Y88.7400
 X8.5486 Y87.9188
 X7.2445 Y87.0478
 X6.0077 Y86.1251
 X5.8038 Y85.9468
 X5.6224 Y85.7524
 X5.4637 Y85.5441
 X5.3280 Y85.3236
 X5.2155 Y85.0928
 X5.1263 Y84.8538
 X5.0607 Y84.6081
 X5.0190 Y84.3578
 X5.0014 Y84.1044
 X5.0079 Y83.8503
 X5.0391 Y83.5970
 X5.0949 Y83.3467
 X5.1758 Y83.1008
 X5.2818 Y82.8615
 X5.4132 Y82.6303
 X5.5703 Y82.4097
 X5.7774 Y82.1766
 X6.0053 Y81.9731
 X6.2512 Y81.8001
 X6.5122 Y81.6578
 X6.7854 Y81.5465
 X7.0679 Y81.4664
 X7.3568 Y81.4182
 X7.6494 Y81.4021
 X8.0790 Y81.4371
 X8.5012 Y81.5431
 X8.9066 Y81.7211
 X9.2859 Y81.9722
 X10.3308 Y82.7510
 X11.4362 Y83.4887
 X12.5987 Y84.1864
 X13.8145 Y84.8453
 X15.0803 Y85.4663
 X16.3925 Y86.0504
 X17.7474 Y86.5990
 X19.1418 Y87.1126
 X20.5721 Y87.5927
 X22.0344 Y88.0402
 X23.5256 Y88.4562
 X25.0421 Y88.8416
 X26.5803 Y89.1978
 X28.1366 Y89.5257
 X29.7073 Y89.8262
 X31.2894 Y90.1007
 X31.0931 Y87.5204
 X30.8273 Y84.9121
 X30.4957 Y82.2802
 X30.1028 Y79.6293
 X28.5523 Y78.7982
 X27.0361 Y77.9366
 X25.5544 Y77.0444
 X24.1081 Y76.1219
 X22.6973 Y75.1697
 X21.3227 Y74.1880
 X19.9848 Y73.1772
 X18.6843 Y72.1375
 X17.4214 Y71.0691
 X16.1968 Y69.9723
 X15.0108 Y68.8478
 X13.8642 Y67.6958
 X12.7572 Y66.5163
 X11.6906 Y65.3098
 X10.6647 Y64.0767
 X9.6801 Y62.8172
 X9.5277 Y62.5933
 X9.4011 Y62.3601
 X9.3000 Y62.1186
 X9.2243 Y61.8712
 X9.1735 Y61.6196
 X9.1475 Y61.3657
 X9.1460 Y61.1116
 X9.1688 Y60.8586
 X9.2155 Y60.6090
 X9.2860 Y60.3647
 X9.3800 Y60.1272
 X9.4973 Y59.8987
 X9.6374 Y59.6808
 X9.8004 Y59.4757
 X9.9858 Y59.2848
 X10.1934 Y59.1103
 X10.5657 Y58.8741
 X10.9613 Y58.7069
 X11.3718 Y58.6075
 X11.7888 Y58.5746
 X12.0875 Y58.5915
 X12.3824 Y58.6418
 X12.6704 Y58.7253
 X12.9483 Y58.8413
 X13.2132 Y58.9897
 X13.4620 Y59.1697
 X13.6915 Y59.3812
 X13.8989 Y59.6237
 X14.7130 Y60.6677
 X15.5488 Y61.6806
 X16.4051 Y62.6628
 X17.2807 Y63.6147
 X18.1742 Y64.5371
 X19.0846 Y65.4303
 X20.0107 Y66.2946
 X20.9511 Y67.1307
 X21.9047 Y67.9388
 X22.8702 Y68.7197
 X23.8464 Y69.4737
 X24.8323 Y70.2013
 X25.8264 Y70.9030
 X26.8278 Y71.5790
 X27.8349 Y72.2300
 X28.8469 Y72.8563
 X28.5313 Y71.3822
 X28.2017 Y69.9078
 X27.8581 Y68.4337
 X27.5013 Y66.9609
 X27.1322 Y65.4901
 X26.7513 Y64.0218
 X26.3591 Y62.5571
 X25.9563 Y61.0965
 X25.5434 Y59.6410
 X25.1212 Y58.1910
 X24.6899 Y56.7473
 X24.2509 Y55.3111
 X23.8041 Y53.8824
 X23.3502 Y52.4626
 X22.8902 Y51.0521
 X22.4242 Y49.6517
 X21.9533 Y48.2621
 X21.4777 Y46.8842
 X20.9983 Y45.5186
 X20.5156 Y44.1661
 X20.0302 Y42.8274
 X19.5428 Y41.5032
 X19.0539 Y40.1946
 X18.5641 Y38.9017
 X18.0741 Y37.6258
 X17.5846 Y36.3674
 X17.0960 Y35.1273
 X16.6090 Y33.9062
 X16.1241 Y32.7049
 X15.6422 Y31.5241
 X15.1636 Y30.3646
 X14.6891 Y29.2268
 X14.2193 Y28.1121
 X13.7548 Y27.0208
 X13.2961 Y25.9536
 X12.8439 Y24.9115
 X12.3989 Y23.8951
 X11.9615 Y22.9049
 X11.5325 Y21.9422
 X11.1125 Y21.0073
 X10.7020 Y20.1011
 X10.3016 Y19.2242
 X9.9120 Y18.3776
 X9.5339 Y17.5618
 X9.1678 Y16.7777
 X8.8141 Y16.0261
 X8.4739 Y15.3075
 X8.1474 Y14.6227
 X7.8353 Y13.9726
 X7.5383 Y13.3579
 X7.2570 Y12.7792
 X6.9920 Y12.2374
 X6.7439 Y11.7331
 X6.5133 Y11.2672
 X6.3008 Y10.8404
 X6.1070 Y10.4533
 X5.9326 Y10.1069
 X5.7781 Y9.8017
 X5.6443 Y9.5385
 X5.5315 Y9.3182
 X5.4406 Y9.1413
 X5.3721 Y9.0086
 X5.3266 Y8.9211
 X5.3048 Y8.8792
 X5.1908 Y8.6333
 X5.1040 Y8.3821
 X5.0436 Y8.1272
 X5.0091 Y7.8706
 X5.0000 Y7.6139
 X5.0157 Y7.3591
 X5.0555 Y7.1078
 X5.1192 Y6.8620
 X5.2059 Y6.6233
 X5.3152 Y6.3936
 X5.4466 Y6.1746
 X5.5994 Y5.9684
 X5.7731 Y5.7764
 X5.9672 Y5.6006
 X6.1811 Y5.4428
 X6.4143 Y5.3047
 X6.7138 Y5.1701
 X7.0209 Y5.0750
 X7.3322 Y5.0187
 X7.6441 Y5.0000
 X7.9984 Y5.0239
 X8.3449 Y5.0945
 X8.6788 Y5.2104
 X8.9952 Y5.3699
 X9.2891 Y5.5716
 X9.5559 Y5.8139
 X9.7906 Y6.0953
 X9.9883 Y6.4142
 X10.0137 Y6.4630
 X10.0767 Y6.5843
 X10.1761 Y6.7769
 X10.3106 Y7.0390
 X10.4791 Y7.3692
 X10.6803 Y7.7660
 X10.9129 Y8.2278
 X11.1757 Y8.7532
 X11.4676 Y9.3407
 X11.7871 Y9.9888
 X12.1332 Y10.6959
 X12.5046 Y11.4605
 X12.9001 Y12.2812
 X13.3183 Y13.1563
 X13.7582 Y14.0845
 X14.2184 Y15.0641
 X14.6977 Y16.0937
 X15.1950 Y17.1720
 X15.7088 Y18.2969
 X16.2381 Y19.4674
 X16.7816 Y20.6821
 X17.3381 Y21.9391
 X17.9062 Y23.2368
 X18.4848 Y24.5741
 X19.0727 Y25.9493
 X19.6687 Y27.3610
 X20.2714 Y28.8075
 X20.8797 Y30.2873
 X21.4922 Y31.7991
 X22.1079 Y33.3413
 X22.7254 Y34.9123
 X23.3437 Y36.5106
 X24.3727 Y39.2303
 X25.3607 Y41.9182
 X26.3081 Y44.5741
 X27.2147 Y47.1978
 X28.0803 Y49.7891
 X28.9049 Y52.3476
 X29.6886 Y54.8734
 X30.4313 Y57.3663
 X31.1329 Y59.8258
 X31.7934 Y62.2521
 X32.4129 Y64.6449
 X32.9911 Y67.0038
 X33.5281 Y69.3286
 X34.0238 Y71.6196
 X34.4782 Y73.8760
 X34.8914 Y76.0978
 X36.5129 Y76.8396
 X38.1202 Y77.5281
 X39.7081 Y78.1655
 X41.2712 Y78.7532
 X42.8049 Y79.2936
 X44.3041 Y79.7882
 X45.7634 Y80.2388
 X47.1782 Y80.6476
 X48.2844 Y80.9487
 X49.3746 Y81.2303
 X50.4473 Y81.4932
 X51.5009 Y81.7374
 X52.5341 Y81.9643
 X53.5456 Y82.1746
 X54.5336 Y82.3686
 X55.4968 Y82.5472
 X55.7897 Y82.0896
 X56.0974 Y81.6547
 X56.4206 Y81.2422
 X56.7586 Y80.8521
 X57.1118 Y80.4843
 X57.4804 Y80.1391
 X57.8643 Y79.8161
 X58.2636 Y79.5152
 X58.6783 Y79.2366
 X59.1087 Y78.9802
 X59.5546 Y78.7456
 X60.0164 Y78.5331
 X60.4938 Y78.3424
 X60.9872 Y78.1737
 X61.4964 Y78.0268
 X62.0218 Y77.9016
 X62.8112 Y77.7583
 X63.6224 Y77.6597
 X64.4567 Y77.6027
 X65.3149 Y77.5844
 X66.4943 Y77.6156
 X67.7212 Y77.7035
 X68.0874 Y77.0794
 X68.4778 Y76.4540
 X68.8934 Y75.8282
 X69.3348 Y75.2038
 X69.8024 Y74.5821
 X70.2978 Y73.9643
 X70.8212 Y73.3525
 X71.3736 Y72.7469
 X71.9554 Y72.1500
 X72.5678 Y71.5626
 X73.2116 Y70.9865
 X73.8871 Y70.4227
 X74.5956 Y69.8727
 X75.3374 Y69.3382
 X76.1136 Y68.8201
 X76.9251 Y68.3203
 X77.7723 Y67.8397
 X78.6562 Y67.3802
 X79.5774 Y66.9428
 X80.5371 Y66.5291
 X81.5354 Y66.1406
 X82.5737 Y65.7785
 X83.6523 Y65.4441
 X84.7723 Y65.1391
 X85.9344 Y64.8647
 X87.1393 Y64.6223
 X88.3877 Y64.4134
 X89.6808 Y64.2393
 X91.0188 Y64.1017
 X92.4027 Y64.0016
 X93.8334 Y63.9404
 X95.3117 Y63.9196
 X96.7898 Y63.9404
 X98.2207 Y64.0016
 X99.6049 Y64.1017
 X100.9431 Y64.2396
 X102.2361 Y64.4134
 X103.4846 Y64.6226
 X104.6897 Y64.8648
 X105.8518 Y65.1393
 X106.9719 Y65.4445
 X108.0506 Y65.7790
 X109.0889 Y66.1411
 X110.0874 Y66.5298
 X111.0469 Y66.9436
 X111.9683 Y67.3808
 X112.8522 Y67.8406
 X113.6993 Y68.3212
 X114.5107 Y68.8212
 X115.2868 Y69.3392
 X116.0289 Y69.8739
 X116.7372 Y70.4239
 X117.4127 Y70.9876
 X118.0563 Y71.5641
 X118.6687 Y72.1513
 X119.2504 Y72.7484
 X119.8027 Y73.3538
 X120.3259 Y73.9661
 X120.8211 Y74.5838
 X121.2888 Y75.2056
 X121.7299 Y75.8299
 X122.1452 Y76.4557
 X122.5354 Y77.0812
 X122.9014 Y77.7053
 X123.6751 Y77.6442
 X124.4299 Y77.6041
 X125.1669 Y77.5870
 X125.8863 Y77.5941
 X126.5888 Y77.6276
 X127.2749 Y77.6887
 X127.9451 Y77.7795
 X128.5997 Y77.9016
 X129.1241 Y78.0263
 X129.6323 Y78.1728
 X130.1251 Y78.3413
 X130.6013 Y78.5312
 X131.0626 Y78.7433
 X131.5088 Y78.9771
 X131.9376 Y79.2330
 X132.3526 Y79.5107
 X132.7513 Y79.8106
 X133.1351 Y80.1326
 X133.5026 Y80.4767
 X133.8563 Y80.8430
 X134.1938 Y81.2317
 X134.5163 Y81.6427
 X134.8251 Y82.0760
 X135.1176 Y82.5317
 X136.2338 Y82.3228
 X137.3838 Y82.0930
 X138.5651 Y81.8409
 X139.7751 Y81.5657
 X141.0126 Y81.2665
 X142.2738 Y80.9419
 X143.5576 Y80.5913
 X144.8613 Y80.2134
 X146.1826 Y79.8076
 X147.5188 Y79.3726
 X148.8688 Y78.9072
 X150.2288 Y78.4107
 X151.5976 Y77.8821
 X152.9726 Y77.3203
 X154.3513 Y76.7243
 X155.7313 Y76.0931
 X156.1451 Y73.8714
 X156.5988 Y71.6152
 X157.0951 Y69.3248
 X157.6313 Y67.0001
 X158.2101 Y64.6414
 X158.8288 Y62.2491
 X159.4901 Y59.8231
 X160.1913 Y57.3638
 X160.9338 Y54.8713
 X161.7176 Y52.3458
 X162.5426 Y49.7874
 X163.4076 Y47.1965
 X164.3138 Y44.5732
 X165.2613 Y41.9177
 X166.2488 Y39.2300
 X167.2776 Y36.5106
 X167.8963 Y34.9123
 X168.5138 Y33.3413
 X169.1301 Y31.7993
 X169.7426 Y30.2874
 X170.3501 Y28.8076
 X170.9538 Y27.3611
 X171.5488 Y25.9495
 X172.1376 Y24.5744
 X172.7163 Y23.2371
 X173.2838 Y21.9393
 X173.8401 Y20.6824
 X174.3838 Y19.4681
 X174.9138 Y18.2976
 X175.4276 Y17.1726
 X175.9238 Y16.0946
 X176.4038 Y15.0650
 X176.8638 Y14.0854
 X177.3038 Y13.1573
 X177.7226 Y12.2822
 X178.1176 Y11.4617
 X178.4888 Y10.6972
 X178.8351 Y9.9902
 X179.1551 Y9.3422
 X179.4463 Y8.7548
 X179.7101 Y8.2294
 X179.9426 Y7.7675
 X180.1426 Y7.3708
 X180.3113 Y7.0407
 X180.4463 Y6.7786
 X180.5451 Y6.5861
 X180.6088 Y6.4647
 X180.6338 Y6.4160
 X180.8313 Y6.0965
 X181.0663 Y5.8147
 X181.3338 Y5.5721
 X181.6263 Y5.3701
 X181.9451 Y5.2105
 X182.2776 Y5.0946
 X182.6251 Y5.0239
 X182.9788 Y5.0000
 X183.2901 Y5.0187
 X183.6026 Y5.0750
 X183.9101 Y5.1701
 X184.2088 Y5.3047
 X184.4413 Y5.4428
 X184.6551 Y5.6006
 X184.8488 Y5.7764
 X185.0226 Y5.9684
 X185.1751 Y6.1746
 X185.3076 Y6.3936
 X185.4163 Y6.6233
 X185.5038 Y6.8620
 X185.5663 Y7.1078
 X185.6063 Y7.3591
 X185.6213 Y7.6139
 X185.6126 Y7.8706
 X185.5776 Y8.1272
 X185.5188 Y8.3821
 X185.4326 Y8.6333
 X185.3176 Y8.8792
G0 Z5.0000
G0 Z5.0000
M2 (end program)
