;PYCAM-META-DATA: Filename: /media/martoio/MARTOIO/ME43/std_lib/svg/001-seal.svg
;PYCAM-META-DATA: Timestamp: 2017-12-11 12:37:11.379702
;PYCAM-META-DATA: Version: 0.5.1
;Estimated machine time: 14 minutes
G40 (disable tool radius compensation)
G49 (disable tool length compensation)
G80 (cancel modal motion)
G54 (select coordinate system 1)
G90 (disable incremental moves)
G21 (metric)
G61 (exact path mode)
F200.00000
S1000.00000
;PYCAM_TOOLPATH_SETTINGS: START
;[Bounds]
;maxz = -45.0
;maxx = 147.9095
;maxy = 146.9045
;minx = 6.5874457465
;miny = 7.59434
;minz = -45.0
;
;[Tool]
;torus_radius = 0.125
;speed = 1000.0
;shape = CylindricalCutter
;tool_radius = 1.5875
;feedrate = 200.0
;
;[Process]
;engrave_offset = 0.0
;step_down = 0.01
;generator = EngraveCutter
;postprocessor = SimpleCutter
;milling_style = conventional
;material_allowance = 0.0
;pocketing_type = enclosed
;path_direction = x
;
;PYCAM_TOOLPATH_SETTINGS: END
T1 M6
G0 Z-25.0000
 X6.5874 Y67.1989
G1 Z-45.0000
 X6.6542 Y67.1800
 X6.8854 Y67.1414
 X7.1195 Y67.1285
 X7.4632 Y67.1565
 X7.8009 Y67.2413
 X8.1252 Y67.3837
 X8.4287 Y67.5846
 X9.2646 Y68.2076
 X10.1489 Y68.7978
 X11.0789 Y69.3560
 X12.0515 Y69.8831
 X13.0642 Y70.3799
 X14.1139 Y70.8472
 X15.1979 Y71.2860
 X16.3134 Y71.6969
 X17.4576 Y72.0810
 X18.6275 Y72.4390
 X19.8204 Y72.7718
 X21.0336 Y73.0801
 X22.2642 Y73.3651
 X23.5092 Y73.6274
 X24.7658 Y73.8678
 X26.0315 Y74.0874
 X25.8744 Y72.0232
 X25.6618 Y69.9365
 X25.3965 Y67.8310
 X25.0822 Y65.7103
 X23.8418 Y65.0454
 X22.6288 Y64.3561
 X21.4435 Y63.6424
 X20.2864 Y62.9044
 X19.1578 Y62.1426
 X18.0581 Y61.3572
 X16.9878 Y60.5486
 X15.9474 Y59.7168
 X14.9371 Y58.8621
 X13.9574 Y57.9847
 X13.0086 Y57.0851
 X12.0913 Y56.1635
 X11.2057 Y55.2199
 X10.3524 Y54.2547
 X9.5317 Y53.2682
 X8.7440 Y52.2606
 X8.6221 Y52.0815
 X8.5208 Y51.8949
 X8.4399 Y51.7017
 X8.3794 Y51.5038
 X8.3387 Y51.3025
 X8.3179 Y51.0994
 X8.3167 Y50.8961
 X8.3350 Y50.6937
 X8.3724 Y50.4940
 X8.4288 Y50.2986
 X8.5040 Y50.1086
 X8.5978 Y49.9258
 X8.7099 Y49.7515
 X8.8403 Y49.5874
 X8.9886 Y49.4347
 X9.1547 Y49.2951
 X9.4525 Y49.1061
 X9.7690 Y48.9724
 X10.0974 Y48.8928
 X10.4310 Y48.8665
 X10.6700 Y48.8800
 X10.9059 Y48.9203
 X11.1362 Y48.9871
 X11.3586 Y49.0799
 X11.5705 Y49.1986
 X11.7695 Y49.3426
 X11.9532 Y49.5118
 X12.1190 Y49.7058
 X12.7704 Y50.5410
 X13.4390 Y51.3513
 X14.1240 Y52.1371
 X14.8245 Y52.8986
 X15.5393 Y53.6365
 X16.2676 Y54.3511
 X17.0085 Y55.0425
 X17.7608 Y55.7114
 X18.5237 Y56.3579
 X19.2961 Y56.9826
 X20.0771 Y57.5858
 X20.8658 Y58.1679
 X21.6611 Y58.7292
 X22.4622 Y59.2700
 X23.2679 Y59.7908
 X24.0775 Y60.2919
 X23.8250 Y59.1126
 X23.5613 Y57.9331
 X23.2864 Y56.7538
 X23.0010 Y55.5756
 X22.7057 Y54.3989
 X22.4010 Y53.2243
 X22.0872 Y52.0525
 X21.7650 Y50.8840
 X21.4347 Y49.7196
 X21.0969 Y48.5596
 X20.7519 Y47.4047
 X20.4007 Y46.2557
 X20.0432 Y45.1128
 X19.6801 Y43.9769
 X19.3121 Y42.8485
 X18.9393 Y41.7282
 X18.5626 Y40.6165
 X18.1821 Y39.5142
 X17.7986 Y38.4217
 X17.4124 Y37.3397
 X17.0241 Y36.2688
 X16.6342 Y35.2094
 X16.2431 Y34.1625
 X15.8512 Y33.1282
 X15.4592 Y32.1075
 X15.0676 Y31.1008
 X14.6767 Y30.1087
 X14.2871 Y29.1318
 X13.8993 Y28.1708
 X13.5137 Y27.2261
 X13.1309 Y26.2985
 X12.7512 Y25.3883
 X12.3754 Y24.4965
 X12.0038 Y23.6235
 X11.6368 Y22.7697
 X11.2751 Y21.9360
 X10.9191 Y21.1229
 X10.5692 Y20.3308
 X10.2260 Y19.5606
 X9.8899 Y18.8127
 X9.5615 Y18.0877
 X9.2413 Y17.3862
 X8.9296 Y16.7089
 X8.6271 Y16.0563
 X8.3342 Y15.4290
 X8.0513 Y14.8277
 X7.7790 Y14.2528
 X7.5179 Y13.7050
 X7.2682 Y13.1849
 X7.0306 Y12.6931
 X6.8056 Y12.2302
 X6.5936 Y11.7968
 X6.5874 Y11.7843
G0 Z-25.0000
 X9.2260 Y7.5943
G1 Z-45.0000
 X9.2484 Y7.6380
 X9.3833 Y7.9022
 X9.5442 Y8.2196
 X9.7302 Y8.5891
 X9.9405 Y9.0094
 X10.1740 Y9.4794
 X10.4296 Y9.9979
 X10.7065 Y10.5635
 X11.0036 Y11.1752
 X11.3200 Y11.8318
 X11.6546 Y12.5319
 X12.0065 Y13.2744
 X12.3747 Y14.0581
 X12.7581 Y14.8818
 X13.1559 Y15.7444
 X13.5670 Y16.6444
 X13.9905 Y17.5808
 X14.4252 Y18.5525
 X14.8704 Y19.5581
 X15.3249 Y20.5963
 X15.7878 Y21.6661
 X16.2581 Y22.7663
 X16.7349 Y23.8956
 X17.2171 Y25.0528
 X17.7037 Y26.2367
 X18.1937 Y27.4461
 X18.6863 Y28.6799
 X19.1803 Y29.9367
 X19.6749 Y31.2153
 X20.4981 Y33.3911
 X21.2885 Y35.5414
 X22.0464 Y37.6661
 X22.7717 Y39.7651
 X23.4642 Y41.8381
 X24.1239 Y43.8849
 X24.7508 Y45.9056
 X25.3450 Y47.8999
 X25.9063 Y49.8675
 X26.4347 Y51.8085
 X26.9303 Y53.7228
 X27.3928 Y55.6099
 X27.8224 Y57.4697
 X28.2190 Y59.3025
 X28.5825 Y61.1076
 X28.9131 Y62.8851
 X30.2103 Y63.4785
 X31.4961 Y64.0293
 X32.7664 Y64.5392
 X34.0169 Y65.0094
 X35.2439 Y65.4417
 X36.4432 Y65.8374
 X37.6107 Y66.1979
 X38.7425 Y66.5249
 X39.6275 Y66.7658
 X40.4996 Y66.9911
 X41.3578 Y67.2014
 X42.2007 Y67.3968
 X43.0272 Y67.5783
 X43.8364 Y67.7465
 X44.6268 Y67.9017
 X45.3974 Y68.0446
 X45.6317 Y67.6785
 X45.8779 Y67.3306
 X46.1364 Y67.0006
 X46.4068 Y66.6885
 X46.6894 Y66.3943
 X46.9843 Y66.1181
 X47.2914 Y65.8597
 X47.6108 Y65.6190
 X47.9426 Y65.3961
 X48.2869 Y65.1910
 X48.6436 Y65.0033
 X49.0131 Y64.8333
 X49.3950 Y64.6808
 X49.7897 Y64.5458
 X50.1971 Y64.4283
 X50.6174 Y64.3281
 X51.2489 Y64.2135
 X51.8979 Y64.1346
 X52.5653 Y64.0890
 X53.2519 Y64.0744
 X54.1954 Y64.0993
 X55.1769 Y64.1696
 X55.4699 Y63.6704
 X55.7822 Y63.1700
 X56.1147 Y62.6694
 X56.4678 Y62.1699
 X56.8419 Y61.6725
 X57.2382 Y61.1783
 X57.6569 Y60.6888
 X58.0988 Y60.2044
 X58.5643 Y59.7268
 X59.0542 Y59.2569
 X59.5692 Y58.7960
 X60.1096 Y58.3450
 X60.6764 Y57.9050
 X61.2699 Y57.4774
 X61.8908 Y57.0629
 X62.5400 Y56.6631
 X63.2178 Y56.2786
 X63.9249 Y55.9110
 X64.6619 Y55.5611
 X65.4296 Y55.2301
 X66.2283 Y54.9193
 X67.0589 Y54.6296
 X67.9218 Y54.3621
 X68.8178 Y54.1181
 X69.7475 Y53.8986
 X70.7114 Y53.7047
 X71.7101 Y53.5376
 X72.7446 Y53.3983
 X73.8150 Y53.2882
 X74.9221 Y53.2081
 X76.0667 Y53.1592
 X77.2493 Y53.1425
 X78.4318 Y53.1592
 X79.5765 Y53.2081
 X80.6839 Y53.2882
 X81.7544 Y53.3985
 X82.7888 Y53.5376
 X83.7876 Y53.7049
 X84.7517 Y53.8987
 X85.6814 Y54.1183
 X86.5775 Y54.3624
 X87.4404 Y54.6300
 X88.2711 Y54.9197
 X89.0699 Y55.2307
 X89.8375 Y55.5617
 X90.5746 Y55.9115
 X91.2817 Y56.2793
 X91.9594 Y56.6638
 X92.6085 Y57.0638
 X93.2294 Y57.4782
 X93.8231 Y57.9060
 X94.3897 Y58.3460
 X94.9301 Y58.7969
 X95.4450 Y59.2581
 X95.9349 Y59.7279
 X96.4003 Y60.2056
 X96.8421 Y60.6899
 X97.2607 Y61.1797
 X97.6568 Y61.6739
 X98.0310 Y62.1713
 X98.3839 Y62.6708
 X98.7161 Y63.1714
 X99.0283 Y63.6718
 X99.3211 Y64.1711
 X99.9400 Y64.1222
 X100.5439 Y64.0901
 X101.1335 Y64.0764
 X101.7090 Y64.0821
 X102.2710 Y64.1089
 X102.8199 Y64.1578
 X103.3560 Y64.2304
 X103.8797 Y64.3281
 X104.2992 Y64.4279
 X104.7058 Y64.5451
 X105.1000 Y64.6799
 X105.4810 Y64.8318
 X105.8500 Y65.0015
 X106.2070 Y65.1885
 X106.5500 Y65.3932
 X106.8820 Y65.6154
 X107.2010 Y65.8553
 X107.5080 Y66.1129
 X107.8020 Y66.3882
 X108.0850 Y66.6812
 X108.3550 Y66.9922
 X108.6130 Y67.3210
 X108.8600 Y67.6676
 X109.0940 Y68.0322
 X109.9870 Y67.8651
 X110.9070 Y67.6812
 X111.8520 Y67.4796
 X112.8200 Y67.2594
 X113.8100 Y67.0200
 X114.8190 Y66.7604
 X115.8460 Y66.4799
 X116.8890 Y66.1776
 X117.9460 Y65.8529
 X119.0150 Y65.5049
 X120.0950 Y65.1326
 X121.1830 Y64.7354
 X122.2780 Y64.3125
 X123.3780 Y63.8631
 X124.4810 Y63.3863
 X125.5850 Y62.8813
 X125.9160 Y61.1040
 X126.2790 Y59.2990
 X126.6760 Y57.4667
 X127.1050 Y55.6069
 X127.5680 Y53.7200
 X128.0630 Y51.8061
 X128.5920 Y49.8653
 X129.1530 Y47.8979
 X129.7470 Y45.9039
 X130.3740 Y43.8835
 X131.0340 Y41.8368
 X131.7260 Y39.7640
 X132.4510 Y37.6654
 X133.2090 Y35.5410
 X133.9990 Y33.3908
 X134.8220 Y31.2153
 X135.3170 Y29.9367
 X135.8110 Y28.6799
 X136.3040 Y27.4463
 X136.7940 Y26.2368
 X137.2800 Y25.0529
 X137.7630 Y23.8957
 X138.2390 Y22.7664
 X138.7100 Y21.6664
 X139.1730 Y20.5965
 X139.6270 Y19.5583
 X140.0720 Y18.5528
 X140.5070 Y17.5813
 X140.9310 Y16.6449
 X141.3420 Y15.7449
 X141.7390 Y14.8825
 X142.1230 Y14.0588
 X142.4910 Y13.2752
 X142.8430 Y12.5327
 X143.1780 Y11.8326
 X143.4940 Y11.1762
 X143.7910 Y10.5646
 X144.0680 Y9.9990
 X144.3240 Y9.4806
 X144.5570 Y9.0106
 X144.7680 Y8.5903
 X144.9540 Y8.2209
 X145.1140 Y7.9035
 X145.2490 Y7.6394
 X145.2722 Y7.5943
G0 Z-25.0000
 X147.9095 Y11.7857
G1 Z-45.0000
 X147.9040 Y11.7968
 X147.6920 Y12.2303
 X147.4670 Y12.6932
 X147.2290 Y13.1851
 X146.9790 Y13.7052
 X146.7180 Y14.2530
 X146.4440 Y14.8278
 X146.1630 Y15.4293
 X145.8690 Y16.0566
 X145.5670 Y16.7092
 X145.2540 Y17.3866
 X144.9350 Y18.0881
 X144.6060 Y18.8132
 X144.2690 Y19.5611
 X143.9260 Y20.3315
 X143.5760 Y21.1236
 X143.2200 Y21.9368
 X142.8580 Y22.7707
 X142.4910 Y23.6244
 X142.1190 Y24.4976
 X141.7430 Y25.3896
 X141.3640 Y26.2999
 X140.9810 Y27.2275
 X140.5950 Y28.1724
 X140.2070 Y29.1335
 X139.8180 Y30.1106
 X139.4270 Y31.1028
 X139.0350 Y32.1096
 X138.6430 Y33.1306
 X138.2510 Y34.1650
 X137.8600 Y35.2122
 X137.4690 Y36.2717
 X137.0810 Y37.3428
 X136.6950 Y38.4250
 X136.3110 Y39.5178
 X135.9310 Y40.6203
 X135.5540 Y41.7321
 X135.1810 Y42.8528
 X134.8130 Y43.9814
 X134.4500 Y45.1176
 X134.0930 Y46.2607
 X133.7410 Y47.4101
 X133.3970 Y48.5653
 X133.0590 Y49.7256
 X132.7280 Y50.8904
 X132.4060 Y52.0593
 X132.0930 Y53.2314
 X131.7880 Y54.4063
 X131.4930 Y55.5833
 X131.2080 Y56.7619
 X130.9330 Y57.9417
 X130.6690 Y59.1217
 X130.4170 Y60.3014
 X131.2370 Y59.7949
 X132.0510 Y59.2693
 X132.8580 Y58.7243
 X133.6580 Y58.1594
 X134.4500 Y57.5744
 X135.2320 Y56.9688
 X136.0050 Y56.3424
 X136.7670 Y55.6947
 X137.5170 Y55.0256
 X138.2550 Y54.3344
 X138.9800 Y53.6210
 X139.6910 Y52.8849
 X140.3870 Y52.1258
 X141.0680 Y51.3435
 X141.7320 Y50.5374
 X142.3790 Y49.7072
 X142.5450 Y49.5132
 X142.7290 Y49.3440
 X142.9280 Y49.2000
 X143.1400 Y49.0814
 X143.3620 Y48.9885
 X143.5930 Y48.9217
 X143.8280 Y48.8814
 X144.0680 Y48.8679
 X144.4010 Y48.8942
 X144.7290 Y48.9738
 X145.0460 Y49.1076
 X145.3430 Y49.2965
 X145.5100 Y49.4361
 X145.6580 Y49.5887
 X145.7890 Y49.7529
 X145.9000 Y49.9271
 X145.9940 Y50.1100
 X146.0690 Y50.2999
 X146.1260 Y50.4954
 X146.1640 Y50.6950
 X146.1820 Y50.8974
 X146.1810 Y51.1007
 X146.1600 Y51.3038
 X146.1190 Y51.5050
 X146.0580 Y51.7029
 X145.9780 Y51.8961
 X145.8760 Y52.0829
 X145.7540 Y52.2619
 X144.9670 Y53.2696
 X144.1460 Y54.2561
 X143.2920 Y55.2212
 X142.4070 Y56.1649
 X141.4890 Y57.0865
 X140.5410 Y57.9861
 X139.5610 Y58.8635
 X138.5510 Y59.7182
 X137.5100 Y60.5500
 X136.4400 Y61.3586
 X135.3400 Y62.1440
 X134.2120 Y62.9058
 X133.0540 Y63.6438
 X131.8690 Y64.3575
 X130.6560 Y65.0469
 X129.4160 Y65.7117
 X129.1010 Y67.8324
 X128.8360 Y69.9379
 X128.6230 Y72.0246
 X128.4670 Y74.0888
 X129.7320 Y73.8693
 X130.9890 Y73.6288
 X132.2340 Y73.3665
 X133.4650 Y73.0815
 X134.6780 Y72.7731
 X135.8710 Y72.4403
 X137.0410 Y72.0821
 X138.1850 Y71.6979
 X139.3000 Y71.2869
 X140.3840 Y70.8482
 X141.4340 Y70.3807
 X142.4460 Y69.8837
 X143.4190 Y69.3565
 X144.3490 Y68.7982
 X145.2330 Y68.2078
 X146.0680 Y67.5846
 X146.3720 Y67.3844
 X146.6970 Y67.2425
 X147.0350 Y67.1579
 X147.3790 Y67.1299
 X147.6120 Y67.1428
 X147.8440 Y67.1814
 X147.9095 Y67.2000
G0 Z-25.0000
 Y71.4923
G1 Z-45.0000
 X147.7030 Y71.6464
 X146.6600 Y72.3431
 X145.5650 Y72.9996
 X144.4250 Y73.6174
 X143.2410 Y74.1972
 X142.0170 Y74.7404
 X140.7570 Y75.2481
 X139.4630 Y75.7213
 X138.1390 Y76.1612
 X136.7900 Y76.5689
 X135.4170 Y76.9456
 X134.0250 Y77.2922
 X132.6180 Y77.6101
 X131.1970 Y77.9004
 X129.7680 Y78.1640
 X128.3330 Y78.4021
 X128.3210 Y80.3450
 X128.2880 Y82.2546
 X128.2330 Y84.1314
 X128.1580 Y85.9760
 X129.2440 Y85.9660
 X130.3430 Y85.9414
 X131.4560 Y85.9015
 X132.5810 Y85.8457
 X133.7170 Y85.7733
 X134.8650 Y85.6838
 X136.0240 Y85.5765
 X137.1940 Y85.4508
 X138.3730 Y85.3060
 X139.5630 Y85.1415
 X140.7610 Y84.9568
 X141.9680 Y84.7510
 X143.1830 Y84.5238
 X144.4060 Y84.2743
 X145.6350 Y84.0019
 X146.8720 Y83.7061
 X147.0850 Y83.6647
 X147.2960 Y83.6453
 X147.5040 Y83.6469
 X147.7110 Y83.6692
 X147.9095 Y83.7108
G0 Z-25.0000
 Y87.8080
G1 Z-45.0000
 X147.8900 Y87.8139
 X146.5610 Y88.1322
 X145.2400 Y88.4251
 X143.9280 Y88.6933
 X142.6250 Y88.9375
 X141.3320 Y89.1583
 X140.0500 Y89.3565
 X138.7780 Y89.5328
 X137.5170 Y89.6876
 X136.2690 Y89.8219
 X135.0320 Y89.9364
 X133.8080 Y90.0315
 X132.5970 Y90.1083
 X131.4000 Y90.1671
 X130.2170 Y90.2089
 X129.0480 Y90.2340
 X127.8950 Y90.2435
 X127.6810 Y92.6869
 X127.4250 Y95.0669
 X127.1260 Y97.3837
 X126.7840 Y99.6381
 X126.4000 Y101.8304
 X125.9720 Y103.9613
 X125.5020 Y106.0310
 X124.9880 Y108.0410
 X124.4310 Y109.9910
 X123.8300 Y111.8820
 X123.1860 Y113.7140
 X122.4980 Y115.4880
 X121.7670 Y117.2050
 X120.9910 Y118.8650
 X120.1720 Y120.4680
 X119.3080 Y122.0160
 X118.7800 Y122.8980
 X118.2370 Y123.7620
 X117.6780 Y124.6080
 X117.1030 Y125.4350
 X116.5130 Y126.2430
 X115.9070 Y127.0320
 X115.2850 Y127.8040
 X114.6480 Y128.5560
 X113.9960 Y129.2900
 X113.3280 Y130.0050
 X112.6450 Y130.7020
 X111.9460 Y131.3800
 X111.2320 Y132.0400
 X110.5030 Y132.6810
 X109.7580 Y133.3040
 X108.9980 Y133.9080
 X110.1950 Y134.6480
 X111.4230 Y135.3720
 X112.6810 Y136.0790
 X113.9680 Y136.7640
 X115.2840 Y137.4270
 X116.6280 Y138.0620
 X117.9980 Y138.6680
 X119.3950 Y139.2430
 X119.5930 Y139.3320
 X119.7760 Y139.4390
 X119.9460 Y139.5620
 X120.1000 Y139.7000
 X120.2390 Y139.8500
 X120.3630 Y140.0130
 X120.4690 Y140.1860
 X120.5590 Y140.3690
 X120.6300 Y140.5580
 X120.6840 Y140.7550
 X120.7180 Y140.9560
 X120.7330 Y141.1610
 X120.7270 Y141.3680
 X120.7010 Y141.5750
 X120.6540 Y141.7820
 X120.5840 Y141.9870
 X120.4950 Y142.1850
 X120.3880 Y142.3690
 X120.2650 Y142.5380
 X120.1270 Y142.6930
 X119.9770 Y142.8330
 X119.8140 Y142.9560
 X119.6410 Y143.0630
 X119.4580 Y143.1520
 X119.2680 Y143.2240
 X119.0720 Y143.2780
 X118.8710 Y143.3120
 X118.6660 Y143.3270
 X118.4590 Y143.3210
 X118.2510 Y143.2950
 X118.0440 Y143.2480
 X117.8390 Y143.1780
 X116.1120 Y142.4650
 X114.4240 Y141.7080
 X112.7780 Y140.9130
 X111.1740 Y140.0830
 X109.6140 Y139.2230
 X108.0980 Y138.3390
 X106.6280 Y137.4330
 X105.2040 Y136.5110
 X103.9821 Y137.2180
 X102.7290 Y137.8870
 X101.4450 Y138.5170
 X100.1300 Y139.1070
 X100.6575 Y139.5610
 X101.1940 Y140.0040
 X101.7392 Y140.4340
 X102.2926 Y140.8500
 X102.8542 Y141.2520
 X103.4233 Y141.6370
 X103.9999 Y142.0040
 X104.5836 Y142.3520
 X105.1740 Y142.6810
 X105.7710 Y142.9880
 X106.3740 Y143.2720
 X106.9820 Y143.5310
 X107.5970 Y143.7660
 X108.2160 Y143.9740
 X108.8400 Y144.1530
 X109.4690 Y144.3040
 X109.6780 Y144.3600
 X109.8770 Y144.4360
 X110.0640 Y144.5290
 X110.2400 Y144.6390
 X110.4020 Y144.7650
 X110.5500 Y144.9060
 X110.6840 Y145.0580
 X110.8020 Y145.2240
 X110.9050 Y145.4000
 X110.9900 Y145.5850
 X111.0570 Y145.7760
 X111.1050 Y145.9760
 X111.1340 Y146.1820
 X111.1420 Y146.3920
 X111.1300 Y146.6030
 X111.0950 Y146.8180
 X111.0717 Y146.9045
G0 Z-25.0000
 X104.1656
G1 Z-45.0000
 X104.1579 Y146.9010
 X103.3110 Y146.4740
 X102.4778 Y146.0110
 X101.6590 Y145.5180
 X100.8551 Y144.9960
 X100.0665 Y144.4490
 X99.2939 Y143.8770
 X98.5375 Y143.2830
 X97.7982 Y142.6720
 X97.0764 Y142.0440
 X96.3725 Y141.4030
 X95.6872 Y140.7510
 X94.6529 Y141.0630
 X93.6029 Y141.3540
 X92.5371 Y141.6250
 X91.4554 Y141.8770
 X90.3579 Y142.1080
 X89.2447 Y142.3190
 X88.1157 Y142.5100
 X86.9710 Y142.6820
 X85.8106 Y142.8330
 X84.6344 Y142.9640
 X83.4426 Y143.0750
 X82.2351 Y143.1650
 X81.0121 Y143.2360
 X79.7733 Y143.2870
 X78.5192 Y143.3170
 X77.2493 Y143.3270
 X75.9790 Y143.3170
 X74.7244 Y143.2870
 X73.4857 Y143.2360
 X72.2625 Y143.1650
 X71.0550 Y143.0740
 X69.8633 Y142.9630
 X68.6874 Y142.8320
 X67.5271 Y142.6810
 X66.3826 Y142.5100
 X65.2539 Y142.3180
 X64.1410 Y142.1070
 X63.0439 Y141.8750
 X61.9625 Y141.6240
 X60.8971 Y141.3520
 X59.8475 Y141.0610
 X58.8138 Y140.7500
 X58.1282 Y141.4020
 X57.4240 Y142.0420
 X56.7019 Y142.6700
 X55.9624 Y143.2820
 X55.2058 Y143.8740
 X54.4331 Y144.4460
 X53.6442 Y144.9940
 X52.8401 Y145.5170
 X52.0211 Y146.0100
 X51.1878 Y146.4720
 X50.3407 Y146.9000
 X50.3308 Y146.9045
G0 Z-25.0000
 X43.4267
G1 Z-45.0000
 X43.4031 Y146.8170
 X43.3683 Y146.6010
 X43.3557 Y146.3900
 X43.3642 Y146.1810
 X43.3931 Y145.9750
 X43.4414 Y145.7750
 X43.5086 Y145.5830
 X43.5936 Y145.3990
 X43.6957 Y145.2220
 X43.8142 Y145.0570
 X43.9479 Y144.9040
 X44.0964 Y144.7640
 X44.2587 Y144.6380
 X44.4339 Y144.5280
 X44.6213 Y144.4350
 X44.8200 Y144.3580
 X45.0293 Y144.3030
 X45.6571 Y144.1530
 X46.2804 Y143.9720
 X46.8990 Y143.7650
 X47.5125 Y143.5310
 X48.1206 Y143.2710
 X48.7229 Y142.9870
 X49.3193 Y142.6800
 X49.9092 Y142.3520
 X50.4925 Y142.0030
 X51.0687 Y141.6350
 X51.6376 Y141.2500
 X52.1990 Y140.8480
 X52.7524 Y140.4320
 X53.2974 Y140.0010
 X53.8339 Y139.5590
 X54.3614 Y139.1050
 X53.0504 Y138.5130
 X51.7711 Y137.8810
 X50.5226 Y137.2110
 X49.3039 Y136.5030
 X47.8792 Y137.4260
 X46.4078 Y138.3320
 X44.8908 Y139.2180
 X43.3293 Y140.0790
 X41.7242 Y140.9090
 X40.0767 Y141.7060
 X38.3879 Y142.4640
 X36.6590 Y143.1780
 X36.4536 Y143.2480
 X36.2464 Y143.2950
 X36.0386 Y143.3210
 X35.8317 Y143.3260
 X35.6268 Y143.3120
 X35.4256 Y143.2770
 X35.2293 Y143.2240
 X35.0393 Y143.1520
 X34.8571 Y143.0620
 X34.6839 Y142.9550
 X34.5211 Y142.8320
 X34.3703 Y142.6930
 X34.2325 Y142.5380
 X34.1094 Y142.3680
 X34.0024 Y142.1850
 X33.9126 Y141.9870
 X33.8432 Y141.7820
 X33.7957 Y141.5750
 X33.7696 Y141.3670
 X33.7643 Y141.1600
 X33.7792 Y140.9550
 X33.8136 Y140.7540
 X33.8671 Y140.5570
 X33.9389 Y140.3670
 X34.0285 Y140.1850
 X34.1353 Y140.0120
 X34.2587 Y139.8490
 X34.3981 Y139.6980
 X34.5528 Y139.5610
 X34.7222 Y139.4380
 X34.9060 Y139.3310
 X35.1032 Y139.2410
 X36.4997 Y138.6670
 X37.8701 Y138.0600
 X39.2140 Y137.4240
 X40.5304 Y136.7610
 X41.8185 Y136.0740
 X43.0776 Y135.3660
 X44.3071 Y134.6400
 X45.5060 Y133.8980
 X44.5421 Y133.1270
 X43.6028 Y132.3250
 X42.6882 Y131.4930
 X41.7983 Y130.6310
 X40.9333 Y129.7390
 X40.0932 Y128.8170
 X39.2779 Y127.8640
 X38.4875 Y126.8820
 X37.7222 Y125.8700
 X36.9819 Y124.8270
 X36.2667 Y123.7550
 X35.5767 Y122.6530
 X34.9118 Y121.5200
 X34.2722 Y120.3570
 X33.6581 Y119.1650
 X33.0692 Y117.9420
 X32.9876 Y117.7410
 X32.9281 Y117.5370
 X32.8899 Y117.3310
 X32.8722 Y117.1250
 X32.8750 Y116.9200
 X32.8974 Y116.7170
 X32.9392 Y116.5170
 X32.9994 Y116.3230
 X33.0782 Y116.1360
 X33.1743 Y115.9570
 X33.2878 Y115.7870
 X33.4179 Y115.6280
 X33.5642 Y115.4820
 X33.7260 Y115.3490
 X33.9031 Y115.2310
 X34.0946 Y115.1290
 X34.2954 Y115.0480
 X34.4994 Y114.9880
 X34.7054 Y114.9500
 X34.9118 Y114.9320
 X35.1171 Y114.9350
 X35.3201 Y114.9570
 X35.5193 Y114.9990
 X35.7133 Y115.0590
 X35.9006 Y115.1380
 X36.0799 Y115.2340
 X36.2496 Y115.3480
 X36.4085 Y115.4780
 X36.5551 Y115.6240
 X36.6881 Y115.7860
 X36.8058 Y115.9630
 X36.9069 Y116.1550
 X37.4847 Y117.3520
 X38.0875 Y118.5170
 X38.7151 Y119.6490
 X39.3679 Y120.7480
 X40.0457 Y121.8150
 X40.7487 Y122.8490
 X41.4772 Y123.8510
 X42.2310 Y124.8200
 X43.0101 Y125.7570
 X43.8147 Y126.6620
 X44.6450 Y127.5350
 X45.5010 Y128.3750
 X46.3825 Y129.1830
 X47.2900 Y129.9600
 X48.2233 Y130.7040
 X49.1826 Y131.4170
 X49.9897 Y130.8290
 X50.7768 Y130.2400
 X51.5437 Y129.6520
 X52.2899 Y129.0660
 X53.0150 Y128.4830
 X53.7188 Y127.9040
 X54.4008 Y127.3310
 X55.0608 Y126.7640
 X55.6985 Y126.2060
 X56.3132 Y125.6570
 X56.9050 Y125.1180
 X57.4732 Y124.5910
 X58.0176 Y124.0770
 X58.5378 Y123.5780
 X59.0335 Y123.0930
 X59.5044 Y122.6260
 X59.9500 Y122.1770
 X60.3701 Y121.7460
 X60.7643 Y121.3360
 X61.1322 Y120.9480
 X61.4735 Y120.5830
 X61.7878 Y120.2420
 X62.0747 Y119.9260
 X62.3340 Y119.6370
 X62.5654 Y119.3760
 X62.7683 Y119.1440
 X62.9426 Y118.9420
 X63.0878 Y118.7720
 X63.2036 Y118.6350
 X63.2896 Y118.5320
 X63.3456 Y118.4640
 X63.3710 Y118.4330
 X63.5365 Y118.2490
 X63.7183 Y118.0890
 X63.9142 Y117.9530
 X64.1218 Y117.8410
 X64.3388 Y117.7540
 X64.5629 Y117.6910
 X64.7918 Y117.6530
 X65.0233 Y117.6400
 X65.3717 Y117.6690
 X65.7131 Y117.7550
 X66.0404 Y117.9000
 X66.3463 Y118.1050
 X66.5082 Y118.2490
 X66.6521 Y118.4050
 X66.7778 Y118.5730
 X66.8849 Y118.7500
 X66.9735 Y118.9360
 X67.0433 Y119.1270
 X67.0943 Y119.3250
 X67.1261 Y119.5250
 X67.1386 Y119.7280
 X67.1318 Y119.9320
 X67.1054 Y120.1340
 X67.0593 Y120.3340
 X66.9932 Y120.5300
 X66.9071 Y120.7210
 X66.8007 Y120.9060
 X66.6740 Y121.0810
 X66.6307 Y121.1350
 X66.5601 Y121.2210
 X66.4628 Y121.3390
 X66.3386 Y121.4880
 X66.1882 Y121.6660
 X66.0117 Y121.8730
 X65.8092 Y122.1070
 X65.5811 Y122.3680
 X65.3276 Y122.6540
 X65.0490 Y122.9640
 X64.7456 Y123.2980
 X64.4174 Y123.6540
 X64.0650 Y124.0310
 X63.6885 Y124.4290
 X63.2881 Y124.8450
 X62.8640 Y125.2800
 X62.4167 Y125.7320
 X61.9462 Y126.1990
 X61.4529 Y126.6820
 X60.9369 Y127.1780
 X60.3989 Y127.6880
 X59.8385 Y128.2090
 X59.2564 Y128.7410
 X58.6528 Y129.2820
 X58.0276 Y129.8320
 X57.3817 Y130.3900
 X56.7147 Y130.9550
 X56.0272 Y131.5250
 X55.3194 Y132.0990
 X54.5917 Y132.6770
 X53.8440 Y133.2570
 X53.0769 Y133.8390
 X54.1708 Y134.4040
 X55.2910 Y134.9370
 X56.4383 Y135.4380
 X57.6136 Y135.9060
 X58.0104 Y135.4680
 X58.3981 Y135.0300
 X58.7767 Y134.5930
 X59.1456 Y134.1580
 X59.5050 Y133.7250
 X59.8543 Y133.2960
 X60.1936 Y132.8710
 X60.5224 Y132.4520
 X60.8407 Y132.0380
 X61.1482 Y131.6320
 X61.4447 Y131.2340
 X61.7299 Y130.8440
 X62.0036 Y130.4650
 X62.2657 Y130.0960
 X62.5158 Y129.7380
 X62.7539 Y129.3930
 X62.9796 Y129.0620
 X63.1928 Y128.7440
 X63.3931 Y128.4420
 X63.5804 Y128.1560
 X63.7544 Y127.8860
 X63.9151 Y127.6350
 X64.0621 Y127.4020
 X64.1951 Y127.1880
 X64.3143 Y126.9950
 X64.4189 Y126.8240
 X64.5090 Y126.6750
 X64.5843 Y126.5480
 X64.6447 Y126.4460
 X64.6899 Y126.3690
 X64.7196 Y126.3180
 X64.7338 Y126.2930
 X64.8943 Y126.0490
 X65.0822 Y125.8340
 X65.2936 Y125.6500
 X65.5251 Y125.4970
 X65.7731 Y125.3760
 X66.0338 Y125.2880
 X66.3036 Y125.2350
 X66.5792 Y125.2170
 X66.8439 Y125.2330
 X67.1074 Y125.2840
 X67.3664 Y125.3700
 X67.6181 Y125.4910
 X67.8010 Y125.6070
 X67.9681 Y125.7380
 X68.1189 Y125.8830
 X68.2532 Y126.0410
 X68.3704 Y126.2090
 X68.4703 Y126.3880
 X68.5521 Y126.5740
 X68.6158 Y126.7670
 X68.6610 Y126.9640
 X68.6868 Y127.1660
 X68.6935 Y127.3700
 X68.6800 Y127.5750
 X68.6464 Y127.7790
 X68.5921 Y127.9820
 X68.5168 Y128.1800
 X68.4199 Y128.3740
 X68.3953 Y128.4170
 X68.3582 Y128.4820
 X68.3088 Y128.5680
 X68.2468 Y128.6740
 X68.1726 Y128.8000
 X68.0865 Y128.9450
 X67.9883 Y129.1080
 X67.8785 Y129.2890
 X67.7568 Y129.4870
 X67.6238 Y129.7020
 X67.4792 Y129.9320
 X67.3232 Y130.1780
 X67.1563 Y130.4380
 X66.9782 Y130.7120
 X66.7892 Y131.0000
 X66.5894 Y131.3000
 X66.3790 Y131.6120
 X66.1582 Y131.9360
 X65.9268 Y132.2710
 X65.6853 Y132.6150
 X65.4336 Y132.9690
 X65.1719 Y133.3320
 X64.9006 Y133.7040
 X64.6192 Y134.0830
 X64.3283 Y134.4680
 X64.0281 Y134.8610
 X63.7183 Y135.2590
 X63.3994 Y135.6620
 X63.0714 Y136.0690
 X62.7344 Y136.4800
 X62.3888 Y136.8950
 X62.0343 Y137.3120
 X63.7647 Y137.7300
 X65.5439 Y138.0920
 X67.3717 Y138.3980
 X69.2485 Y138.6480
 X71.1743 Y138.8430
 X73.1497 Y138.9810
 X75.1746 Y139.0640
 X77.2493 Y139.0920
 X79.3256 Y139.0640
 X81.3515 Y138.9810
 X83.3272 Y138.8430
 X85.2532 Y138.6480
 X87.1297 Y138.3980
 X88.9571 Y138.0920
 X90.7356 Y137.7300
 X92.4656 Y137.3120
 X92.1111 Y136.8950
 X91.7653 Y136.4800
 X91.4283 Y136.0690
 X91.1004 Y135.6620
 X90.7814 Y135.2590
 X90.4717 Y134.8610
 X90.1713 Y134.4680
 X89.8804 Y134.0830
 X89.5990 Y133.7040
 X89.3275 Y133.3320
 X89.0658 Y132.9690
 X88.8140 Y132.6150
 X88.5724 Y132.2710
 X88.3411 Y131.9360
 X88.1201 Y131.6120
 X87.9097 Y131.3000
 X87.7099 Y131.0000
 X87.5208 Y130.7120
 X87.3426 Y130.4380
 X87.1756 Y130.1780
 X87.0196 Y129.9320
 X86.8750 Y129.7020
 X86.7418 Y129.4870
 X86.6200 Y129.2890
 X86.5101 Y129.1080
 X86.4119 Y128.9450
 X86.3257 Y128.8000
 X86.2515 Y128.6740
 X86.1896 Y128.5680
 X86.1399 Y128.4820
 X86.1028 Y128.4170
 X86.0782 Y128.3740
 X85.9814 Y128.1800
 X85.9060 Y127.9810
 X85.8517 Y127.7790
 X85.8181 Y127.5750
 X85.8047 Y127.3700
 X85.8113 Y127.1660
 X85.8374 Y126.9640
 X85.8824 Y126.7660
 X85.9461 Y126.5730
 X86.0281 Y126.3870
 X86.1279 Y126.2080
 X86.2451 Y126.0400
 X86.3794 Y125.8820
 X86.5304 Y125.7370
 X86.6975 Y125.6050
 X86.8804 Y125.4890
 X87.1319 Y125.3690
 X87.3910 Y125.2840
 X87.6544 Y125.2330
 X87.9194 Y125.2170
 X88.1947 Y125.2350
 X88.4647 Y125.2880
 X88.7253 Y125.3760
 X88.9732 Y125.4970
 X89.2047 Y125.6500
 X89.4161 Y125.8340
 X89.6039 Y126.0490
 X89.7644 Y126.2930
 X89.7769 Y126.3150
 X89.8053 Y126.3640
 X89.8492 Y126.4390
 X89.9083 Y126.5390
 X89.9825 Y126.6640
 X90.0715 Y126.8120
 X90.1753 Y126.9820
 X90.2935 Y127.1740
 X90.4257 Y127.3870
 X90.5721 Y127.6190
 X90.7321 Y127.8700
 X90.9057 Y128.1400
 X91.0926 Y128.4260
 X91.2926 Y128.7280
 X91.5054 Y129.0460
 X91.7311 Y129.3780
 X91.9690 Y129.7240
 X92.2193 Y130.0820
 X92.4814 Y130.4520
 X92.7554 Y130.8330
 X93.0410 Y131.2230
 X93.3378 Y131.6220
 X93.6458 Y132.0300
 X93.9647 Y132.4440
 X94.2943 Y132.8650
 X94.6344 Y133.2910
 X94.9846 Y133.7220
 X95.3450 Y134.1560
 X95.7150 Y134.5930
 X96.0947 Y135.0320
 X96.4839 Y135.4710
 X96.8821 Y135.9100
 X98.0590 Y135.4420
 X99.2086 Y134.9420
 X100.3313 Y134.4090
 X101.4268 Y133.8450
 X100.6594 Y133.2630
 X99.9117 Y132.6820
 X99.1835 Y132.1040
 X98.4756 Y131.5290
 X97.7879 Y130.9590
 X97.1207 Y130.3940
 X96.4744 Y129.8360
 X95.8492 Y129.2860
 X95.2453 Y128.7440
 X94.6629 Y128.2120
 X94.1024 Y127.6900
 X93.5639 Y127.1810
 X93.0478 Y126.6840
 X92.5543 Y126.2010
 X92.0836 Y125.7330
 X91.6361 Y125.2810
 X91.2118 Y124.8470
 X90.8113 Y124.4300
 X90.4346 Y124.0320
 X90.0819 Y123.6550
 X89.7538 Y123.2990
 X89.4500 Y122.9650
 X89.1714 Y122.6540
 X88.9176 Y122.3680
 X88.6894 Y122.1070
 X88.4868 Y121.8720
 X88.3103 Y121.6650
 X88.1597 Y121.4870
 X88.0356 Y121.3380
 X87.9381 Y121.2200
 X87.8675 Y121.1340
 X87.8242 Y121.0800
 X87.6972 Y120.9040
 X87.5907 Y120.7200
 X87.5044 Y120.5290
 X87.4383 Y120.3330
 X87.3922 Y120.1330
 X87.3658 Y119.9310
 X87.3590 Y119.7270
 X87.3717 Y119.5250
 X87.4035 Y119.3240
 X87.4546 Y119.1270
 X87.5244 Y118.9350
 X87.6131 Y118.7500
 X87.7204 Y118.5730
 X87.8461 Y118.4050
 X87.9901 Y118.2490
 X88.1522 Y118.1050
 X88.4578 Y117.9000
 X88.7851 Y117.7550
 X89.1268 Y117.6690
 X89.4751 Y117.6400
 X89.7067 Y117.6530
 X89.9356 Y117.6910
 X90.1597 Y117.7530
 X90.3767 Y117.8410
 X90.5843 Y117.9520
 X90.7801 Y118.0880
 X90.9619 Y118.2490
 X91.1275 Y118.4330
 X91.1501 Y118.4600
 X91.2033 Y118.5250
 X91.2869 Y118.6260
 X91.4003 Y118.7610
 X91.5433 Y118.9290
 X91.7156 Y119.1290
 X91.9167 Y119.3590
 X92.1464 Y119.6190
 X92.4042 Y119.9070
 X92.6899 Y120.2220
 X93.0031 Y120.5630
 X93.3433 Y120.9280
 X93.7104 Y121.3160
 X94.1040 Y121.7260
 X94.5238 Y122.1570
 X94.9692 Y122.6070
 X95.4400 Y123.0750
 X95.9360 Y123.5600
 X96.4565 Y124.0600
 X97.0015 Y124.5760
 X97.5707 Y125.1040
 X98.1633 Y125.6440
 X98.7794 Y126.1940
 X99.4185 Y126.7540
 X100.0801 Y127.3230
 X100.7642 Y127.8980
 X101.4701 Y128.4780
 X102.1976 Y129.0630
 X102.9464 Y129.6520
 X103.7161 Y130.2420
 X104.5064 Y130.8320
 X105.3170 Y131.4220
 X106.0850 Y130.8550
 X106.8370 Y130.2680
 X107.5720 Y129.6610
 X108.2910 Y129.0320
 X108.9930 Y128.3840
 X109.6790 Y127.7150
 X110.3490 Y127.0250
 X111.0020 Y126.3140
 X111.6400 Y125.5830
 X112.2610 Y124.8320
 X112.8660 Y124.0590
 X113.4550 Y123.2660
 X114.0280 Y122.4520
 X114.5850 Y121.6170
 X115.1260 Y120.7610
 X115.6510 Y119.8840
 X116.4510 Y118.4490
 X117.2110 Y116.9610
 X117.9300 Y115.4170
 X118.6090 Y113.8180
 X119.2480 Y112.1640
 X119.8460 Y110.4540
 X120.4050 Y108.6870
 X120.9240 Y106.8620
 X121.4030 Y104.9803
 X121.8430 Y103.0400
 X122.2430 Y101.0410
 X122.6040 Y98.9828
 X122.9260 Y96.8647
 X123.2080 Y94.6865
 X123.4520 Y92.4475
 X123.6560 Y90.1471
 X122.4910 Y90.0850
 X121.3470 Y90.0089
 X120.2240 Y89.9199
 X119.1240 Y89.8189
 X118.0460 Y89.7067
 X116.9920 Y89.5840
 X115.9610 Y89.4519
 X114.9550 Y89.3111
 X113.9740 Y89.1626
 X113.0200 Y89.0072
 X112.0910 Y88.8457
 X111.1890 Y88.6790
 X110.3150 Y88.5082
 X109.4690 Y88.3337
 X108.6520 Y88.1567
 X107.8640 Y87.9779
 X107.5150 Y88.5719
 X107.2770 Y88.9500
 X107.0240 Y89.3356
 X106.7570 Y89.7279
 X106.4750 Y90.1265
 X106.1790 Y90.5307
 X105.8670 Y90.9394
 X105.5390 Y91.3525
 X105.1950 Y91.7690
 X104.8346 Y92.1882
 X104.4575 Y92.6094
 X104.0636 Y93.0321
 X103.6522 Y93.4554
 X103.2233 Y93.8788
 X102.7764 Y94.3014
 X102.3111 Y94.7228
 X101.8272 Y95.1421
 X101.3244 Y95.5586
 X100.8022 Y95.9717
 X100.2606 Y96.3807
 X99.6989 Y96.7849
 X99.1169 Y97.1835
 X98.5144 Y97.5761
 X97.8910 Y97.9618
 X97.2464 Y98.3400
 X96.5801 Y98.7099
 X95.8921 Y99.0710
 X95.1818 Y99.4224
 X94.4489 Y99.7636
 X93.6932 Y100.0938
 X92.9144 Y100.4122
 X92.1121 Y100.7185
 X91.2860 Y101.0117
 X91.2803
 X90.4785 Y101.2761
 X89.6657 Y101.5236
 X88.8422 Y101.7543
 X88.0083 Y101.9681
 X87.1640 Y102.1650
 X86.3096 Y102.3447
 X85.4453 Y102.5076
 X84.5711 Y102.6535
 X83.6875 Y102.7822
 X82.7943 Y102.8939
 X81.8921 Y102.9885
 X80.9807 Y103.0660
 X80.0606 Y103.1262
 X79.1319 Y103.1693
 X78.1947 Y103.1951
 X77.2493 Y103.2037
 X76.3036 Y103.1951
 X75.3664 Y103.1693
 X74.4375 Y103.1262
 X73.5172 Y103.0660
 X72.6058 Y102.9885
 X71.7033 Y102.8939
 X70.8101 Y102.7822
 X69.9264 Y102.6535
 X69.0521 Y102.5076
 X68.1875 Y102.3447
 X67.3331 Y102.1650
 X66.4886 Y101.9681
 X65.6546 Y101.7543
 X64.8311 Y101.5236
 X64.0183 Y101.2761
 X63.2165 Y101.0117
 X63.2125
 X62.3864 Y100.7185
 X61.5840 Y100.4122
 X60.8051 Y100.0938
 X60.0494 Y99.7636
 X59.3167 Y99.4224
 X58.6064 Y99.0710
 X57.9183 Y98.7099
 X57.2521 Y98.3400
 X56.6074 Y97.9618
 X55.9840 Y97.5761
 X55.3815 Y97.1835
 X54.7996 Y96.7849
 X54.2379 Y96.3807
 X53.6962 Y95.9717
 X53.1740 Y95.5586
 X52.6711 Y95.1421
 X52.1872 Y94.7228
 X51.7219 Y94.3014
 X51.2750 Y93.8788
 X50.8461 Y93.4554
 X50.4349 Y93.0321
 X50.0408 Y92.6094
 X49.6639 Y92.1882
 X49.3036 Y91.7690
 X48.9597 Y91.3525
 X48.6319 Y90.9394
 X48.3197 Y90.5307
 X48.0231 Y90.1265
 X47.7414 Y89.7279
 X47.4743 Y89.3356
 X47.2218 Y88.9500
 X46.9833 Y88.5719
 X46.6349 Y87.9779
 X45.8465 Y88.1567
 X45.0290 Y88.3337
 X44.1826 Y88.5082
 X43.3082 Y88.6793
 X42.4063 Y88.8460
 X41.4772 Y89.0075
 X40.5219 Y89.1631
 X39.5408 Y89.3117
 X38.5347 Y89.4525
 X37.5039 Y89.5846
 X36.4492 Y89.7072
 X35.3710 Y89.8194
 X34.2701 Y89.9204
 X33.1471 Y90.0093
 X32.0024 Y90.0851
 X30.8368 Y90.1471
 X30.9453 Y91.4400
 X31.0660 Y92.7128
 X31.1986 Y93.9654
 X31.3435 Y95.1985
 X31.5004 Y96.4119
 X31.6696 Y97.6061
 X31.8510 Y98.7811
 X32.0446 Y99.9374
 X32.2507 Y101.0749
 X32.4690 Y102.1939
 X32.6999 Y103.2947
 X32.9432 Y104.3775
 X33.1990 Y105.4430
 X33.4675 Y106.4900
 X33.7485 Y107.5200
 X34.0421 Y108.5330
 X34.0933 Y108.7430
 X34.1226 Y108.9540
 X34.1307 Y109.1630
 X34.1181 Y109.3700
 X34.0854 Y109.5730
 X34.0337 Y109.7700
 X33.9636 Y109.9610
 X33.8757 Y110.1440
 X33.7707 Y110.3180
 X33.6493 Y110.4810
 X33.5124 Y110.6330
 X33.3606 Y110.7710
 X33.1946 Y110.8950
 X33.0151 Y111.0030
 X32.8229 Y111.0940
 X32.6186 Y111.1660
 X32.4081 Y111.2180
 X32.1975 Y111.2470
 X31.9882 Y111.2550
 X31.7815 Y111.2430
 X31.5788 Y111.2100
 X31.3812 Y111.1580
 X31.1903 Y111.0880
 X31.0072 Y111.0000
 X30.8333 Y110.8950
 X30.6701 Y110.7740
 X30.5186 Y110.6370
 X30.3803 Y110.4850
 X30.2564 Y110.3190
 X30.1485 Y110.1390
 X30.0575 Y109.9470
 X29.9851 Y109.7430
 X29.6728 Y108.6650
 X29.3742 Y107.5700
 X29.0890 Y106.4560
 X28.8174 Y105.3250
 X28.5593 Y104.1744
 X28.3146 Y103.0058
 X28.0833 Y101.8182
 X27.8654 Y100.6115
 X27.6608 Y99.3854
 X27.4696 Y98.1399
 X27.2917 Y96.8743
 X27.1268 Y95.5889
 X26.9753 Y94.2832
 X26.8369 Y92.9569
 X26.7117 Y91.6100
 X26.5994 Y90.2421
 X25.4458 Y90.2324
 X24.2772 Y90.2069
 X23.0943 Y90.1650
 X21.8971 Y90.1061
 X20.6865 Y90.0293
 X19.4626 Y89.9340
 X18.2263 Y89.8196
 X16.9777 Y89.6853
 X15.7174 Y89.5303
 X14.4459 Y89.3542
 X13.1636 Y89.1561
 X11.8710 Y88.9354
 X10.5686 Y88.6915
 X9.2567 Y88.4235
 X7.9360 Y88.1308
 X6.6069 Y87.8128
 X6.5874 Y87.8069
G0 Z-25.0000
 Y83.7087
G1 Z-45.0000
 X6.7870 Y83.6672
 X6.9928 Y83.6450
 X7.2021 Y83.6433
 X7.4138 Y83.6631
 X7.6264 Y83.7047
 X8.8630 Y84.0003
 X10.0928 Y84.2724
 X11.3154 Y84.5217
 X12.5303 Y84.7488
 X13.7370 Y84.9543
 X14.9352 Y85.1390
 X16.1242 Y85.3035
 X17.3037 Y85.4482
 X18.4731 Y85.5738
 X19.6321 Y85.6811
 X20.7800 Y85.7706
 X21.9165 Y85.8429
 X23.0411 Y85.8986
 X24.1533 Y85.9385
 X25.2528 Y85.9632
 X26.3388 Y85.9731
 X26.2642 Y84.1337
 X26.2101 Y82.2592
 X26.1771 Y80.3485
 X26.1653 Y78.4007
 X24.7303 Y78.1626
 X23.3008 Y77.8990
 X21.8806 Y77.6089
 X20.4728 Y77.2911
 X19.0808 Y76.9444
 X17.7084 Y76.5679
 X16.3587 Y76.1603
 X15.0353 Y75.7204
 X13.7415 Y75.2472
 X12.4809 Y74.7396
 X11.2569 Y74.1964
 X10.0729 Y73.6165
 X8.9324 Y72.9988
 X7.8388 Y72.3419
 X6.7955 Y71.6451
 X6.5874 Y71.4899
G0 Z-25.0000
 X37.7215 Y70.6354
G1 Z-45.0000
 X35.6381 Y70.0229
 X33.6031 Y69.3560
 X31.6175 Y68.6357
 X29.6821 Y67.8629
 X29.8925 Y69.6149
 X30.0668 Y71.3360
 X30.2043 Y73.0260
 X30.3047 Y74.6842
 X32.0376 Y74.8681
 X33.7568 Y75.0219
 X35.4553 Y75.1481
 X37.1257 Y75.2486
 X38.7613 Y75.3256
 X40.3546 Y75.3811
 X41.8986 Y75.4175
 X43.3864 Y75.4367
 X43.4436 Y74.5821
 X43.5369 Y73.7353
 X43.6678 Y72.8978
 X43.8374 Y72.0712
 X43.8401 Y72.0644
 X43.1228 Y71.9237
 X42.3904 Y71.7731
 X41.6438 Y71.6118
 X40.8836 Y71.4399
 X40.1106 Y71.2567
 X39.3254 Y71.0618
 X38.5288 Y70.8549
 X37.7215 Y70.6354
G0 Z-25.0000
 X43.6363 Y79.6947
G1 Z-45.0000
 X42.1407 Y79.6790
 X40.5868 Y79.6461
 X38.9810 Y79.5938
 X37.3299 Y79.5199
 X35.6397 Y79.4222
 X33.9172 Y79.2987
 X32.1690 Y79.1472
 X30.4014 Y78.9656
 X30.4174 Y80.7424
 X30.4508 Y82.4864
 X30.5019 Y84.1981
 X30.5707 Y85.8778
 X31.6022 Y85.8224
 X32.6168 Y85.7557
 X33.6140 Y85.6786
 X34.5933 Y85.5914
 X35.5543 Y85.4950
 X36.4964 Y85.3901
 X37.4190 Y85.2772
 X38.3219 Y85.1572
 X39.2043 Y85.0306
 X40.0658 Y84.8979
 X40.9060 Y84.7601
 X41.7243 Y84.6175
 X42.5201 Y84.4711
 X43.2932 Y84.3214
 X44.0429 Y84.1692
 X44.7686 Y84.0149
 X44.4040 Y82.9429
 X44.0933 Y81.8640
 X43.8374 Y80.7806
 X43.6363 Y79.6947
G0 Z-25.0000
 X77.2493 Y57.3758
G1 Z-45.0000
 X76.3624 Y57.3864
 X75.5011 Y57.4178
 X74.6654 Y57.4692
 X73.8547 Y57.5399
 X73.0686 Y57.6296
 X72.3068 Y57.7374
 X71.5688 Y57.8626
 X70.8543 Y58.0049
 X70.1631 Y58.1635
 X69.4944 Y58.3375
 X68.8482 Y58.5267
 X68.2240 Y58.7303
 X67.6214 Y58.9475
 X67.0400 Y59.1778
 X66.4794 Y59.4207
 X65.9393 Y59.6753
 X65.4192 Y59.9411
 X64.9189 Y60.2175
 X64.4379 Y60.5039
 X63.9758 Y60.7994
 X63.5324 Y61.1038
 X63.1069 Y61.4161
 X62.6994 Y61.7358
 X62.3093 Y62.0622
 X61.9363 Y62.3947
 X61.5799 Y62.7328
 X61.2399 Y63.0757
 X60.9156 Y63.4228
 X60.6069 Y63.7735
 X60.3133 Y64.1271
 X60.0346 Y64.4831
 X59.7701 Y64.8407
 X59.9797 Y64.8781
 X60.7754 Y65.0222
 X61.5919 Y65.1715
 X62.3517 Y65.3115
 X63.1325 Y65.4540
 X63.9343 Y65.5975
 X64.7567 Y65.7408
 X65.5992 Y65.8822
 X66.4617 Y66.0207
 X67.3439 Y66.1546
 X68.2454 Y66.2825
 X69.1660 Y66.4031
 X70.1051 Y66.5149
 X71.0628 Y66.6164
 X72.0385 Y66.7065
 X73.0321 Y66.7836
 X74.0432 Y66.8464
 X75.0714 Y66.8933
 X76.1165 Y66.9231
 X77.2493 Y66.9354
 X78.3819 Y66.9243
 X79.4958 Y66.8918
 X80.5906 Y66.8400
 X81.6656 Y66.7703
 X82.7207 Y66.6846
 X83.7556 Y66.5844
 X84.7697 Y66.4718
 X85.7629 Y66.3482
 X86.7346 Y66.2154
 X87.6844 Y66.0751
 X88.6121 Y65.9290
 X89.5172 Y65.7790
 X90.3996 Y65.6268
 X91.2585 Y65.4737
 X92.0938 Y65.3219
 X92.9051 Y65.1729
 X93.8293 Y65.0028
 X94.7269 Y64.8407
 X94.4625 Y64.4831
 X94.1836 Y64.1271
 X93.8901 Y63.7735
 X93.5814 Y63.4228
 X93.2572 Y63.0757
 X92.9171 Y62.7328
 X92.5608 Y62.3947
 X92.1878 Y62.0622
 X91.7976 Y61.7358
 X91.3901 Y61.4161
 X90.9650 Y61.1038
 X90.5215 Y60.7994
 X90.0596 Y60.5039
 X89.5786 Y60.2175
 X89.0783 Y59.9411
 X88.5583 Y59.6753
 X88.0183 Y59.4207
 X87.4578 Y59.1778
 X86.8765 Y58.9475
 X86.2739 Y58.7303
 X85.6497 Y58.5267
 X85.0036 Y58.3375
 X84.3351 Y58.1635
 X83.6439 Y58.0049
 X82.9294 Y57.8626
 X82.1915 Y57.7374
 X81.4297 Y57.6296
 X80.6438 Y57.5399
 X79.8331 Y57.4692
 X78.9972 Y57.4178
 X78.1361 Y57.3864
 X77.2493 Y57.3758
G0 Z-25.0000
 X106.5350 Y73.0250
G1 Z-45.0000
 X106.4680 Y72.7492
 X105.7400 Y72.8442
 X105.0460 Y72.9278
 X104.3869 Y73.0010
 X103.7656 Y73.0644
 X103.1825 Y73.1186
 X102.6396 Y73.1644
 X102.1381 Y73.2026
 X101.6796 Y73.2338
 X101.2654 Y73.2587
 X100.8971 Y73.2781
 X100.5763 Y73.2925
 X100.3043 Y73.3028
 X100.0826 Y73.3097
 X99.9128 Y73.3140
 X99.7964 Y73.3163
 X99.7346 Y73.3172
 X99.7194
 X99.5042 Y73.3064
 X99.2953 Y73.2746
 X99.0933 Y73.2229
 X98.8997 Y73.1524
 X98.7154 Y73.0640
 X98.5414 Y72.9589
 X98.3788 Y72.8381
 X98.2286 Y72.7024
 X98.0919 Y72.5532
 X97.9699 Y72.3914
 X97.8635 Y72.2181
 X97.7736 Y72.0342
 X97.7017 Y71.8408
 X97.6485 Y71.6390
 X97.6151 Y71.4299
 X97.6028 Y71.2143
 X97.6121 Y70.9978
 X97.6428 Y70.7875
 X97.6935 Y70.5843
 X97.7633 Y70.3894
 X97.8513 Y70.2039
 X97.9561 Y70.0287
 X98.0768 Y69.8650
 X98.2125 Y69.7138
 X98.3618 Y69.5763
 X98.5240 Y69.4533
 X98.6979 Y69.3463
 X98.8825 Y69.2558
 X99.0765 Y69.1833
 X99.2790 Y69.1297
 X99.4892 Y69.0963
 X99.7057 Y69.0839
 X99.7354 Y69.0833
 X99.7996 Y69.0818
 X99.8975 Y69.0793
 X100.0285 Y69.0753
 X100.1917 Y69.0693
 X100.3864 Y69.0613
 X100.6117 Y69.0506
 X100.8668 Y69.0371
 X101.1513 Y69.0203
 X101.4640 Y69.0000
 X101.8044 Y68.9760
 X102.1717 Y68.9475
 X102.5649 Y68.9144
 X102.9835 Y68.8767
 X103.4265 Y68.8335
 X103.8935 Y68.7847
 X103.5328 Y68.6372
 X103.1447 Y68.5188
 X102.7281 Y68.4283
 X102.2814 Y68.3646
 X101.8035 Y68.3265
 X101.2928 Y68.3128
 X100.7483 Y68.3224
 X100.1683 Y68.3539
 X99.5518 Y68.4064
 X98.8972 Y68.4785
 X98.2033 Y68.5689
 X97.4688 Y68.6768
 X96.6922 Y68.8008
 X95.8724 Y68.9397
 X95.0078 Y69.0922
 X94.0972 Y69.2575
 X93.6714 Y69.3361
 X92.8279 Y69.4911
 X91.9593 Y69.6490
 X91.0657 Y69.8081
 X90.1471 Y69.9664
 X89.2037 Y70.1222
 X88.2360 Y70.2740
 X87.2439 Y70.4196
 X86.2276 Y70.5576
 X85.1874 Y70.6860
 X84.1233 Y70.8031
 X83.0356 Y70.9069
 X81.9244 Y70.9960
 X80.7901 Y71.0683
 X79.6326 Y71.1222
 X78.4524 Y71.1558
 X77.2493 Y71.1674
 X75.9174 Y71.1525
 X74.6143 Y71.1108
 X73.6200 Y71.0619
 X72.6429 Y70.9993
 X71.6831 Y70.9244
 X70.7404 Y70.8382
 X69.8153 Y70.7418
 X68.9078 Y70.6365
 X68.0179 Y70.5233
 X67.1458 Y70.4033
 X66.2918 Y70.2776
 X65.4557 Y70.1476
 X64.6379 Y70.0142
 X63.8383 Y69.8785
 X63.0574 Y69.7417
 X62.2947 Y69.6050
 X61.5508 Y69.4694
 X60.8257 Y69.3361
 X60.3847 Y69.2546
 X59.4742 Y69.0894
 X58.6096 Y68.9369
 X57.7899 Y68.7981
 X57.0135 Y68.6743
 X56.2792 Y68.5667
 X55.5856 Y68.4764
 X54.9313 Y68.4046
 X54.3151 Y68.3525
 X53.7356 Y68.3214
 X53.1914 Y68.3124
 X52.6813 Y68.3267
 X52.2037 Y68.3653
 X51.7576 Y68.4299
 X51.3414 Y68.5211
 X50.9539 Y68.6404
 X50.5938 Y68.7889
 X51.0660 Y68.8374
 X51.5142 Y68.8803
 X51.9372 Y68.9178
 X52.3346 Y68.9504
 X52.7051 Y68.9785
 X53.0483 Y69.0022
 X53.3633 Y69.0221
 X53.6492 Y69.0385
 X53.9051 Y69.0515
 X54.1304 Y69.0618
 X54.3243 Y69.0696
 X54.4858 Y69.0751
 X54.6143 Y69.0789
 X54.7088 Y69.0811
 X54.7686 Y69.0821
 X54.7928 Y69.0824
 X55.0090 Y69.0951
 X55.2189 Y69.1289
 X55.4213 Y69.1825
 X55.6151 Y69.2553
 X55.7996 Y69.3457
 X55.9733 Y69.4531
 X56.1354 Y69.5760
 X56.2847 Y69.7136
 X56.4203 Y69.8649
 X56.5410 Y70.0286
 X56.6458 Y70.2039
 X56.7336 Y70.3894
 X56.8035 Y70.5843
 X56.8542 Y70.7875
 X56.8849 Y70.9978
 X56.8943 Y71.2143
 X56.8819 Y71.4299
 X56.8486 Y71.6389
 X56.7954 Y71.8407
 X56.7233 Y72.0339
 X56.6336 Y72.2178
 X56.5271 Y72.3910
 X56.4050 Y72.5526
 X56.2685 Y72.7017
 X56.1183 Y72.8372
 X55.9556 Y72.9579
 X55.7817 Y73.0629
 X55.5972 Y73.1513
 X55.4036 Y73.2217
 X55.2018 Y73.2733
 X54.9928 Y73.3050
 X54.7776 Y73.3157
 X54.7625
 X54.7007 Y73.3151
 X54.5842 Y73.3131
 X54.4143 Y73.3089
 X54.1926 Y73.3021
 X53.9207 Y73.2918
 X53.5997 Y73.2772
 X53.2315 Y73.2579
 X52.8174 Y73.2331
 X52.3588 Y73.2019
 X51.8572 Y73.1638
 X51.3143 Y73.1179
 X50.7314 Y73.0637
 X50.1099 Y73.0006
 X49.4514 Y72.9275
 X48.7574 Y72.8439
 X48.0293 Y72.7492
 X47.9617 Y73.0250
 X47.8396 Y73.6101
 X47.7421 Y74.2031
 X47.6689 Y74.8029
 X47.6199 Y75.4088
 X48.3529 Y75.3918
 X49.0519 Y75.3722
 X49.7151 Y75.3506
 X50.3410 Y75.3272
 X50.9276 Y75.3028
 X51.4736 Y75.2776
 X51.9771 Y75.2524
 X52.4364 Y75.2275
 X52.8500 Y75.2036
 X53.2161 Y75.1811
 X53.5331 Y75.1604
 X53.7992 Y75.1421
 X54.0129 Y75.1268
 X54.1725 Y75.1147
 X54.2762 Y75.1067
 X54.3226 Y75.1029
 X54.5392 Y75.0944
 X54.7513 Y75.1079
 X54.9578 Y75.1421
 X55.1578 Y75.1960
 X55.3499 Y75.2689
 X55.5329 Y75.3594
 X55.7058 Y75.4669
 X55.8674 Y75.5903
 X56.0165 Y75.7285
 X56.1521 Y75.8806
 X56.2728 Y76.0456
 X56.3776 Y76.2225
 X56.4653 Y76.4103
 X56.5349 Y76.6081
 X56.5850 Y76.8147
 X56.6146 Y77.0294
 X56.6222 Y77.2460
 X56.6083 Y77.4581
 X56.5739 Y77.6647
 X56.5196 Y77.8644
 X56.4468 Y78.0564
 X56.3561 Y78.2393
 X56.2487 Y78.4121
 X56.1256 Y78.5736
 X55.9875 Y78.7225
 X55.8357 Y78.8579
 X55.6710 Y78.9785
 X55.4943 Y79.0832
 X55.3068 Y79.1708
 X55.1092 Y79.2403
 X54.9026 Y79.2903
 X54.6881 Y79.3197
 X54.5932 Y79.3279
 X54.4485 Y79.3400
 X54.2549 Y79.3551
 X54.0138 Y79.3733
 X53.7268 Y79.3939
 X53.3950 Y79.4164
 X53.0200 Y79.4404
 X52.6029 Y79.4657
 X52.1453 Y79.4917
 X51.6483 Y79.5178
 X51.1135 Y79.5439
 X50.5419 Y79.5692
 X49.9353 Y79.5935
 X49.2947 Y79.6164
 X48.6218 Y79.6374
 X47.9175 Y79.6558
 X48.1026 Y80.4960
 X48.3290 Y81.3346
 X48.5960 Y82.1704
 X48.9028 Y83.0019
 X49.4514 Y82.8490
 X49.9694 Y82.7001
 X50.4567 Y82.5561
 X50.9122 Y82.4176
 X51.3357 Y82.2857
 X51.7264 Y82.1607
 X52.0839 Y82.0435
 X52.4076 Y81.9350
 X52.6969 Y81.8357
 X52.9511 Y81.7465
 X53.1700 Y81.6682
 X53.3526 Y81.6015
 X53.4986 Y81.5471
 X53.6074 Y81.5058
 X53.6783 Y81.4782
 X53.7108 Y81.4653
 X54.1061 Y81.3490
 X54.5046 Y81.3111
 X54.8154 Y81.3342
 X55.1171 Y81.4019
 X55.4051 Y81.5124
 X55.6743 Y81.6635
 X55.9200 Y81.8531
 X56.1372 Y82.0792
 X56.3212 Y82.3397
 X56.4671 Y82.6326
 X56.5383 Y82.8374
 X56.5876 Y83.0440
 X56.6156 Y83.2517
 X56.6226 Y83.4586
 X56.6096 Y83.6635
 X56.5769 Y83.8651
 X56.5253 Y84.0619
 X56.4551 Y84.2526
 X56.3671 Y84.4357
 X56.2619 Y84.6099
 X56.1400 Y84.7738
 X56.0021 Y84.9260
 X55.8486 Y85.0650
 X55.6803 Y85.1897
 X55.4975 Y85.2985
 X55.3011 Y85.3899
 X55.2426 Y85.4133
 X55.1535 Y85.4485
 X55.0342 Y85.4947
 X54.8851 Y85.5515
 X54.7067 Y85.6185
 X54.4992 Y85.6949
 X54.2631 Y85.7803
 X53.9986 Y85.8740
 X53.7064 Y85.9757
 X53.3865 Y86.0846
 X53.0397 Y86.2003
 X52.6661 Y86.3221
 X52.2661 Y86.4496
 X51.8403 Y86.5821
 X51.3889 Y86.7193
 X50.9122 Y86.8603
 X51.3042 Y87.4367
 X51.7343 Y88.0283
 X52.2040 Y88.6322
 X52.7150 Y89.2456
 X53.2686 Y89.8653
 X53.8664 Y90.4886
 X54.5099 Y91.1122
 X55.2004 Y91.7335
 X55.9394 Y92.3492
 X56.7287 Y92.9565
 X57.5697 Y93.5524
 X58.4636 Y94.1339
 X59.4122 Y94.6982
 X60.4169 Y95.2421
 X61.4792 Y95.7629
 X62.6004 Y96.2572
 X62.8375 Y95.7654
 X62.9243 Y95.6039
 X63.1050 Y95.2706
 X63.2193 Y95.0776
 X63.3957 Y94.7854
 X63.5240 Y94.5872
 X63.7100 Y94.3114
 X63.8475 Y94.1158
 X64.0476 Y93.8471
 X64.1894 Y93.6612
 X64.4156 Y93.3828
 X64.5507 Y93.2203
 X64.8536 Y92.8813
 X64.9310 Y92.7944
 X65.3278 Y92.3863
 X65.4643 Y92.2554
 X65.7465 Y91.9879
 X65.9192 Y91.8351
 X66.1861 Y91.6038
 X66.3724 Y91.4493
 X66.6436 Y91.2331
 X66.8381 Y91.0842
 X67.1235 Y90.8760
 X67.3175 Y90.7369
 X67.6318 Y90.5261
 X67.8110 Y90.4075
 X68.2396 Y90.1443
 X68.3194 Y90.0946
 X68.8390 Y89.8025
 X69.0111 Y89.7129
 X69.3778 Y89.5256
 X69.5900 Y89.4236
 X69.9290 Y89.2667
 X70.1592 Y89.1657
 X70.4982 Y89.0225
 X70.7324 Y88.9304
 X71.0851 Y88.7981
 X71.3151 Y88.7153
 X71.7054 Y88.5858
 X71.9064 Y88.5208
 X72.4593 Y88.3596
 X72.5086 Y88.3458
 X73.1193 Y88.1931
 X73.3175 Y88.1504
 X73.7406 Y88.0608
 X73.9818 Y88.0167
 X74.3744 Y87.9504
 X74.6310 Y87.9119
 X75.0183 Y87.8594
 X75.2786 Y87.8304
 X75.6797 Y87.7919
 X75.9303 Y87.7712
 X76.3713 Y87.7465
 X76.5864 Y87.7356
 X77.2478 Y87.7232
 X77.9093 Y87.7356
 X78.1242 Y87.7465
 X78.5651 Y87.7712
 X78.8160 Y87.7919
 X79.2171 Y87.8304
 X79.4760 Y87.8594
 X79.8661 Y87.9119
 X80.1208 Y87.9504
 X80.5153 Y88.0181
 X80.7533 Y88.0608
 X81.1835 Y88.1515
 X81.3750 Y88.1931
 X81.9896 Y88.3458
 X82.0199 Y88.3557
 X82.5917 Y88.5208
 X82.7832 Y88.5829
 X83.1843 Y88.7167
 X83.4035 Y88.7953
 X83.7686 Y88.9315
 X83.9918 Y89.0211
 X84.3432 Y89.1686
 X84.5624 Y89.2638
 X84.9165 Y89.4278
 X85.1151 Y89.5228
 X85.5035 Y89.7228
 X85.6537 Y89.7996
 X86.1815 Y90.0974
 X86.2119 Y90.1168
 X86.6900 Y90.4103
 X86.8444 Y90.5122
 X87.1849 Y90.7408
 X87.3612 Y90.8665
 X87.6657 Y91.0897
 X87.8435 Y91.2260
 X88.1342 Y91.4578
 X88.3039 Y91.5967
 X88.5932 Y91.8490
 X88.7435 Y91.9826
 X89.0588 Y92.2804
 X89.1636 Y92.3810
 X89.5704 Y92.7983
 X89.5993 Y92.8314
 X89.9521 Y93.2269
 X90.0621 Y93.3606
 X90.3129 Y93.6693
 X90.4385 Y93.8319
 X90.6563 Y94.1268
 X90.7800 Y94.3004
 X90.9815 Y94.6010
 X91.0943 Y94.7774
 X91.2888 Y95.0969
 X91.3864 Y95.2639
 X91.5918 Y95.6414
 X91.6553 Y95.7585
 X91.8949 Y96.2572
 X93.0161 Y95.7629
 X94.0785 Y95.2421
 X95.0832 Y94.6982
 X96.0318 Y94.1339
 X96.9258 Y93.5524
 X97.7667 Y92.9565
 X98.5561 Y92.3492
 X99.2953 Y91.7335
 X99.9858 Y91.1122
 X100.6292 Y90.4886
 X101.2269 Y89.8653
 X101.7806 Y89.2456
 X102.2915 Y88.6322
 X102.7614 Y88.0283
 X103.1915 Y87.4367
 X103.5833 Y86.8603
 X103.1067 Y86.7193
 X102.6553 Y86.5821
 X102.2294 Y86.4496
 X101.8296 Y86.3221
 X101.4560 Y86.2003
 X101.1092 Y86.0846
 X100.7894 Y85.9757
 X100.4972 Y85.8740
 X100.2329 Y85.7803
 X99.9968 Y85.6949
 X99.7894 Y85.6185
 X99.6111 Y85.5515
 X99.4621 Y85.4947
 X99.3431 Y85.4485
 X99.2542 Y85.4133
 X99.1960 Y85.3899
 X98.9994 Y85.2985
 X98.8168 Y85.1897
 X98.6485 Y85.0653
 X98.4950 Y84.9262
 X98.3572 Y84.7742
 X98.2354 Y84.6104
 X98.1303 Y84.4364
 X98.0424 Y84.2535
 X97.9722 Y84.0631
 X97.9207 Y83.8664
 X97.8879 Y83.6651
 X97.8749 Y83.4603
 X97.8819 Y83.2538
 X97.9097 Y83.0464
 X97.9589 Y82.8399
 X98.0300 Y82.6354
 X98.1757 Y82.3419
 X98.3596 Y82.0808
 X98.5768 Y81.8543
 X98.8224 Y81.6643
 X99.0917 Y81.5129
 X99.3797 Y81.4022
 X99.6815 Y81.3343
 X99.9925 Y81.3111
 X100.3906 Y81.3490
 X100.7849 Y81.4653
 X100.8154 Y81.4776
 X100.8847 Y81.5046
 X100.9921 Y81.5454
 X101.1371 Y81.5994
 X101.3189 Y81.6660
 X101.5371 Y81.7442
 X101.7911 Y81.8332
 X102.0803 Y81.9325
 X102.4042 Y82.0411
 X102.7621 Y82.1585
 X103.1535 Y82.2836
 X103.5779 Y82.4160
 X104.0344 Y82.5549
 X104.5229 Y82.6992
 X105.0430 Y82.8485
 X105.5930 Y83.0019
 X105.9000 Y82.1704
 X106.1670 Y81.3346
 X106.3930 Y80.4960
 X106.5790 Y79.6558
 X105.8750 Y79.6375
 X105.2020 Y79.6168
 X104.5614 Y79.5940
 X103.9547 Y79.5697
 X103.3833 Y79.5444
 X102.8485 Y79.5185
 X102.3515 Y79.4922
 X101.8939 Y79.4662
 X101.4769 Y79.4410
 X101.1019 Y79.4168
 X100.7701 Y79.3942
 X100.4832 Y79.3735
 X100.2422 Y79.3553
 X100.0486 Y79.3400
 X99.9037 Y79.3279
 X99.8090 Y79.3197
 X99.5942 Y79.2903
 X99.3874 Y79.2403
 X99.1897 Y79.1708
 X99.0019 Y79.0832
 X98.8253 Y78.9785
 X98.6606 Y78.8579
 X98.5087 Y78.7225
 X98.3708 Y78.5736
 X98.2478 Y78.4121
 X98.1404 Y78.2393
 X98.0499 Y78.0564
 X97.9771 Y77.8644
 X97.9231 Y77.6647
 X97.8886 Y77.4581
 X97.8747 Y77.2460
 X97.8825 Y77.0294
 X97.9119 Y76.8149
 X97.9621 Y76.6082
 X98.0315 Y76.4104
 X98.1192 Y76.2226
 X98.2240 Y76.0458
 X98.3447 Y75.8810
 X98.4801 Y75.7289
 X98.6293 Y75.5908
 X98.7910 Y75.4675
 X98.9638 Y75.3600
 X99.1468 Y75.2694
 X99.3389 Y75.1967
 X99.5389 Y75.1426
 X99.7454 Y75.1083
 X99.9576 Y75.0947
 X100.1742 Y75.1029
 X100.2206 Y75.1069
 X100.3243 Y75.1151
 X100.4838 Y75.1272
 X100.6975 Y75.1426
 X100.9636 Y75.1610
 X101.2806 Y75.1817
 X101.6465 Y75.2042
 X102.0600 Y75.2281
 X102.5193 Y75.2529
 X103.0226 Y75.2781
 X103.5686 Y75.3031
 X104.1553 Y75.3274
 X104.7811 Y75.3507
 X105.4440 Y75.3724
 X106.1440 Y75.3918
 X106.8770 Y75.4088
 X106.8280 Y74.8029
 X106.7550 Y74.2031
 X106.6570 Y73.6101
 X106.5350 Y73.0250
G0 Z-25.0000
 X116.7770 Y70.6354
G1 Z-45.0000
 X115.9690 Y70.8549
 X115.1720 Y71.0618
 X114.3870 Y71.2567
 X113.6140 Y71.4399
 X112.8540 Y71.6118
 X112.1080 Y71.7731
 X111.3760 Y71.9237
 X110.6580 Y72.0644
 X110.6600 Y72.0701
 X110.8300 Y72.8974
 X110.9610 Y73.7351
 X111.0550 Y74.5821
 X111.1120 Y75.4367
 X112.5990 Y75.4175
 X114.1430 Y75.3811
 X115.7360 Y75.3254
 X117.3710 Y75.2483
 X119.0420 Y75.1478
 X120.7400 Y75.0214
 X122.4590 Y74.8671
 X124.1920 Y74.6828
 X124.2920 Y73.0254
 X124.4300 Y71.3358
 X124.6050 Y69.6149
 X124.8160 Y67.8629
 X122.8800 Y68.6357
 X120.8940 Y69.3560
 X118.8600 Y70.0229
 X116.7770 Y70.6354
G0 Z-25.0000
 X123.9250 Y85.8778
G1 Z-45.0000
 X123.9940 Y84.1947
 X124.0460 Y82.4817
 X124.0810 Y80.7386
 X124.0970 Y78.9656
 X122.3290 Y79.1476
 X120.5810 Y79.2996
 X118.8580 Y79.4233
 X117.1680 Y79.5211
 X115.5160 Y79.5950
 X113.9100 Y79.6475
 X112.3560 Y79.6804
 X110.8610 Y79.6961
 X110.6600 Y80.7811
 X110.4040 Y81.8642
 X110.0930 Y82.9429
 X109.7280 Y84.0149
 X110.4540 Y84.1694
 X111.2030 Y84.3219
 X111.9770 Y84.4718
 X112.7720 Y84.6183
 X113.5910 Y84.7610
 X114.4310 Y84.8989
 X115.2920 Y85.0315
 X116.1750 Y85.1582
 X117.0780 Y85.2783
 X118.0000 Y85.3911
 X118.9420 Y85.4960
 X119.9030 Y85.5922
 X120.8820 Y85.6792
 X121.8790 Y85.7563
 X122.8930 Y85.8226
 X123.9250 Y85.8778
G0 Z-25.0000
 X105.0860 Y107.0140
G1 Z-45.0000
 X105.0780 Y106.7090
 X105.0550 Y106.4080
 X105.0170 Y106.1120
 X104.9651 Y105.8200
 X104.8989 Y105.5340
 X104.8192 Y105.2530
 X104.7260 Y104.9772
 X104.6199 Y104.7082
 X104.5012 Y104.4457
 X104.3704 Y104.1903
 X104.2278 Y103.9421
 X104.0736 Y103.7017
 X103.9085 Y103.4693
 X103.7325 Y103.2456
 X103.5463 Y103.0304
 X103.3501 Y102.8246
 X103.1443 Y102.6285
 X102.9293 Y102.4421
 X102.7054 Y102.2661
 X102.4732 Y102.1010
 X102.2328 Y101.9467
 X101.9846 Y101.8040
 X101.7292 Y101.6731
 X101.4665 Y101.5544
 X101.1975 Y101.4483
 X100.9221 Y101.3551
 X100.6410 Y101.2753
 X100.3543 Y101.2090
 X100.0625 Y101.1569
 X99.7658 Y101.1192
 X99.4649 Y101.0963
 X99.1600 Y101.0886
 X98.8550 Y101.0963
 X98.5540 Y101.1192
 X98.2575 Y101.1569
 X97.9657 Y101.2090
 X97.6790 Y101.2753
 X97.3978 Y101.3551
 X97.1225 Y101.4483
 X96.8533 Y101.5544
 X96.5908 Y101.6731
 X96.3353 Y101.8040
 X96.0872 Y101.9467
 X95.8468 Y102.1010
 X95.6144 Y102.2661
 X95.3907 Y102.4421
 X95.1756 Y102.6285
 X94.9699 Y102.8246
 X94.7736 Y103.0304
 X94.5874 Y103.2456
 X94.4115 Y103.4693
 X94.2463 Y103.7017
 X94.0921 Y103.9421
 X93.9494 Y104.1903
 X93.8186 Y104.4457
 X93.6999 Y104.7082
 X93.5939 Y104.9772
 X93.5007 Y105.2530
 X93.4208 Y105.5340
 X93.3547 Y105.8200
 X93.3026 Y106.1120
 X93.2649 Y106.4080
 X93.2421 Y106.7090
 X93.2343 Y107.0140
 X93.2421 Y107.3190
 X93.2649 Y107.6200
 X93.3026 Y107.9170
 X93.3547 Y108.2090
 X93.4208 Y108.4950
 X93.5007 Y108.7760
 X93.5939 Y109.0520
 X93.6999 Y109.3210
 X93.8186 Y109.5830
 X93.9494 Y109.8390
 X94.0921 Y110.0870
 X94.2463 Y110.3270
 X94.4115 Y110.5600
 X94.5874 Y110.7840
 X94.7736 Y110.9990
 X94.9699 Y111.2040
 X95.1756 Y111.4010
 X95.3907 Y111.5870
 X95.6144 Y111.7630
 X95.8468 Y111.9280
 X96.0872 Y112.0820
 X96.3353 Y112.2250
 X96.5908 Y112.3560
 X96.8533 Y112.4740
 X97.1225 Y112.5800
 X97.3978 Y112.6730
 X97.6790 Y112.7530
 X97.9657 Y112.8190
 X98.2575 Y112.8720
 X98.5540 Y112.9090
 X98.8550 Y112.9320
 X99.1600 Y112.9400
 X99.4649 Y112.9320
 X99.7658 Y112.9090
 X100.0625 Y112.8720
 X100.3543 Y112.8190
 X100.6410 Y112.7530
 X100.9221 Y112.6730
 X101.1975 Y112.5800
 X101.4665 Y112.4740
 X101.7292 Y112.3560
 X101.9846 Y112.2250
 X102.2328 Y112.0820
 X102.4732 Y111.9280
 X102.7054 Y111.7630
 X102.9293 Y111.5870
 X103.1443 Y111.4010
 X103.3501 Y111.2040
 X103.5463 Y110.9990
 X103.7325 Y110.7840
 X103.9085 Y110.5600
 X104.0736 Y110.3270
 X104.2278 Y110.0870
 X104.3704 Y109.8390
 X104.5012 Y109.5830
 X104.6199 Y109.3210
 X104.7260 Y109.0520
 X104.8192 Y108.7760
 X104.8989 Y108.4950
 X104.9651 Y108.2090
 X105.0170 Y107.9170
 X105.0550 Y107.6200
 X105.0780 Y107.3190
 X105.0860 Y107.0140
G0 Z-25.0000
 X77.2478 Y98.9706
G1 Z-45.0000
 X78.6585 Y98.9499
 X80.0467 Y98.8872
 X81.4117 Y98.7826
 X82.7529 Y98.6361
 X84.0694 Y98.4478
 X85.3607 Y98.2179
 X86.6260 Y97.9465
 X87.8643 Y97.6337
 X87.8478 Y97.6010
 X87.5404 Y97.0581
 X87.4785 Y96.9614
 X87.1171 Y96.4336
 X87.0829 Y96.3882
 X86.6832 Y95.8950
 X86.6349 Y95.8385
 X86.1872 Y95.3658
 X86.1029 Y95.2829
 X85.6168 Y94.8419
 X85.5435 Y94.7813
 X85.0132 Y94.3653
 X84.9924 Y94.3487
 X84.4176 Y93.9586
 X84.3200 Y93.8968
 X83.7301 Y93.5521
 X83.6239 Y93.4957
 X82.9847 Y93.1775
 X82.9543 Y93.1638
 X82.2982 Y92.8879
 X82.2019 Y92.8494
 X81.5267 Y92.6137
 X81.3958 Y92.5739
 X80.6928 Y92.3753
 X80.6007 Y92.3549
 X79.8922 Y92.2017
 X79.8207 Y92.1865
 X79.0739 Y92.0736
 X78.9303 Y92.0557
 X78.1806 Y91.9868
 X78.0483 Y91.9799
 X77.2493 Y91.9565
 X76.4499 Y91.9799
 X76.3175 Y91.9868
 X75.5679 Y92.0557
 X75.4233 Y92.0736
 X74.6778 Y92.1881
 X74.6049 Y92.2017
 X73.8993 Y92.3549
 X73.8040 Y92.3767
 X73.1042 Y92.5725
 X72.9704 Y92.6151
 X72.2981 Y92.8494
 X72.1961 Y92.8893
 X71.5483 Y93.1624
 X71.5110 Y93.1786
 X70.8769 Y93.4943
 X70.7656 Y93.5536
 X70.1799 Y93.8954
 X70.0765 Y93.9614
 X69.5072 Y94.3474
 X69.4782 Y94.3692
 X68.9576 Y94.7774
 X68.8789 Y94.8433
 X68.3981 Y95.2804
 X68.3085 Y95.3686
 X67.8632 Y95.8357
 X67.8096 Y95.8989
 X67.4185 Y96.3829
 X67.3782 Y96.4350
 X67.0201 Y96.9586
 X66.9567 Y97.0592
 X66.6507 Y97.5982
 X66.6328 Y97.6337
 X67.8713 Y97.9465
 X69.1365 Y98.2178
 X70.4278 Y98.4474
 X71.7444 Y98.6356
 X73.0856 Y98.7819
 X74.4504 Y98.8867
 X75.8381 Y98.9496
 X77.2478 Y98.9706
G0 Z-25.0000
 X61.2610 Y107.0140
G1 Z-45.0000
 X61.2532 Y106.7090
 X61.2304 Y106.4080
 X61.1928 Y106.1120
 X61.1407 Y105.8200
 X61.0744 Y105.5340
 X60.9946 Y105.2530
 X60.9015 Y104.9772
 X60.7954 Y104.7082
 X60.6768 Y104.4457
 X60.5460 Y104.1903
 X60.4033 Y103.9421
 X60.2492 Y103.7017
 X60.0840 Y103.4693
 X59.9082 Y103.2456
 X59.7219 Y103.0304
 X59.5258 Y102.8246
 X59.3200 Y102.6285
 X59.1051 Y102.4421
 X58.8812 Y102.2661
 X58.6490 Y102.1010
 X58.4087 Y101.9467
 X58.1607 Y101.8040
 X57.9053 Y101.6731
 X57.6428 Y101.5544
 X57.3737 Y101.4483
 X57.0986 Y101.3551
 X56.8175 Y101.2753
 X56.5308 Y101.2090
 X56.2392 Y101.1569
 X55.9428 Y101.1192
 X55.6419 Y101.0963
 X55.3371 Y101.0886
 X55.0321 Y101.0963
 X54.7311 Y101.1192
 X54.4346 Y101.1569
 X54.1428 Y101.2090
 X53.8561 Y101.2753
 X53.5749 Y101.3551
 X53.2996 Y101.4483
 X53.0304 Y101.5544
 X52.7679 Y101.6731
 X52.5124 Y101.8040
 X52.2643 Y101.9467
 X52.0239 Y102.1010
 X51.7915 Y102.2661
 X51.5678 Y102.4421
 X51.3526 Y102.6285
 X51.1469 Y102.8246
 X50.9507 Y103.0304
 X50.7644 Y103.2456
 X50.5886 Y103.4693
 X50.4233 Y103.7017
 X50.2693 Y103.9421
 X50.1267 Y104.1903
 X49.9958 Y104.4457
 X49.8771 Y104.7082
 X49.7711 Y104.9772
 X49.6779 Y105.2530
 X49.5981 Y105.5340
 X49.5319 Y105.8200
 X49.4799 Y106.1120
 X49.4421 Y106.4080
 X49.4193 Y106.7090
 X49.4115 Y107.0140
 X49.4193 Y107.3190
 X49.4421 Y107.6200
 X49.4799 Y107.9170
 X49.5319 Y108.2090
 X49.5981 Y108.4950
 X49.6779 Y108.7760
 X49.7711 Y109.0520
 X49.8771 Y109.3210
 X49.9958 Y109.5830
 X50.1267 Y109.8390
 X50.2693 Y110.0870
 X50.4233 Y110.3270
 X50.5886 Y110.5600
 X50.7644 Y110.7840
 X50.9507 Y110.9990
 X51.1469 Y111.2040
 X51.3526 Y111.4010
 X51.5678 Y111.5870
 X51.7915 Y111.7630
 X52.0239 Y111.9280
 X52.2643 Y112.0820
 X52.5124 Y112.2250
 X52.7679 Y112.3560
 X53.0304 Y112.4740
 X53.2996 Y112.5800
 X53.5749 Y112.6730
 X53.8561 Y112.7530
 X54.1428 Y112.8190
 X54.4346 Y112.8720
 X54.7311 Y112.9090
 X55.0321 Y112.9320
 X55.3371 Y112.9400
 X55.6419 Y112.9320
 X55.9428 Y112.9090
 X56.2392 Y112.8720
 X56.5308 Y112.8190
 X56.8175 Y112.7530
 X57.0986 Y112.6730
 X57.3737 Y112.5800
 X57.6428 Y112.4740
 X57.9053 Y112.3560
 X58.1607 Y112.2250
 X58.4087 Y112.0820
 X58.6490 Y111.9280
 X58.8812 Y111.7630
 X59.1051 Y111.5870
 X59.3200 Y111.4010
 X59.5258 Y111.2040
 X59.7219 Y110.9990
 X59.9082 Y110.7840
 X60.0840 Y110.5600
 X60.2492 Y110.3270
 X60.4033 Y110.0870
 X60.5460 Y109.8390
 X60.6768 Y109.5830
 X60.7954 Y109.3210
 X60.9015 Y109.0520
 X60.9946 Y108.7760
 X61.0744 Y108.4950
 X61.1407 Y108.2090
 X61.1928 Y107.9170
 X61.2304 Y107.6200
 X61.2532 Y107.3190
 X61.2610 Y107.0140
G0 Z-25.0000
G0 Z-25.0000
M2 (end program)
