$X
$H
G10 P0 L20 X0 Y0 Z0
G40 (disable tool radius compensation)
G49 (disable tool length compensation)
G80 (cancel modal motion)
G54 (select coordinate system 1)
G90 (disable incremental moves)
G21 (metric)
F300.00000
S250.00000
G61 (exact path mode)
;PYCAM_TOOLPATH_SETTINGS: START
;[Bounds]
;maxz = 0.0
;maxx = 111.465
;maxy = 118.533
;minx = 7.06793
;miny = 0.0
;minz = 0.0
;
;[Tool]
;torus_radius = 0.125
;shape = CylindricalCutter
;tool_radius = 1.5875
;feedrate = 300.0
;
;[Process]
;engrave_offset = 0.0
;step_down = 3.0
;generator = EngraveCutter
;postprocessor = SimpleCutter
;overlap_percent = 0
;milling_style = ignore
;material_allowance = 0.0
;pocketing_type = none
;path_direction = x
;
;PYCAM_TOOLPATH_SETTINGS: END
G0 Z-25.0000
M3 (start spindle)
G04 P3 (wait for 3 seconds)
 X80.58890 Y25.26920
G1 Z-41.5000
 Y24.99890
 X80.56150 Y24.18820
 X80.48010 Y23.12140
 X80.34610 Y22.07000
 X80.16070 Y21.03500
 X79.92540 Y20.01820
 X79.64150 Y19.02070
 X79.31030 Y18.04390
 X78.93320 Y17.08900
 X78.51140 Y16.15750
 X78.04630 Y15.25060
 X77.53920 Y14.36970
 X76.99140 Y13.51610
 X76.40430 Y12.69110
 X75.77930 Y11.89620
 X75.11760 Y11.13260
 X74.42070 Y10.40160
 X73.68970 Y9.70464
 X72.92610 Y9.04297
 X72.13110 Y8.41797
 X71.30610 Y7.83089
 X70.45260 Y7.28315
 X69.57170 Y6.77604
 X68.66490 Y6.31093
 X67.73330 Y5.88911
 X66.77830 Y5.51193
 X65.80150 Y5.18072
 X64.80400 Y4.89681
 X63.78720 Y4.66151
 X62.75220 Y4.47618
 X61.70080 Y4.34218
 X60.63390 Y4.26079
 X59.82330 Y4.23335
 X59.28290
 X58.47220 Y4.26079
 X57.40530 Y4.34218
 X56.35360 Y4.47618
 X55.31870 Y4.66151
 X54.30180 Y4.89681
 X53.30420 Y5.18072
 X52.32720 Y5.51193
 X51.37220 Y5.88911
 X50.44070 Y6.31093
 X49.53370 Y6.77604
 X48.65280 Y7.28315
 X47.79920 Y7.83089
 X46.97430 Y8.41797
 X46.17930 Y9.04297
 X45.41570 Y9.70464
 X44.68470 Y10.40160
 X43.98760 Y11.13260
 X43.32600 Y11.89620
 X42.70080 Y12.69110
 X42.11390 Y13.51610
 X41.56610 Y14.36970
 X41.05900 Y15.25060
 X40.59380 Y16.15750
 X40.17190 Y17.08900
 X39.79490 Y18.04390
 X39.46360 Y19.02070
 X39.17970 Y20.01820
 X38.94440 Y21.03500
 X38.75900 Y22.07000
 X38.62500 Y23.12140
 X38.54360 Y24.18820
 X38.51620 Y24.99890
 Y25.54720
 X38.52250 Y26.38170
 X38.54100 Y27.53060
 X38.57170 Y28.71370
 X38.61430 Y29.93000
 X38.66870 Y31.17750
 X38.73460 Y32.45470
 X38.81190 Y33.76000
 X38.90030 Y35.09170
 X38.99970 Y36.44820
 X39.10990 Y37.82790
 X39.23060 Y39.22920
 X39.36170 Y40.65030
 X39.50290 Y42.08990
 X39.65430 Y43.54610
 X39.81530 Y45.01740
 X39.98600 Y46.50220
 X40.16610 Y47.99890
 X40.35540 Y49.50570
 X40.55360 Y51.02130
 X40.76070 Y52.54360
 X40.97650 Y54.07150
 X41.20070 Y55.60310
 X41.43310 Y57.13670
 X41.67350 Y58.67080
 X41.92180 Y60.20400
 X42.17760 Y61.73430
 X42.44110 Y63.26030
 X42.71170 Y64.78030
 X42.98940 Y66.29260
 X43.27400 Y67.79580
 X43.56530 Y69.28810
 X43.78750 Y70.39820
 X43.86290 Y70.76790
 X44.32630 Y70.80920
 X45.71710 Y70.92210
 X47.59570 Y71.05650
 X49.49670 Y71.17130
 X51.41810 Y71.26580
 X53.35780 Y71.33990
 X55.31390 Y71.39310
 X57.28420 Y71.42530
 X58.77100 Y71.43610
 X59.78140
 X61.32580 Y71.42460
 X63.37180 Y71.39000
 X65.40220 Y71.33280
 X67.41500 Y71.25330
 X69.40750 Y71.15180
 X71.37750 Y71.02860
 X73.32260 Y70.88400
 X74.76150 Y70.76260
 X75.24080 Y70.71820
 X75.31640 Y70.34810
 X75.53880 Y69.23670
 X75.83010 Y67.74310
 X76.11500 Y66.23890
 X76.39290 Y64.72570
 X76.66380 Y63.20540
 X76.92720 Y61.67930
 X77.18330 Y60.14930
 X77.43170 Y58.61670
 X77.67210 Y57.08330
 X77.90460 Y55.55060
 X78.12890 Y54.02030
 X78.34460 Y52.49380
 X78.55180 Y50.97290
 X78.75010 Y49.45930
 X78.93940 Y47.95440
 X79.11940 Y46.45990
 X79.29010 Y44.97740
 X79.45110 Y43.50850
 X79.60250 Y42.05470
 X79.74370 Y40.61780
 X79.87470 Y39.19920
 X79.99560 Y37.80060
 X80.10570 Y36.42380
 X80.20500 Y35.07000
 X80.29350 Y33.74110
 X80.37060 Y32.43880
 X80.43650 Y31.16430
 X80.49080 Y29.91960
 X80.53350 Y28.70610
 X80.56420 Y27.52540
 X80.58260 Y26.37920
 X80.58890 Y25.54670
 Y25.26920
G0 Z-25.0000
 X104.31300 Y70.96330
G1 Z-41.5000
 X104.26800 Y70.88490
 X104.11200 Y70.66170
 X103.87400 Y70.39240
 X103.60500 Y70.15790
 X103.30900 Y69.96070
 X102.98900 Y69.80320
 X102.65100 Y69.68780
 X102.29700 Y69.61670
 X102.02400 Y69.59250
 X101.87000
 X101.67900 Y69.60400
 X101.42800 Y69.63890
 X101.18000 Y69.69690
 X100.99700 Y69.75530
 X100.93700 Y69.77830
 X100.65400 Y69.88710
 X99.79850 Y70.19830
 X98.60850 Y70.60470
 X97.36870 Y70.99740
 X96.08110 Y71.37600
 X94.74720 Y71.74030
 X93.36890 Y72.09030
 X91.94790 Y72.42540
 X90.48580 Y72.74560
 X88.98460 Y73.05060
 X87.44570 Y73.34010
 X85.87130 Y73.61400
 X84.26260 Y73.87190
 X82.62180 Y74.11360
 X80.95040 Y74.33890
 X79.25010 Y74.54750
 X77.95490 Y74.69380
 X77.52290 Y74.73920
 X77.47260 Y74.75190
 X77.21540 Y74.79440
 X76.95190 Y74.80640
 X76.89850 Y74.80400
 X76.37100 Y74.85740
 X74.78690 Y75.00350
 X72.64310 Y75.17780
 X70.46970 Y75.32630
 X68.27010 Y75.44860
 X66.04710 Y75.54460
 X63.80350 Y75.61370
 X61.54240 Y75.65540
 X59.83560 Y75.66940
 X58.88110
 X57.72470 Y75.66310
 X56.18900 Y75.64390
 X54.66030 Y75.61190
 X53.13970 Y75.56760
 X51.62820 Y75.51100
 X50.12650 Y75.44190
 X48.63570 Y75.36080
 X47.15650 Y75.26780
 X45.69010 Y75.16280
 X44.23740 Y75.04610
 X42.79920 Y74.91790
 X41.37640 Y74.77820
 X39.97000 Y74.62710
 X38.58100 Y74.46490
 X37.21010 Y74.29150
 X35.85850 Y74.10740
 X34.52690 Y73.91220
 X33.21640 Y73.70650
 X31.92790 Y73.49030
 X30.66220 Y73.26350
 X29.42040 Y73.02650
 X28.20320 Y72.77940
 X27.01170 Y72.52220
 X25.84680 Y72.25530
 X24.70940 Y71.97830
 X23.60060 Y71.69190
 X22.52100 Y71.39600
 X21.47170 Y71.09070
 X20.45360 Y70.77610
 X19.46780 Y70.45250
 X18.51500 Y70.11990
 X17.82490 Y69.86610
 X17.59630 Y69.77830
 X17.53620 Y69.75530
 X17.35220 Y69.69690
 X17.10430 Y69.63890
 X16.85320 Y69.60400
 X16.66320 Y69.59250
 X16.50880
 X16.23560 Y69.61670
 X15.88190 Y69.68780
 X15.54350 Y69.80320
 X15.22400 Y69.96070
 X14.92780 Y70.15790
 X14.65900 Y70.39240
 X14.42170 Y70.66170
 X14.26510 Y70.88490
 X14.22010 Y70.96330
 X14.04060 Y71.27610
 X13.53870 Y72.23510
 X12.94710 Y73.52140
 X12.44560 Y74.82120
 X12.03450 Y76.13320
 X11.71420 Y77.45640
 X11.48500 Y78.78940
 X11.34720 Y80.13130
 X11.30120 Y81.14330
 Y81.67010
 X11.31590 Y82.23860
 X11.35970 Y82.99680
 X11.43260 Y83.75500
 X11.53410 Y84.51290
 X11.66420 Y85.27010
 X11.82250 Y86.02630
 X12.00880 Y86.78070
 X12.22290 Y87.53350
 X12.46450 Y88.28390
 X12.73350 Y89.03150
 X13.02950 Y89.77630
 X13.35240 Y90.51760
 X13.70180 Y91.25500
 X14.07760 Y91.98830
 X14.47970 Y92.71690
 X14.90750 Y93.44070
 X15.36110 Y94.15900
 X15.84000 Y94.87150
 X16.34420 Y95.57810
 X16.87330 Y96.27810
 X17.42710 Y96.97100
 X18.00540 Y97.65680
 X18.60790 Y98.33490
 X19.23440 Y99.00490
 X19.88490 Y99.66640
 X20.55870 Y100.31900
 X21.25600 Y100.96300
 X21.97630 Y101.59700
 X22.71930 Y102.22000
 X23.48500 Y102.83400
 X24.27310 Y103.43700
 X24.87900 Y103.88300
 X25.08320 Y104.02800
 X25.30110 Y104.18400
 X25.96180 Y104.64000
 X26.85680 Y105.23500
 X27.76780 Y105.81200
 X28.69420 Y106.37100
 X29.63570 Y106.91300
 X30.59180 Y107.43600
 X31.56220 Y107.94100
 X32.54670 Y108.42800
 X33.54440 Y108.89600
 X34.55530 Y109.34600
 X35.57890 Y109.77700
 X36.61460 Y110.18900
 X37.66210 Y110.58300
 X38.72100 Y110.95700
 X39.79100 Y111.31200
 X40.87150 Y111.64800
 X41.96240 Y111.96500
 X43.06280 Y112.26200
 X44.17260 Y112.53900
 X45.29150 Y112.79700
 X46.41890 Y113.03400
 X47.55440 Y113.25200
 X48.69760 Y113.44900
 X49.84820 Y113.62700
 X51.00560 Y113.78300
 X52.16960 Y113.92000
 X53.33960 Y114.03500
 X54.51530 Y114.13000
 X55.69620 Y114.20400
 X56.88210 Y114.25800
 X58.07240 Y114.28900
 X58.96810 Y114.30000
 X59.56530
 X60.46110 Y114.28900
 X61.65140 Y114.25800
 X62.83740 Y114.20400
 X64.01830 Y114.13000
 X65.19420 Y114.03500
 X66.36430 Y113.92000
 X67.52820 Y113.78300
 X68.68570 Y113.62700
 X69.83620 Y113.44900
 X70.97940 Y113.25200
 X72.11500 Y113.03400
 X73.24240 Y112.79700
 X74.36110 Y112.53900
 X75.47100 Y112.26200
 X76.57150 Y111.96500
 X77.66220 Y111.64800
 X78.74280 Y111.31200
 X79.81280 Y110.95700
 X80.87170 Y110.58300
 X81.91920 Y110.18900
 X82.95490 Y109.77700
 X83.97830 Y109.34600
 X84.98900 Y108.89600
 X85.98680 Y108.42800
 X86.97130 Y107.94100
 X87.94170 Y107.43600
 X88.89780 Y106.91300
 X89.83930 Y106.37100
 X90.76570 Y105.81200
 X91.67650 Y105.23500
 X92.57140 Y104.64000
 X93.23220 Y104.18400
 X93.45010 Y104.02800
 X93.65430 Y103.88300
 X94.26030 Y103.43700
 X95.04830 Y102.83400
 X95.81400 Y102.22000
 X96.55710 Y101.59700
 X97.27740 Y100.96300
 X97.97460 Y100.31900
 X98.64850 Y99.66640
 X99.29870 Y99.00490
 X99.92540 Y98.33490
 X100.52800 Y97.65680
 X101.10600 Y96.97100
 X101.66000 Y96.27810
 X102.18900 Y95.57810
 X102.69300 Y94.87150
 X103.17200 Y94.15900
 X103.62600 Y93.44070
 X104.05400 Y92.71690
 X104.45600 Y91.98830
 X104.83100 Y91.25500
 X105.18100 Y90.51760
 X105.50400 Y89.77630
 X105.80000 Y89.03150
 X106.06900 Y88.28390
 X106.31000 Y87.53350
 X106.52400 Y86.78070
 X106.71100 Y86.02630
 X106.86900 Y85.27010
 X106.99900 Y84.51290
 X107.10100 Y83.75500
 X107.17300 Y82.99680
 X107.21700 Y82.23860
 X107.23200 Y81.67010
 Y81.14330
 X107.18600 Y80.13130
 X107.04800 Y78.78940
 X106.81900 Y77.45640
 X106.49900 Y76.13320
 X106.08800 Y74.82120
 X105.58600 Y73.52140
 X104.99500 Y72.23510
 X104.49300 Y71.27610
 X104.31300 Y70.96330
G0 Z-25.0000
 X76.87940 Y107.44400
G1 Z-41.5000
 X76.44010 Y107.58000
 X75.11350 Y107.96000
 X73.32120 Y108.42200
 X71.50940 Y108.82700
 X70.14210 Y109.09600
 X69.68460 Y109.17500
 X69.63130 Y109.18500
 X69.46920 Y109.20200
 X69.25640 Y109.20600
 X69.04740 Y109.19000
 X68.84350 Y109.15300
 X68.64580 Y109.09700
 X68.45560 Y109.02300
 X68.27420 Y108.93100
 X68.10260 Y108.82200
 X67.94220 Y108.69700
 X67.79430 Y108.55800
 X67.66000 Y108.40400
 X67.54060 Y108.23700
 X67.43720 Y108.05800
 X67.35110 Y107.86700
 X67.28360 Y107.66500
 X67.24510 Y107.50700
 X67.22650 Y107.40100
 X67.20940 Y107.23900
 X67.20490 Y107.02600
 X67.22150 Y106.81700
 X67.25820 Y106.61400
 X67.31420 Y106.41600
 X67.38860 Y106.22600
 X67.48080 Y106.04400
 X67.58960 Y105.87300
 X67.71420 Y105.71300
 X67.85380 Y105.56500
 X68.00750 Y105.43000
 X68.17440 Y105.31100
 X68.35380 Y105.20700
 X68.54440 Y105.12100
 X68.74600 Y105.05300
 X68.90390 Y105.01400
 X68.95710 Y105.00500
 X69.38140 Y104.93100
 X70.64960 Y104.68200
 X72.32890 Y104.30600
 X73.98940 Y103.87900
 X75.21830 Y103.52700
 X75.62530 Y103.40100
 X75.67760 Y103.38500
 X75.94000 Y103.32900
 X76.17510 Y103.30500
 X76.33720
 X76.58810 Y103.33200
 X76.91060 Y103.41000
 X77.21540 Y103.53700
 X77.49680 Y103.71000
 X77.74920 Y103.92500
 X77.96670 Y104.18000
 X78.14350 Y104.47100
 X78.24820 Y104.71200
 X78.27400 Y104.79600
 X78.29000 Y104.84800
 X78.32780 Y105.00600
 X78.35940 Y105.21600
 X78.36990 Y105.42500
 X78.35940 Y105.63200
 X78.32920 Y105.83500
 X78.27960 Y106.03300
 X78.21140 Y106.22400
 X78.12540 Y106.40800
 X78.02240 Y106.58300
 X77.90280 Y106.74800
 X77.76740 Y106.90100
 X77.61710 Y107.04100
 X77.45240 Y107.16700
 X77.27400 Y107.27700
 X77.08280 Y107.36900
 X76.93110 Y107.42800
 X76.87940 Y107.44400
G0 Z-25.0000
 X90.99190 Y100.58200
G1 Z-41.5000
 X90.67750 Y100.80600
 X89.71820 Y101.45600
 X88.39970 Y102.29500
 X87.04080 Y103.09500
 X85.99810 Y103.67100
 X85.64640 Y103.85500
 X85.59830 Y103.88000
 X85.44940 Y103.94500
 X85.24830 Y104.01400
 X85.04440 Y104.06200
 X84.83900 Y104.08900
 X84.63370 Y104.09600
 X84.43000 Y104.08200
 X84.22920 Y104.05000
 X84.03260 Y103.99800
 X83.84190 Y103.92900
 X83.65850 Y103.84100
 X83.48360 Y103.73500
 X83.31890 Y103.61300
 X83.16570 Y103.47300
 X83.02560 Y103.31800
 X82.89990 Y103.14700
 X82.81490 Y103.00800
 X82.76490 Y102.91200
 X82.69930 Y102.76300
 X82.63040 Y102.56200
 X82.58260 Y102.35800
 X82.55560 Y102.15300
 X82.54890 Y101.94700
 X82.56190 Y101.74400
 X82.59440 Y101.54300
 X82.64580 Y101.34600
 X82.71570 Y101.15600
 X82.80360 Y100.97200
 X82.90900 Y100.79700
 X83.03170 Y100.63300
 X83.17080 Y100.47900
 X83.32640 Y100.33900
 X83.49760 Y100.21300
 X83.63630 Y100.12900
 X83.68420 Y100.10300
 X84.00380 Y99.93640
 X84.95110 Y99.41380
 X86.18420 Y98.68760
 X87.37970 Y97.92740
 X88.24860 Y97.33850
 X88.53350 Y97.13530
 X88.76710 Y96.96850
 X89.45790 Y96.45390
 X90.34440 Y95.75710
 X91.19250 Y95.04540
 X92.00140 Y94.31940
 X92.77000 Y93.57990
 X93.49790 Y92.82720
 X94.18430 Y92.06220
 X94.67140 Y91.48290
 X94.82850 Y91.28540
 X94.86710 Y91.23690
 X94.99430 Y91.10040
 X95.17650 Y90.93900
 X95.37260 Y90.80180
 X95.58070 Y90.68890
 X95.79820 Y90.60060
 X96.02310 Y90.53720
 X96.25320 Y90.49890
 X96.42780 Y90.48610
 X96.57250
 X96.83180 Y90.51470
 X97.17170 Y90.60070
 X97.49790 Y90.74500
 X97.73190 Y90.89110
 X97.80330 Y90.94790
 X97.84570 Y90.98150
 X97.96570 Y91.09110
 X98.11010 Y91.24710
 X98.23610 Y91.41420
 X98.34400 Y91.59100
 X98.43320 Y91.77600
 X98.50360 Y91.96760
 X98.55530 Y92.16440
 X98.58780 Y92.36500
 X98.60100 Y92.56760
 X98.59500 Y92.77110
 X98.56920 Y92.97360
 X98.52380 Y93.17390
 X98.45830 Y93.37030
 X98.37290 Y93.56130
 X98.26710 Y93.74560
 X98.17460 Y93.87920
 X98.14100 Y93.92140
 X97.96080 Y94.14760
 X97.40250 Y94.81220
 X96.61820 Y95.68780
 X95.78880 Y96.54750
 X94.91470 Y97.39060
 X93.99740 Y98.21620
 X93.03720 Y99.02380
 X92.03510 Y99.81250
 X91.25570 Y100.39300
 X90.99190 Y100.58200
G0 Z-25.0000
 X95.90860 Y107.47300
G1 Z-41.5000
 X95.67400 Y107.64000
 X94.96280 Y108.13200
 X93.99970 Y108.77300
 X93.02000 Y109.39400
 X92.02380 Y109.99600
 X91.01170 Y110.57900
 X89.98400 Y111.14200
 X88.94130 Y111.68600
 X87.88400 Y112.21000
 X86.81250 Y112.71500
 X85.72740 Y113.19900
 X84.62890 Y113.66300
 X83.51750 Y114.10700
 X82.39380 Y114.53100
 X81.25810 Y114.93400
 X80.11070 Y115.31600
 X78.95240 Y115.67800
 X77.78330 Y116.01900
 X76.60400 Y116.33900
 X75.41500 Y116.63700
 X74.21650 Y116.91400
 X73.00930 Y117.17000
 X71.79350 Y117.40500
 X70.56970 Y117.61700
 X69.33830 Y117.80800
 X68.09970 Y117.97700
 X66.85460 Y118.12400
 X65.60310 Y118.24800
 X64.34570 Y118.35100
 X63.08290 Y118.43000
 X61.81510 Y118.48700
 X60.54290 Y118.52200
 X59.58570 Y118.53300
 X58.94750
 X57.99030 Y118.52200
 X56.71810 Y118.48700
 X55.45040 Y118.43000
 X54.18760 Y118.35100
 X52.93030 Y118.24800
 X51.67880 Y118.12400
 X50.43350 Y117.97700
 X49.19500 Y117.80800
 X47.96350 Y117.61700
 X46.73970 Y117.40500
 X45.52400 Y117.17000
 X44.31670 Y116.91400
 X43.11830 Y116.63700
 X41.92920 Y116.33900
 X40.75000 Y116.01900
 X39.58080 Y115.67800
 X38.42250 Y115.31600
 X37.27530 Y114.93400
 X36.13940 Y114.53100
 X35.01570 Y114.10700
 X33.90440 Y113.66300
 X32.80580 Y113.19900
 X31.72070 Y112.71500
 X30.64930 Y112.21000
 X29.59190 Y111.68600
 X28.54930 Y111.14200
 X27.52170 Y110.57900
 X26.50960 Y109.99600
 X25.51330 Y109.39400
 X24.53350 Y108.77300
 X23.57040 Y108.13200
 X22.85930 Y107.64000
 X22.62470 Y107.47300
 X22.39420 Y107.30900
 X21.71030 Y106.80500
 X20.82070 Y106.12300
 X19.95650 Y105.42700
 X19.11780 Y104.71900
 X18.30490 Y103.99800
 X17.51790 Y103.26600
 X16.75720 Y102.52200
 X16.02320 Y101.76700
 X15.31600 Y101.00100
 X14.63580 Y100.22500
 X13.98310 Y99.43940
 X13.35790 Y98.64440
 X12.76060 Y97.84070
 X12.19150 Y97.02850
 X11.65090 Y96.20830
 X11.13890 Y95.38070
 X10.65590 Y94.54600
 X10.20220 Y93.70470
 X9.77794 Y92.85720
 X9.38340 Y92.00400
 X9.01893 Y91.14560
 X8.68479 Y90.28220
 X8.38118 Y89.41440
 X8.10840 Y88.54280
 X7.86669 Y87.66760
 X7.65636 Y86.78940
 X7.47765 Y85.90860
 X7.33083 Y85.02560
 X7.21619 Y84.14080
 X7.13400 Y83.25490
 X7.08447 Y82.36810
 X7.06793 Y81.70260
 Y81.27680
 X7.08160 Y80.66500
 X7.12272 Y79.85210
 X7.19119 Y79.04210
 X7.28700 Y78.23510
 X7.41004 Y77.43150
 X7.56028 Y76.63130
 X7.73768 Y75.83460
 X7.94222 Y75.04180
 X8.17383 Y74.25290
 X8.43240 Y73.46810
 X8.71799 Y72.68750
 X9.03049 Y71.91150
 X9.36985 Y71.14010
 X9.73606 Y70.37350
 X10.12900 Y69.61170
 X10.44100 Y69.04260
 X10.54880 Y68.85510
 X10.60660 Y68.75460
 X10.79350 Y68.46040
 X11.06220 Y68.08570
 X11.35350 Y67.73170
 X11.66610 Y67.39900
 X11.99870 Y67.08860
 X12.35010 Y66.80110
 X12.71880 Y66.53750
 X13.10350 Y66.29830
 X13.50290 Y66.08440
 X13.91570 Y65.89670
 X14.34070 Y65.73560
 X14.77630 Y65.60210
 X15.22140 Y65.49690
 X15.67460 Y65.42100
 X16.13440 Y65.37470
 X16.48360 Y65.35920
 X16.76030
 X17.24150 Y65.38860
 X17.87560 Y65.47640
 X18.49970 Y65.62250
 X18.96170 Y65.76850
 X19.11210 Y65.82630
 X19.35990 Y65.92130
 X20.10760 Y66.19440
 X21.14630 Y66.55180
 X22.22630 Y66.89810
 X23.34650 Y67.23320
 X24.50580 Y67.55680
 X25.70260 Y67.86890
 X26.93580 Y68.16920
 X28.20400 Y68.45760
 X29.50600 Y68.73380
 X30.84030 Y68.99760
 X32.20560 Y69.24900
 X33.60080 Y69.48760
 X35.02440 Y69.71350
 X36.47530 Y69.92620
 X37.95190 Y70.12570
 X39.07760 Y70.26740
 X39.45320 Y70.31180
 X39.37900 Y69.93960
 X39.16040 Y68.82220
 X38.87440 Y67.32490
 X38.59560 Y65.82080
 X38.32390 Y64.31150
 X38.05960 Y62.79850
 X37.80260 Y61.28280
 X37.55360 Y59.76570
 X37.31220 Y58.24880
 X37.07900 Y56.73310
 X36.85390 Y55.22000
 X36.63710 Y53.71110
 X36.42880 Y52.20740
 X36.22890 Y50.71030
 X36.03810 Y49.22100
 X35.85600 Y47.74110
 X35.68310 Y46.27170
 X35.51940 Y44.81400
 X35.36530 Y43.36970
 X35.22060 Y41.93990
 X35.08570 Y40.52580
 X34.96060 Y39.12890
 X34.84570 Y37.75040
 X34.74080 Y36.39170
 X34.64640 Y35.05400
 X34.56250 Y33.73870
 X34.48930 Y32.44720
 X34.42680 Y31.18060
 X34.37560 Y29.94040
 X34.33530 Y28.72780
 X34.30630 Y27.54420
 X34.28880 Y26.39080
 X34.28290 Y25.54960
 Y25.10640
 X34.29110 Y24.61790
 X34.31580 Y23.97070
 X34.35670 Y23.32780
 X34.41360 Y22.68920
 X34.48630 Y22.05530
 X34.57460 Y21.42610
 X34.67830 Y20.80190
 X34.79720 Y20.18310
 X34.93110 Y19.56940
 X35.07990 Y18.96150
 X35.24310 Y18.35930
 X35.42080 Y17.76320
 X35.61280 Y17.17330
 X35.81870 Y16.58970
 X36.03850 Y16.01290
 X36.27180 Y15.44280
 X36.51860 Y14.87960
 X36.77850 Y14.32380
 X37.05150 Y13.77520
 X37.33720 Y13.23430
 X37.63560 Y12.70120
 X37.94640 Y12.17620
 X38.26930 Y11.65930
 X38.60430 Y11.15080
 X38.95110 Y10.65090
 X39.30960 Y10.15990
 X39.67930 Y9.67785
 X40.06040 Y9.20497
 X40.45240 Y8.74154
 X40.85510 Y8.28765
 X41.26860 Y7.84364
 X41.69250 Y7.40961
 X42.12650 Y6.98579
 X42.57060 Y6.57238
 X43.02440 Y6.16954
 X43.48790 Y5.77750
 X43.96070 Y5.39649
 X44.44280 Y5.02669
 X44.93390 Y4.66829
 X45.43380 Y4.32150
 X45.94220 Y3.98654
 X46.45920 Y3.66351
 X46.98430 Y3.35275
 X47.51740 Y3.05442
 X48.05830 Y2.76861
 X48.60680 Y2.49567
 X49.16280 Y2.23574
 X49.72600 Y1.98893
 X50.29610 Y1.75558
 X50.87310 Y1.53586
 X51.45650 Y1.32992
 X52.04650 Y1.13802
 X52.64260 Y0.96029
 X53.24490 Y0.79693
 X53.85290 Y0.64822
 X54.46650 Y0.51432
 X55.08540 Y0.39540
 X55.70970 Y0.29172
 X56.33890 Y0.20345
 X56.97290 Y0.13075
 X57.61150 Y0.07384
 X58.25460 Y0.03299
 X58.90180 Y0.00830
 X59.39030 Y0.00000
 X59.71580
 X60.20430 Y0.00830
 X60.85150 Y0.03299
 X61.49440 Y0.07384
 X62.13310 Y0.13075
 X62.76710 Y0.20345
 X63.39620 Y0.29172
 X64.02040 Y0.39540
 X64.63940 Y0.51432
 X65.25290 Y0.64822
 X65.86080 Y0.79693
 X66.46310 Y0.96029
 X67.05920 Y1.13802
 X67.64900 Y1.32992
 X68.23260 Y1.53586
 X68.80960 Y1.75558
 X69.37970 Y1.98893
 X69.94280 Y2.23574
 X70.49880 Y2.49567
 X71.04720 Y2.76861
 X71.58810 Y3.05442
 X72.12130 Y3.35275
 X72.64620 Y3.66351
 X73.16320 Y3.98654
 X73.67170 Y4.32150
 X74.17150 Y4.66829
 X74.66250 Y5.02669
 X75.14460 Y5.39649
 X75.61750 Y5.77750
 X76.08080 Y6.16954
 X76.53470 Y6.57238
 X76.97880 Y6.98579
 X77.41280 Y7.40961
 X77.83670 Y7.84364
 X78.25000 Y8.28765
 X78.65280 Y8.74154
 X79.04490 Y9.20497
 X79.42580 Y9.67785
 X79.79570 Y10.15990
 X80.15400 Y10.65090
 X80.50080 Y11.15080
 X80.83580 Y11.65930
 X81.15880 Y12.17620
 X81.46960 Y12.70120
 X81.76790 Y13.23430
 X82.05380 Y13.77520
 X82.32670 Y14.32380
 X82.58650 Y14.87960
 X82.83330 Y15.44280
 X83.06670 Y16.01290
 X83.28650 Y16.58970
 X83.49240 Y17.17330
 X83.68430 Y17.76320
 X83.86210 Y18.35930
 X84.02530 Y18.96150
 X84.17400 Y19.56940
 X84.30790 Y20.18310
 X84.42680 Y20.80190
 X84.53060 Y21.42610
 X84.61890 Y22.05530
 X84.69150 Y22.68920
 X84.74850 Y23.32780
 X84.78930 Y23.97070
 X84.81400 Y24.61790
 X84.82220 Y25.10640
 Y25.54890
 X84.81640 Y26.38790
 X84.79890 Y27.53830
 X84.77000 Y28.71890
 X84.72990 Y29.92830
 X84.67850 Y31.16540
 X84.61610 Y32.42890
 X84.54290 Y33.71720
 X84.45920 Y35.02930
 X84.36490 Y36.36370
 X84.26010 Y37.71930
 X84.14530 Y39.09470
 X84.02040 Y40.48850
 X83.88570 Y41.89960
 X83.74110 Y43.32650
 X83.58710 Y44.76790
 X83.42360 Y46.22280
 X83.25080 Y47.68940
 X83.06900 Y49.16690
 X82.87820 Y50.65380
 X82.67880 Y52.14860
 X82.47060 Y53.65030
 X82.25390 Y55.15740
 X82.02890 Y56.66860
 X81.79580 Y58.18280
 X81.55470 Y59.69850
 X81.30570 Y61.21440
 X81.04920 Y62.72940
 X80.78490 Y64.24190
 X80.51330 Y65.75080
 X80.23460 Y67.25490
 X79.94890 Y68.75250
 X79.73030 Y69.87030
 X79.65610 Y70.24260
 X80.02060 Y70.19790
 X81.11280 Y70.05600
 X82.54560 Y69.85650
 X83.95320 Y69.64460
 X85.33470 Y69.42030
 X86.68870 Y69.18380
 X88.01400 Y68.93530
 X89.30940 Y68.67490
 X90.57380 Y68.40290
 X91.80570 Y68.11930
 X93.00400 Y67.82440
 X94.16760 Y67.51830
 X95.29510 Y67.20130
 X96.38560 Y66.87330
 X97.43750 Y66.53470
 X98.44970 Y66.18570
 X99.17940 Y65.91890
 X99.42130 Y65.82630
 X99.57140 Y65.76850
 X100.03300 Y65.62250
 X100.65700 Y65.47640
 X101.29200 Y65.38860
 X101.77300 Y65.35920
 X102.05000
 X102.39900 Y65.37470
 X102.85800 Y65.42100
 X103.31100 Y65.49690
 X103.75600 Y65.60210
 X104.19200 Y65.73560
 X104.61600 Y65.89670
 X105.02900 Y66.08440
 X105.42800 Y66.29830
 X105.81300 Y66.53750
 X106.18200 Y66.80110
 X106.53300 Y67.08860
 X106.86600 Y67.39900
 X107.17800 Y67.73170
 X107.47000 Y68.08570
 X107.73800 Y68.46040
 X107.92500 Y68.75460
 X107.98300 Y68.85510
 X108.09100 Y69.04260
 X108.40300 Y69.61170
 X108.79600 Y70.37350
 X109.16300 Y71.14010
 X109.50200 Y71.91150
 X109.81500 Y72.68750
 X110.10100 Y73.46810
 X110.35900 Y74.25290
 X110.59100 Y75.04180
 X110.79600 Y75.83460
 X110.97300 Y76.63130
 X111.12300 Y77.43150
 X111.24600 Y78.23510
 X111.34200 Y79.04210
 X111.41100 Y79.85210
 X111.45200 Y80.66500
 X111.46500 Y81.27680
 Y81.70260
 X111.44900 Y82.36810
 X111.39900 Y83.25490
 X111.31700 Y84.14080
 X111.20300 Y85.02560
 X111.05600 Y85.90860
 X110.87700 Y86.78940
 X110.66700 Y87.66760
 X110.42500 Y88.54280
 X110.15200 Y89.41440
 X109.84800 Y90.28220
 X109.51400 Y91.14560
 X109.15000 Y92.00400
 X108.75500 Y92.85720
 X108.33100 Y93.70470
 X107.87700 Y94.54600
 X107.39400 Y95.38070
 X106.88200 Y96.20830
 X106.34200 Y97.02850
 X105.77300 Y97.84070
 X105.17500 Y98.64440
 X104.55000 Y99.43940
 X103.89800 Y100.22500
 X103.21700 Y101.00100
 X102.51000 Y101.76700
 X101.77600 Y102.52200
 X101.01500 Y103.26600
 X100.22800 Y103.99800
 X99.41540 Y104.71900
 X98.57680 Y105.42700
 X97.71250 Y106.12300
 X96.82310 Y106.80500
 X96.13920 Y107.30900
 X95.90860 Y107.47300
G0 Z-25.0000
M5 (stop spindle)
G04 P3 (wait for 3 seconds)
G0 Z-25.0000
M2 (end program)
