;PYCAM-META-DATA: Filename: /media/martoio/MARTOIO/ME43/std_lib/svg/002-airplane.svg
;PYCAM-META-DATA: Timestamp: 2017-12-11 12:40:35.434936
;PYCAM-META-DATA: Version: 0.5.1
;Estimated machine time: 25 minutes
G40 (disable tool radius compensation)
G49 (disable tool length compensation)
G80 (cancel modal motion)
G54 (select coordinate system 1)
G90 (disable incremental moves)
G21 (metric)
G61 (exact path mode)
F200.00000
S1000.00000
;PYCAM_TOOLPATH_SETTINGS: START
;[Bounds]
;maxz = -58.0
;maxx = 147.8775
;maxy = 144.4905
;minx = 6.587879775
;miny = 9.97383
;minz = -58.0
;
;[Tool]
;torus_radius = 0.125
;speed = 1000.0
;shape = CylindricalCutter
;tool_radius = 1.5875
;feedrate = 200.0
;
;[Process]
;engrave_offset = 0.0
;step_down = 0.01
;generator = EngraveCutter
;postprocessor = SimpleCutter
;milling_style = conventional
;material_allowance = 0.0
;pocketing_type = holes
;path_direction = x
;
;PYCAM_TOOLPATH_SETTINGS: END
T1 M6
G0 Z-25.0000
 X73.5158 Y144.4905
G1 Z-58.0000
 X73.3731 Y144.3510
 X73.1126 Y144.0690
 X72.8611 Y143.7710
 X72.6182 Y143.4540
 X72.3836 Y143.1200
 X72.1574 Y142.7700
 X71.9393 Y142.4040
 X71.7293 Y142.0240
 X71.5272 Y141.6300
 X71.3328 Y141.2220
 X71.1458 Y140.8010
 X70.9665 Y140.3670
 X70.7943 Y139.9230
 X70.6293 Y139.4670
 X70.4713 Y139.0010
 X70.3201 Y138.5250
 X70.1757 Y138.0410
 X70.0378 Y137.5480
 X69.9063 Y137.0470
 X69.7810 Y136.5400
 X69.6619 Y136.0260
 X69.5487 Y135.5060
 X69.4415 Y134.9810
 X69.3397 Y134.4520
 X69.2437 Y133.9190
 X69.1529 Y133.3830
 X69.0675 Y132.8450
 X68.9871 Y132.3040
 X68.9115 Y131.7630
 X68.8410 Y131.2210
 X68.7749 Y130.6790
 X68.7133 Y130.1380
 X68.6563 Y129.5990
 X68.6033 Y129.0610
 X68.5544 Y128.5270
 X68.5094 Y127.9960
 X68.4683 Y127.4680
 X68.4308 Y126.9460
 X68.3968 Y126.4290
 X68.3661 Y125.9180
 X68.3385 Y125.4140
 X68.3140 Y124.9170
 X68.2924 Y124.4280
 X68.2736 Y123.9470
 X68.2574 Y123.4760
 X68.2436 Y123.0150
 X68.2321 Y122.5640
 X68.2228 Y122.1250
 X68.2156 Y121.6980
 X68.2101 Y121.2830
 X68.2064 Y120.8810
 X68.2043 Y120.4940
 X68.2036 Y120.1200
 X68.2267 Y119.8930
 X68.2924 Y119.6810
 X68.3965 Y119.4890
 X68.5344 Y119.3220
 X68.7014 Y119.1840
 X68.8931 Y119.0800
 X69.1049 Y119.0150
 X69.3322 Y118.9920
 X69.5600 Y119.0150
 X69.7719 Y119.0800
 X69.9638 Y119.1840
 X70.1307 Y119.3220
 X70.2685 Y119.4890
 X70.3725 Y119.6810
 X70.4382 Y119.8930
 X70.4611 Y120.1200
 X70.4688 Y121.4550
 X70.4919 Y122.7590
 X70.5301 Y124.0320
 X70.5833 Y125.2720
 X70.6511 Y126.4800
 X70.7335 Y127.6540
 X70.8301 Y128.7930
 X70.9407 Y129.8980
 X71.0651 Y130.9660
 X71.2032 Y131.9970
 X71.3544 Y132.9910
 X71.5190 Y133.9470
 X71.6965 Y134.8630
 X71.8867 Y135.7400
 X72.0893 Y136.5750
 X72.3043 Y137.3700
 X72.5313 Y138.1220
 X72.7701 Y138.8320
 X73.0206 Y139.4970
 X73.2824 Y140.1180
 X73.5554 Y140.6940
 X73.8393 Y141.2240
 X74.1340 Y141.7070
 X74.4393 Y142.1430
 X74.7547 Y142.5300
 X75.0803 Y142.8680
 X75.4157 Y143.1560
 X75.7607 Y143.3930
 X76.1151 Y143.5790
 X76.4786 Y143.7130
 X76.8513 Y143.7940
 X77.2326 Y143.8210
 X77.4603 Y143.8440
 X77.6722 Y143.9100
 X77.8639 Y144.0140
 X78.0310 Y144.1510
 X78.1686 Y144.3190
 X78.2615 Y144.4905
 X76.2034
 X76.2969 Y144.3180
 X76.4347 Y144.1510
 X76.6018 Y144.0140
 X76.7935 Y143.9100
 X77.0053 Y143.8440
 X77.2326 Y143.8210
 X77.6139 Y143.7940
 X77.9865 Y143.7130
 X78.3501 Y143.5790
 X78.7046 Y143.3930
 X79.0496 Y143.1560
 X79.3850 Y142.8680
 X79.7106 Y142.5300
 X80.0260 Y142.1430
 X80.3313 Y141.7070
 X80.6258 Y141.2240
 X80.9099 Y140.6940
 X81.1828 Y140.1180
 X81.4447 Y139.4970
 X81.6951 Y138.8320
 X81.9339 Y138.1220
 X82.1610 Y137.3700
 X82.3758 Y136.5750
 X82.5786 Y135.7400
 X82.7688 Y134.8630
 X82.9462 Y133.9470
 X83.1107 Y132.9910
 X83.2622 Y131.9970
 X83.4001 Y130.9660
 X83.5246 Y129.8980
 X83.6351 Y128.7930
 X83.7318 Y127.6540
 X83.8142 Y126.4800
 X83.8819 Y125.2720
 X83.9351 Y124.0320
 X83.9733 Y122.7590
 X83.9965 Y121.4550
 X84.0042 Y120.1200
 X84.0271 Y119.8930
 X84.0928 Y119.6810
 X84.1967 Y119.4890
 X84.3344 Y119.3220
 X84.5014 Y119.1840
 X84.6932 Y119.0800
 X84.9050 Y119.0150
 X85.1328 Y118.9920
 X85.3606 Y119.0150
 X85.5725 Y119.0800
 X85.7643 Y119.1840
 X85.9312 Y119.3220
 X86.0690 Y119.4890
 X86.1731 Y119.6810
 X86.2387 Y119.8930
 X86.2617 Y120.1200
 X86.2610 Y120.4940
 X86.2589 Y120.8810
 X86.2553 Y121.2830
 X86.2497 Y121.6980
 X86.2425 Y122.1250
 X86.2332 Y122.5640
 X86.2217 Y123.0150
 X86.2079 Y123.4760
 X86.1917 Y123.9470
 X86.1729 Y124.4280
 X86.1513 Y124.9170
 X86.1268 Y125.4140
 X86.0992 Y125.9180
 X86.0685 Y126.4290
 X86.0344 Y126.9460
 X85.9968 Y127.4680
 X85.9557 Y127.9960
 X85.9107 Y128.5270
 X85.8618 Y129.0610
 X85.8090 Y129.5990
 X85.7518 Y130.1380
 X85.6903 Y130.6790
 X85.6243 Y131.2210
 X85.5536 Y131.7630
 X85.4782 Y132.3040
 X85.3978 Y132.8450
 X85.3122 Y133.3830
 X85.2215 Y133.9190
 X85.1253 Y134.4520
 X85.0238 Y134.9810
 X84.9164 Y135.5060
 X84.8032 Y136.0260
 X84.6840 Y136.5400
 X84.5588 Y137.0470
 X84.4274 Y137.5480
 X84.2894 Y138.0410
 X84.1450 Y138.5250
 X83.9937 Y139.0010
 X83.8358 Y139.4670
 X83.6708 Y139.9230
 X83.4986 Y140.3670
 X83.3192 Y140.8010
 X83.1324 Y141.2220
 X82.9379 Y141.6300
 X82.7358 Y142.0240
 X82.5257 Y142.4040
 X82.3076 Y142.7700
 X82.0815 Y143.1200
 X81.8469 Y143.4540
 X81.6040 Y143.7710
 X81.3525 Y144.0690
 X81.0921 Y144.3510
 X80.9493 Y144.4905
G0 Z-25.0000
 X68.1992 Y75.0747
G1 Z-58.0000
 X68.1553 Y75.2994
 X68.0685 Y75.5108
 X67.9447 Y75.6944
 X67.7900 Y75.8476
 X67.6099 Y75.9672
 X67.4103 Y76.0508
 X67.1968 Y76.0953
 X66.9751 Y76.0981
 X66.7512 Y76.0561
 X55.3810 Y72.6426
 X6.5879 Y53.7906
 Y51.3723
 X6.7614 Y51.4664
 X6.9283 Y51.6043
 X7.0660 Y51.7714
 X7.1699 Y51.9631
 X7.2356 Y52.1749
 X7.2585 Y52.4021
 X7.2626 Y52.6431
 X7.2759 Y52.9333
 X7.2995 Y53.2658
 X7.3347 Y53.6336
 X7.3826 Y54.0299
 X7.4446 Y54.4478
 X7.5217 Y54.8804
 X7.6152 Y55.3207
 X7.7264 Y55.7619
 X7.8563 Y56.1972
 X8.0063 Y56.6197
 X8.1776 Y57.0224
 X8.3714 Y57.3983
 X8.5888 Y57.7407
 X8.8311 Y58.0426
 X9.0996 Y58.2974
 X9.2612 Y58.4590
 X9.3838 Y58.6440
 X9.4669 Y58.8461
 X9.5096 Y59.0588
 X9.5111 Y59.2756
 X9.4709 Y59.4900
 X9.3882 Y59.6957
 X9.2623 Y59.8863
 X9.1007 Y60.0496
 X8.9160 Y60.1732
 X8.7143 Y60.2565
 X8.5021 Y60.2992
 X8.2857 Y60.3006
 X8.0714 Y60.2601
 X7.8656 Y60.1774
 X7.6747 Y60.0517
 X7.4384 Y59.8456
 X7.2164 Y59.6240
 X7.0083 Y59.3883
 X6.8137 Y59.1399
 X6.6321 Y58.8799
 X6.5879 Y58.8093
G0 Z-25.0000
 Y51.3687
G1 Z-58.0000
 X56.1129 Y70.5094
 X67.3990 Y73.8940
 X67.6106 Y73.9814
 X67.7949 Y74.1051
 X67.9486 Y74.2599
 X68.0692 Y74.4397
 X68.1531 Y74.6393
 X68.1974 Y74.8528
 X68.1992 Y75.0747
G0 Z-25.0000
 X77.4603 Y35.4501
G1 Z-58.0000
 X77.2326 Y35.4729
 X77.0053 Y35.4501
 X76.7935 Y35.3844
 X76.6018 Y35.2804
 X76.4347 Y35.1428
 X76.2969 Y34.9757
 X76.1928 Y34.7840
 X76.1269 Y34.5721
 X76.1042 Y34.3444
 Y9.9738
 X78.3612
 Y34.3444
 X78.3383 Y34.5721
 X78.2726 Y34.7840
 X78.1686 Y34.9757
 X78.0310 Y35.1428
 X77.8639 Y35.2804
 X77.6722 Y35.3844
 X77.4603 Y35.4501
G0 Z-25.0000
 X147.8775 Y58.8092
G1 Z-58.0000
 X147.8330 Y58.8799
 X147.6510 Y59.1399
 X147.4570 Y59.3883
 X147.2490 Y59.6240
 X147.0260 Y59.8456
 X146.7900 Y60.0517
 X146.6000 Y60.1765
 X146.3940 Y60.2589
 X146.1810 Y60.2993
 X145.9640 Y60.2981
 X145.7510 Y60.2558
 X145.5500 Y60.1728
 X145.3650 Y60.0494
 X145.2040 Y59.8863
 X145.0780 Y59.6957
 X144.9960 Y59.4900
 X144.9560 Y59.2756
 X144.9570 Y59.0588
 X144.9990 Y58.8461
 X145.0820 Y58.6440
 X145.2060 Y58.4590
 X145.3670 Y58.2974
 X145.6360 Y58.0436
 X145.8780 Y57.7442
 X146.0940 Y57.4056
 X146.2890 Y57.0342
 X146.4600 Y56.6367
 X146.6100 Y56.2194
 X146.7390 Y55.7892
 X146.8500 Y55.3524
 X146.9430 Y54.9154
 X147.0210 Y54.4849
 X147.0820 Y54.0672
 X147.1310 Y53.6692
 X147.1650 Y53.2971
 X147.1890 Y52.9575
 X147.2030 Y52.6569
 X147.2070 Y52.4021
 X147.2310 Y52.1749
 X147.2970 Y51.9631
 X147.4010 Y51.7714
 X147.5390 Y51.6043
 X147.7060 Y51.4664
 X147.8775 Y51.3730
 Y53.7908
 X99.0015 Y72.6687
 X87.7140 Y76.0561
 X87.4908 Y76.0976
 X87.2697 Y76.0947
 X87.0564 Y76.0501
 X86.8568 Y75.9668
 X86.6764 Y75.8472
 X86.5212 Y75.6943
 X86.3971 Y75.5108
 X86.3096 Y75.2994
 X86.2658 Y75.0747
 X86.2679 Y74.8528
 X86.3125 Y74.6393
 X86.3967 Y74.4399
 X86.5172 Y74.2601
 X86.6711 Y74.1057
 X86.8551 Y73.9822
 X87.0664 Y73.8954
 X98.2685 Y70.5358
 X147.8775 Y51.3692
G0 Z-25.0000
 X30.9596 Y63.1247
G1 Z-58.0000
 X30.7317 Y63.1018
 X30.5197 Y63.0362
 X30.3281 Y62.9322
 X30.1610 Y62.7944
 X30.0233 Y62.6275
 X29.9194 Y62.4357
 X29.8537 Y62.2236
 X29.8310 Y61.9958
 Y59.7387
 X29.8537 Y59.5114
 X29.9194 Y59.2996
 X30.0233 Y59.1079
 X30.1610 Y58.9410
 X30.3281 Y58.8031
 X30.5197 Y58.6990
 X30.7317 Y58.6332
 X30.9596 Y58.6103
 X31.1872 Y58.6332
 X31.3990 Y58.6990
 X31.5908 Y58.8031
 X31.7578 Y58.9410
 X31.8956 Y59.1079
 X31.9994 Y59.2996
 X32.0651 Y59.5114
 X32.0881 Y59.7387
 Y61.9958
 X32.0651 Y62.2236
 X31.9994 Y62.4357
 X31.8956 Y62.6275
 X31.7578 Y62.7944
 X31.5908 Y62.9322
 X31.3990 Y63.0362
 X31.1872 Y63.1018
 X30.9596 Y63.1247
G0 Z-25.0000
 X37.7311 Y65.7417
G1 Z-58.0000
 X37.5033 Y65.7188
 X37.2914 Y65.6529
 X37.0997 Y65.5487
 X36.9328 Y65.4108
 X36.7950 Y65.2437
 X36.6911 Y65.0519
 X36.6254 Y64.8401
 X36.6025 Y64.6128
 Y62.3557
 X36.6254 Y62.1279
 X36.6911 Y61.9160
 X36.7950 Y61.7242
 X36.9328 Y61.5572
 X37.0997 Y61.4196
 X37.2914 Y61.3157
 X37.5033 Y61.2500
 X37.7311 Y61.2271
 X37.9589 Y61.2500
 X38.1708 Y61.3157
 X38.3625 Y61.4196
 X38.5294 Y61.5572
 X38.6672 Y61.7242
 X38.7711 Y61.9160
 X38.8367 Y62.1279
 X38.8596 Y62.3557
 Y64.6128
 X38.8367 Y64.8401
 X38.7708 Y65.0519
 X38.6668 Y65.2437
 X38.5289 Y65.4108
 X38.3618 Y65.5487
 X38.1701 Y65.6529
 X37.9583 Y65.7188
 X37.7311 Y65.7417
G0 Z-25.0000
 X44.5029 Y68.3585
G1 Z-58.0000
 X44.2751 Y68.3356
 X44.0632 Y68.2697
 X43.8714 Y68.1657
 X43.7043 Y68.0278
 X43.5667 Y67.8606
 X43.4626 Y67.6689
 X43.3971 Y67.4571
 X43.3742 Y67.2297
 Y64.9725
 X43.3971 Y64.7449
 X43.4626 Y64.5328
 X43.5667 Y64.3411
 X43.7043 Y64.1742
 X43.8714 Y64.0365
 X44.0632 Y63.9325
 X44.2751 Y63.8669
 X44.5029 Y63.8440
 X44.7307 Y63.8669
 X44.9425 Y63.9325
 X45.1343 Y64.0365
 X45.3012 Y64.1742
 X45.4390 Y64.3411
 X45.5429 Y64.5328
 X45.6086 Y64.7449
 X45.6315 Y64.9725
 Y67.2297
 X45.6086 Y67.4571
 X45.5429 Y67.6689
 X45.4390 Y67.8606
 X45.3012 Y68.0278
 X45.1343 Y68.1657
 X44.9425 Y68.2697
 X44.7307 Y68.3356
 X44.5029 Y68.3585
G0 Z-25.0000
 X35.4740 Y87.3906
G1 Z-58.0000
 X28.7024
 X28.4746 Y87.3675
 X28.2626 Y87.3018
 X28.0708 Y87.1976
 X27.9037 Y87.0597
 X27.7661 Y86.8928
 X27.6621 Y86.7011
 X27.5965 Y86.4893
 X27.5736 Y86.2619
 Y79.3151
 X27.5965 Y79.0879
 X27.6621 Y78.8761
 X27.7661 Y78.6844
 X27.9037 Y78.5174
 X28.0708 Y78.3794
 X28.2626 Y78.2754
 X28.4746 Y78.2096
 X28.7024 Y78.1865
 X28.9300 Y78.2096
 X29.1419 Y78.2754
 X29.3338 Y78.3794
 X29.5007 Y78.5174
 X29.6383 Y78.6844
 X29.7424 Y78.8761
 X29.8081 Y79.0879
 X29.8310 Y79.3151
 Y86.2619
 X29.8081 Y86.4893
 X29.7424 Y86.7011
 X29.6383 Y86.8928
 X29.5007 Y87.0597
 X29.3338 Y87.1976
 X29.1419 Y87.3018
 X28.9300 Y87.3675
 X28.7024 Y87.3906
 X28.4746 Y87.3675
 X28.2626 Y87.3018
 X28.0708 Y87.1976
 X27.9037 Y87.0597
 X27.7661 Y86.8928
 X27.6621 Y86.7011
 X27.5965 Y86.4893
 X27.5736 Y86.2619
 X27.5965 Y86.0342
 X27.6621 Y85.8222
 X27.7661 Y85.6304
 X27.9037 Y85.4635
 X28.0708 Y85.3257
 X28.2626 Y85.2217
 X28.4746 Y85.1561
 X28.7024 Y85.1332
 X35.4740
 X35.7017 Y85.1561
 X35.9136 Y85.2217
 X36.1053 Y85.3257
 X36.2724 Y85.4635
 X36.4100 Y85.6304
 X36.5139 Y85.8222
 X36.5796 Y86.0342
 X36.6025 Y86.2619
 X36.5796 Y86.4893
 X36.5139 Y86.7011
 X36.4100 Y86.8928
 X36.2724 Y87.0597
 X36.1053 Y87.1976
 X35.9136 Y87.3018
 X35.7017 Y87.3675
 X35.4740 Y87.3906
 X35.2462 Y87.3675
 X35.0342 Y87.3018
 X34.8425 Y87.1976
 X34.6756 Y87.0597
 X34.5379 Y86.8928
 X34.4340 Y86.7011
 X34.3683 Y86.4893
 X34.3456 Y86.2619
 Y84.5271
 X34.3683 Y84.2993
 X34.4340 Y84.0872
 X34.5379 Y83.8954
 X34.6756 Y83.7285
 X34.8425 Y83.5907
 X35.0342 Y83.4868
 X35.2462 Y83.4211
 X35.4740 Y83.3982
 X35.7017 Y83.4211
 X35.9136 Y83.4868
 X36.1053 Y83.5907
 X36.2724 Y83.7285
 X36.4100 Y83.8954
 X36.5139 Y84.0872
 X36.5796 Y84.2993
 X36.6025 Y84.5271
 Y86.2619
 X36.5796 Y86.4893
 X36.5139 Y86.7011
 X36.4100 Y86.8928
 X36.2724 Y87.0597
 X36.1053 Y87.1976
 X35.9136 Y87.3018
 X35.7017 Y87.3675
 X35.4740 Y87.3906
G0 Z-25.0000
 X53.5317 Y100.9336
G1 Z-58.0000
 X53.3039 Y100.9108
 X53.0921 Y100.8451
 X52.9003 Y100.7413
 X52.7333 Y100.6036
 X52.5956 Y100.4367
 X52.4917 Y100.2449
 X52.4260 Y100.0329
 X52.4031 Y99.8051
 Y98.4163
 X52.4260 Y98.1889
 X52.4917 Y97.9771
 X52.5956 Y97.7854
 X52.7333 Y97.6183
 X52.9003 Y97.4806
 X53.0921 Y97.3765
 X53.3039 Y97.3107
 X53.5317 Y97.2876
 X53.7594 Y97.3106
 X53.9714 Y97.3762
 X54.1632 Y97.4801
 X54.3301 Y97.6178
 X54.4679 Y97.7847
 X54.5719 Y97.9765
 X54.6376 Y98.1885
 X54.6606 Y98.4163
 Y99.8051
 X54.6376 Y100.0329
 X54.5719 Y100.2449
 X54.4679 Y100.4367
 X54.3301 Y100.6036
 X54.1632 Y100.7413
 X53.9714 Y100.8451
 X53.7594 Y100.9108
 X53.5317 Y100.9336
 X46.7601
 X46.5322 Y100.9107
 X46.3203 Y100.8450
 X46.1286 Y100.7408
 X45.9615 Y100.6031
 X45.8239 Y100.4360
 X45.7200 Y100.2443
 X45.6543 Y100.0325
 X45.6315 Y99.8051
 Y93.2071
 X45.6543 Y92.9794
 X45.7200 Y92.7676
 X45.8239 Y92.5758
 X45.9615 Y92.4089
 X46.1286 Y92.2711
 X46.3203 Y92.1672
 X46.5322 Y92.1015
 X46.7601 Y92.0786
 X46.9879 Y92.1017
 X47.1999 Y92.1674
 X47.3915 Y92.2715
 X47.5585 Y92.4094
 X47.6962 Y92.5764
 X47.8001 Y92.7681
 X47.8657 Y92.9799
 X47.8886 Y93.2071
 Y99.8051
 X47.8657 Y100.0325
 X47.8001 Y100.2443
 X47.6962 Y100.4360
 X47.5585 Y100.6031
 X47.3915 Y100.7408
 X47.1999 Y100.8450
 X46.9879 Y100.9107
 X46.7601 Y100.9336
 X46.5322 Y100.9107
 X46.3203 Y100.8450
 X46.1286 Y100.7408
 X45.9615 Y100.6031
 X45.8239 Y100.4360
 X45.7200 Y100.2443
 X45.6543 Y100.0325
 X45.6315 Y99.8051
 X45.6543 Y99.5775
 X45.7200 Y99.3656
 X45.8239 Y99.1739
 X45.9615 Y99.0069
 X46.1286 Y98.8692
 X46.3203 Y98.7651
 X46.5322 Y98.6996
 X46.7601 Y98.6765
 X53.5317
 X53.7594 Y98.6996
 X53.9714 Y98.7651
 X54.1632 Y98.8692
 X54.3301 Y99.0069
 X54.4679 Y99.1739
 X54.5719 Y99.3656
 X54.6376 Y99.5775
 X54.6606 Y99.8051
 X54.6376 Y100.0325
 X54.5719 Y100.2443
 X54.4679 Y100.4360
 X54.3301 Y100.6031
 X54.1632 Y100.7408
 X53.9714 Y100.8450
 X53.7594 Y100.9107
 X53.5317 Y100.9336
G0 Z-25.0000
 X68.1112 Y82.1967
G1 Z-58.0000
 X67.9990 Y82.3961
 X67.8536 Y82.5642
 X67.6810 Y82.6983
 X67.4874 Y82.7965
 X67.2790 Y82.8562
 X67.0619 Y82.8753
 X66.8422 Y82.8514
 X66.6260 Y82.7822
 X14.7095 Y60.2115
 X14.5100 Y60.0994
 X14.3419 Y59.9544
 X14.2074 Y59.7822
 X14.1091 Y59.5889
 X14.0490 Y59.3806
 X14.0297 Y59.1631
 X14.0534 Y58.9424
 X14.1225 Y58.7244
 X14.2023 Y58.5732
 X14.3013 Y58.4390
 X14.4171 Y58.3229
 X14.5472 Y58.2258
 X14.6889 Y58.1487
 X14.8398 Y58.0926
 X14.9973 Y58.0582
 X15.1590 Y58.0465
 X15.3856 Y58.0694
 X15.6080 Y58.1389
 X67.5242 Y80.7125
 X67.7237 Y80.8240
 X67.8918 Y80.9688
 X68.0264 Y81.1407
 X68.1247 Y81.3336
 X68.1847 Y81.5417
 X68.2042 Y81.7589
 X68.1803 Y81.9793
 X68.1112 Y82.1967
G0 Z-25.0000
 X68.1472 Y95.6476
G1 Z-58.0000
 X68.0528 Y95.8565
 X67.9228 Y96.0368
 X67.7632 Y96.1856
 X67.5794 Y96.3003
 X67.3775 Y96.3779
 X67.1626 Y96.4160
 X66.9410 Y96.4115
 X66.7181 Y96.3617
 X53.1750 Y91.8457
 X52.9664 Y91.7525
 X52.7863 Y91.6235
 X52.6374 Y91.4643
 X52.5224 Y91.2810
 X52.4444 Y91.0790
 X52.4063 Y90.8643
 X52.4108 Y90.6425
 X52.4610 Y90.4194
 X52.5331 Y90.2503
 X52.6288 Y90.0989
 X52.7450 Y89.9669
 X52.8789 Y89.8558
 X53.0275 Y89.7668
 X53.1878 Y89.7017
 X53.3568 Y89.6614
 X53.5317 Y89.6476
 X53.7101 Y89.6617
 X53.8886 Y89.7054
 X67.4321 Y94.2200
 X67.6406 Y94.3137
 X67.8207 Y94.4431
 X67.9697 Y94.6025
 X68.0847 Y94.7861
 X68.1628 Y94.9881
 X68.2011 Y95.2029
 X68.1969 Y95.4247
 X68.1472 Y95.6476
G0 Z-25.0000
 X67.9708 Y105.0070
G1 Z-58.0000
 X67.8133 Y105.1750
 X67.6315 Y105.3030
 X67.4318 Y105.3920
 X67.2204 Y105.4400
 X67.0040 Y105.4470
 X66.7888 Y105.4120
 X66.5811 Y105.3350
 X66.3876 Y105.2140
 X7.6994 Y60.0697
 X7.5329 Y59.9131
 X7.4049 Y59.7319
 X7.3163 Y59.5325
 X7.2678 Y59.3212
 X7.2602 Y59.1046
 X7.2944 Y58.8890
 X7.3712 Y58.6807
 X7.4913 Y58.4861
 X7.6780 Y58.2947
 X7.8964 Y58.1572
 X8.1363 Y58.0743
 X8.3874 Y58.0465
 X8.5669 Y58.0606
 X8.7440 Y58.1035
 X8.9146 Y58.1761
 X9.0749 Y58.2793
 X67.7626 Y103.4239
 X67.9292 Y103.5810
 X68.0571 Y103.7624
 X68.1458 Y103.9621
 X68.1943 Y104.1733
 X68.2019 Y104.3899
 X68.1676 Y104.6053
 X68.0910 Y104.8132
 X67.9708 Y105.0070
G0 Z-25.0000
 X69.3322 Y121.2490
G1 Z-58.0000
 X69.1049 Y121.2260
 X68.8931 Y121.1600
 X68.7014 Y121.0560
 X68.5344 Y120.9190
 X68.3965 Y120.7520
 X68.2924 Y120.5600
 X68.2267 Y120.3480
 X68.2036 Y120.1200
 Y61.4325
 X68.2267 Y61.2047
 X68.2924 Y60.9928
 X68.3965 Y60.8010
 X68.5344 Y60.6340
 X68.7014 Y60.4964
 X68.8931 Y60.3925
 X69.1049 Y60.3268
 X69.3322 Y60.3039
 X69.5600 Y60.3268
 X69.7719 Y60.3925
 X69.9638 Y60.4964
 X70.1307 Y60.6340
 X70.2685 Y60.8010
 X70.3725 Y60.9928
 X70.4382 Y61.2047
 X70.4611 Y61.4325
 Y120.1200
 X70.4382 Y120.3480
 X70.3725 Y120.5600
 X70.2685 Y120.7520
 X70.1307 Y120.9190
 X69.9638 Y121.0560
 X69.7719 Y121.1600
 X69.5600 Y121.2260
 X69.3322 Y121.2490
G0 Z-25.0000
 X81.6215 Y136.4380
G1 Z-58.0000
 X81.5942 Y136.4890
 X81.5340 Y136.5950
 X81.4411 Y136.7460
 X81.3154 Y136.9360
 X81.1568 Y137.1560
 X80.9654 Y137.3980
 X80.7411 Y137.6540
 X80.4839 Y137.9170
 X80.1935 Y138.1780
 X79.8701 Y138.4300
 X79.5136 Y138.6650
 X79.1239 Y138.8750
 X78.7010 Y139.0520
 X78.2449 Y139.1880
 X77.7554 Y139.2760
 X77.2326 Y139.3070
 X76.7101 Y139.2760
 X76.2207 Y139.1880
 X75.7647 Y139.0520
 X75.3419 Y138.8750
 X74.9522 Y138.6650
 X74.5957 Y138.4300
 X74.2722 Y138.1780
 X73.9818 Y137.9170
 X73.7244 Y137.6540
 X73.5000 Y137.3980
 X73.3085 Y137.1560
 X73.1499 Y136.9360
 X73.0240 Y136.7460
 X72.9311 Y136.5950
 X72.8708 Y136.4890
 X72.8435 Y136.4380
 X72.7593 Y136.2250
 X72.7207 Y136.0070
 X72.7254 Y135.7890
 X72.7714 Y135.5780
 X72.8568 Y135.3780
 X72.9794 Y135.1980
 X73.1375 Y135.0420
 X73.3289 Y134.9180
 X73.5414 Y134.8340
 X73.7599 Y134.7960
 X73.9779 Y134.8000
 X74.1897 Y134.8460
 X74.3889 Y134.9320
 X74.5693 Y135.0540
 X74.7251 Y135.2120
 X74.8500 Y135.4040
 X74.8617 Y135.4250
 X74.8935 Y135.4790
 X74.9450 Y135.5620
 X75.0158 Y135.6680
 X75.1056 Y135.7930
 X75.2139 Y135.9320
 X75.3404 Y136.0800
 X75.4846 Y136.2330
 X75.6462 Y136.3850
 X75.8250 Y136.5330
 X76.0203 Y136.6710
 X76.2318 Y136.7950
 X76.4592 Y136.8990
 X76.7021 Y136.9790
 X76.9600 Y137.0310
 X77.2326 Y137.0490
 X77.5049 Y137.0310
 X77.7625 Y136.9790
 X78.0053 Y136.8980
 X78.2326 Y136.7940
 X78.4443 Y136.6700
 X78.6397 Y136.5310
 X78.8186 Y136.3830
 X78.9806 Y136.2300
 X79.1250 Y136.0770
 X79.2518 Y135.9290
 X79.3603 Y135.7900
 X79.4501 Y135.6650
 X79.5210 Y135.5590
 X79.5724 Y135.4770
 X79.6040 Y135.4240
 X79.6153 Y135.4040
 X79.6994 Y135.2660
 X79.7994 Y135.1450
 X79.9135 Y135.0400
 X80.0393 Y134.9520
 X80.1749 Y134.8830
 X80.3179 Y134.8330
 X80.4665 Y134.8030
 X80.6186 Y134.7920
 X80.8807 Y134.8230
 X81.1365 Y134.9180
 X81.3282 Y135.0420
 X81.4864 Y135.1980
 X81.6092 Y135.3780
 X81.6944 Y135.5780
 X81.7403 Y135.7890
 X81.7447 Y136.0070
 X81.7058 Y136.2250
 X81.6215 Y136.4380
G0 Z-25.0000
 X85.1328 Y121.2490
G1 Z-58.0000
 X84.9050 Y121.2260
 X84.6932 Y121.1600
 X84.5014 Y121.0560
 X84.3344 Y120.9190
 X84.1967 Y120.7520
 X84.0928 Y120.5600
 X84.0271 Y120.3480
 X84.0042 Y120.1200
 Y61.4325
 X84.0271 Y61.2047
 X84.0928 Y60.9928
 X84.1967 Y60.8010
 X84.3344 Y60.6340
 X84.5014 Y60.4964
 X84.6932 Y60.3925
 X84.9050 Y60.3268
 X85.1328 Y60.3039
 X85.3606 Y60.3268
 X85.5725 Y60.3925
 X85.7643 Y60.4964
 X85.9312 Y60.6340
 X86.0690 Y60.8010
 X86.1731 Y60.9928
 X86.2387 Y61.2047
 X86.2617 Y61.4325
 Y120.1200
 X86.2387 Y120.3480
 X86.1731 Y120.5600
 X86.0690 Y120.7520
 X85.9312 Y120.9190
 X85.7643 Y121.0560
 X85.5725 Y121.1600
 X85.3606 Y121.2260
 X85.1328 Y121.2490
G0 Z-25.0000
 X100.9338 Y100.9336
G1 Z-58.0000
 X100.7058 Y100.9108
 X100.4937 Y100.8451
 X100.3021 Y100.7413
 X100.1350 Y100.6036
 X99.9972 Y100.4367
 X99.8933 Y100.2449
 X99.8276 Y100.0329
 X99.8049 Y99.8051
 Y98.4163
 X99.8276 Y98.1889
 X99.8933 Y97.9771
 X99.9972 Y97.7854
 X100.1350 Y97.6183
 X100.3021 Y97.4806
 X100.4937 Y97.3765
 X100.7058 Y97.3107
 X100.9338 Y97.2876
 X101.1614 Y97.3106
 X101.3733 Y97.3762
 X101.5650 Y97.4801
 X101.7319 Y97.6178
 X101.8697 Y97.7847
 X101.9736 Y97.9765
 X102.0393 Y98.1885
 X102.0622 Y98.4163
 Y99.8051
 X102.0393 Y100.0329
 X101.9736 Y100.2449
 X101.8697 Y100.4367
 X101.7319 Y100.6036
 X101.5650 Y100.7413
 X101.3733 Y100.8451
 X101.1614 Y100.9108
 X100.9338 Y100.9336
G0 Z-25.0000
 X107.7050
G1 Z-58.0000
 X100.9338
 X100.7058 Y100.9107
 X100.4937 Y100.8450
 X100.3021 Y100.7408
 X100.1350 Y100.6031
 X99.9972 Y100.4360
 X99.8933 Y100.2443
 X99.8276 Y100.0325
 X99.8049 Y99.8051
 X99.8276 Y99.5775
 X99.8933 Y99.3656
 X99.9972 Y99.1739
 X100.1350 Y99.0069
 X100.3021 Y98.8692
 X100.4937 Y98.7651
 X100.7058 Y98.6996
 X100.9338 Y98.6765
 X107.7050
 X107.9330 Y98.6996
 X108.1450 Y98.7651
 X108.3370 Y98.8692
 X108.5030 Y99.0069
 X108.6410 Y99.1739
 X108.7450 Y99.3656
 X108.8110 Y99.5775
 X108.8340 Y99.8051
 X108.8110 Y100.0325
 X108.7450 Y100.2443
 X108.6410 Y100.4360
 X108.5030 Y100.6031
 X108.3370 Y100.7408
 X108.1450 Y100.8450
 X107.9330 Y100.9107
 X107.7050 Y100.9336
 X107.4780 Y100.9107
 X107.2660 Y100.8450
 X107.0740 Y100.7408
 X106.9070 Y100.6031
 X106.7690 Y100.4360
 X106.6650 Y100.2443
 X106.6000 Y100.0325
 X106.5770 Y99.8051
 Y93.2071
 X106.6000 Y92.9794
 X106.6650 Y92.7676
 X106.7690 Y92.5758
 X106.9070 Y92.4089
 X107.0740 Y92.2711
 X107.2660 Y92.1672
 X107.4780 Y92.1015
 X107.7050 Y92.0786
 X107.9330 Y92.1017
 X108.1450 Y92.1674
 X108.3370 Y92.2715
 X108.5030 Y92.4094
 X108.6410 Y92.5764
 X108.7450 Y92.7681
 X108.8110 Y92.9799
 X108.8340 Y93.2071
 Y99.8051
 X108.8110 Y100.0325
 X108.7450 Y100.2443
 X108.6410 Y100.4360
 X108.5030 Y100.6031
 X108.3370 Y100.7408
 X108.1450 Y100.8450
 X107.9330 Y100.9107
 X107.7050 Y100.9336
G0 Z-25.0000
 X101.2918 Y91.8457
G1 Z-58.0000
 X87.7472 Y96.3617
 X87.5258 Y96.4107
 X87.3049 Y96.4147
 X87.0903 Y96.3767
 X86.8879 Y96.2992
 X86.7039 Y96.1849
 X86.5437 Y96.0364
 X86.4138 Y95.8564
 X86.3194 Y95.6476
 X86.2693 Y95.4247
 X86.2646 Y95.2029
 X86.3028 Y94.9881
 X86.3807 Y94.7861
 X86.4956 Y94.6025
 X86.6444 Y94.4431
 X86.8247 Y94.3137
 X87.0332 Y94.2200
 X100.5767 Y89.7054
 X100.7551 Y89.6617
 X100.9338 Y89.6476
 X101.1089 Y89.6614
 X101.2781 Y89.7017
 X101.4386 Y89.7668
 X101.5874 Y89.8558
 X101.7213 Y89.9669
 X101.8376 Y90.0989
 X101.9335 Y90.2503
 X102.0057 Y90.4194
 X102.0553 Y90.6425
 X102.0596 Y90.8643
 X102.0212 Y91.0790
 X101.9432 Y91.2810
 X101.8285 Y91.4643
 X101.6796 Y91.6235
 X101.4997 Y91.7525
 X101.2918 Y91.8457
G0 Z-25.0000
 X125.7630 Y87.3906
G1 Z-58.0000
 X118.9910
 X118.7640 Y87.3675
 X118.5520 Y87.3018
 X118.3600 Y87.1976
 X118.1930 Y87.0597
 X118.0560 Y86.8928
 X117.9520 Y86.7011
 X117.8860 Y86.4893
 X117.8630 Y86.2619
 Y84.5271
 X117.8860 Y84.2993
 X117.9520 Y84.0872
 X118.0560 Y83.8954
 X118.1930 Y83.7285
 X118.3600 Y83.5907
 X118.5520 Y83.4868
 X118.7640 Y83.4211
 X118.9910 Y83.3982
 X119.2190 Y83.4211
 X119.4310 Y83.4868
 X119.6230 Y83.5907
 X119.7900 Y83.7285
 X119.9280 Y83.8954
 X120.0320 Y84.0872
 X120.0980 Y84.2993
 X120.1210 Y84.5271
 Y86.2619
 X120.0980 Y86.4893
 X120.0320 Y86.7011
 X119.9280 Y86.8928
 X119.7900 Y87.0597
 X119.6230 Y87.1976
 X119.4310 Y87.3018
 X119.2190 Y87.3675
 X118.9910 Y87.3906
 X118.7640 Y87.3675
 X118.5520 Y87.3018
 X118.3600 Y87.1976
 X118.1930 Y87.0597
 X118.0560 Y86.8928
 X117.9520 Y86.7011
 X117.8860 Y86.4893
 X117.8630 Y86.2619
 X117.8860 Y86.0342
 X117.9520 Y85.8222
 X118.0560 Y85.6304
 X118.1930 Y85.4635
 X118.3600 Y85.3257
 X118.5520 Y85.2217
 X118.7640 Y85.1561
 X118.9910 Y85.1332
 X125.7630
 X125.9910 Y85.1561
 X126.2030 Y85.2217
 X126.3950 Y85.3257
 X126.5620 Y85.4635
 X126.7000 Y85.6304
 X126.8040 Y85.8222
 X126.8700 Y86.0342
 X126.8930 Y86.2619
 X126.8700 Y86.4893
 X126.8040 Y86.7011
 X126.7000 Y86.8928
 X126.5620 Y87.0597
 X126.3950 Y87.1976
 X126.2030 Y87.3018
 X125.9910 Y87.3675
 X125.7630 Y87.3906
 X125.5360 Y87.3675
 X125.3240 Y87.3018
 X125.1330 Y87.1976
 X124.9660 Y87.0597
 X124.8280 Y86.8928
 X124.7240 Y86.7011
 X124.6590 Y86.4893
 X124.6360 Y86.2619
 Y79.3151
 X124.6590 Y79.0879
 X124.7240 Y78.8761
 X124.8280 Y78.6844
 X124.9660 Y78.5174
 X125.1330 Y78.3794
 X125.3240 Y78.2754
 X125.5360 Y78.2096
 X125.7630 Y78.1865
 X125.9910 Y78.2096
 X126.2030 Y78.2754
 X126.3950 Y78.3794
 X126.5620 Y78.5174
 X126.7000 Y78.6844
 X126.8040 Y78.8761
 X126.8700 Y79.0879
 X126.8930 Y79.3151
 Y86.2619
 X126.8700 Y86.4893
 X126.8040 Y86.7011
 X126.7000 Y86.8928
 X126.5620 Y87.0597
 X126.3950 Y87.1976
 X126.2030 Y87.3018
 X125.9910 Y87.3675
 X125.7630 Y87.3906
G0 Z-25.0000
 X146.7670 Y60.0697
G1 Z-58.0000
 X88.0778 Y105.2140
 X87.8844 Y105.3340
 X87.6772 Y105.4120
 X87.4622 Y105.4460
 X87.2460 Y105.4390
 X87.0347 Y105.3910
 X86.8351 Y105.3020
 X86.6533 Y105.1740
 X86.4958 Y105.0070
 X86.3757 Y104.8132
 X86.2989 Y104.6053
 X86.2646 Y104.3899
 X86.2721 Y104.1733
 X86.3204 Y103.9621
 X86.4088 Y103.7624
 X86.5365 Y103.5810
 X86.7026 Y103.4239
 X145.3900 Y58.2793
 X145.5510 Y58.1761
 X145.7210 Y58.1035
 X145.8990 Y58.0606
 X146.0780 Y58.0465
 X146.3290 Y58.0743
 X146.5680 Y58.1572
 X146.7880 Y58.2947
 X146.9740 Y58.4861
 X147.0940 Y58.6807
 X147.1710 Y58.8890
 X147.2060 Y59.1046
 X147.1970 Y59.3212
 X147.1490 Y59.5325
 X147.0610 Y59.7319
 X146.9330 Y59.9131
 X146.7670 Y60.0697
G0 Z-25.0000
 X139.7570 Y60.2101
G1 Z-58.0000
 X87.8407 Y82.7822
 X87.6236 Y82.8514
 X87.4033 Y82.8753
 X87.1858 Y82.8562
 X86.9774 Y82.7965
 X86.7838 Y82.6983
 X86.6112 Y82.5642
 X86.4658 Y82.3961
 X86.3538 Y82.1967
 X86.2847 Y81.9793
 X86.2611 Y81.7589
 X86.2807 Y81.5417
 X86.3408 Y81.3336
 X86.4393 Y81.1407
 X86.5736 Y80.9688
 X86.7415 Y80.8240
 X86.9407 Y80.7125
 X138.8570 Y58.1389
 X139.0810 Y58.0694
 X139.3060 Y58.0465
 X139.4680 Y58.0582
 X139.6250 Y58.0926
 X139.7760 Y58.1487
 X139.9180 Y58.2258
 X140.0480 Y58.3229
 X140.1640 Y58.4390
 X140.2630 Y58.5732
 X140.3430 Y58.7244
 X140.4120 Y58.9424
 X140.4350 Y59.1631
 X140.4160 Y59.3804
 X140.3560 Y59.5887
 X140.2580 Y59.7818
 X140.1240 Y59.9537
 X139.9560 Y60.0985
 X139.7570 Y60.2101
G0 Z-25.0000
 X123.5060 Y63.1247
G1 Z-58.0000
 X123.2780 Y63.1018
 X123.0670 Y63.0362
 X122.8750 Y62.9322
 X122.7090 Y62.7944
 X122.5710 Y62.6275
 X122.4670 Y62.4357
 X122.4020 Y62.2236
 X122.3790 Y61.9958
 Y59.7387
 X122.4020 Y59.5114
 X122.4670 Y59.2996
 X122.5710 Y59.1079
 X122.7090 Y58.9410
 X122.8750 Y58.8031
 X123.0670 Y58.6990
 X123.2780 Y58.6332
 X123.5060 Y58.6103
 X123.7330 Y58.6332
 X123.9460 Y58.6990
 X124.1380 Y58.8031
 X124.3050 Y58.9410
 X124.4430 Y59.1079
 X124.5470 Y59.2996
 X124.6130 Y59.5114
 X124.6360 Y59.7387
 Y61.9958
 X124.6130 Y62.2236
 X124.5470 Y62.4357
 X124.4430 Y62.6275
 X124.3050 Y62.7944
 X124.1380 Y62.9322
 X123.9460 Y63.0362
 X123.7330 Y63.1018
 X123.5060 Y63.1247
G0 Z-25.0000
 X116.7340 Y65.7417
G1 Z-58.0000
 X116.5070 Y65.7188
 X116.2950 Y65.6529
 X116.1030 Y65.5487
 X115.9360 Y65.4108
 X115.7980 Y65.2437
 X115.6940 Y65.0519
 X115.6280 Y64.8401
 X115.6050 Y64.6128
 Y62.3557
 X115.6280 Y62.1279
 X115.6940 Y61.9160
 X115.7980 Y61.7242
 X115.9360 Y61.5572
 X116.1030 Y61.4196
 X116.2950 Y61.3157
 X116.5070 Y61.2500
 X116.7340 Y61.2271
 X116.9620 Y61.2500
 X117.1740 Y61.3157
 X117.3660 Y61.4196
 X117.5320 Y61.5572
 X117.6700 Y61.7242
 X117.7740 Y61.9160
 X117.8400 Y62.1279
 X117.8630 Y62.3557
 Y64.6128
 X117.8400 Y64.8401
 X117.7740 Y65.0519
 X117.6700 Y65.2437
 X117.5320 Y65.4108
 X117.3660 Y65.5487
 X117.1740 Y65.6529
 X116.9620 Y65.7188
 X116.7340 Y65.7417
G0 Z-25.0000
 X109.9620 Y68.3585
G1 Z-58.0000
 X109.7350 Y68.3356
 X109.5230 Y68.2697
 X109.3320 Y68.1657
 X109.1650 Y68.0278
 X109.0270 Y67.8606
 X108.9220 Y67.6689
 X108.8570 Y67.4571
 X108.8340 Y67.2297
 Y64.9725
 X108.8570 Y64.7449
 X108.9220 Y64.5328
 X109.0270 Y64.3411
 X109.1650 Y64.1742
 X109.3320 Y64.0365
 X109.5230 Y63.9325
 X109.7350 Y63.8669
 X109.9620 Y63.8440
 X110.1900 Y63.8669
 X110.4020 Y63.9325
 X110.5940 Y64.0365
 X110.7610 Y64.1742
 X110.8980 Y64.3411
 X111.0020 Y64.5328
 X111.0680 Y64.7449
 X111.0910 Y64.9725
 Y67.2297
 X111.0680 Y67.4571
 X111.0020 Y67.6689
 X110.8980 Y67.8606
 X110.7610 Y68.0278
 X110.5940 Y68.1657
 X110.4020 Y68.2697
 X110.1900 Y68.3356
 X109.9620 Y68.3585
G0 Z-25.0000
 X85.1328 Y62.5610
G1 Z-58.0000
 X84.9050 Y62.5381
 X84.6932 Y62.4722
 X84.5014 Y62.3681
 X84.3344 Y62.2303
 X84.1967 Y62.0632
 X84.0928 Y61.8715
 X84.0271 Y61.6597
 X84.0042 Y61.4325
 X83.9971 Y60.4267
 X83.9758 Y59.3914
 X83.9410 Y58.3290
 X83.8931 Y57.2415
 X83.8324 Y56.1314
 X83.7597 Y55.0006
 X83.6751 Y53.8513
 X83.5794 Y52.6857
 X83.4729 Y51.5064
 X83.3561 Y50.3151
 X83.2294 Y49.1143
 X83.0935 Y47.9060
 X82.9486 Y46.6926
 X82.7953 Y45.4763
 X82.6339 Y44.2590
 X82.4651 Y43.0432
 X82.2894 Y41.8311
 X82.1071 Y40.6247
 X81.9186 Y39.4264
 X81.7246 Y38.2383
 X81.5253 Y37.0626
 X81.3215 Y35.9015
 X81.1133 Y34.7574
 X80.9015 Y33.6322
 X80.6865 Y32.5282
 X80.4686 Y31.4476
 X80.2485 Y30.3928
 X80.0264 Y29.3657
 X79.8029 Y28.3688
 X79.5785 Y27.4040
 X79.3536 Y26.4737
 X79.1289 Y25.5800
 X79.0946 Y25.3542
 X79.1058 Y25.1328
 X79.1590 Y24.9215
 X79.2511 Y24.7258
 X79.3788 Y24.5511
 X79.5385 Y24.4028
 X79.7274 Y24.2864
 X79.9419 Y24.2074
 X80.2217 Y24.1717
 X80.4076 Y24.1872
 X80.5861 Y24.2325
 X80.7539 Y24.3056
 X80.9076 Y24.4044
 X81.0439 Y24.5274
 X81.1596 Y24.6722
 X81.2512 Y24.8374
 X81.3157 Y25.0206
 X81.5437 Y25.9269
 X81.7718 Y26.8706
 X81.9994 Y27.8493
 X82.2263 Y28.8608
 X82.4514 Y29.9031
 X82.6749 Y30.9735
 X82.8958 Y32.0700
 X83.1140 Y33.1904
 X83.3289 Y34.3326
 X83.5400 Y35.4940
 X83.7468 Y36.6728
 X83.9489 Y37.8664
 X84.1458 Y39.0726
 X84.3369 Y40.2894
 X84.5219 Y41.5144
 X84.7003 Y42.7453
 X84.8715 Y43.9801
 X85.0351 Y45.2164
 X85.1907 Y46.4519
 X85.3376 Y47.6846
 X85.4757 Y48.9119
 X85.6042 Y50.1319
 X85.7226 Y51.3422
 X85.8307 Y52.5407
 X85.9278 Y53.7251
 X86.0135 Y54.8931
 X86.0874 Y56.0425
 X86.1488 Y57.1711
 X86.1975 Y58.2767
 X86.2328 Y59.3569
 X86.2543 Y60.4096
 X86.2617 Y61.4325
 X86.2387 Y61.6597
 X86.1731 Y61.8715
 X86.0690 Y62.0632
 X85.9312 Y62.2303
 X85.7643 Y62.3681
 X85.5725 Y62.4722
 X85.3606 Y62.5381
 X85.1328 Y62.5610
G0 Z-25.0000
 X101.5482 Y19.4903
G1 Z-58.0000
 X84.2181 Y30.7764
 X84.0158 Y30.8803
 X83.8031 Y30.9403
 X83.5861 Y30.9575
 X83.3713 Y30.9333
 X83.1649 Y30.8690
 X82.9729 Y30.7657
 X82.8018 Y30.6247
 X82.6581 Y30.4472
 X82.5531 Y30.2438
 X82.4926 Y30.0301
 X82.4753 Y29.8128
 X82.4999 Y29.5976
 X82.5647 Y29.3911
 X82.6687 Y29.1992
 X82.8106 Y29.0283
 X82.9886 Y28.8844
 X100.3188 Y17.5984
 X100.4647 Y17.5182
 X100.6179 Y17.4614
 X100.7751 Y17.4276
 X100.9338 Y17.4163
 X101.0710 Y17.4247
 X101.2063 Y17.4495
 X101.3375 Y17.4906
 X101.4635 Y17.5474
 X101.5822 Y17.6197
 X101.6922 Y17.7072
 X101.7915 Y17.8096
 X101.8788 Y17.9265
 X101.9838 Y18.1304
 X102.0443 Y18.3442
 X102.0618 Y18.5619
 X102.0375 Y18.7771
 X101.9726 Y18.9838
 X101.8686 Y19.1756
 X101.7267 Y19.3465
 X101.5482 Y19.4903
 X101.6392 Y19.4258
 X101.4465 Y19.5496
 X101.2397 Y19.6303
 X101.0251 Y19.6686
 X100.8088 Y19.6651
 X100.5969 Y19.6208
 X100.3960 Y19.5362
 X100.2122 Y19.4122
 X100.0518 Y19.2494
 X99.9281 Y19.0575
 X99.8475 Y18.8512
 X99.8090 Y18.6366
 X99.8122 Y18.4201
 X99.8564 Y18.2082
 X99.9408 Y18.0072
 X100.0650 Y17.8235
 X100.2282 Y17.6633
 X100.4956 Y17.4133
 X100.7369 Y17.1168
 X100.9535 Y16.7804
 X101.1464 Y16.4106
 X101.3169 Y16.0141
 X101.4662 Y15.5975
 X101.5957 Y15.1673
 X101.7064 Y14.7301
 X101.7994 Y14.2925
 X101.8762 Y13.8611
 X101.9379 Y13.4425
 X101.9857 Y13.0433
 X102.0208 Y12.6701
 X102.0444 Y12.3294
 X102.0578 Y12.0278
 X102.0622 Y11.7719
 X102.0860 Y11.5447
 X102.1524 Y11.3329
 X102.2567 Y11.1412
 X102.3944 Y10.9742
 X102.5613 Y10.8363
 X102.7525 Y10.7322
 X102.9639 Y10.6664
 X103.1907 Y10.6434
 X103.1936
 X103.4203 Y10.6664
 X103.6315 Y10.7324
 X103.8228 Y10.8367
 X103.9893 Y10.9747
 X104.1269 Y11.1419
 X104.2307 Y11.3335
 X104.2964 Y11.5451
 X104.3193 Y11.7719
 X104.3189 Y11.8377
 X104.3178 Y11.9281
 X104.3153 Y12.0419
 X104.3110 Y12.1776
 X104.3044 Y12.3339
 X104.2951 Y12.5094
 X104.2829 Y12.7030
 X104.2669 Y12.9130
 X104.2469 Y13.1384
 X104.2225 Y13.3776
 X104.1931 Y13.6293
 X104.1583 Y13.8922
 X104.1176 Y14.1650
 X104.0708 Y14.4462
 X104.0171 Y14.7347
 X103.9564 Y15.0288
 X103.8879 Y15.3275
 X103.8114 Y15.6292
 X103.7263 Y15.9328
 X103.6322 Y16.2367
 X103.5287 Y16.5397
 X103.4154 Y16.8404
 X103.2917 Y17.1375
 X103.1572 Y17.4296
 X103.0115 Y17.7154
 X102.8542 Y17.9935
 X102.6846 Y18.2626
 X102.5025 Y18.5214
 X102.3074 Y18.7684
 X102.0987 Y19.0025
 X101.8761 Y19.2219
 X101.6392 Y19.4258
G0 Z-25.0000
 X103.5022 Y12.8567
G1 Z-58.0000
 X79.8012 Y19.6297
 X79.5735 Y19.6700
 X79.3501 Y19.6649
 X79.1369 Y19.6174
 X78.9389 Y19.5304
 X78.7614 Y19.4075
 X78.6099 Y19.2515
 X78.4893 Y19.0654
 X78.4053 Y18.8525
 X78.3646 Y18.6284
 X78.3693 Y18.4073
 X78.4165 Y18.1948
 X78.5032 Y17.9967
 X78.6258 Y17.8184
 X78.7815 Y17.6656
 X78.9672 Y17.5440
 X79.1796 Y17.4590
 X102.8807 Y10.6875
 X103.0367 Y10.6541
 X103.1907 Y10.6434
 X103.3728 Y10.6583
 X103.5479 Y10.7016
 X103.7129 Y10.7717
 X103.8647 Y10.8668
 X104.0000 Y10.9853
 X104.1156 Y11.1253
 X104.2083 Y11.2852
 X104.2751 Y11.4632
 X104.3160 Y11.6879
 X104.3113 Y11.9093
 X104.2643 Y12.1220
 X104.1781 Y12.3202
 X104.0556 Y12.4984
 X103.9000 Y12.6510
 X103.7146 Y12.7723
 X103.5022 Y12.8567
G0 Z-25.0000
 X76.0600 Y18.8525
G1 Z-58.0000
 X75.9753 Y19.0654
 X75.8542 Y19.2515
 X75.7021 Y19.4075
 X75.5244 Y19.5304
 X75.3265 Y19.6174
 X75.1137 Y19.6649
 X74.8917 Y19.6700
 X74.6656 Y19.6297
 X50.9644 Y12.8567
 X50.7517 Y12.7723
 X50.5657 Y12.6510
 X50.4100 Y12.4984
 X50.2874 Y12.3202
 X50.2008 Y12.1220
 X50.1539 Y11.9093
 X50.1493 Y11.6879
 X50.1901 Y11.4632
 X50.2568 Y11.2852
 X50.3496 Y11.1253
 X50.4651 Y10.9853
 X50.6004 Y10.8668
 X50.7522 Y10.7717
 X50.9172 Y10.7016
 X51.0924 Y10.6583
 X51.2746 Y10.6434
 X51.4293 Y10.6541
 X51.5861 Y10.6875
 X75.2867 Y17.4590
 X75.4992 Y17.5440
 X75.6847 Y17.6656
 X75.8403 Y17.8184
 X75.9628 Y17.9967
 X76.0492 Y18.1948
 X76.0961 Y18.4073
 X76.1008 Y18.6284
 X76.0600 Y18.8525
G0 Z-25.0000
 X75.3365 Y25.5800
G1 Z-58.0000
 X75.1118 Y26.4737
 X74.8869 Y27.4040
 X74.6626 Y28.3688
 X74.4393 Y29.3657
 X74.2174 Y30.3928
 X73.9972 Y31.4476
 X73.7793 Y32.5282
 X73.5643 Y33.6322
 X73.3525 Y34.7574
 X73.1444 Y35.9015
 X72.9406 Y37.0626
 X72.7414 Y38.2383
 X72.5474 Y39.4264
 X72.3589 Y40.6247
 X72.1765 Y41.8311
 X72.0007 Y43.0432
 X71.8318 Y44.2590
 X71.6704 Y45.4763
 X71.5171 Y46.6926
 X71.3722 Y47.9060
 X71.2361 Y49.1143
 X71.1094 Y50.3151
 X70.9925 Y51.5064
 X70.8861 Y52.6857
 X70.7903 Y53.8513
 X70.7058 Y55.0006
 X70.6329 Y56.1314
 X70.5724 Y57.2415
 X70.5243 Y58.3290
 X70.4896 Y59.3914
 X70.4682 Y60.4267
 X70.4611 Y61.4325
 X70.4382 Y61.6597
 X70.3725 Y61.8715
 X70.2685 Y62.0632
 X70.1307 Y62.2303
 X69.9638 Y62.3681
 X69.7719 Y62.4722
 X69.5600 Y62.5381
 X69.3322 Y62.5610
 X69.1049 Y62.5381
 X68.8931 Y62.4722
 X68.7014 Y62.3681
 X68.5344 Y62.2303
 X68.3965 Y62.0632
 X68.2924 Y61.8715
 X68.2267 Y61.6597
 X68.2036 Y61.4325
 X68.2110 Y60.4096
 X68.2325 Y59.3569
 X68.2678 Y58.2767
 X68.3165 Y57.1711
 X68.3779 Y56.0425
 X68.4518 Y54.8931
 X68.5375 Y53.7251
 X68.6346 Y52.5407
 X68.7426 Y51.3422
 X68.8611 Y50.1319
 X68.9897 Y48.9119
 X69.1276 Y47.6846
 X69.2747 Y46.4519
 X69.4303 Y45.2164
 X69.5939 Y43.9801
 X69.7651 Y42.7453
 X69.9436 Y41.5144
 X70.1286 Y40.2894
 X70.3199 Y39.0726
 X70.5167 Y37.8664
 X70.7189 Y36.6728
 X70.9257 Y35.4940
 X71.1369 Y34.3326
 X71.3518 Y33.1904
 X71.5701 Y32.0700
 X71.7911 Y30.9735
 X72.0147 Y29.9031
 X72.2401 Y28.8608
 X72.4668 Y27.8493
 X72.6946 Y26.8706
 X72.9228 Y25.9269
 X73.1511 Y25.0206
 X73.2153 Y24.8374
 X73.3068 Y24.6722
 X73.4222 Y24.5274
 X73.5582 Y24.4044
 X73.7117 Y24.3056
 X73.8792 Y24.2325
 X74.0576 Y24.1872
 X74.2436 Y24.1717
 X74.5233 Y24.2074
 X74.7383 Y24.2864
 X74.9275 Y24.4028
 X75.0875 Y24.5511
 X75.2151 Y24.7258
 X75.3071 Y24.9215
 X75.3601 Y25.1328
 X75.3710 Y25.3542
 X75.3365 Y25.5800
G0 Z-25.0000
 X71.8074 Y30.4472
G1 Z-58.0000
 X71.6642 Y30.6247
 X71.4933 Y30.7657
 X71.3014 Y30.8690
 X71.0944 Y30.9333
 X70.8792 Y30.9575
 X70.6619 Y30.9403
 X70.4492 Y30.8803
 X70.2472 Y30.7764
 X52.9171 Y19.4903
 X52.7390 Y19.3465
 X52.5975 Y19.1756
 X52.4936 Y18.9839
 X52.4289 Y18.7773
 X52.4044 Y18.5622
 X52.4217 Y18.3448
 X52.4819 Y18.1313
 X52.5865 Y17.9279
 X52.6740 Y17.8109
 X52.7736 Y17.7084
 X52.8836 Y17.6207
 X53.0022 Y17.5481
 X53.1279 Y17.4910
 X53.2592 Y17.4498
 X53.3942 Y17.4247
 X53.5317 Y17.4163
 X53.6907 Y17.4276
 X53.8478 Y17.4614
 X54.0004 Y17.5182
 X54.1461 Y17.5984
 X71.4767 Y28.8844
 X71.6551 Y29.0283
 X71.7971 Y29.1992
 X71.9011 Y29.3911
 X71.9660 Y29.5976
 X71.9903 Y29.8128
 X71.9729 Y30.0301
 X71.9122 Y30.2438
 X71.8074 Y30.4472
G0 Z-25.0000
 X54.4136 Y19.2494
G1 Z-58.0000
 X54.2540 Y19.4122
 X54.0708 Y19.5362
 X53.8703 Y19.6208
 X53.6587 Y19.6651
 X53.4422 Y19.6686
 X53.2271 Y19.6303
 X53.0196 Y19.5496
 X52.8261 Y19.4258
 X52.5893 Y19.2219
 X52.3668 Y19.0025
 X52.1582 Y18.7684
 X51.9632 Y18.5214
 X51.7811 Y18.2626
 X51.6117 Y17.9935
 X51.4543 Y17.7154
 X51.3086 Y17.4296
 X51.1742 Y17.1375
 X51.0506 Y16.8404
 X50.9371 Y16.5397
 X50.8336 Y16.2367
 X50.7396 Y15.9328
 X50.6546 Y15.6292
 X50.5779 Y15.3275
 X50.5094 Y15.0288
 X50.4486 Y14.7347
 X50.3950 Y14.4462
 X50.3479 Y14.1650
 X50.3074 Y13.8922
 X50.2725 Y13.6293
 X50.2431 Y13.3776
 X50.2186 Y13.1384
 X50.1986 Y12.9130
 X50.1825 Y12.7030
 X50.1701 Y12.5094
 X50.1610 Y12.3339
 X50.1543 Y12.1776
 X50.1500 Y12.0419
 X50.1475 Y11.9281
 X50.1464 Y11.8377
 X50.1461 Y11.7719
 X50.1689 Y11.5451
 X50.2344 Y11.3335
 X50.3383 Y11.1419
 X50.4758 Y10.9747
 X50.6424 Y10.8367
 X50.8336 Y10.7324
 X51.0449 Y10.6664
 X51.2718 Y10.6434
 X51.2746
 X51.5014 Y10.6664
 X51.7128 Y10.7322
 X51.9040 Y10.8363
 X52.0708 Y10.9742
 X52.2086 Y11.1412
 X52.3131 Y11.3329
 X52.3793 Y11.5447
 X52.4031 Y11.7719
 X52.4078 Y12.0278
 X52.4214 Y12.3294
 X52.4451 Y12.6701
 X52.4804 Y13.0433
 X52.5283 Y13.4425
 X52.5900 Y13.8611
 X52.6669 Y14.2925
 X52.7600 Y14.7301
 X52.8706 Y15.1673
 X53.0000 Y15.5975
 X53.1493 Y16.0141
 X53.3197 Y16.4106
 X53.5125 Y16.7804
 X53.7289 Y17.1168
 X53.9700 Y17.4133
 X54.2372 Y17.6633
 X54.4008 Y17.8235
 X54.5253 Y18.0072
 X54.6099 Y18.2082
 X54.6542 Y18.4201
 X54.6572 Y18.6366
 X54.6186 Y18.8512
 X54.5376 Y19.0575
 X54.4136 Y19.2494
G0 Z-25.0000
G0 Z-25.0000
M2 (end program)
