$X
$H
G10 P0 L20 X0 Y0 Z0
G40 (disable tool radius compensation)
G49 (disable tool length compensation)
G80 (cancel modal motion)
G54 (select coordinate system 1)
G90 (disable incremental moves)
G21 (metric)
F300.00000
S250.00000
G61 (exact path mode)
;PYCAM_TOOLPATH_SETTINGS: START
;[Bounds]
;maxz = 0.0
;maxx = 8.73122
;maxy = 7.75017
;minx = 0.0
;miny = 0.981065
;minz = 0.0
;
;[Tool]
;torus_radius = 0.125
;shape = CylindricalCutter
;tool_radius = 1.5875
;feedrate = 300.0
;
;[Process]
;engrave_offset = 0.0
;step_down = 3.0
;generator = EngraveCutter
;postprocessor = SimpleCutter
;overlap_percent = 0
;milling_style = ignore
;material_allowance = 0.0
;pocketing_type = none
;path_direction = x
;
;PYCAM_TOOLPATH_SETTINGS: END
G0 Z-25.0000
M3 (start spindle)
G04 P3 (wait for 3 seconds)
 X1.65771 Y0.98106
G1 Z-41.5000
 X1.23416
 X1.19558 Y0.99148
 X1.15354 Y1.01986
 X1.12516 Y1.06196
 X1.11480 Y1.10053
 Y1.12630
 X1.12516 Y1.16488
 X1.15354 Y1.20692
 X1.19558 Y1.23530
 X1.23416 Y1.24566
 X1.57656
 X2.02425 Y2.13183
 X2.03006 Y2.14333
 X2.05692 Y2.17296
 X2.10135 Y2.19754
 X2.15164 Y2.20378
 X2.19065 Y2.19553
 X2.20204 Y2.18967
 X2.21360 Y2.18392
 X2.24371 Y2.15728
 X2.26844 Y2.11322
 X2.27474 Y2.06304
 X2.26687 Y2.02360
 X2.26129 Y2.01187
 X1.77626 Y1.05409
 X1.77197 Y1.04606
 X1.75489 Y1.02409
 X1.72689 Y1.00108
 X1.69390 Y0.98627
 X1.66672 Y0.98106
 X1.65771
 X4.36561 Y1.76531
 X4.26611
 X3.96778 Y1.77143
 X3.57032 Y1.78971
 X3.17671 Y1.82004
 X2.79053 Y1.86231
 X2.41515 Y1.91635
 X2.05410 Y1.98215
 X1.71094 Y2.05951
 X1.38906 Y2.14839
 X1.09196 Y2.24858
 X0.82319 Y2.36008
 X0.58615 Y2.48269
 X0.38444 Y2.61632
 X0.22146 Y2.76090
 X0.10075 Y2.91629
 X0.02577 Y3.08236
 X0.00000 Y3.21485
 Y3.30713
 X0.03271 Y3.45156
 X0.12945 Y3.63656
 X0.28819 Y3.81261
 X0.50673 Y3.97831
 X0.78304 Y4.13226
 X1.11502 Y4.27322
 X1.50049 Y4.39963
 X1.82747 Y4.48594
 X1.93744 Y4.51025
 X1.94993 Y4.51297
 X1.98953 Y4.51107
 X2.03689 Y4.49257
 X2.07411 Y4.45779
 X2.09299 Y4.42236
 X2.09586 Y4.40972
 X2.09853 Y4.39714
 X2.09657 Y4.35710
 X2.07813 Y4.30990
 X2.04335 Y4.27300
 X2.00786 Y4.25424
 X1.99533 Y4.25131
 X1.90067 Y4.23053
 X1.61908 Y4.15744
 X1.28136 Y4.05078
 X0.98568 Y3.93343
 X0.73568 Y3.80740
 X0.53499 Y3.67492
 X0.38715 Y3.53792
 X0.29579 Y3.39860
 X0.26459 Y3.29389
 Y3.23156
 X0.28407 Y3.14936
 X0.34164 Y3.03922
 X0.43587 Y2.92969
 X0.56543 Y2.82167
 X0.72884 Y2.71631
 X0.92480 Y2.61458
 X1.15186 Y2.51764
 X1.40864 Y2.42643
 X1.69374 Y2.34207
 X2.00575 Y2.26551
 X2.34332 Y2.19786
 X2.70503 Y2.14019
 X3.08951 Y2.09353
 X3.49539 Y2.05886
 X3.92117 Y2.03733
 X4.25450 Y2.02989
 X4.47667
 X4.81000 Y2.03733
 X5.23583 Y2.05886
 X5.64165 Y2.09353
 X6.02615 Y2.14019
 X6.38792 Y2.19786
 X6.72547 Y2.26551
 X7.03749 Y2.34207
 X7.32260 Y2.42643
 X7.57938 Y2.51764
 X7.80643 Y2.61458
 X8.00233 Y2.71631
 X8.16581 Y2.82167
 X8.29536 Y2.92969
 X8.38960 Y3.03922
 X8.44715 Y3.14936
 X8.46669 Y3.23156
 Y3.29378
 X8.43544 Y3.39811
 X8.34407 Y3.53717
 X8.19629 Y3.67399
 X7.99571 Y3.80653
 X7.74588 Y3.93278
 X7.45047 Y4.05062
 X7.11307 Y4.15793
 X6.83182 Y4.23167
 X6.73736 Y4.25271
 X6.72478 Y4.25537
 X6.68929 Y4.27360
 X6.65446 Y4.31006
 X6.63585 Y4.35715
 X6.63385 Y4.39714
 X6.63644 Y4.40972
 X6.63932 Y4.42231
 X6.65815 Y4.45779
 X6.69515 Y4.49257
 X6.74246 Y4.51107
 X6.78250 Y4.51297
 X6.79519 Y4.51025
 X6.90500 Y4.48594
 X7.23167 Y4.39963
 X7.61681 Y4.27322
 X7.94851 Y4.13226
 X8.22461 Y3.97831
 X8.44308 Y3.81261
 X8.60172 Y3.63656
 X8.69846 Y3.45156
 X8.73122 Y3.30713
 Y3.21485
 X8.70540 Y3.08236
 X8.63043 Y2.91629
 X8.50971 Y2.76090
 X8.34674 Y2.61632
 X8.14501 Y2.48269
 X7.90799 Y2.36008
 X7.63921 Y2.24858
 X7.34218 Y2.14839
 X7.02029 Y2.05951
 X6.67708 Y1.98215
 X6.31608 Y1.91635
 X5.94069 Y1.86231
 X5.55447 Y1.82004
 X5.16092 Y1.78971
 X4.76346 Y1.77143
 X4.46506 Y1.76531
 X4.36561
 X4.37939 Y2.91465
 X4.32064
 X4.14442 Y2.91846
 X3.90967 Y2.92969
 X3.67719 Y2.94835
 X3.44900 Y2.97439
 X3.22721 Y3.00765
 X3.01394 Y3.04818
 X2.81108 Y3.09581
 X2.62088 Y3.15044
 X2.44532 Y3.21212
 X2.28646 Y3.28076
 X2.14638 Y3.35618
 X2.02713 Y3.43842
 X1.93078 Y3.52735
 X1.85943 Y3.62294
 X1.81506 Y3.72504
 X1.79986 Y3.80653
 Y3.84657
 X1.81022 Y3.88514
 X1.83860 Y3.92719
 X1.88069 Y3.95557
 X1.91928 Y3.96593
 X1.94504
 X1.98361 Y3.95557
 X2.02567 Y3.92719
 X2.05404 Y3.88514
 X2.06446 Y3.84657
 Y3.82064
 X2.07471 Y3.78142
 X2.10514 Y3.72726
 X2.15528 Y3.67204
 X2.22461 Y3.61637
 X2.31272 Y3.56104
 X2.41906 Y3.50678
 X2.54312 Y3.45426
 X2.68451 Y3.40419
 X2.84272 Y3.35736
 X3.01714 Y3.31446
 X3.20747 Y3.27615
 X3.41308 Y3.24317
 X3.63363 Y3.21631
 X3.86849 Y3.19624
 X4.11724 Y3.18365
 X4.31386 Y3.17925
 X4.44499
 X4.64176 Y3.18360
 X4.89068 Y3.19618
 X5.12571 Y3.21619
 X5.34625 Y3.24300
 X5.55197 Y3.27582
 X5.74229 Y3.31407
 X5.91678 Y3.35688
 X6.07493 Y3.40369
 X6.21625 Y3.45367
 X6.34028 Y3.50612
 X6.44656 Y3.56044
 X6.53461 Y3.61578
 X6.60389 Y3.67150
 X6.65397 Y3.72683
 X6.68440 Y3.78114
 X6.69467 Y3.82053
 Y3.84657
 X6.70503 Y3.88514
 X6.73340 Y3.92719
 X6.77544 Y3.95557
 X6.81401 Y3.96593
 X6.83979
 X6.87836 Y3.95557
 X6.92046 Y3.92719
 X6.94883 Y3.88514
 X6.95925 Y3.84657
 Y3.80653
 X6.94401 Y3.72504
 X6.89968 Y3.62294
 X6.82840 Y3.52735
 X6.73210 Y3.43842
 X6.61290 Y3.35618
 X6.47288 Y3.28076
 X6.31407 Y3.21212
 X6.13857 Y3.15044
 X5.94835 Y3.09581
 X5.74556 Y3.04818
 X5.53217 Y3.00765
 X5.31039 Y2.97439
 X5.08208 Y2.94835
 X4.84950 Y2.92969
 X4.61453 Y2.91846
 X4.43815 Y2.91465
 X4.37939
G0 Z-25.0000
 X7.48415 Y0.98530
G1 Z-41.5000
 X7.06451
 X7.03733 Y0.99051
 X7.00435 Y1.00532
 X6.97635 Y1.02832
 X6.95925 Y1.05029
 X6.95503 Y1.05832
 X6.47136 Y2.01611
 X6.46550 Y2.02772
 X6.45725 Y2.06711
 X6.46349 Y2.11735
 X6.48807 Y2.16146
 X6.51774 Y2.18810
 X6.52919 Y2.19390
 X6.54058 Y2.19971
 X6.57954 Y2.20785
 X6.62983 Y2.20156
 X6.67426 Y2.17697
 X6.70117 Y2.14751
 X6.70703 Y2.13607
 X7.15468 Y1.24989
 X7.49701
 X7.53560 Y1.23953
 X7.57769 Y1.21115
 X7.60607 Y1.16911
 X7.61649 Y1.13053
 Y1.10476
 X7.60607 Y1.06619
 X7.57769 Y1.02409
 X7.53560 Y0.99571
 X7.49701 Y0.98530
 X7.48415
 X6.82693 Y3.70133
 X6.81401
 X6.77544 Y3.71175
 X6.73340 Y3.74013
 X6.70503 Y3.78222
 X6.69467 Y3.82081
 Y3.89312
 X6.68257 Y4.07150
 X6.64725 Y4.30251
 X6.58979 Y4.52561
 X6.51133 Y4.73947
 X6.41314 Y4.94303
 X6.29639 Y5.13504
 X6.16222 Y5.31440
 X6.01178 Y5.47987
 X5.84631 Y5.63026
 X5.66699 Y5.76443
 X5.47493 Y5.88124
 X5.27138 Y5.97939
 X5.05751 Y6.05783
 X4.83442 Y6.11529
 X4.60340 Y6.15061
 X4.42503 Y6.16265
 X4.30615
 X4.12776 Y6.15061
 X3.89675 Y6.11529
 X3.67367 Y6.05783
 X3.45979 Y5.97939
 X3.25624 Y5.88124
 X3.06418 Y5.76443
 X2.88488 Y5.63026
 X2.71940 Y5.47987
 X2.56896 Y5.31440
 X2.43479 Y5.13504
 X2.31803 Y4.94303
 X2.21983 Y4.73947
 X2.14139 Y4.52561
 X2.08393 Y4.30251
 X2.04861 Y4.07150
 X2.03657 Y3.89312
 Y3.82081
 X2.02615 Y3.78222
 X1.99778 Y3.74013
 X1.95574 Y3.71175
 X1.91715 Y3.70133
 X1.89139
 X1.85281 Y3.71175
 X1.81076 Y3.74013
 X1.78239 Y3.78222
 X1.77203 Y3.82081
 Y3.89990
 X1.78543 Y4.09858
 X1.82476 Y4.35585
 X1.88878 Y4.60422
 X1.97607 Y4.84244
 X2.08539 Y5.06912
 X2.21544 Y5.28293
 X2.36486 Y5.48264
 X2.53233 Y5.66694
 X2.71664 Y5.83442
 X2.91635 Y5.98383
 X3.13015 Y6.11388
 X3.35682 Y6.22319
 X3.59506 Y6.31049
 X3.84343 Y6.37451
 X4.10069 Y6.41385
 X4.29937 Y6.42725
 X4.43181
 X4.63049 Y6.41385
 X4.88775 Y6.37451
 X5.13612 Y6.31049
 X5.37435 Y6.22319
 X5.60101 Y6.11388
 X5.81489 Y5.98383
 X6.01460 Y5.83442
 X6.19883 Y5.66694
 X6.36632 Y5.48264
 X6.51579 Y5.28293
 X6.64578 Y5.06912
 X6.75515 Y4.84244
 X6.84244 Y4.60422
 X6.90647 Y4.35585
 X6.94581 Y4.09858
 X6.95925 Y3.89990
 Y3.82081
 X6.94883 Y3.78222
 X6.92046 Y3.74013
 X6.87836 Y3.71175
 X6.83979 Y3.70133
 X6.82693
G0 Z-25.0000
 X4.36561 Y6.16265
G1 Z-41.5000
 X4.35271
 X4.31413 Y6.17307
 X4.27208 Y6.20144
 X4.24371 Y6.24354
 X4.23335 Y6.28212
 Y7.03532
 X4.24371 Y7.07389
 X4.27208 Y7.11594
 X4.31413 Y7.14432
 X4.35271 Y7.15468
 X4.37847
 X4.41704 Y7.14432
 X4.45915 Y7.11594
 X4.48753 Y7.07389
 X4.49794 Y7.03532
 Y6.28212
 X4.48753 Y6.24354
 X4.45915 Y6.20144
 X4.41704 Y6.17307
 X4.37847 Y6.16265
 X4.36561
 Y6.89008
 X4.34397
 X4.27908 Y6.89887
 X4.19840 Y6.92399
 X4.12538 Y6.96365
 X4.06168 Y7.01622
 X4.00911 Y7.07992
 X3.96946 Y7.15294
 X3.94433 Y7.23361
 X3.93560 Y7.29856
 Y7.34179
 X3.94433 Y7.40668
 X3.96946 Y7.48736
 X4.00911 Y7.56039
 X4.06168 Y7.62408
 X4.12538 Y7.67665
 X4.19840 Y7.71631
 X4.27908 Y7.74143
 X4.34397 Y7.75017
 X4.38721
 X4.45215 Y7.74143
 X4.53282 Y7.71631
 X4.60585 Y7.67665
 X4.66954 Y7.62408
 X4.72211 Y7.56039
 X4.76178 Y7.48736
 X4.78689 Y7.40668
 X4.79568 Y7.34179
 Y7.29856
 X4.78689 Y7.23361
 X4.76178 Y7.15294
 X4.72211 Y7.07992
 X4.66954 Y7.01622
 X4.60585 Y6.96365
 X4.53282 Y6.92399
 X4.45215 Y6.89887
 X4.38721 Y6.89008
 X4.36561
 Y7.48557
 X4.35726
 X4.33236 Y7.48221
 X4.30138 Y7.47254
 X4.27328 Y7.45725
 X4.24875 Y7.43701
 X4.22851 Y7.41249
 X4.21322 Y7.38439
 X4.20356 Y7.35340
 X4.20019 Y7.32850
 Y7.31185
 X4.20356 Y7.28694
 X4.21322 Y7.25592
 X4.22851 Y7.22781
 X4.24875 Y7.20329
 X4.27328 Y7.18306
 X4.30138 Y7.16775
 X4.33236 Y7.15810
 X4.35726 Y7.15468
 X4.37392
 X4.39882 Y7.15810
 X4.42985 Y7.16775
 X4.45796 Y7.18306
 X4.48247 Y7.20329
 X4.50271 Y7.22781
 X4.51801 Y7.25592
 X4.52767 Y7.28694
 X4.53108 Y7.31185
 Y7.32850
 X4.52767 Y7.35340
 X4.51801 Y7.38439
 X4.50271 Y7.41249
 X4.48247 Y7.43701
 X4.45796 Y7.45725
 X4.42985 Y7.47254
 X4.39882 Y7.48221
 X4.37392 Y7.48557
 X4.36561
G0 Z-25.0000
M5 (stop spindle)
G04 P3 (wait for 3 seconds)
G0 Z-25.0000
M2 (end program)
