;PYCAM-META-DATA: Filename: /media/martoio/MARTOIO/ME43/std_lib/svg/003-car.svg
;PYCAM-META-DATA: Timestamp: 2017-12-11 12:43:13.719791
;PYCAM-META-DATA: Version: 0.5.1
;Estimated machine time: 6 minutes
G40 (disable tool radius compensation)
G49 (disable tool length compensation)
G80 (cancel modal motion)
G54 (select coordinate system 1)
G90 (disable incremental moves)
G21 (metric)
G61 (exact path mode)
F200.00000
S1000.00000
;PYCAM_TOOLPATH_SETTINGS: START
;[Bounds]
;maxz = -40.0
;maxx = 111.906242115
;maxy = 55.28355
;minx = -3.275567465
;miny = 1.87195
;minz = -40.0
;
;[Tool]
;torus_radius = 0.125
;speed = 1000.0
;shape = CylindricalCutter
;tool_radius = 1.5875
;feedrate = 200.0
;
;[Process]
;engrave_offset = 0.0
;step_down = 0.01
;generator = EngraveCutter
;postprocessor = SimpleCutter
;milling_style = conventional
;material_allowance = 0.0
;pocketing_type = holes
;path_direction = x
;
;PYCAM_TOOLPATH_SETTINGS: END
T1 M6
G0 Z-25.0000
 X33.7283 Y5.0000
G1 Z-40.0000
 X31.9015 Y5.1855
 X30.1986 Y5.7155
 X28.6556 Y6.5548
 X27.3102 Y7.6659
 X26.1990 Y9.0126
 X25.3597 Y10.5572
 X24.8292 Y12.2634
 X24.6442 Y14.0946
 X24.8292 Y15.9255
 X25.3597 Y17.6318
 X26.1990 Y19.1769
 X27.3102 Y20.5230
 X28.6556 Y21.6341
 X30.1986 Y22.4734
 X31.9015 Y23.0040
 X33.7283 Y23.1890
 X35.5584 Y23.0040
 X37.2640 Y22.4734
 X38.8086 Y21.6341
 X40.1552 Y20.5230
 X41.2668 Y19.1769
 X42.1067 Y17.6318
 X42.6372 Y15.9255
 X42.8228 Y14.0946
 X42.6372 Y12.2634
 X42.1067 Y10.5572
 X41.2668 Y9.0126
 X40.1552 Y7.6659
 X38.8086 Y6.5548
 X37.2640 Y5.7155
 X35.5584 Y5.1855
 X33.7283 Y5.0000
G0 Z-25.0000
 X64.7200 Y32.1598
G1 Z-40.0000
 X32.3492
 X31.7970 Y32.2711
 X31.3499 Y32.5743
 X31.0504 Y33.0246
 X30.9413 Y33.5780
 X31.0504 Y34.1243
 X31.3499 Y34.5719
 X31.7970 Y34.8747
 X32.3492 Y34.9859
 X64.7200
 X65.2638 Y34.8747
 X65.7102 Y34.5719
 X66.0124 Y34.1243
 X66.1242 Y33.5780
 X66.0124 Y33.0246
 X65.7102 Y32.5743
 X65.2638 Y32.2711
 X64.7200 Y32.1598
G0 Z-25.0000
 X73.6627 Y12.6725
G1 Z-40.0000
 X41.4014
 X40.8572 Y12.7843
 X40.4107 Y13.0886
 X40.1079 Y13.5405
 X39.9974 Y14.0946
 X40.1079 Y14.6387
 X40.4107 Y15.0851
 X40.8572 Y15.3873
 X41.4014 Y15.4986
 X73.6627
 X74.2161 Y15.3873
 X74.6664 Y15.0851
 X74.9696 Y14.6387
 X75.0809 Y14.0946
 X74.9696 Y13.5405
 X74.6664 Y13.0886
 X74.2161 Y12.7843
 X73.6627 Y12.6725
 X73.6768
 X41.4154
 X40.8632 Y12.7843
 X40.4124 Y13.0886
 X40.1085 Y13.5405
 X39.9974 Y14.0946
 X40.1085 Y14.6387
 X40.4124 Y15.0851
 X40.8632 Y15.3873
 X41.4154 Y15.4986
 X73.6768
 X74.2285 Y15.3873
 X74.6793 Y15.0851
 X74.9832 Y14.6387
 X75.0950 Y14.0946
 X74.9832 Y13.5405
 X74.6793 Y13.0886
 X74.2285 Y12.7843
 X73.6768 Y12.6725
G0 Z-25.0000
 X81.3531 Y5.0000
G1 Z-40.0000
 X79.5215 Y5.1855
 X77.8153 Y5.7155
 X76.2702 Y6.5548
 X74.9229 Y7.6659
 X73.8108 Y9.0126
 X72.9710 Y10.5572
 X72.4403 Y12.2634
 X72.2553 Y14.0946
 X72.4403 Y15.9255
 X72.9710 Y17.6318
 X73.8108 Y19.1769
 X74.9229 Y20.5230
 X76.2702 Y21.6341
 X77.8153 Y22.4734
 X79.5215 Y23.0040
 X81.3531 Y23.1890
 X83.1825 Y23.0040
 X84.8867 Y22.4734
 X86.4290 Y21.6341
 X87.7735 Y20.5230
 X88.8824 Y19.1769
 X89.7200 Y17.6318
 X90.2490 Y15.9255
 X90.4340 Y14.0946
 X90.2485 Y12.2634
 X89.7179 Y10.5572
 X88.8786 Y9.0126
 X87.7681 Y7.6659
 X86.4231 Y6.5548
 X84.8807 Y5.7155
 X83.1782 Y5.1855
 X81.3531 Y5.0000
G0 Z-25.0000
 X95.7927 Y12.6725
G1 Z-40.0000
 X89.0121
 X88.4679 Y12.7843
 X88.0214 Y13.0886
 X87.7192 Y13.5405
 X87.6079 Y14.0946
 X87.7192 Y14.6387
 X88.0214 Y15.0851
 X88.4679 Y15.3873
 X89.0121 Y15.4986
 X95.7927
 X97.0384 Y15.7221
 X98.0936 Y16.3422
 X98.8704 Y17.2846
 X99.2817 Y18.4759
 X100.7807 Y28.1065
 X100.8134 Y28.6122
 X100.7449 Y29.1054
 X100.5778 Y29.5747
 X100.3153 Y30.0082
 X99.9690 Y30.3754
 X99.5634 Y30.6625
 X99.1086 Y30.8643
 X98.6182 Y30.9750
 X79.8221 Y33.2607
 X79.4288 Y33.3734
 X79.0777 Y33.5780
 X62.0882 Y47.8694
 X61.1968 Y48.4939
 X60.2160 Y48.9518
 X59.1683 Y49.2339
 X58.0772 Y49.3300
 X31.4953
 X30.5377 Y49.2096
 X29.6556 Y48.8607
 X28.8867 Y48.3062
 X28.2710 Y47.5657
 X20.3190 Y35.1378
 X19.9897 Y34.7672
 X19.5464 Y34.5448
 X9.9544 Y31.6487
 X8.9898 Y31.1555
 X8.2823 Y30.3748
 X7.8868 Y29.3983
 X7.8592 Y28.3148
 X9.1960 Y19.7141
 X9.4173 Y18.8336
 X9.7819 Y18.0273
 X10.2734 Y17.3096
 X10.8773 Y16.6927
 X11.5788 Y16.1898
 X12.3622 Y15.8148
 X13.2134 Y15.5800
 X14.1173 Y15.4986
 X26.0520
 X26.5972 Y15.3896
 X27.0438 Y15.0905
 X27.3449 Y14.6447
 X27.4561 Y14.0946
 X27.3449 Y13.5487
 X27.0438 Y13.1011
 X26.5972 Y12.7984
 X26.0520 Y12.6866
 X14.1032
 X12.6883 Y12.8136
 X11.3542 Y13.1793
 X10.1253 Y13.7647
 X9.0256 Y14.5486
 X8.0789 Y15.5122
 X7.3096 Y16.6341
 X6.7410 Y17.8944
 X6.3987 Y19.2730
 X5.0651 Y27.8879
 X5.0000 Y28.9502
 X5.1264 Y29.9837
 X5.4302 Y30.9673
 X5.8984 Y31.8777
 X6.5158 Y32.6932
 X7.2694 Y33.3919
 X8.1451 Y33.9518
 X9.1292 Y34.3505
 X18.2238 Y37.0921
 X25.9002 Y49.0832
 X26.9706 Y50.3716
 X28.3035 Y51.3379
 X29.8329 Y51.9450
 X31.4953 Y52.1555
 X58.0772
 X59.6593 Y52.0161
 X61.1817 Y51.6059
 X62.6085 Y50.9397
 X63.9052 Y50.0321
 X80.5806 Y36.0194
 X98.9638 Y33.7722
 X100.0114 Y33.5362
 X100.9728 Y33.1050
 X101.8284 Y32.4914
 X102.5586 Y31.7051
 X103.1207 Y30.7900
 X103.4804 Y29.7959
 X103.6307 Y28.7505
 X103.5645 Y27.6796
 X102.0649 Y18.0490
 X101.7860 Y16.9239
 X101.3249 Y15.8951
 X100.6999 Y14.9794
 X99.9311 Y14.1928
 X99.0370 Y13.5525
 X98.0365 Y13.0746
 X96.9482 Y12.7761
 X95.7927 Y12.6725
G0 Z-25.0000
 X33.7283 Y20.3629
G1 Z-40.0000
 X32.4696 Y20.2354
 X31.2961 Y19.8698
 X30.2333 Y19.2915
 X29.3067 Y18.5254
 X28.5411 Y17.5971
 X27.9628 Y16.5326
 X27.5977 Y15.3565
 X27.4702 Y14.0946
 X27.5977 Y12.8315
 X27.9628 Y11.6547
 X28.5411 Y10.5891
 X29.3067 Y9.6604
 X30.2333 Y8.8943
 X31.2961 Y8.3154
 X32.4696 Y7.9497
 X33.7283 Y7.8218
 X34.9897 Y7.9497
 X36.1660 Y8.3154
 X37.2310 Y8.8943
 X38.1592 Y9.6604
 X38.9253 Y10.5891
 X39.5036 Y11.6547
 X39.8693 Y12.8315
 X39.9974 Y14.0946
 X39.8693 Y15.3565
 X39.5036 Y16.5326
 X38.9253 Y17.5971
 X38.1592 Y18.5254
 X37.2310 Y19.2915
 X36.1660 Y19.8698
 X34.9897 Y20.2354
 X33.7283 Y20.3629
G0 Z-25.0000
 X81.3531
G1 Z-40.0000
 X80.0902 Y20.2354
 X78.9128 Y19.8698
 X77.8478 Y19.2915
 X76.9189 Y18.5254
 X76.1529 Y17.5971
 X75.5740 Y16.5326
 X75.2084 Y15.3565
 X75.0809 Y14.0946
 X75.2084 Y12.8315
 X75.5740 Y11.6547
 X76.1529 Y10.5891
 X76.9189 Y9.6604
 X77.8478 Y8.8943
 X78.9128 Y8.3154
 X80.0902 Y7.9497
 X81.3531 Y7.8218
 X82.6150 Y7.9497
 X83.7913 Y8.3154
 X84.8557 Y8.8943
 X85.7840 Y9.6604
 X86.5500 Y10.5891
 X87.1283 Y11.6547
 X87.4940 Y12.8315
 X87.6221 Y14.0946
 X87.4935 Y15.3565
 X87.1268 Y16.5326
 X86.5463 Y17.5971
 X85.7786 Y18.5254
 X84.8497 Y19.2915
 X83.7853 Y19.8698
 X82.6107 Y20.2354
 X81.3531 Y20.3629
G0 Z-25.0000
G0 Z-25.0000
M2 (end program)
