$X
$H
G10 P0 L20 X0 Y0 Z0
G40 (disable tool radius compensation)
G49 (disable tool length compensation)
G80 (cancel modal motion)
G54 (select coordinate system 1)
G90 (disable incremental moves)
G21 (metric)
F300.00000
S250.00000
G61 (exact path mode)
;PYCAM_TOOLPATH_SETTINGS: START
;[Bounds]
;maxz = 0.0
;maxx = 7.65104
;maxy = 8.73122
;minx = 1.08019
;miny = 0.0
;minz = 0.0
;
;[Tool]
;torus_radius = 0.125
;shape = CylindricalCutter
;tool_radius = 1.5875
;feedrate = 300.0
;
;[Process]
;engrave_offset = 0.0
;step_down = 3.0
;generator = EngraveCutter
;postprocessor = SimpleCutter
;overlap_percent = 0
;milling_style = ignore
;material_allowance = 0.0
;pocketing_type = none
;path_direction = x
;
;PYCAM_TOOLPATH_SETTINGS: END
G0 Z-25.0000
M3 (start spindle)
G04 P3 (wait for 3 seconds)
 X6.26992 Y5.61833
G1 Z-53.0000
 X1.90365
 X1.77268 Y5.63601
 X1.60997 Y5.68674
 X1.46272 Y5.76693
 X1.33436 Y5.87304
 X1.22841 Y6.00163
 X1.14838 Y6.14908
 X1.09782 Y6.31190
 X1.08019 Y6.44293
 Y6.53022
 X1.09782 Y6.66114
 X1.14838 Y6.82389
 X1.22841 Y6.97131
 X1.33436 Y7.09988
 X1.46272 Y7.20606
 X1.60997 Y7.28629
 X1.77268 Y7.33703
 X1.90365 Y7.35471
 X2.01047
 X2.01867 Y7.42632
 X2.06972 Y7.63813
 X2.17708 Y7.89931
 X2.32758 Y8.13351
 X2.51628 Y8.33589
 X2.73833 Y8.50163
 X2.98876 Y8.62603
 X3.26275 Y8.70415
 X3.48215 Y8.73122
 X3.59944
 X3.73199 Y8.72125
 X3.90451 Y8.69168
 X4.07146 Y8.64333
 X4.23133 Y8.57693
 X4.38282 Y8.49328
 X4.52436 Y8.39296
 X4.65457 Y8.27686
 X4.74457 Y8.17996
 X4.77203 Y8.14561
 X4.80410 Y8.15940
 X4.96821 Y8.20757
 X5.11974 Y8.22819
 X5.21761
 X5.35965 Y8.21115
 X5.53803 Y8.16189
 X5.70236 Y8.08339
 X5.84961 Y7.97851
 X5.97661 Y7.85032
 X6.08029 Y7.70167
 X6.15756 Y7.53549
 X6.19749 Y7.40061
 X6.20535 Y7.35471
 X6.31353
 X6.44456 Y7.33703
 X6.60736 Y7.28629
 X6.75483 Y7.20606
 X6.88336 Y7.09988
 X6.98953 Y6.97131
 X7.06972 Y6.82389
 X7.12044 Y6.66114
 X7.13813 Y6.53022
 Y6.44293
 X7.12044 Y6.31190
 X7.06972 Y6.14908
 X6.98953 Y6.00163
 X6.88336 Y5.87304
 X6.75483 Y5.76693
 X6.60736 Y5.68674
 X6.44456 Y5.63601
 X6.31353 Y5.61833
 X6.26992
G0 Z-25.0000
 X6.90386 Y1.96496
G1 Z-53.0000
 X6.33285
 X6.29428 Y1.97538
 X6.25222 Y2.00375
 X6.22385 Y2.04585
 X6.21349 Y2.08442
 Y2.11019
 X6.22385 Y2.14876
 X6.25222 Y2.19081
 X6.29428 Y2.21918
 X6.33285 Y2.22954
 X6.92811
 X7.00092 Y2.23942
 X7.09147 Y2.26758
 X7.17344 Y2.31213
 X7.24490 Y2.37115
 X7.30388 Y2.44260
 X7.34842 Y2.52458
 X7.37657 Y2.61507
 X7.38644 Y2.68787
 Y3.97786
 X7.37657 Y4.05067
 X7.34842 Y4.14117
 X7.30388 Y4.22310
 X7.24490 Y4.29449
 X7.17344 Y4.35340
 X7.09147 Y4.39789
 X7.00092 Y4.42606
 X6.92811 Y4.43582
 X6.33285
 X6.29428 Y4.44624
 X6.25222 Y4.47461
 X6.22385 Y4.51671
 X6.21349 Y4.55528
 Y4.58106
 X6.22385 Y4.61963
 X6.25222 Y4.66168
 X6.29428 Y4.69006
 X6.33285 Y4.70042
 X6.94146
 X7.05425 Y4.68528
 X7.19444 Y4.64171
 X7.32135 Y4.57275
 X7.43197 Y4.48156
 X7.52328 Y4.37099
 X7.59224 Y4.24414
 X7.63579 Y4.10400
 X7.65104 Y3.99121
 Y2.67453
 X7.63579 Y2.56174
 X7.59224 Y2.42160
 X7.52328 Y2.29471
 X7.43197 Y2.18408
 X7.32135 Y2.09278
 X7.19444 Y2.02376
 X7.05425 Y1.98019
 X6.94146 Y1.96496
 X6.90386
 X5.20768 Y1.22662
 X5.19476
 X5.15619 Y1.23703
 X5.11415 Y1.26541
 X5.08578 Y1.30745
 X5.07542 Y1.34603
 Y4.59196
 X5.08578 Y4.63069
 X5.11415 Y4.67275
 X5.15619 Y4.70107
 X5.19476 Y4.71137
 X5.22054
 X5.25911 Y4.70107
 X5.30122 Y4.67275
 X5.32958 Y4.63069
 X5.34000 Y4.59196
 Y1.34603
 X5.32958 Y1.30745
 X5.30122 Y1.26541
 X5.25911 Y1.23703
 X5.22054 Y1.22662
 X5.20768
 X4.10915
 X4.09625
 X4.05767 Y1.23703
 X4.01563 Y1.26541
 X3.98725 Y1.30745
 X3.97689 Y1.34603
 Y4.59196
 X3.98725 Y4.63069
 X4.01563 Y4.67275
 X4.05767 Y4.70107
 X4.09625 Y4.71137
 X4.12201
 X4.16060 Y4.70107
 X4.20264 Y4.67275
 X4.23101 Y4.63069
 X4.24143 Y4.59196
 Y1.34603
 X4.23101 Y1.30745
 X4.20264 Y1.26541
 X4.16060 Y1.23703
 X4.12201 Y1.22662
 X4.10915
 X3.00956
 X2.99664
 X2.95806 Y1.23703
 X2.91601 Y1.26541
 X2.88764 Y1.30745
 X2.87728 Y1.34603
 Y4.59196
 X2.88764 Y4.63069
 X2.91601 Y4.67275
 X2.95806 Y4.70107
 X2.99664 Y4.71137
 X3.02240
 X3.06099 Y4.70107
 X3.10303 Y4.67275
 X3.13140 Y4.63069
 X3.14182 Y4.59196
 Y1.34603
 X3.13140 Y1.30745
 X3.10303 Y1.26541
 X3.06099 Y1.23703
 X3.02240 Y1.22662
 X3.00956
 X5.32764 Y0.00000
 X2.83176
 X2.65826 Y0.02349
 X2.44254 Y0.09071
 X2.24713 Y0.19699
 X2.07676 Y0.33767
 X1.93608 Y0.50808
 X1.82981 Y0.70356
 X1.76264 Y0.91932
 X1.73921 Y1.09294
 Y5.76357
 X1.74957 Y5.80214
 X1.77794 Y5.84418
 X1.81999 Y5.87256
 X1.85856 Y5.88292
 X6.33757
 X6.37875 Y5.87256
 X6.42833 Y5.84418
 X6.46425 Y5.80214
 X6.47808 Y5.76357
 Y1.09294
 X6.45458 Y0.91932
 X6.38743 Y0.70356
 X6.28114 Y0.50808
 X6.14046 Y0.33767
 X5.97006 Y0.19699
 X5.77468 Y0.09071
 X5.55897 Y0.02349
 X5.38547 Y0.00000
 X5.32764
G0 Z-25.0000
 X1.94732 Y7.09011
G1 Z-53.0000
 X1.91699
 X1.82601 Y7.07785
 X1.71294 Y7.04269
 X1.61062 Y6.98703
 X1.52143 Y6.91336
 X1.44781 Y6.82406
 X1.39214 Y6.72151
 X1.35699 Y6.60824
 X1.34478 Y6.51699
 Y6.45622
 X1.35699 Y6.36524
 X1.39214 Y6.25206
 X1.44781 Y6.14953
 X1.52143 Y6.06011
 X1.61062 Y5.98633
 X1.71294 Y5.93050
 X1.82601 Y5.89524
 X1.91699 Y5.88292
 X6.30035
 X6.39165 Y5.89524
 X6.50499 Y5.93050
 X6.60753 Y5.98633
 X6.69683 Y6.06011
 X6.77051 Y6.14953
 X6.82611 Y6.25206
 X6.86128 Y6.36524
 X6.87354 Y6.45622
 Y6.51699
 X6.86128 Y6.60824
 X6.82611 Y6.72151
 X6.77051 Y6.82406
 X6.69683 Y6.91336
 X6.60753 Y6.98703
 X6.50499 Y7.04269
 X6.39165 Y7.07785
 X6.30035 Y7.09011
 X6.07438
 X6.03711 Y7.09983
 X5.99593 Y7.12646
 X5.96707 Y7.16624
 X5.95524 Y7.20296
 X5.95454 Y7.21539
 X5.95247 Y7.25379
 X5.93153 Y7.36828
 X5.88135 Y7.50971
 X5.80675 Y7.63693
 X5.71067 Y7.74718
 X5.59608 Y7.83772
 X5.46588 Y7.90582
 X5.32297 Y7.94874
 X5.20844 Y7.96360
 X5.12267
 X4.97976 Y7.93821
 X4.82460 Y7.87967
 X4.79428 Y7.86307
 X4.78369 Y7.85721
 X4.74756 Y7.84760
 X4.69982 Y7.85010
 X4.65625 Y7.86942
 X4.62864 Y7.89438
 X4.62207 Y7.90435
 X4.59950 Y7.93701
 X4.52399 Y8.02940
 X4.41287 Y8.14046
 X4.29015 Y8.23671
 X4.15733 Y8.31728
 X4.01594 Y8.38140
 X3.86746 Y8.42828
 X3.71338 Y8.45697
 X3.59478 Y8.46669
 X3.49143
 X3.29986 Y8.44179
 X3.06174 Y8.37007
 X2.84576 Y8.25624
 X2.65662 Y8.10493
 X2.49929 Y7.92085
 X2.37842 Y7.70856
 X2.29889 Y7.47282
 X2.26764 Y7.28207
 X2.26551 Y7.21821
 X2.26525 Y7.20562
 X2.25429 Y7.16803
 X2.22569 Y7.12733
 X2.18392 Y7.10010
 X2.14589 Y7.09011
 X1.94732
 X2.00379 Y5.61833
 Y1.10617
 X2.02181 Y0.97222
 X2.07362 Y0.80588
 X2.15549 Y0.65538
 X2.26383 Y0.52420
 X2.39507 Y0.41602
 X2.54546 Y0.33426
 X2.71153 Y0.28261
 X2.84506 Y0.26459
 X5.37224
 X5.50608 Y0.28261
 X5.67231 Y0.33426
 X5.82281 Y0.41602
 X5.95389 Y0.52420
 X6.06212 Y0.65538
 X6.14382 Y0.80588
 X6.19547 Y0.97222
 X6.21349 Y1.10617
 Y5.61833
 X2.00379
G0 Z-25.0000
M5 (stop spindle)
G04 P3 (wait for 3 seconds)
G0 Z-25.0000
M2 (end program)
