;PYCAM-META-DATA: Filename: /media/martoio/MARTOIO/ME43/std_lib/svg/003-car.svg
;PYCAM-META-DATA: Timestamp: 2017-12-06 01:47:20.199858
;PYCAM-META-DATA: Version: 0.5.1
;Estimated machine time: 6 minutes
G40 (disable tool radius compensation)
G49 (disable tool length compensation)
G80 (cancel modal motion)
G54 (select coordinate system 1)
G90 (disable incremental moves)
G21 (metric)
G61 (exact path mode)
F400.00000
S1.00000
;PYCAM_TOOLPATH_SETTINGS: START
;[Bounds]
;maxz = 0.0
;maxx = 126.555459879
;maxy = 62.85493125
;minx = -5.59595089813
;miny = 0.19500625
;minz = 0.0
;
;[Tool]
;torus_radius = 0.25
;speed = 1.0
;shape = CylindricalCutter
;tool_radius = 0.5
;feedrate = 400.0
;
;[Process]
;engrave_offset = 0.0
;step_down = 1.0
;generator = EngraveCutter
;postprocessor = SimpleCutter
;overlap_percent = 0
;milling_style = conventional
;material_allowance = 0.0
;pocketing_type = none
;path_direction = x
;
;PYCAM_TOOLPATH_SETTINGS: END
T1 M6
G0 Z5.0000
 X37.3193 Y5.0000
G1 Z0.0000
 X35.2642 Y5.2087
 X33.3484 Y5.8049
 X31.6125 Y6.7492
 X30.0989 Y7.9991
 X28.8488 Y9.5142
 X27.9046 Y11.2518
 X27.3078 Y13.1713
 X27.0997 Y15.2314
 X27.3078 Y17.2912
 X27.9046 Y19.2108
 X28.8488 Y20.9490
 X30.0989 Y22.4634
 X31.6125 Y23.7134
 X33.3484 Y24.6576
 X35.2642 Y25.2545
 X37.3193 Y25.4626
 X39.3782 Y25.2545
 X41.2970 Y24.6576
 X43.0346 Y23.7134
 X44.5496 Y22.4634
 X45.8001 Y20.9490
 X46.7450 Y19.2108
 X47.3418 Y17.2912
 X47.5506 Y15.2314
 X47.3418 Y13.1713
 X46.7450 Y11.2518
 X45.8001 Y9.5142
 X44.5496 Y7.9991
 X43.0346 Y6.7492
 X41.2970 Y5.8049
 X39.3782 Y5.2087
 X37.3193 Y5.0000
G0 Z5.0000
 X72.1850 Y35.5548
G1 Z0.0000
 X35.7678
 X35.1466 Y35.6800
 X34.6436 Y36.0211
 X34.3067 Y36.5277
 X34.1839 Y37.1502
 X34.3067 Y37.7648
 X34.6436 Y38.2684
 X35.1466 Y38.6090
 X35.7678 Y38.7341
 X72.1850
 X72.7967 Y38.6090
 X73.2989 Y38.2684
 X73.6389 Y37.7648
 X73.7647 Y37.1502
 X73.6389 Y36.5277
 X73.2989 Y36.0211
 X72.7967 Y35.6800
 X72.1850 Y35.5548
G0 Z5.0000
 X82.2455 Y13.6316
G1 Z0.0000
 X45.9515
 X45.3393 Y13.7573
 X44.8370 Y14.0997
 X44.4964 Y14.6081
 X44.3720 Y15.2314
 X44.4964 Y15.8435
 X44.8370 Y16.3457
 X45.3393 Y16.6857
 X45.9515 Y16.8109
 X82.2455
 X82.8681 Y16.6857
 X83.3747 Y16.3457
 X83.7158 Y15.8435
 X83.8410 Y15.2314
 X83.7158 Y14.6081
 X83.3747 Y14.0997
 X82.8681 Y13.7573
 X82.2455 Y13.6316
 X82.2614
 X45.9673
 X45.3461 Y13.7573
 X44.8389 Y14.0997
 X44.4970 Y14.6081
 X44.3720 Y15.2314
 X44.4970 Y15.8435
 X44.8389 Y16.3457
 X45.3461 Y16.6857
 X45.9673 Y16.8109
 X82.2614
 X82.8820 Y16.6857
 X83.3892 Y16.3457
 X83.7311 Y15.8435
 X83.8568 Y15.2314
 X83.7311 Y14.6081
 X83.3892 Y14.0997
 X82.8820 Y13.7573
 X82.2614 Y13.6316
G0 Z5.0000
 X90.8972 Y5.0000
G1 Z0.0000
 X88.8367 Y5.2087
 X86.9172 Y5.8049
 X85.1789 Y6.7492
 X83.6632 Y7.9991
 X82.4121 Y9.5142
 X81.4673 Y11.2518
 X80.8703 Y13.1713
 X80.6622 Y15.2314
 X80.8703 Y17.2912
 X81.4673 Y19.2108
 X82.4121 Y20.9490
 X83.6632 Y22.4634
 X85.1789 Y23.7134
 X86.9172 Y24.6576
 X88.8367 Y25.2545
 X90.8972 Y25.4626
 X92.9553 Y25.2545
 X94.8725 Y24.6576
 X96.6076 Y23.7134
 X98.1202 Y22.4634
 X99.3677 Y20.9490
 X100.3100 Y19.2108
 X100.9051 Y17.2912
 X101.1132 Y15.2314
 X100.9045 Y13.1713
 X100.3076 Y11.2518
 X99.3634 Y9.5142
 X98.1141 Y7.9991
 X96.6010 Y6.7492
 X94.8658 Y5.8049
 X92.9504 Y5.2087
 X90.8972 Y5.0000
G0 Z5.0000
 X107.1418 Y13.6316
G1 Z0.0000
 X99.5136
 X98.9014 Y13.7573
 X98.3990 Y14.0997
 X98.0591 Y14.6081
 X97.9339 Y15.2314
 X98.0591 Y15.8435
 X98.3990 Y16.3457
 X98.9014 Y16.6857
 X99.5136 Y16.8109
 X107.1418
 X108.5432 Y17.0624
 X109.7303 Y17.7600
 X110.6042 Y18.8202
 X111.0669 Y20.1604
 X112.7533 Y30.9948
 X112.7900 Y31.5637
 X112.7130 Y32.1186
 X112.5250 Y32.6465
 X112.2297 Y33.1342
 X111.8401 Y33.5473
 X111.3838 Y33.8703
 X110.8721 Y34.0973
 X110.3204 Y34.2219
 X89.1748 Y36.7933
 X88.7324 Y36.9201
 X88.3374 Y37.1502
 X69.2242 Y53.2281
 X68.2214 Y53.9306
 X67.1180 Y54.4458
 X65.9393 Y54.7631
 X64.7118 Y54.8712
 X34.8072
 X33.7299 Y54.7358
 X32.7375 Y54.3433
 X31.8725 Y53.7195
 X31.1798 Y52.8864
 X22.2338 Y38.9050
 X21.8634 Y38.4881
 X21.3647 Y38.2379
 X10.5737 Y34.9798
 X9.4885 Y34.4249
 X8.6926 Y33.5466
 X8.2477 Y32.4481
 X8.2165 Y31.2291
 X9.7205 Y21.5534
 X9.9695 Y20.5628
 X10.3796 Y19.6557
 X10.9326 Y18.8483
 X11.6119 Y18.1543
 X12.4011 Y17.5885
 X13.2825 Y17.1666
 X14.2401 Y16.9025
 X15.2570 Y16.8109
 X28.6835
 X29.2968 Y16.6883
 X29.7992 Y16.3518
 X30.1380 Y15.8503
 X30.2631 Y15.2314
 X30.1380 Y14.6173
 X29.7992 Y14.1137
 X29.2968 Y13.7732
 X28.6835 Y13.6474
 X15.2411
 X13.6493 Y13.7903
 X12.1484 Y14.2017
 X10.7660 Y14.8603
 X9.5288 Y15.7422
 X8.4637 Y16.8262
 X7.5983 Y18.0884
 X6.9586 Y19.5062
 X6.5735 Y21.0571
 X5.0732 Y30.7489
 X5.0000 Y31.9440
 X5.1422 Y33.1067
 X5.4840 Y34.2132
 X6.0107 Y35.2374
 X6.7053 Y36.1548
 X7.5531 Y36.9409
 X8.5382 Y37.5708
 X9.6454 Y38.0193
 X19.8767 Y41.1036
 X28.5127 Y54.5936
 X29.7169 Y56.0431
 X31.2164 Y57.1301
 X32.9370 Y57.8131
 X34.8072 Y58.0499
 X64.7118
 X66.4917 Y57.8931
 X68.2044 Y57.4316
 X69.8095 Y56.6822
 X71.2683 Y55.6611
 X90.0281 Y39.8968
 X110.7092 Y37.3687
 X111.8878 Y37.1032
 X112.9694 Y36.6181
 X113.9319 Y35.9278
 X114.7534 Y35.0432
 X115.3858 Y34.0138
 X115.7904 Y32.8954
 X115.9595 Y31.7193
 X115.8850 Y30.5145
 X114.1980 Y19.6801
 X113.8842 Y18.4144
 X113.3655 Y17.2570
 X112.6624 Y16.2268
 X111.7975 Y15.3419
 X110.7916 Y14.6216
 X109.6660 Y14.0839
 X108.4417 Y13.7481
 X107.1418 Y13.6316
G0 Z5.0000
 X37.3193 Y22.2833
G1 Z0.0000
 X35.9033 Y22.1398
 X34.5831 Y21.7285
 X33.3874 Y21.0779
 X32.3450 Y20.2161
 X31.4837 Y19.1717
 X30.8331 Y17.9742
 X30.4224 Y16.6511
 X30.2789 Y15.2314
 X30.4224 Y13.8104
 X30.8331 Y12.4865
 X31.4837 Y11.2877
 X32.3450 Y10.2429
 X33.3874 Y9.3811
 X34.5831 Y8.7298
 X35.9033 Y8.3184
 X37.3193 Y8.1745
 X38.7384 Y8.3184
 X40.0617 Y8.7298
 X41.2598 Y9.3811
 X42.3041 Y10.2429
 X43.1659 Y11.2877
 X43.8165 Y12.4865
 X44.2279 Y13.8104
 X44.3720 Y15.2314
 X44.2279 Y16.6511
 X43.8165 Y17.9742
 X43.1659 Y19.1717
 X42.3041 Y20.2161
 X41.2598 Y21.0779
 X40.0617 Y21.7285
 X38.7384 Y22.1398
 X37.3193 Y22.2833
G0 Z5.0000
 X90.8972
G1 Z0.0000
 X89.4764 Y22.1398
 X88.1519 Y21.7285
 X86.9537 Y21.0779
 X85.9087 Y20.2161
 X85.0470 Y19.1717
 X84.3957 Y17.9742
 X83.9844 Y16.6511
 X83.8410 Y15.2314
 X83.9844 Y13.8104
 X84.3957 Y12.4865
 X85.0470 Y11.2877
 X85.9087 Y10.2429
 X86.9537 Y9.3811
 X88.1519 Y8.7298
 X89.4764 Y8.3184
 X90.8972 Y8.1745
 X92.3168 Y8.3184
 X93.6402 Y8.7298
 X94.8376 Y9.3811
 X95.8820 Y10.2429
 X96.7437 Y11.2877
 X97.3943 Y12.4865
 X97.8057 Y13.8104
 X97.9498 Y15.2314
 X97.8052 Y16.6511
 X97.3926 Y17.9742
 X96.7396 Y19.1717
 X95.8759 Y20.2161
 X94.8309 Y21.0779
 X93.6334 Y21.7285
 X92.3120 Y22.1398
 X90.8972 Y22.2833
G0 Z5.0000
G0 Z5.0000
M2 (end program)
