;PYCAM-META-DATA: Filename: /media/martoio/MARTOIO/ME43/std_lib/svg/004-boat.svg
;PYCAM-META-DATA: Timestamp: 2017-12-11 12:45:05.394409
;PYCAM-META-DATA: Version: 0.5.1
;Estimated machine time: 11 minutes
G40 (disable tool radius compensation)
G49 (disable tool length compensation)
G80 (cancel modal motion)
G54 (select coordinate system 1)
G90 (disable incremental moves)
G21 (metric)
G61 (exact path mode)
F200.00000
S1000.00000
;PYCAM_TOOLPATH_SETTINGS: START
;[Bounds]
;maxz = -40.0
;maxx = 130.566933542
;maxy = 89.900572
;minx = -4.97199395832
;miny = -1.275052
;minz = -40.0
;
;[Tool]
;torus_radius = 0.125
;speed = 1000.0
;shape = CylindricalCutter
;tool_radius = 1.5875
;feedrate = 200.0
;
;[Process]
;engrave_offset = 0.0
;step_down = 0.01
;generator = EngraveCutter
;postprocessor = SimpleCutter
;milling_style = conventional
;material_allowance = 0.0
;pocketing_type = holes
;path_direction = x
;
;PYCAM_TOOLPATH_SETTINGS: END
T1 M6
G0 Z-25.0000
 X86.2982 Y69.3158
G1 Z-40.0000
 X80.3398
 Y70.4680
 X86.2982
 Y69.3158
G0 Z-25.0000
 X89.1557 Y66.4583
G1 Z-40.0000
 X77.4823
 Y73.3255
 X89.1557
 Y66.4583
G0 Z-25.0000
 X77.4823 Y80.1927
G1 Z-40.0000
 X89.1557
 Y76.7583
 X77.4823
 Y80.1927
G0 Z-25.0000
 X54.4789 Y55.8154
G1 Z-40.0000
 X95.3365
 Y53.2974
 X54.4789
 Y55.8154
G0 Z-25.0000
 X58.1854 Y47.0059
G1 Z-40.0000
 Y46.8845
 X57.3364
 Y47.0059
 X58.1854
G0 Z-25.0000
 X61.0429 Y49.8634
G1 Z-40.0000
 Y44.0270
 X54.4789
 Y49.8634
 X61.0429
G0 Z-25.0000
 X65.8341 Y37.7355
G1 Z-40.0000
 X92.4790
 Y37.7278
 X66.3599
 X65.8341 Y37.7355
G0 Z-25.0000
 X54.4789 Y40.5930
G1 Z-40.0000
 X95.3365
 Y34.8703
 X66.3391
 X65.5629 Y34.8816
 X64.7894 Y34.9155
 X64.0191 Y34.9718
 X63.2524 Y35.0506
 X62.4897 Y35.1512
 X61.7313 Y35.2741
 X60.9778 Y35.4189
 X60.2295 Y35.5853
 X59.4868 Y35.7735
 X58.7501 Y35.9832
 X58.0197 Y36.2143
 X57.2963 Y36.4666
 X56.5801 Y36.7401
 X55.8715 Y37.0346
 X55.1709 Y37.3500
 X54.4789 Y37.6861
 Y40.5930
G0 Z-25.0000
 X70.3342 Y47.0059
G1 Z-40.0000
 Y46.8845
 X67.3333
 Y47.0059
 X70.3342
G0 Z-25.0000
 X73.1917 Y49.8634
G1 Z-40.0000
 Y44.0270
 X64.4758
 Y49.8634
 X73.1917
G0 Z-25.0000
 X82.4822 Y47.0059
G1 Z-40.0000
 Y46.8845
 X79.4821
 Y47.0059
 X82.4822
G0 Z-25.0000
 X85.3397 Y49.8634
G1 Z-40.0000
 Y44.0270
 X76.6246
 Y49.8634
 X85.3397
G0 Z-25.0000
 X92.4790 Y47.0059
G1 Z-40.0000
 Y46.8845
 X91.6308
 Y47.0059
 X92.4790
G0 Z-25.0000
 X95.3365 Y49.8634
G1 Z-40.0000
 Y44.0270
 X88.7733
 Y49.8634
 X95.3365
G0 Z-25.0000
 X115.8677 Y27.3163
G1 Z-40.0000
 X102.6605
 X102.4853 Y27.3075
 X102.3149 Y27.2815
 X102.1509 Y27.2392
 X101.9933 Y27.1815
 X101.8429 Y27.1093
 X101.7013 Y27.0233
 X101.5693 Y26.9246
 X101.4477 Y26.8138
 X101.3365 Y26.6918
 X101.2373 Y26.5598
 X101.1517 Y26.4182
 X101.0789 Y26.2682
 X101.0213 Y26.1104
 X100.9789 Y25.9460
 X100.9533 Y25.7754
 X100.9445 Y25.5998
 X100.9533 Y25.4244
 X100.9789 Y25.2540
 X101.0213 Y25.0894
 X101.0789 Y24.9316
 X101.1517 Y24.7814
 X101.2373 Y24.6398
 X101.3365 Y24.5076
 X101.4477 Y24.3856
 X101.5693 Y24.2747
 X101.7013 Y24.1758
 X101.8429 Y24.0898
 X101.9933 Y24.0173
 X102.1509 Y23.9595
 X102.3149 Y23.9172
 X102.4853 Y23.8912
 X102.6605 Y23.8823
 X115.1293
 X111.8029 Y8.4329
 X37.4257
 X16.7208 Y33.1538
 X32.8153
 X33.7778 Y33.1363
 X34.7378 Y33.0840
 X35.6944 Y32.9967
 X36.6468 Y32.8749
 X37.5940 Y32.7183
 X38.5353 Y32.5274
 X39.4697 Y32.3021
 X40.3966 Y32.0425
 X41.3140 Y31.7490
 X42.2187 Y31.4230
 X43.1100 Y31.0647
 X43.9871 Y30.6746
 X44.8492 Y30.2529
 X45.6957 Y29.7998
 X46.5257 Y29.3158
 X47.3388 Y28.8014
 X48.2638 Y28.2158
 X49.2066 Y27.6662
 X50.1661 Y27.1526
 X51.1413 Y26.6753
 X52.1314 Y26.2346
 X53.1355 Y25.8309
 X54.1528 Y25.4643
 X55.1821 Y25.1352
 X56.2226 Y24.8438
 X57.2737 Y24.5903
 X58.3341 Y24.3750
 X59.4032 Y24.1984
 X60.4798 Y24.0606
 X61.5634 Y23.9618
 X62.6528 Y23.9022
 X63.7472 Y23.8823
 X94.6493
 X94.8245 Y23.8912
 X94.9949 Y23.9172
 X95.1597 Y23.9595
 X95.3173 Y24.0173
 X95.4677 Y24.0898
 X95.6093 Y24.1758
 X95.7413 Y24.2747
 X95.8629 Y24.3856
 X95.9741 Y24.5076
 X96.0725 Y24.6398
 X96.1589 Y24.7814
 X96.2309 Y24.9316
 X96.2885 Y25.0894
 X96.3309 Y25.2540
 X96.3565 Y25.4244
 X96.3661 Y25.5998
 X96.3565 Y25.7754
 X96.3309 Y25.9460
 X96.2885 Y26.1104
 X96.2309 Y26.2682
 X96.1589 Y26.4182
 X96.0725 Y26.5598
 X95.9741 Y26.6918
 X95.8629 Y26.8138
 X95.7413 Y26.9246
 X95.6093 Y27.0233
 X95.4677 Y27.1093
 X95.3173 Y27.1815
 X95.1597 Y27.2392
 X94.9949 Y27.2815
 X94.8245 Y27.3075
 X94.6493 Y27.3163
 X63.7472
 X62.7787 Y27.3340
 X61.8149 Y27.3866
 X60.8561 Y27.4741
 X59.9033 Y27.5960
 X58.9572 Y27.7523
 X58.0187 Y27.9426
 X57.0887 Y28.1669
 X56.1678 Y28.4247
 X55.2569 Y28.7160
 X54.3569 Y29.0403
 X53.4683 Y29.3975
 X52.5922 Y29.7874
 X51.7291 Y30.2098
 X50.8801 Y30.6642
 X50.0457 Y31.1506
 X49.2271 Y31.6687
 X48.3088 Y32.2503
 X47.3707 Y32.7973
 X46.4141 Y33.3094
 X45.4397 Y33.7861
 X44.4482 Y34.2270
 X43.4406 Y34.6318
 X42.4180 Y35.0001
 X41.3809 Y35.3312
 X40.3338 Y35.6246
 X39.2781 Y35.8792
 X38.2146 Y36.0950
 X37.1445 Y36.2721
 X36.0685 Y36.4101
 X34.9877 Y36.5087
 X33.9029 Y36.5681
 X32.8153 Y36.5880
 X13.8445
 X10.3938 Y40.7078
 X35.4069
 X36.3757 Y40.6902
 X37.3400 Y40.6376
 X38.2991 Y40.5502
 X39.2521 Y40.4282
 X40.1983 Y40.2718
 X41.1369 Y40.0815
 X42.0669 Y39.8573
 X42.9880 Y39.5994
 X43.8989 Y39.3083
 X44.7989 Y38.9840
 X45.6875 Y38.6267
 X46.5637 Y38.2367
 X47.4265 Y37.8145
 X48.2754 Y37.3600
 X49.1097 Y36.8735
 X49.9281 Y36.3554
 X50.8533 Y35.7698
 X51.7962 Y35.2201
 X52.7557 Y34.7066
 X53.7309 Y34.2293
 X54.7209 Y33.7887
 X55.7252 Y33.3850
 X56.7424 Y33.0186
 X57.7718 Y32.6895
 X58.8125 Y32.3983
 X59.8637 Y32.1449
 X60.9243 Y31.9298
 X61.9937 Y31.7532
 X63.0706 Y31.6155
 X64.1545 Y31.5167
 X65.2442 Y31.4572
 X66.3391 Y31.4373
 X116.7549
 X115.8677 Y27.3163
G0 Z-25.0000
 X29.5122 Y29.3473
G1 Z-40.0000
 X29.3868 Y29.5886
 X29.2275 Y29.8042
 X29.0388 Y29.9918
 X28.8245 Y30.1478
 X28.5893 Y30.2700
 X28.3373 Y30.3550
 X28.0729 Y30.4001
 X27.8002 Y30.4022
 X27.5366 Y30.3618
 X27.2863 Y30.2815
 X27.0528 Y30.1647
 X26.8401 Y30.0149
 X26.6518 Y29.8350
 X26.4921 Y29.6286
 X26.3646 Y29.3987
 X26.2734 Y29.1489
 X26.2240 Y28.9001
 X26.2125 Y28.6487
 X26.2377 Y28.3995
 X26.2978 Y28.1569
 X26.3920 Y27.9254
 X26.5186 Y27.7095
 X26.6765 Y27.5138
 X26.8643 Y27.3429
 X27.1003 Y27.1884
 X27.3541 Y27.0763
 X27.6201 Y27.0066
 X27.8924 Y26.9798
 X28.1657 Y26.9958
 X28.4343 Y27.0547
 X28.6924 Y27.1569
 X28.9347 Y27.3022
 X29.1553 Y27.4929
 X29.3361 Y27.7143
 X29.4757 Y27.9604
 X29.5728 Y28.2250
 X29.6263 Y28.5022
 X29.6349 Y28.7858
 X29.5972 Y29.0694
 X29.5122 Y29.3473
G0 Z-25.0000
 X35.2351
G1 Z-40.0000
 X35.1125 Y29.5841
 X34.9575 Y29.7965
 X34.7740 Y29.9820
 X34.5657 Y30.1376
 X34.3368 Y30.2606
 X34.0909 Y30.3481
 X33.8324 Y30.3974
 X33.5649 Y30.4056
 X33.3002 Y30.3713
 X33.0477 Y30.2970
 X32.8117 Y30.1858
 X32.5954 Y30.0410
 X32.4032 Y29.8658
 X32.2386 Y29.6634
 X32.1057 Y29.4369
 X32.0081 Y29.1895
 X31.9713 Y29.0498
 X31.9466 Y28.9118
 X31.9337 Y28.7758
 X31.9321 Y28.6422
 X31.9412 Y28.5113
 X31.9608 Y28.3833
 X31.9901 Y28.2587
 X32.0289 Y28.1378
 X32.0765 Y28.0210
 X32.1327 Y27.9086
 X32.1969 Y27.8010
 X32.2686 Y27.6984
 X32.3474 Y27.6012
 X32.4327 Y27.5098
 X32.5242 Y27.4246
 X32.6214 Y27.3456
 X32.7237 Y27.2736
 X32.8309 Y27.2087
 X32.9422 Y27.1513
 X33.0574 Y27.1018
 X33.1760 Y27.0603
 X33.2973 Y27.0274
 X33.4211 Y27.0033
 X33.5467 Y26.9884
 X33.6740 Y26.9830
 X33.8021 Y26.9876
 X33.9308 Y27.0024
 X34.0595 Y27.0278
 X34.1878 Y27.0640
 X34.3154 Y27.1115
 X34.4415 Y27.1705
 X34.5658 Y27.2415
 X34.6929 Y27.3293
 X34.8094 Y27.4270
 X34.9154 Y27.5336
 X35.0105 Y27.6485
 X35.0948 Y27.7706
 X35.1677 Y27.8993
 X35.2292 Y28.0335
 X35.2791 Y28.1724
 X35.3172 Y28.3150
 X35.3432 Y28.4607
 X35.3571 Y28.6084
 X35.3584 Y28.7573
 X35.3471 Y28.9066
 X35.3229 Y29.0552
 X35.2857 Y29.2024
 X35.2351 Y29.3473
G0 Z-25.0000
 X119.7573 Y34.6322
G1 Z-40.0000
 X119.5429 Y34.7396
 X119.3149 Y34.8138
 X119.0789 Y34.8566
 X118.8389 Y34.8703
 X98.7701
 Y64.7418
 X98.7613 Y64.9174
 X98.7357 Y65.0878
 X98.6933 Y65.2523
 X98.6349 Y65.4100
 X98.5629 Y65.5601
 X98.4765 Y65.7016
 X98.3781 Y65.8338
 X98.2669 Y65.9556
 X98.1453 Y66.0664
 X98.0125 Y66.1652
 X97.8709 Y66.2512
 X97.7213 Y66.3235
 X97.5629 Y66.3812
 X97.3989 Y66.4234
 X97.2285 Y66.4494
 X97.0525 Y66.4583
 X92.5885
 Y81.9087
 X92.5797 Y82.0847
 X92.5541 Y82.2551
 X92.5117 Y82.4191
 X92.4541 Y82.5767
 X92.3813 Y82.7271
 X92.2957 Y82.8687
 X92.1973 Y83.0007
 X92.0861 Y83.1223
 X91.9645 Y83.2335
 X91.8325 Y83.3319
 X91.6909 Y83.4183
 X91.5405 Y83.4903
 X91.3829 Y83.5479
 X91.2181 Y83.5903
 X91.0477 Y83.6167
 X90.8725 Y83.6255
 X75.7648
 X75.5892 Y83.6167
 X75.4188 Y83.5903
 X75.2543 Y83.5479
 X75.0965 Y83.4903
 X74.9465 Y83.4183
 X74.8049 Y83.3319
 X74.6729 Y83.2335
 X74.5509 Y83.1223
 X74.4402 Y83.0007
 X74.3414 Y82.8687
 X74.2554 Y82.7271
 X74.1831 Y82.5767
 X74.1253 Y82.4191
 X74.0831 Y82.2551
 X74.0571 Y82.0847
 X74.0482 Y81.9087
 Y66.4583
 X65.9234
 X65.7478 Y66.4494
 X65.5774 Y66.4234
 X65.4129 Y66.3812
 X65.2552 Y66.3235
 X65.1051 Y66.2512
 X64.9637 Y66.1652
 X64.8315 Y66.0664
 X64.7097 Y65.9556
 X64.5988 Y65.8338
 X64.5000 Y65.7016
 X64.4141 Y65.5601
 X64.3417 Y65.4100
 X64.2840 Y65.2523
 X64.2417 Y65.0878
 X64.2157 Y64.9174
 X64.2069 Y64.7418
 X64.2157 Y64.5663
 X64.2417 Y64.3958
 X64.2840 Y64.2314
 X64.3417 Y64.0736
 X64.4141 Y63.9236
 X64.5000 Y63.7821
 X64.5988 Y63.6500
 X64.7097 Y63.5280
 X64.8315 Y63.4173
 X64.9637 Y63.3186
 X65.1051 Y63.2326
 X65.2552 Y63.1602
 X65.4129 Y63.1025
 X65.5774 Y63.0603
 X65.7478 Y63.0343
 X65.9234 Y63.0254
 X95.3365
 Y59.2495
 X49.0385
 X47.2405 Y63.0254
 X57.9108
 X58.0863 Y63.0343
 X58.2569 Y63.0603
 X58.4214 Y63.1025
 X58.5792 Y63.1602
 X58.7293 Y63.2326
 X58.8709 Y63.3186
 X59.0032 Y63.4173
 X59.1252 Y63.5280
 X59.2361 Y63.6500
 X59.3349 Y63.7821
 X59.4209 Y63.9236
 X59.4933 Y64.0736
 X59.5512 Y64.2314
 X59.5934 Y64.3958
 X59.6195 Y64.5663
 X59.6284 Y64.7418
 X59.6195 Y64.9174
 X59.5934 Y65.0878
 X59.5512 Y65.2523
 X59.4933 Y65.4100
 X59.4209 Y65.5601
 X59.3349 Y65.7016
 X59.2361 Y65.8338
 X59.1252 Y65.9556
 X59.0032 Y66.0664
 X58.8709 Y66.1652
 X58.7293 Y66.2512
 X58.5792 Y66.3235
 X58.4214 Y66.3812
 X58.2569 Y66.4234
 X58.0863 Y66.4494
 X57.9108 Y66.4583
 X44.5648
 X44.2591 Y66.4346
 X43.9626 Y66.3626
 X43.6840 Y66.2415
 X43.4317 Y66.0703
 X43.2182 Y65.8598
 X43.0484 Y65.6243
 X42.9229 Y65.3694
 X42.8418 Y65.1009
 X42.8057 Y64.8242
 X42.8149 Y64.5453
 X42.8698 Y64.2698
 X42.9707 Y64.0033
 X46.4049 Y56.7946
 X46.5260 Y56.5807
 X46.6738 Y56.3893
 X46.8455 Y56.2221
 X47.0380 Y56.0807
 X47.2482 Y55.9676
 X47.4731 Y55.8844
 X47.7097 Y55.8330
 X47.9549 Y55.8154
 X51.0449
 Y39.7110
 X50.1544 Y40.2386
 X49.2489 Y40.7338
 X48.3289 Y41.1966
 X47.3952 Y41.6266
 X46.4487 Y42.0235
 X45.4901 Y42.3872
 X44.5202 Y42.7174
 X43.5397 Y43.0138
 X42.5493 Y43.2762
 X41.5498 Y43.5045
 X40.5422 Y43.6983
 X39.5269 Y43.8574
 X38.5049 Y43.9815
 X37.4769 Y44.0705
 X36.4437 Y44.1241
 X35.4058 Y44.1418
 X6.7659
 X6.5662 Y44.1315
 X6.3698 Y44.1004
 X6.1788 Y44.0490
 X5.9951 Y43.9775
 X5.8208 Y43.8863
 X5.6582 Y43.7758
 X5.5090 Y43.6462
 X5.3757 Y43.4978
 X5.2062 Y43.2406
 X5.0876 Y42.9666
 X5.0192 Y42.6820
 X5.0000 Y42.3933
 X5.0293 Y42.1066
 X5.1062 Y41.8282
 X5.2300 Y41.5645
 X5.3999 Y41.3216
 X35.3078 Y5.6141
 X35.4373 Y5.4760
 X35.5797 Y5.3540
 X35.7337 Y5.2487
 X35.8977 Y5.1610
 X36.0703 Y5.0916
 X36.2500 Y5.0412
 X36.4351 Y5.0104
 X36.6242 Y5.0000
 X113.1893
 X113.3397 Y5.0066
 X113.4861 Y5.0258
 X113.6301 Y5.0573
 X113.7685 Y5.1005
 X113.9021 Y5.1550
 X114.0309 Y5.2203
 X114.1525 Y5.2958
 X114.2677 Y5.3810
 X114.3757 Y5.4758
 X114.4749 Y5.5790
 X114.5661 Y5.6907
 X114.6469 Y5.8102
 X114.7189 Y5.9370
 X114.7797 Y6.0706
 X114.8301 Y6.2103
 X114.8677 Y6.3560
 X120.5597 Y32.7934
 X120.5949 Y33.0572
 X120.5893 Y33.3205
 X120.5453 Y33.5787
 X120.4605 Y33.8273
 X120.3389 Y34.0615
 X120.1797 Y34.2769
 X119.9861 Y34.4686
 X119.7573 Y34.6322
G0 Z-25.0000
G0 Z-25.0000
M2 (end program)
