$X
$H
G10 P0 L20 X0 Y0 Z0
G40 (disable tool radius compensation)
G49 (disable tool length compensation)
G80 (cancel modal motion)
G54 (select coordinate system 1)
G90 (disable incremental moves)
G21 (metric)
F300.00000
S250.00000
G61 (exact path mode)
;PYCAM_TOOLPATH_SETTINGS: START
;[Bounds]
;maxz = 0.0
;maxx = 7.72526
;maxy = 6.68875
;minx = 0.00374349
;miny = 1.03575
;minz = 0.0
;
;[Tool]
;torus_radius = 0.125
;shape = CylindricalCutter
;tool_radius = 1.5875
;feedrate = 300.0
;
;[Process]
;engrave_offset = 0.0
;step_down = 3.0
;generator = EngraveCutter
;postprocessor = SimpleCutter
;overlap_percent = 0
;milling_style = ignore
;material_allowance = 0.0
;pocketing_type = none
;path_direction = x
;
;PYCAM_TOOLPATH_SETTINGS: END
G0 Z-25.0000
M3 (start spindle)
G04 P3 (wait for 3 seconds)
 X0.98530 Y1.03575
G1 Z-53.0000
 X0.94634
 X0.82959 Y1.04129
 X0.68452 Y1.05800
 X0.55078 Y1.08637
 X0.42925 Y1.12674
 X0.32058 Y1.17947
 X0.22569 Y1.24506
 X0.14524 Y1.32378
 X0.09413 Y1.39176
 X0.08008 Y1.41607
 X0.05604 Y1.45774
 X0.01226 Y1.59907
 X0.00374 Y1.80757
 X0.05328 Y2.03939
 X0.15978 Y2.29226
 X0.32210 Y2.56392
 X0.53912 Y2.85211
 X0.80973 Y3.15468
 X1.04970 Y3.39312
 X1.13276 Y3.46924
 X1.14214 Y3.47797
 X1.17768 Y3.49647
 X1.22803 Y3.50390
 X1.27751 Y3.49203
 X1.31136 Y3.47060
 X1.32010 Y3.46110
 X1.32883 Y3.45171
 X1.34733 Y3.41618
 X1.35476 Y3.36589
 X1.34283 Y3.31635
 X1.32140 Y3.28250
 X1.31196 Y3.27376
 X1.24051 Y3.20828
 X1.03337 Y3.00385
 X0.79438 Y2.74229
 X0.59706 Y2.49268
 X0.44347 Y2.25857
 X0.33572 Y2.04351
 X0.27599 Y1.85107
 X0.26628 Y1.68485
 X0.29129 Y1.57861
 X0.30870 Y1.54833
 X0.32237 Y1.52468
 X0.38037 Y1.46326
 X0.48535 Y1.39675
 X0.62180 Y1.34907
 X0.78809 Y1.32031
 X0.98237 Y1.31082
 X1.20302 Y1.32075
 X1.44824 Y1.35032
 X1.71631 Y1.39968
 X2.00553 Y1.46907
 X2.31413 Y1.55875
 X2.64040 Y1.66889
 X2.98258 Y1.79969
 X3.33897 Y1.95133
 X3.70785 Y2.12408
 X4.08740 Y2.31814
 X4.37978 Y2.47819
 X4.47601 Y2.53364
 X4.57221 Y2.58919
 X4.85710 Y2.76232
 X5.21500 Y2.99393
 X5.54915 Y3.22689
 X5.85872 Y3.45964
 X6.14307 Y3.69054
 X6.40158 Y3.91797
 X6.63346 Y4.14035
 X6.83817 Y4.35612
 X7.01486 Y4.56358
 X7.16297 Y4.76118
 X7.28185 Y4.94726
 X7.37067 Y5.12028
 X7.42882 Y5.27865
 X7.45562 Y5.42063
 X7.45042 Y5.54476
 X7.42622 Y5.62571
 X7.41254 Y5.64936
 X7.39512 Y5.67958
 X7.31586 Y5.75461
 X7.16738 Y5.82954
 X6.97108 Y5.87418
 X6.73118 Y5.88861
 X6.45182 Y5.87289
 X6.13715 Y5.82704
 X5.79124 Y5.75108
 X5.51069 Y5.67415
 X5.41829 Y5.64513
 X5.40614 Y5.64128
 X5.36649 Y5.63960
 X5.31793 Y5.65392
 X5.27794 Y5.68522
 X5.25586 Y5.71864
 X5.25179 Y5.73085
 X5.24789 Y5.74322
 X5.24610 Y5.78342
 X5.26053 Y5.83225
 X5.29226 Y5.87201
 X5.32622 Y5.89356
 X5.33860 Y5.89740
 X5.44596 Y5.93126
 X5.77219 Y6.01975
 X6.16922 Y6.10271
 X6.52713 Y6.14643
 X6.84332 Y6.15110
 X7.11535 Y6.11681
 X7.34071 Y6.04372
 X7.51676 Y5.93197
 X7.61714 Y5.82335
 X7.64117 Y5.78168
 X7.66319 Y5.74343
 X7.70714 Y5.61578
 X7.72526 Y5.43435
 X7.69840 Y5.23942
 X7.62961 Y5.03267
 X7.52181 Y4.81603
 X7.37793 Y4.59131
 X7.20096 Y4.36035
 X6.99387 Y4.12500
 X6.75960 Y3.88715
 X6.50108 Y3.64854
 X6.22140 Y3.41108
 X5.92339 Y3.17660
 X5.61014 Y2.94689
 X5.28444 Y2.72385
 X4.94943 Y2.50933
 X4.69407 Y2.35482
 X4.60796 Y2.30507
 X4.48996 Y2.23693
 X4.13021 Y2.04243
 X3.64378 Y1.80089
 X3.15647 Y1.58485
 X2.67626 Y1.39854
 X2.21110 Y1.24626
 X1.76893 Y1.13216
 X1.35764 Y1.06060
 X1.07834 Y1.03575
 X0.98530
 X1.44288 Y2.73335
 X1.43425
 X1.40842 Y2.73774
 X1.37663 Y2.75049
 X1.34901 Y2.77132
 X1.33154 Y2.79199
 X1.32715 Y2.79964
 X1.29400 Y2.85699
 X1.20627 Y3.03575
 X1.11171 Y3.27826
 X1.04291 Y3.52539
 X0.99940 Y3.77539
 X0.98074 Y4.02636
 X0.98644 Y4.27658
 X1.01595 Y4.52425
 X1.06890 Y4.76758
 X1.14475 Y5.00478
 X1.24300 Y5.23406
 X1.36317 Y5.45356
 X1.50483 Y5.66157
 X1.66749 Y5.85628
 X1.85058 Y6.03592
 X2.05376 Y6.19862
 X2.21912 Y6.30951
 X2.27647 Y6.34261
 X2.33376 Y6.37571
 X2.51253 Y6.46343
 X2.75504 Y6.55794
 X3.00217 Y6.62668
 X3.25217 Y6.67014
 X3.50315 Y6.68875
 X3.75336 Y6.68306
 X4.00103 Y6.65349
 X4.24436 Y6.60053
 X4.48156 Y6.52468
 X4.71083 Y6.42643
 X4.93033 Y6.30626
 X5.13835 Y6.16456
 X5.33306 Y6.00196
 X5.51269 Y5.81879
 X5.67540 Y5.61561
 X5.78635 Y5.45025
 X5.81944 Y5.39290
 X5.82596 Y5.38183
 X5.83653 Y5.34315
 X5.83306 Y5.29249
 X5.81065 Y5.24696
 X5.78228 Y5.21892
 X5.77111 Y5.21262
 X5.76004 Y5.20611
 X5.72146 Y5.19547
 X5.67117 Y5.19894
 X5.62571 Y5.22125
 X5.59733 Y5.24951
 X5.59082 Y5.26064
 X5.56108 Y5.31212
 X5.46143 Y5.46061
 X5.31521 Y5.64301
 X5.15386 Y5.80746
 X4.97894 Y5.95350
 X4.79204 Y6.08078
 X4.59483 Y6.18875
 X4.38889 Y6.27701
 X4.17583 Y6.34517
 X3.95731 Y6.39274
 X3.73481 Y6.41938
 X3.51010 Y6.42453
 X3.28467 Y6.40782
 X3.06022 Y6.36882
 X2.83838 Y6.30707
 X2.62067 Y6.22217
 X2.46018 Y6.14339
 X2.40875 Y6.11367
 X2.35726 Y6.08399
 X2.20888 Y5.98438
 X2.02653 Y5.83822
 X1.86219 Y5.67692
 X1.71625 Y5.50201
 X1.58919 Y5.31515
 X1.48133 Y5.11800
 X1.39318 Y4.91206
 X1.32520 Y4.69900
 X1.27772 Y4.48047
 X1.25125 Y4.25803
 X1.24620 Y4.03331
 X1.26297 Y3.80789
 X1.30203 Y3.58344
 X1.36377 Y3.36160
 X1.44868 Y3.14387
 X1.52746 Y2.98340
 X1.55718 Y2.93192
 X1.56347 Y2.92074
 X1.57346 Y2.88200
 X1.56956 Y2.83132
 X1.54704 Y2.78581
 X1.51861 Y2.75765
 X1.50743 Y2.75131
 X1.50228 Y2.74826
 X1.45768 Y2.73335
 X1.44288
 X1.92372 Y2.56961
 X1.87468
 X1.72771 Y2.58507
 X1.56646 Y2.63108
 X1.44081 Y2.70731
 X1.36898 Y2.78396
 X1.35183 Y2.81342
 X1.34543 Y2.82465
 X1.33523 Y2.86339
 X1.33870 Y2.91407
 X1.36073 Y2.95958
 X1.38900 Y2.98774
 X1.40018 Y2.99403
 X1.41124 Y3.00054
 X1.44993 Y3.01107
 X1.50060 Y3.00760
 X1.54611 Y2.98525
 X1.57417 Y2.95688
 X1.58046 Y2.94569
 X1.58610 Y2.93614
 X1.60986 Y2.91129
 X1.65614 Y2.88129
 X1.72017 Y2.85732
 X1.80279 Y2.84104
 X1.90494 Y2.83404
 X2.02746 Y2.83794
 X2.17122 Y2.85444
 X2.29590 Y2.87619
 X2.33712 Y2.88504
 X2.42893 Y2.90479
 X2.70019 Y2.98356
 X3.09033 Y3.12761
 X3.49804 Y3.31304
 X3.81164 Y3.47678
 X3.91374 Y3.53554
 X3.97049 Y3.56836
 X4.13861 Y3.67063
 X4.34776 Y3.80610
 X4.54113 Y3.94108
 X4.71864 Y4.07465
 X4.88021 Y4.20611
 X5.02582 Y4.33447
 X5.15539 Y4.45888
 X5.26888 Y4.57856
 X5.36621 Y4.69254
 X5.44732 Y4.80007
 X5.51221 Y4.90028
 X5.56076 Y4.99219
 X5.59299 Y5.07508
 X5.60872 Y5.14800
 X5.60801 Y5.21018
 X5.59733 Y5.24935
 X5.59082 Y5.26064
 X5.58425 Y5.27181
 X5.57362 Y5.31065
 X5.57710 Y5.36139
 X5.59933 Y5.40696
 X5.62761 Y5.43500
 X5.63878 Y5.44125
 X5.64990 Y5.44781
 X5.68875 Y5.45844
 X5.73953 Y5.45492
 X5.78510 Y5.43257
 X5.81315 Y5.40414
 X5.81944 Y5.39290
 X5.83301 Y5.36942
 X5.86068 Y5.29129
 X5.87354 Y5.18067
 X5.85965 Y5.06222
 X5.82081 Y4.93707
 X5.75874 Y4.80626
 X5.67524 Y4.67085
 X5.57200 Y4.53201
 X5.45085 Y4.39079
 X5.31342 Y4.24826
 X5.16157 Y4.10558
 X4.99701 Y3.96382
 X4.82146 Y3.82400
 X4.63667 Y3.68728
 X4.44444 Y3.55474
 X4.24647 Y3.42751
 X4.09554 Y3.33599
 X4.04460 Y3.30658
 X3.93826 Y3.24522
 X3.61139 Y3.07460
 X3.18494 Y2.88135
 X2.77556 Y2.73096
 X2.49018 Y2.64833
 X2.39361 Y2.62750
 X2.34950 Y2.61783
 X2.14367 Y2.58404
 X1.97868 Y2.56961
 X1.92372
 X3.77051 Y1.16097
 X3.69786
 X3.47993 Y1.17752
 X3.19151 Y1.22700
 X2.90826 Y1.30924
 X2.70031 Y1.39165
 X2.63346 Y1.42415
 X2.62175 Y1.42974
 X2.59131 Y1.45606
 X2.56565 Y1.50006
 X2.55838 Y1.55024
 X2.56575 Y1.58914
 X2.57140 Y1.60053
 X2.57693 Y1.61225
 X2.60319 Y1.64274
 X2.64714 Y1.66840
 X2.69726 Y1.67567
 X2.73628 Y1.66829
 X2.74778 Y1.66265
 X2.81256 Y1.63108
 X3.01486 Y1.55231
 X3.28993 Y1.47646
 X3.56988 Y1.43494
 X3.85161 Y1.42768
 X4.13211 Y1.45454
 X4.40815 Y1.51535
 X4.67671 Y1.61008
 X4.87240 Y1.70258
 X4.93468 Y1.73850
 X4.99707 Y1.77458
 X5.17540 Y1.89817
 X5.39199 Y2.08382
 X5.58285 Y2.29286
 X5.74625 Y2.52262
 X5.88064 Y2.77051
 X5.98443 Y3.03381
 X6.05593 Y3.30990
 X6.08854 Y3.52436
 X6.09353 Y3.59619
 X6.09451 Y3.60906
 X6.10801 Y3.64675
 X6.13986 Y3.68642
 X6.18403 Y3.71158
 X6.22288 Y3.71940
 X6.23568 Y3.71864
 X6.24832 Y3.71772
 X6.28560 Y3.70475
 X6.32531 Y3.67383
 X6.35081 Y3.63026
 X6.35883 Y3.59110
 X6.35813 Y3.57824
 X6.35254 Y3.49821
 X6.31597 Y3.25944
 X6.23611 Y2.95182
 X6.12033 Y2.65842
 X5.97049 Y2.38226
 X5.78836 Y2.12636
 X5.57585 Y1.89367
 X5.33475 Y1.68718
 X5.13633 Y1.54992
 X5.06694 Y1.50987
 X4.99262 Y1.46690
 X4.75840 Y1.35758
 X4.43679 Y1.24853
 X4.10612 Y1.18294
 X3.85439 Y1.16097
 X3.77051
G0 Z-25.0000
M5 (stop spindle)
G04 P3 (wait for 3 seconds)
G0 Z-25.0000
M2 (end program)
