;PYCAM-META-DATA: Filename: /media/martoio/MARTOIO/ME43/std_lib/svg/005-owl.svg
;PYCAM-META-DATA: Timestamp: 2017-12-11 12:48:29.441652
;PYCAM-META-DATA: Version: 0.5.1
;Estimated machine time: 21 minutes
G40 (disable tool radius compensation)
G49 (disable tool length compensation)
G80 (cancel modal motion)
G54 (select coordinate system 1)
G90 (disable incremental moves)
G21 (metric)
G61 (exact path mode)
F200.00000
S1000.00000
;PYCAM_TOOLPATH_SETTINGS: START
;[Bounds]
;maxz = -58.0
;maxx = 127.624175
;maxy = 127.623861686
;minx = 0.750075
;miny = 0.750103483125
;minz = -58.0
;
;[Tool]
;torus_radius = 0.125
;speed = 1000.0
;shape = CylindricalCutter
;tool_radius = 1.5875
;feedrate = 200.0
;
;[Process]
;engrave_offset = 0.0
;step_down = 0.01
;generator = EngraveCutter
;postprocessor = SimpleCutter
;milling_style = conventional
;material_allowance = 0.0
;pocketing_type = holes
;path_direction = x
;
;PYCAM_TOOLPATH_SETTINGS: END
T1 M6
G0 Z-25.0000
 X18.2651 Y56.9966
G1 Z-58.0000
 Y60.7935
 X18.2568 Y60.9560
 X18.2328 Y61.1136
 X18.1938 Y61.2657
 X18.1404 Y61.4115
 X18.0736 Y61.5502
 X17.9942 Y61.6812
 X17.9028 Y61.8033
 X17.8005 Y61.9161
 X17.6877 Y62.0186
 X17.5655 Y62.1100
 X17.4346 Y62.1895
 X17.2958 Y62.2564
 X17.1499 Y62.3098
 X16.9977 Y62.3489
 X16.8400 Y62.3730
 X16.6776 Y62.3811
 X13.2525
 X13.3226 Y63.0869
 X13.4128 Y63.8305
 X13.5218 Y64.6082
 X13.6480 Y65.4156
 X13.7900 Y66.2493
 X13.9462 Y67.1049
 X14.1153 Y67.9787
 X14.2957 Y68.8665
 X14.4860 Y69.7645
 X14.6847 Y70.6688
 X14.8903 Y71.5752
 X15.1014 Y72.4799
 X15.3164 Y73.3790
 X15.5339 Y74.2683
 X15.7524 Y75.1441
 X15.9706 Y76.0021
 X16.2139 Y75.1334
 X16.4853 Y74.2765
 X16.7841 Y73.4321
 X17.1099 Y72.6008
 X17.4621 Y71.7829
 X17.8402 Y70.9793
 X18.2437 Y70.1902
 X18.6720 Y69.4163
 X19.1246 Y68.6580
 X19.6010 Y67.9160
 X20.1005 Y67.1907
 X20.6228 Y66.4827
 X21.1674 Y65.7924
 X21.7335 Y65.1204
 X22.3209 Y64.4674
 X22.9286 Y63.8337
 X23.5565 Y63.2199
 X24.2040 Y62.6266
 X24.8706 Y62.0542
 X25.5555 Y61.5033
 X26.2584 Y60.9745
 X26.9787 Y60.4682
 X27.7157 Y59.9849
 X28.4693 Y59.5254
 X29.2386 Y59.0899
 X30.0234 Y58.6791
 X30.8227 Y58.2935
 X31.6364 Y57.9336
 X32.4638 Y57.6000
 X33.3043 Y57.2931
 X34.1574 Y57.0137
 X35.0227 Y56.7619
 X34.3172 Y56.6589
 X33.6180 Y56.5675
 X32.9254 Y56.4874
 X32.2403 Y56.4181
 X31.5630 Y56.3593
 X30.8942 Y56.3103
 X30.2345 Y56.2707
 X29.5842 Y56.2400
 X28.9441 Y56.2179
 X28.3145 Y56.2038
 X27.6962 Y56.1972
 X27.0895 Y56.1978
 X26.4952 Y56.2051
 X25.9137 Y56.2187
 X25.3455 Y56.2378
 X24.7914 Y56.2623
 X24.2516 Y56.2917
 X23.7269 Y56.3253
 X23.2177 Y56.3629
 X22.7247 Y56.4039
 X22.2483 Y56.4480
 X21.7892 Y56.4944
 X21.3478 Y56.5431
 X20.9248 Y56.5932
 X20.5206 Y56.6444
 X20.1357 Y56.6964
 X19.7708 Y56.7486
 X19.4265 Y56.8005
 X19.1032 Y56.8518
 X18.8015 Y56.9018
 X18.5219 Y56.9502
 X18.2651 Y56.9966
G0 Z-25.0000
 X28.5274 Y50.1474
G1 Z-58.0000
 X28.5356 Y50.0810
 X26.2850 Y50.1479
 X27.4279 Y50.1361
 X28.4076 Y50.1444
 X28.5274 Y50.1474
G0 Z-25.0000
 X41.4733 Y51.9770
G1 Z-58.0000
 X41.4731 Y51.9522
 X40.7638 Y51.7807
 X41.4733 Y51.9770
G0 Z-25.0000
 X67.4321 Y67.1810
G1 Z-58.0000
 X64.1870 Y58.5272
 X60.9416 Y67.1810
 X62.9096 Y69.1489
 X63.0467 Y69.2727
 X63.1928 Y69.3798
 X63.3468 Y69.4705
 X63.5071 Y69.5448
 X63.6726 Y69.6025
 X63.8421 Y69.6438
 X64.0141 Y69.6686
 X64.1873 Y69.6768
 X64.3605 Y69.6686
 X64.5325 Y69.6438
 X64.7019 Y69.6025
 X64.8674 Y69.5448
 X65.0276 Y69.4705
 X65.1813 Y69.3798
 X65.3274 Y69.2727
 X65.4644 Y69.1489
 X67.4321 Y67.1810
G0 Z-25.0000
 X47.3291 Y81.1544
G1 Z-58.0000
 X47.3222 Y80.8872
 X47.3021 Y80.6235
 X47.2689 Y80.3636
 X47.2233 Y80.1078
 X47.1650 Y79.8565
 X47.0949 Y79.6099
 X47.0130 Y79.3683
 X46.9197 Y79.1324
 X46.8154 Y78.9021
 X46.7005 Y78.6780
 X46.5751 Y78.4602
 X46.4398 Y78.2492
 X46.2947 Y78.0453
 X46.1401 Y77.8488
 X45.9766 Y77.6601
 X45.8042 Y77.4793
 X45.6236 Y77.3070
 X45.4349 Y77.1435
 X45.2385 Y76.9890
 X45.0344 Y76.8439
 X44.8235 Y76.7085
 X44.6058 Y76.5831
 X44.3816 Y76.4680
 X44.1513 Y76.3639
 X43.9153 Y76.2705
 X43.6739 Y76.1886
 X43.4273 Y76.1186
 X43.1760 Y76.0603
 X42.9202 Y76.0146
 X42.6602 Y75.9815
 X42.3965 Y75.9613
 X42.1294 Y75.9545
 X41.8622 Y75.9613
 X41.5986 Y75.9815
 X41.3385 Y76.0146
 X41.0828 Y76.0603
 X40.8315 Y76.1186
 X40.5849 Y76.1886
 X40.3434 Y76.2705
 X40.1074 Y76.3639
 X39.8771 Y76.4680
 X39.6529 Y76.5831
 X39.4352 Y76.7085
 X39.2242 Y76.8439
 X39.0203 Y76.9890
 X38.8238 Y77.1435
 X38.6350 Y77.3070
 X38.4544 Y77.4793
 X38.2820 Y77.6601
 X38.1185 Y77.8488
 X37.9640 Y78.0453
 X37.8188 Y78.2492
 X37.6835 Y78.4602
 X37.5581 Y78.6780
 X37.4431 Y78.9021
 X37.3389 Y79.1324
 X37.2456 Y79.3683
 X37.1637 Y79.6099
 X37.0935 Y79.8565
 X37.0354 Y80.1078
 X36.9896 Y80.3636
 X36.9564 Y80.6235
 X36.9363 Y80.8872
 X36.9296 Y81.1544
 Y84.5484
 X36.9363 Y84.8157
 X36.9564 Y85.0792
 X36.9896 Y85.3395
 X37.0354 Y85.5952
 X37.0935 Y85.8465
 X37.1637 Y86.0925
 X37.2456 Y86.3340
 X37.3389 Y86.5702
 X37.4431 Y86.8005
 X37.5581 Y87.0247
 X37.6835 Y87.2422
 X37.8188 Y87.4530
 X37.9640 Y87.6570
 X38.1185 Y87.8535
 X38.2820 Y88.0425
 X38.4544 Y88.2225
 X38.6350 Y88.3950
 X38.8238 Y88.5585
 X39.0203 Y88.7130
 X39.2242 Y88.8585
 X39.4352 Y88.9935
 X39.6529 Y89.1187
 X39.8771 Y89.2335
 X40.1074 Y89.3377
 X40.3434 Y89.4307
 X40.5849 Y89.5132
 X40.8315 Y89.5830
 X41.0828 Y89.6415
 X41.3385 Y89.6872
 X41.5986 Y89.7202
 X41.8622 Y89.7405
 X42.1294 Y89.7472
 X42.3965 Y89.7405
 X42.6602 Y89.7202
 X42.9202 Y89.6872
 X43.1760 Y89.6415
 X43.4273 Y89.5830
 X43.6739 Y89.5132
 X43.9153 Y89.4307
 X44.1513 Y89.3377
 X44.3816 Y89.2335
 X44.6058 Y89.1187
 X44.8235 Y88.9935
 X45.0344 Y88.8585
 X45.2385 Y88.7130
 X45.4349 Y88.5585
 X45.6236 Y88.3950
 X45.8042 Y88.2225
 X45.9766 Y88.0425
 X46.1401 Y87.8535
 X46.2947 Y87.6570
 X46.4398 Y87.4530
 X46.5751 Y87.2422
 X46.7005 Y87.0247
 X46.8154 Y86.8005
 X46.9197 Y86.5702
 X47.0130 Y86.3340
 X47.0949 Y86.0925
 X47.1650 Y85.8465
 X47.2233 Y85.5952
 X47.2689 Y85.3395
 X47.3021 Y85.0792
 X47.3222 Y84.8157
 X47.3291 Y84.5484
 Y81.1544
G0 Z-25.0000
 X42.1294 Y98.2312
G1 Z-58.0000
 X42.9196 Y98.2110
 X43.6996 Y98.1517
 X44.4684 Y98.0535
 X45.2249 Y97.9177
 X45.9684 Y97.7460
 X46.6976 Y97.5382
 X47.4118 Y97.2960
 X48.1099 Y97.0207
 X48.7909 Y96.7125
 X49.4541 Y96.3720
 X50.0980 Y96.0015
 X50.7221 Y95.6010
 X51.3252 Y95.1720
 X51.9065 Y94.7145
 X52.4648 Y94.2307
 X52.9992 Y93.7215
 X53.5088 Y93.1867
 X53.9926 Y92.6287
 X54.4496 Y92.0475
 X54.8787 Y91.4445
 X55.2793 Y90.8205
 X55.6500 Y90.1762
 X55.9901 Y89.5132
 X56.2986 Y88.8322
 X56.5743 Y88.1340
 X56.8164 Y87.4200
 X57.0241 Y86.6902
 X57.1961 Y85.9470
 X57.3316 Y85.1902
 X57.4295 Y84.4216
 X57.4891 Y83.6416
 X57.5092 Y82.8514
 X57.4891 Y82.0611
 X57.4295 Y81.2811
 X57.3316 Y80.5124
 X57.1961 Y79.7559
 X57.0241 Y79.0124
 X56.8164 Y78.2830
 X56.5743 Y77.5689
 X56.2986 Y76.8708
 X55.9901 Y76.1896
 X55.6500 Y75.5266
 X55.2793 Y74.8825
 X54.8787 Y74.2584
 X54.4496 Y73.6554
 X53.9926 Y73.0741
 X53.5088 Y72.5159
 X52.9992 Y71.9814
 X52.4648 Y71.4718
 X51.9065 Y70.9881
 X51.3252 Y70.5309
 X50.7221 Y70.1018
 X50.0980 Y69.7014
 X49.4541 Y69.3306
 X48.7909 Y68.9904
 X48.1099 Y68.6820
 X47.4118 Y68.4063
 X46.6976 Y68.1641
 X45.9684 Y67.9565
 X45.2249 Y67.7845
 X44.4684 Y67.6490
 X43.6996 Y67.5510
 X42.9196 Y67.4915
 X42.1294 Y67.4715
 X41.3392 Y67.4915
 X40.5592 Y67.5510
 X39.7904 Y67.6490
 X39.0338 Y67.7845
 X38.2904 Y67.9565
 X37.5611 Y68.1641
 X36.8469 Y68.4063
 X36.1487 Y68.6820
 X35.4676 Y68.9904
 X34.8046 Y69.3306
 X34.1605 Y69.7014
 X33.5364 Y70.1018
 X32.9334 Y70.5309
 X32.3521 Y70.9881
 X31.7937 Y71.4718
 X31.2593 Y71.9814
 X30.7498 Y72.5159
 X30.2660 Y73.0741
 X29.8089 Y73.6554
 X29.3798 Y74.2584
 X28.9793 Y74.8825
 X28.6086 Y75.5266
 X28.2684 Y76.1896
 X27.9600 Y76.8708
 X27.6842 Y77.5689
 X27.4421 Y78.2830
 X27.2345 Y79.0124
 X27.0625 Y79.7559
 X26.9270 Y80.5124
 X26.8289 Y81.2811
 X26.7695 Y82.0611
 X26.7494 Y82.8514
 X26.7695 Y83.6416
 X26.8289 Y84.4216
 X26.9270 Y85.1902
 X27.0625 Y85.9470
 X27.2345 Y86.6902
 X27.4421 Y87.4200
 X27.6842 Y88.1340
 X27.9600 Y88.8322
 X28.2684 Y89.5132
 X28.6086 Y90.1762
 X28.9793 Y90.8205
 X29.3798 Y91.4445
 X29.8089 Y92.0475
 X30.2660 Y92.6287
 X30.7498 Y93.1867
 X31.2593 Y93.7215
 X31.7937 Y94.2307
 X32.3521 Y94.7145
 X32.9334 Y95.1720
 X33.5364 Y95.6010
 X34.1605 Y96.0015
 X34.8046 Y96.3720
 X35.4676 Y96.7125
 X36.1487 Y97.0207
 X36.8469 Y97.2960
 X37.5611 Y97.5382
 X38.2904 Y97.7460
 X39.0338 Y97.9177
 X39.7904 Y98.0535
 X40.5592 Y98.1517
 X41.3392 Y98.2110
 X42.1294 Y98.2312
G0 Z-25.0000
 X64.1870 Y115.1985
G1 Z-58.0000
 X65.1989 Y115.1895
 X66.2075 Y115.1587
 X67.2129 Y115.1115
 X68.2147 Y115.0425
 X69.2130 Y114.9547
 X70.2076 Y114.8490
 X71.1984 Y114.7230
 X72.1851 Y114.5767
 X73.1678 Y114.4125
 X74.1464 Y114.2287
 X75.1205 Y114.0255
 X76.0902 Y113.8035
 X77.0554 Y113.5620
 X78.0159 Y113.3017
 X78.9716 Y113.0227
 X79.9223 Y112.7242
 X78.9084 Y112.3672
 X77.9040 Y111.9742
 X76.7934 Y111.4890
 X75.7176 Y110.9640
 X74.6768 Y110.3985
 X73.6704 Y109.7925
 X72.6984 Y109.1460
 X71.7601 Y108.4582
 X70.8556 Y107.7292
 X69.9845 Y106.9582
 X69.1466 Y106.1452
 X68.3417 Y105.2902
 X67.5692 Y104.3925
 X66.8291 Y103.4527
 X66.1212 Y102.4695
 X65.4449 Y101.4427
 X64.8003 Y100.3725
 X64.1870 Y99.2587
 X63.5735 Y100.3725
 X62.9288 Y101.4427
 X62.2526 Y102.4695
 X61.5447 Y103.4527
 X60.8046 Y104.3925
 X60.0322 Y105.2902
 X59.2272 Y106.1452
 X58.3893 Y106.9582
 X57.5182 Y107.7292
 X56.6138 Y108.4582
 X55.6758 Y109.1460
 X54.7037 Y109.7925
 X53.6975 Y110.3985
 X52.6568 Y110.9640
 X51.5814 Y111.4890
 X50.4709 Y111.9742
 X49.4663 Y112.3672
 X48.4524 Y112.7242
 X49.4031 Y113.0227
 X50.3588 Y113.3017
 X51.3192 Y113.5620
 X52.2844 Y113.8035
 X53.2541 Y114.0255
 X54.2282 Y114.2287
 X55.2067 Y114.4125
 X56.1893 Y114.5767
 X57.1761 Y114.7230
 X58.1669 Y114.8490
 X59.1614 Y114.9547
 X60.1595 Y115.0425
 X61.1613 Y115.1115
 X62.1666 Y115.1587
 X63.1751 Y115.1895
 X64.1870 Y115.1985
G0 Z-25.0000
 X91.4440 Y81.1544
G1 Z-58.0000
 X91.4373 Y80.8872
 X91.4170 Y80.6235
 X91.3840 Y80.3636
 X91.3382 Y80.1078
 X91.2798 Y79.8565
 X91.2100 Y79.6099
 X91.1283 Y79.3683
 X91.0345 Y79.1324
 X90.9303 Y78.9021
 X90.8155 Y78.6780
 X90.6903 Y78.4602
 X90.5545 Y78.2492
 X90.4098 Y78.0453
 X90.2553 Y77.8488
 X90.0918 Y77.6601
 X89.9193 Y77.4793
 X89.7385 Y77.3070
 X89.5502 Y77.1435
 X89.3538 Y76.9890
 X89.1497 Y76.8439
 X88.9383 Y76.7085
 X88.7207 Y76.5831
 X88.4965 Y76.4680
 X88.2662 Y76.3639
 X88.0307 Y76.2705
 X87.7892 Y76.1886
 X87.5425 Y76.1186
 X87.2913 Y76.0603
 X87.0355 Y76.0146
 X86.7752 Y75.9815
 X86.5113 Y75.9613
 X86.2443 Y75.9545
 X85.9772 Y75.9613
 X85.7140 Y75.9815
 X85.4537 Y76.0146
 X85.1980 Y76.0603
 X84.9470 Y76.1186
 X84.7005 Y76.1886
 X84.4590 Y76.2705
 X84.2232 Y76.3639
 X83.9929 Y76.4680
 X83.7687 Y76.5831
 X83.5511 Y76.7085
 X83.3401 Y76.8439
 X83.1363 Y76.9890
 X82.9398 Y77.1435
 X82.7511 Y77.3070
 X82.5704 Y77.4793
 X82.3981 Y77.6601
 X82.2346 Y77.8488
 X82.0802 Y78.0453
 X81.9351 Y78.2492
 X81.7997 Y78.4602
 X81.6744 Y78.6780
 X81.5594 Y78.9021
 X81.4551 Y79.1324
 X81.3619 Y79.3683
 X81.2800 Y79.6099
 X81.2099 Y79.8565
 X81.1517 Y80.1078
 X81.1059 Y80.3636
 X81.0727 Y80.6235
 X81.0526 Y80.8872
 X81.0459 Y81.1544
 Y84.5484
 X81.0526 Y84.8157
 X81.0727 Y85.0792
 X81.1059 Y85.3395
 X81.1517 Y85.5952
 X81.2099 Y85.8465
 X81.2800 Y86.0925
 X81.3619 Y86.3340
 X81.4551 Y86.5702
 X81.5594 Y86.8005
 X81.6744 Y87.0247
 X81.7997 Y87.2422
 X81.9351 Y87.4530
 X82.0802 Y87.6570
 X82.2346 Y87.8535
 X82.3981 Y88.0425
 X82.5704 Y88.2225
 X82.7511 Y88.3950
 X82.9398 Y88.5585
 X83.1363 Y88.7130
 X83.3401 Y88.8585
 X83.5511 Y88.9935
 X83.7687 Y89.1187
 X83.9929 Y89.2335
 X84.2232 Y89.3377
 X84.4590 Y89.4307
 X84.7005 Y89.5132
 X84.9470 Y89.5830
 X85.1980 Y89.6415
 X85.4537 Y89.6872
 X85.7140 Y89.7202
 X85.9772 Y89.7405
 X86.2443 Y89.7472
 X86.5113 Y89.7405
 X86.7752 Y89.7202
 X87.0355 Y89.6872
 X87.2913 Y89.6415
 X87.5425 Y89.5830
 X87.7892 Y89.5132
 X88.0307 Y89.4307
 X88.2662 Y89.3377
 X88.4965 Y89.2335
 X88.7207 Y89.1187
 X88.9383 Y88.9935
 X89.1497 Y88.8585
 X89.3538 Y88.7130
 X89.5502 Y88.5585
 X89.7385 Y88.3950
 X89.9193 Y88.2225
 X90.0918 Y88.0425
 X90.2553 Y87.8535
 X90.4098 Y87.6570
 X90.5545 Y87.4530
 X90.6903 Y87.2422
 X90.8155 Y87.0247
 X90.9303 Y86.8005
 X91.0345 Y86.5702
 X91.1283 Y86.3340
 X91.2100 Y86.0925
 X91.2798 Y85.8465
 X91.3382 Y85.5952
 X91.3840 Y85.3395
 X91.4170 Y85.0792
 X91.4373 Y84.8157
 X91.4440 Y84.5484
 Y81.1544
G0 Z-25.0000
 X111.6962 Y62.3811
G1 Z-58.0000
 X111.5335 Y62.3730
 X111.3760 Y62.3489
 X111.2237 Y62.3098
 X111.0775 Y62.2564
 X110.9387 Y62.1895
 X110.8083 Y62.1100
 X110.6860 Y62.0186
 X110.5735 Y61.9161
 X110.4708 Y61.8033
 X110.3792 Y61.6812
 X110.2998 Y61.5502
 X110.2330 Y61.4115
 X110.1798 Y61.2657
 X110.1407 Y61.1136
 X110.1167 Y60.9560
 X110.1085 Y60.7935
 Y56.9945
 X109.8520 Y56.9478
 X109.5722 Y56.8991
 X109.2707 Y56.8488
 X108.9475 Y56.7972
 X108.6033 Y56.7450
 X108.2388 Y56.6925
 X107.8540 Y56.6403
 X107.4497 Y56.5887
 X107.0267 Y56.5383
 X106.5858 Y56.4895
 X106.1268 Y56.4427
 X105.6505 Y56.3985
 X105.1577 Y56.3573
 X104.6485 Y56.3196
 X104.1235 Y56.2857
 X103.5835 Y56.2564
 X103.0293 Y56.2318
 X102.4615 Y56.2125
 X101.8795 Y56.1990
 X101.2848 Y56.1918
 X100.6780 Y56.1912
 X100.0592 Y56.1978
 X99.4292 Y56.2121
 X98.7888 Y56.2344
 X98.1377 Y56.2653
 X97.4778 Y56.3052
 X96.8080 Y56.3546
 X96.1300 Y56.4139
 X95.4437 Y56.4836
 X94.7508 Y56.5642
 X94.0502 Y56.6562
 X93.3438 Y56.7598
 X94.2092 Y57.0114
 X95.0627 Y57.2907
 X95.9035 Y57.5974
 X96.7315 Y57.9309
 X97.5453 Y58.2908
 X98.3448 Y58.6763
 X99.1300 Y59.0870
 X99.8995 Y59.5224
 X100.6532 Y59.9820
 X101.3905 Y60.4653
 X102.1112 Y60.9716
 X102.8140 Y61.5004
 X103.4995 Y62.0514
 X104.1663 Y62.6239
 X104.8143 Y63.2173
 X105.4420 Y63.8312
 X106.0503 Y64.4649
 X106.6375 Y65.1182
 X107.2045 Y65.7903
 X107.7490 Y66.4806
 X108.2717 Y67.1886
 X108.7712 Y67.9142
 X109.2475 Y68.6564
 X109.7005 Y69.4148
 X110.1287 Y70.1889
 X110.5323 Y70.9782
 X110.9110 Y71.7820
 X111.2635 Y72.5999
 X111.5890 Y73.4315
 X111.8882 Y74.2761
 X112.1598 Y75.1332
 X112.4027 Y76.0021
 X112.6210 Y75.1441
 X112.8400 Y74.2683
 X113.0575 Y73.3789
 X113.2728 Y72.4798
 X113.4835 Y71.5750
 X113.6897 Y70.6685
 X113.8877 Y69.7642
 X114.0782 Y68.8662
 X114.2583 Y67.9782
 X114.4278 Y67.1044
 X114.5845 Y66.2488
 X114.7262 Y65.4153
 X114.8522 Y64.6077
 X114.9618 Y63.8302
 X115.0510 Y63.0867
 X115.1208 Y62.3811
 X111.6962
G0 Z-25.0000
 X99.8483 Y50.1484
G1 Z-58.0000
 X99.9672 Y50.1453
 X100.9463 Y50.1371
 X102.0876 Y50.1484
 X99.8403 Y50.0827
 X99.8483 Y50.1484
G0 Z-25.0000
 X86.8969 Y51.9780
G1 Z-58.0000
 X87.6098 Y51.7807
 X86.8970 Y51.9531
 X86.8969 Y51.9780
G0 Z-25.0000
 X64.1870 Y18.2661
G1 Z-58.0000
 X63.1431 Y18.2952
 X62.1063 Y18.3823
 X61.0777 Y18.5270
 X60.0580 Y18.7289
 X59.0482 Y18.9876
 X58.0488 Y19.3027
 X57.0611 Y19.6738
 X56.0854 Y20.1005
 X55.1230 Y20.5824
 X54.1745 Y21.1192
 X53.2409 Y21.7104
 X52.3229 Y22.3555
 X51.4215 Y23.0544
 X50.5373 Y23.8065
 X49.6713 Y24.6115
 X48.8243 Y25.4689
 X48.4133 Y25.9119
 X48.0092 Y26.3664
 X47.6120 Y26.8318
 X47.2218 Y27.3081
 X46.8389 Y27.7951
 X46.4631 Y28.2925
 X46.0949 Y28.8001
 X45.7341 Y29.3176
 X45.3809 Y29.8449
 X45.0355 Y30.3818
 X44.6979 Y30.9279
 X44.3682 Y31.4830
 X44.0467 Y32.0470
 X43.7332 Y32.6197
 X43.4281 Y33.2007
 X43.1313 Y33.7899
 X42.8432 Y34.3871
 X42.5636 Y34.9920
 X42.2927 Y35.6044
 X42.0307 Y36.2241
 X41.7776 Y36.8508
 X41.5335 Y37.4844
 X41.2988 Y38.1245
 X41.0731 Y38.7711
 X40.8569 Y39.4238
 X40.6502 Y40.0825
 X40.4532 Y40.7469
 X40.2658 Y41.4167
 X40.0884 Y42.0918
 X39.9207 Y42.7720
 X39.7632 Y43.4570
 X39.6159 Y44.1466
 X39.5751 Y44.3040
 X39.5197 Y44.4536
 X39.4507 Y44.5947
 X39.3689 Y44.7268
 X39.2755 Y44.8493
 X39.1712 Y44.9615
 X39.0569 Y45.0627
 X38.9339 Y45.1525
 X38.8027 Y45.2302
 X38.6645 Y45.2952
 X38.5203 Y45.3466
 X38.3709 Y45.3840
 X38.2174 Y45.4069
 X38.0607 Y45.4145
 X37.9014 Y45.4064
 X37.7411 Y45.3816
 X37.5837 Y45.3408
 X37.4342 Y45.2856
 X37.2930 Y45.2166
 X37.1608 Y45.1349
 X37.0384 Y45.0416
 X36.9263 Y44.9373
 X36.8249 Y44.8232
 X36.7351 Y44.7001
 X36.6575 Y44.5691
 X36.5926 Y44.4309
 X36.5412 Y44.2867
 X36.5036 Y44.1374
 X36.4806 Y43.9836
 X36.4731 Y43.8268
 X36.4812 Y43.6675
 X36.5060 Y43.5068
 X36.6648 Y42.7637
 X36.8348 Y42.0253
 X37.0158 Y41.2920
 X37.2078 Y40.5639
 X37.4106 Y39.8413
 X37.6239 Y39.1243
 X37.8478 Y38.4134
 X38.0822 Y37.7085
 X38.3267 Y37.0102
 X38.5816 Y36.3186
 X38.8464 Y35.6339
 X39.1212 Y34.9564
 X39.4059 Y34.2861
 X39.7002 Y33.6237
 X40.0042 Y32.9692
 X40.3175 Y32.3227
 X40.6402 Y31.6847
 X40.9721 Y31.0554
 X41.3131 Y30.4347
 X41.6631 Y29.8233
 X42.0220 Y29.2212
 X42.3896 Y28.6287
 X42.7659 Y28.0461
 X43.1505 Y27.4734
 X43.5435 Y26.9113
 X43.9449 Y26.3596
 X44.3543 Y25.8186
 X44.7719 Y25.2889
 X45.1973 Y24.7704
 X45.6304 Y24.2634
 X46.0712 Y23.7681
 X46.5197 Y23.2849
 X47.3181 Y22.4730
 X48.1319 Y21.7015
 X47.4185 Y22.0311
 X46.7117 Y22.3755
 X46.0115 Y22.7340
 X45.3181 Y23.1069
 X44.6320 Y23.4941
 X43.9531 Y23.8954
 X43.2818 Y24.3108
 X42.6185 Y24.7402
 X41.9628 Y25.1835
 X41.3155 Y25.6407
 X40.6766 Y26.1115
 X40.0461 Y26.5961
 X39.4246 Y27.0943
 X38.8121 Y27.6060
 X38.2088 Y28.1310
 X37.6148 Y28.6695
 X36.9719 Y29.2777
 X36.3445 Y29.8986
 X35.7324 Y30.5317
 X35.1358 Y31.1769
 X34.5551 Y31.8339
 X33.9901 Y32.5024
 X33.4412 Y33.1822
 X32.9083 Y33.8730
 X32.3918 Y34.5744
 X31.8914 Y35.2863
 X31.4077 Y36.0084
 X30.9406 Y36.7402
 X30.4903 Y37.4818
 X30.0569 Y38.2326
 X29.6404 Y38.9926
 X29.2412 Y39.7614
 X28.8593 Y40.5387
 X28.4947 Y41.3242
 X28.1477 Y42.1177
 X27.8184 Y42.9190
 X27.5071 Y43.7277
 X27.2135 Y44.5434
 X26.9382 Y45.3662
 X26.6810 Y46.1955
 X26.4422 Y47.0312
 X26.2218 Y47.8731
 X26.0201 Y48.7206
 X25.8371 Y49.5737
 X25.6731 Y50.4321
 X25.5279 Y51.2955
 X25.4020 Y52.1636
 X25.2953 Y53.0361
 X26.3423 Y53.0049
 X27.4305 Y52.9937
 X28.3590 Y53.0016
 X29.3120 Y53.0259
 X30.2878 Y53.0685
 X31.2848 Y53.1303
 X32.3017 Y53.2131
 X33.3367 Y53.3181
 X34.3882 Y53.4467
 X35.4548 Y53.6004
 X35.4879 Y52.0509
 X35.5653 Y50.5090
 X35.5830 Y50.3541
 X35.6150 Y50.2043
 X35.6607 Y50.0605
 X35.7191 Y49.9233
 X35.7897 Y49.7931
 X35.8715 Y49.6710
 X35.9639 Y49.5573
 X36.0663 Y49.4529
 X36.1776 Y49.3581
 X36.2972 Y49.2740
 X36.4244 Y49.2009
 X36.5585 Y49.1398
 X36.6986 Y49.0910
 X36.8439 Y49.0554
 X36.9938 Y49.0335
 X37.1476 Y49.0260
 X37.2531 Y49.0292
 X37.4146 Y49.0480
 X37.5703 Y49.0824
 X37.7197 Y49.1314
 X37.8618 Y49.1943
 X37.9959 Y49.2702
 X38.1212 Y49.3579
 X38.2373 Y49.4572
 X38.3431 Y49.5668
 X38.4381 Y49.6860
 X38.5212 Y49.8139
 X38.5921 Y49.9496
 X38.6498 Y50.0923
 X38.6937 Y50.2414
 X38.7228 Y50.3955
 X38.7365 Y50.5544
 X38.7343 Y50.7167
 X38.6873 Y51.5349
 X38.6537 Y52.3578
 X38.6334 Y53.1828
 X38.6265 Y54.0066
 X38.6276 Y54.2039
 X40.0466 Y54.5471
 X41.4768 Y54.9429
 X42.9152 Y55.3946
 X44.3586 Y55.9053
 X45.3995 Y56.0101
 X46.4316 Y56.1545
 X47.4539 Y56.3379
 X48.4657 Y56.5602
 X49.4658 Y56.8206
 X50.4537 Y57.1191
 X51.4281 Y57.4552
 X52.3884 Y57.8286
 X53.3336 Y58.2388
 X54.2626 Y58.6854
 X55.1750 Y59.1683
 X56.0695 Y59.6869
 X56.9454 Y60.2409
 X57.8017 Y60.8299
 X58.6376 Y61.4535
 X59.4522 Y62.1115
 X62.7007 Y53.4496
 X62.8042 Y53.2272
 X62.9379 Y53.0269
 X63.0986 Y52.8510
 X63.2829 Y52.7017
 X63.4873 Y52.5816
 X63.7083 Y52.4928
 X63.9427 Y52.4379
 X64.1870 Y52.4190
 X64.4312 Y52.4379
 X64.6655 Y52.4928
 X64.8866 Y52.5816
 X65.0908 Y52.7017
 X65.2750 Y52.8510
 X65.4357 Y53.0269
 X65.5696 Y53.2272
 X65.6731 Y53.4496
 X68.9214 Y62.1115
 X69.7361 Y61.4535
 X70.5720 Y60.8299
 X71.4284 Y60.2409
 X72.3044 Y59.6870
 X73.1990 Y59.1684
 X74.1113 Y58.6857
 X75.0405 Y58.2391
 X75.9857 Y57.8290
 X76.9460 Y57.4557
 X77.9203 Y57.1196
 X78.9079 Y56.8212
 X79.9080 Y56.5605
 X80.9195 Y56.3384
 X81.9416 Y56.1548
 X82.9734 Y56.0103
 X84.0140 Y55.9053
 X85.4583 Y55.3946
 X86.8967 Y54.9429
 X88.3270 Y54.5471
 X89.7460 Y54.2039
 X89.7467 Y54.0066
 X89.7385 Y53.0856
 X89.7138 Y52.1701
 X89.6725 Y51.2607
 X89.6148 Y50.3575
 X89.5413 Y49.4609
 X89.4520 Y48.5709
 X89.3470 Y47.6882
 X89.2270 Y46.8127
 X89.0913 Y45.9449
 X88.9405 Y45.0850
 X88.7755 Y44.2334
 X88.5962 Y43.3902
 X88.4020 Y42.5559
 X88.1935 Y41.7304
 X87.9715 Y40.9145
 X87.7353 Y40.1082
 X87.4855 Y39.3117
 X87.2230 Y38.5254
 X86.9462 Y37.7496
 X86.6575 Y36.9846
 X86.3560 Y36.2305
 X86.0410 Y35.4879
 X85.7148 Y34.7568
 X85.3758 Y34.0377
 X85.0247 Y33.3306
 X84.6625 Y32.6361
 X84.2884 Y31.9543
 X83.9031 Y31.2855
 X83.5065 Y30.6299
 X83.0991 Y29.9880
 X82.6809 Y29.3600
 X82.2522 Y28.7462
 X81.8133 Y28.1467
 X81.3641 Y27.5619
 X80.9050 Y26.9922
 X80.4363 Y26.4378
 X79.9579 Y25.8988
 X79.4703 Y25.3758
 X78.9735 Y24.8689
 X78.4680 Y24.3783
 X77.9537 Y23.9045
 X77.4308 Y23.4477
 X76.8997 Y23.0082
 X76.3605 Y22.5861
 X75.8133 Y22.1820
 X75.2585 Y21.7959
 X74.6963 Y21.4283
 X74.1266 Y21.0792
 X73.5499 Y20.7492
 X72.9663 Y20.4384
 X72.3761 Y20.1471
 X71.7794 Y19.8756
 X71.1764 Y19.6242
 X70.5673 Y19.3932
 X69.9524 Y19.1829
 X69.3317 Y18.9936
 X68.7056 Y18.8253
 X68.0743 Y18.6786
 X67.4379 Y18.5538
 X66.7966 Y18.4509
 X66.1506 Y18.3705
 X65.5002 Y18.3127
 X64.8456 Y18.2778
 X64.1870 Y18.2661
G0 Z-25.0000
 X92.0152 Y34.1272
G1 Z-58.0000
 X92.2260 Y34.6477
 X92.5605 Y35.5235
 X92.8782 Y36.4071
 X93.1809 Y37.3007
 X93.4669 Y38.2040
 X93.7363 Y39.1143
 X93.9899 Y40.0336
 X94.2268 Y40.9614
 X94.4466 Y41.8954
 X94.6504 Y42.8363
 X94.8375 Y43.7849
 X95.0077 Y44.7387
 X95.1622 Y45.7007
 X95.2985 Y46.6683
 X95.4186 Y47.6402
 X95.5215 Y48.6194
 X95.6069 Y49.6022
 X95.6757 Y50.5905
 X95.7263 Y51.5829
 X95.7602 Y52.5781
 X95.7226 Y50.3096
 X93.6088 Y50.6141
 X94.7199 Y50.4783
 X95.8126 Y50.3676
 X96.8854 Y50.2805
 X97.9360 Y50.2155
 X98.9641 Y50.1710
 X99.8483 Y50.1484
 X100.1405 Y52.5420
 X100.0238 Y51.7382
 X99.8890 Y50.9381
 X99.7366 Y50.1419
 X99.5670 Y49.3512
 X99.3801 Y48.5660
 X99.1757 Y47.7854
 X98.9546 Y47.0110
 X98.7167 Y46.2440
 X98.4609 Y45.4813
 X98.1888 Y44.7243
 X97.9005 Y43.9754
 X97.5957 Y43.2337
 X97.2740 Y42.4985
 X96.9364 Y41.7710
 X96.5819 Y41.0505
 X96.2117 Y40.3373
 X95.8263 Y39.6335
 X95.4244 Y38.9376
 X95.0075 Y38.2504
 X94.5747 Y37.5726
 X94.1262 Y36.9031
 X93.6627 Y36.2435
 X93.1840 Y35.5937
 X92.6895 Y34.9532
 X92.1800 Y34.3223
 X92.0152 Y34.1272
G0 Z-25.0000
 X26.3846 Y100.7820
G1 Z-58.0000
 X27.1399 Y100.4977
 X27.9146 Y100.2307
 X28.7084 Y99.9802
 X29.5214 Y99.7462
 X30.3530 Y99.5287
 X31.2035 Y99.3285
 X32.0724 Y99.1447
 X32.9598 Y98.9775
 X32.4401 Y98.6692
 X31.9314 Y98.3452
 X31.4340 Y98.0055
 X30.9485 Y97.6492
 X30.4749 Y97.2787
 X30.0138 Y96.8932
 X29.5656 Y96.4927
 X29.1305 Y96.0787
 X28.7088 Y95.6512
 X28.3013 Y95.2095
 X27.9077 Y94.7557
 X27.5289 Y94.2885
 X27.1650 Y93.8092
 X26.8164 Y93.3187
 X26.4836 Y92.8155
 X26.1668 Y92.3017
 X25.8665 Y91.7775
 X25.5828 Y91.2420
 X25.3163 Y90.6967
 X25.0673 Y90.1417
 X24.8361 Y89.5777
 X24.6231 Y89.0040
 X24.4287 Y88.4220
 X24.2533 Y87.8317
 X24.0971 Y87.2332
 X23.9607 Y86.6272
 X23.8442 Y86.0137
 X23.7480 Y85.3935
 X23.6726 Y84.7669
 X23.6183 Y84.1341
 X23.5855 Y83.4954
 X23.5745 Y82.8514
 X23.5805 Y82.3733
 X23.5986 Y81.8980
 X23.6286 Y81.4260
 X23.6704 Y80.9570
 X23.7237 Y80.4915
 X23.7887 Y80.0295
 X23.8648 Y79.5713
 X23.9521 Y79.1167
 X24.0504 Y78.6662
 X24.1595 Y78.2198
 X24.2796 Y77.7777
 X24.4101 Y77.3399
 X24.5511 Y76.9068
 X24.7022 Y76.4784
 X24.8636 Y76.0546
 X25.0350 Y75.6360
 X25.2161 Y75.2226
 X25.4070 Y74.8144
 X25.6075 Y74.4116
 X25.8173 Y74.0144
 X26.0363 Y73.6230
 X26.2646 Y73.2374
 X26.5018 Y72.8578
 X26.7478 Y72.4845
 X27.0024 Y72.1174
 X27.2656 Y71.7569
 X27.5371 Y71.4028
 X27.8169 Y71.0556
 X28.1047 Y70.7154
 X28.4005 Y70.3821
 X28.7040 Y70.0560
 X29.0153 Y69.7373
 X29.3340 Y69.4260
 X29.6601 Y69.1225
 X29.9933 Y68.8267
 X30.3336 Y68.5389
 X30.6808 Y68.2591
 X31.0348 Y67.9876
 X31.3954 Y67.7244
 X31.7625 Y67.4698
 X32.1358 Y67.2237
 X32.5155 Y66.9866
 X32.9010 Y66.7584
 X33.2924 Y66.5393
 X33.6896 Y66.3295
 X34.0923 Y66.1290
 X34.5006 Y65.9382
 X34.9141 Y65.7570
 X35.3326 Y65.5855
 X35.7563 Y65.4242
 X36.1847 Y65.2731
 X36.6180 Y65.1321
 X37.0556 Y65.0016
 X37.4978 Y64.8816
 X37.9442 Y64.7724
 X38.3947 Y64.6741
 X38.8492 Y64.5868
 X39.3075 Y64.5106
 X39.7694 Y64.4457
 X40.2350 Y64.3924
 X40.7039 Y64.3506
 X41.1761 Y64.3206
 X41.6513 Y64.3025
 X42.1294 Y64.2964
 X42.6075 Y64.3025
 X43.0827 Y64.3206
 X43.5549 Y64.3506
 X44.0237 Y64.3924
 X44.4893 Y64.4457
 X44.9513 Y64.5106
 X45.4096 Y64.5868
 X45.8640 Y64.6741
 X46.3146 Y64.7724
 X46.7610 Y64.8816
 X47.2032 Y65.0016
 X47.6409 Y65.1321
 X48.0740 Y65.2731
 X48.5025 Y65.4242
 X48.9261 Y65.5855
 X49.3447 Y65.7570
 X49.7583 Y65.9382
 X50.1663 Y66.1290
 X50.5692 Y66.3295
 X50.9663 Y66.5393
 X51.3577 Y66.7584
 X51.7433 Y66.9866
 X52.1228 Y67.2237
 X52.4963 Y67.4698
 X52.8633 Y67.7244
 X53.2238 Y67.9876
 X53.5778 Y68.2591
 X53.9250 Y68.5389
 X54.2653 Y68.8267
 X54.5985 Y69.1225
 X54.9247 Y69.4260
 X55.2433 Y69.7373
 X55.5545 Y70.0560
 X55.8581 Y70.3821
 X56.1539 Y70.7154
 X56.4418 Y71.0556
 X56.7216 Y71.4028
 X56.9931 Y71.7569
 X57.2562 Y72.1174
 X57.5109 Y72.4845
 X57.7569 Y72.8578
 X57.9941 Y73.2374
 X58.2222 Y73.6230
 X58.4414 Y74.0144
 X58.6512 Y74.4116
 X58.8516 Y74.8144
 X59.0425 Y75.2226
 X59.2236 Y75.6360
 X59.3950 Y76.0546
 X59.5563 Y76.4784
 X59.7076 Y76.9068
 X59.8485 Y77.3399
 X59.9789 Y77.7777
 X60.0990 Y78.2198
 X60.2081 Y78.6662
 X60.3065 Y79.1167
 X60.3938 Y79.5713
 X60.4699 Y80.0295
 X60.5348 Y80.4915
 X60.5881 Y80.9570
 X60.6299 Y81.4260
 X60.6599 Y81.8980
 X60.6780 Y82.3733
 X60.6842 Y82.8514
 X60.6780 Y83.3296
 X60.6599 Y83.8048
 X60.6299 Y84.2769
 X60.5881 Y84.7458
 X60.5348 Y85.2112
 X60.4699 Y85.6732
 X60.3938 Y86.1315
 X60.3065 Y86.5860
 X60.2081 Y87.0367
 X60.0990 Y87.4830
 X59.9789 Y87.9255
 X59.8485 Y88.3627
 X59.7076 Y88.7962
 X59.5563 Y89.2245
 X59.3950 Y89.6482
 X59.2236 Y90.0667
 X59.0425 Y90.4800
 X58.8516 Y90.8887
 X58.6512 Y91.2915
 X58.4414 Y91.6882
 X58.2222 Y92.0797
 X57.9941 Y92.4652
 X57.7569 Y92.8447
 X57.5109 Y93.2182
 X57.2562 Y93.5850
 X56.9931 Y93.9457
 X56.7216 Y94.2997
 X56.4418 Y94.6470
 X56.1539 Y94.9875
 X55.8581 Y95.3205
 X55.5545 Y95.6467
 X55.2433 Y95.9655
 X54.9247 Y96.2767
 X54.5985 Y96.5805
 X54.2653 Y96.8760
 X53.9250 Y97.1640
 X53.5778 Y97.4437
 X53.2238 Y97.7152
 X52.8633 Y97.9785
 X52.4963 Y98.2327
 X52.1228 Y98.4787
 X51.7433 Y98.7157
 X51.3577 Y98.9445
 X50.9663 Y99.1635
 X50.5692 Y99.3735
 X50.1663 Y99.5737
 X49.7583 Y99.7642
 X49.3447 Y99.9457
 X48.9261 Y100.1167
 X48.5025 Y100.2787
 X48.0740 Y100.4295
 X47.6409 Y100.5705
 X47.2032 Y100.7010
 X46.7610 Y100.8210
 X46.3146 Y100.9305
 X45.8640 Y101.0287
 X45.4096 Y101.1157
 X44.9513 Y101.1922
 X44.4893 Y101.2567
 X44.0237 Y101.3100
 X43.5549 Y101.3520
 X43.0827 Y101.3820
 X42.6075 Y101.4000
 X42.1294 Y101.4060
 X41.1536 Y101.4142
 X40.1942 Y101.4375
 X39.2513 Y101.4765
 X38.3248 Y101.5312
 X37.4151 Y101.6010
 X36.5222 Y101.6865
 X35.6465 Y101.7870
 X34.7878 Y101.9032
 X33.9466 Y102.0345
 X33.1227 Y102.1815
 X32.3165 Y102.3427
 X31.5282 Y102.5197
 X30.7578 Y102.7117
 X30.0057 Y102.9187
 X29.2715 Y103.1407
 X28.5560 Y103.3770
 X27.8589 Y103.6282
 X27.1806 Y103.8945
 X26.5211 Y104.1757
 X25.8807 Y104.4712
 X25.2595 Y104.7817
 X24.6576 Y105.1065
 X24.0752 Y105.4462
 X23.5124 Y105.8002
 X22.9695 Y106.1685
 X22.4465 Y106.5510
 X21.9435 Y106.9477
 X21.4608 Y107.3587
 X20.9987 Y107.7847
 X20.5568 Y108.2242
 X20.1360 Y108.6772
 X19.7359 Y109.1452
 X19.4631 Y109.4872
 X19.2065 Y109.8300
 X18.9654 Y110.1712
 X18.7396 Y110.5110
 X18.5284 Y110.8485
 X18.3312 Y111.1830
 X18.1478 Y111.5145
 X17.9776 Y111.8415
 X17.8201 Y112.1640
 X17.6747 Y112.4812
 X17.5410 Y112.7925
 X17.4186 Y113.0970
 X17.3069 Y113.3940
 X17.2054 Y113.6827
 X17.1136 Y113.9632
 X17.0310 Y114.2340
 X17.8312 Y113.9835
 X18.6465 Y113.7555
 X19.4761 Y113.5507
 X20.3195 Y113.3655
 X21.1761 Y113.1990
 X22.0453 Y113.0505
 X22.9263 Y112.9177
 X23.8185 Y112.7985
 X24.7214 Y112.6920
 X25.6342 Y112.5960
 X26.5562 Y112.5097
 X27.4868 Y112.4310
 X28.4256 Y112.3582
 X29.3717 Y112.2900
 X30.3245 Y112.2247
 X31.2833 Y112.1602
 X31.8599 Y112.1220
 X32.4368 Y112.0830
 X33.0140 Y112.0432
 X33.5915 Y112.0027
 X34.1690 Y111.9607
 X34.7462 Y111.9165
 X35.3231 Y111.8707
 X35.8997 Y111.8227
 X36.4756 Y111.7717
 X37.0507 Y111.7177
 X37.6249 Y111.6600
 X38.1981 Y111.5992
 X38.7699 Y111.5340
 X39.3405 Y111.4642
 X39.9095 Y111.3900
 X40.4768 Y111.3105
 X41.0422 Y111.2250
 X41.6058 Y111.1342
 X42.1671 Y111.0375
 X42.7260 Y110.9347
 X43.2827 Y110.8245
 X43.8367 Y110.7075
 X44.3878 Y110.5830
 X44.9361 Y110.4502
 X45.4814 Y110.3100
 X46.0235 Y110.1607
 X46.5620 Y110.0032
 X47.0972 Y109.8360
 X47.6286 Y109.6597
 X48.1562 Y109.4737
 X48.6799 Y109.2772
 X49.1993 Y109.0702
 X49.7144 Y108.8527
 X50.2253 Y108.6240
 X50.7314 Y108.3840
 X51.2328 Y108.1320
 X51.7293 Y107.8680
 X52.2207 Y107.5912
 X52.7069 Y107.3017
 X53.1878 Y106.9987
 X53.6631 Y106.6830
 X54.1329 Y106.3522
 X54.5967 Y106.0080
 X55.0545 Y105.6495
 X55.5062 Y105.2760
 X55.9517 Y104.8875
 X56.3907 Y104.4825
 X56.8231 Y104.0625
 X57.2487 Y103.6260
 X57.6676 Y103.1730
 X58.0793 Y102.7035
 X58.4838 Y102.2167
 X58.8809 Y101.7120
 X59.2706 Y101.1892
 X59.6526 Y100.6485
 X60.0268 Y100.0897
 X60.3930 Y99.5115
 X60.7511 Y98.9145
 X61.1008 Y98.2972
 X61.4422 Y97.6605
 X61.7750 Y97.0035
 X62.0991 Y96.3255
 X62.4143 Y95.6272
 X62.7203 Y94.9072
 X62.8302 Y94.6890
 X62.9682 Y94.4955
 X63.1308 Y94.3275
 X63.3146 Y94.1865
 X63.5157 Y94.0740
 X63.7306 Y93.9922
 X63.9560 Y93.9412
 X64.1880 Y93.9247
 X64.4918 Y93.9547
 X64.7926 Y94.0455
 X64.9401 Y94.1152
 X65.0772 Y94.1977
 X65.2033 Y94.2922
 X65.3181 Y94.3980
 X65.4210 Y94.5127
 X65.5118 Y94.6372
 X65.5897 Y94.7692
 X65.6546 Y94.9072
 X65.9607 Y95.6272
 X66.2758 Y96.3255
 X66.5999 Y97.0035
 X66.9326 Y97.6605
 X67.2740 Y98.2972
 X67.6238 Y98.9145
 X67.9818 Y99.5115
 X68.3481 Y100.0897
 X68.7222 Y100.6485
 X69.1042 Y101.1892
 X69.4938 Y101.7120
 X69.8910 Y102.2167
 X70.2954 Y102.7035
 X70.7072 Y103.1730
 X71.1259 Y103.6260
 X71.5516 Y104.0625
 X71.9840 Y104.4825
 X72.4230 Y104.8875
 X72.8684 Y105.2760
 X73.3201 Y105.6495
 X73.7781 Y106.0080
 X74.2418 Y106.3522
 X74.7114 Y106.6830
 X75.1868 Y106.9987
 X75.6676 Y107.3017
 X76.1538 Y107.5912
 X76.6453 Y107.8680
 X77.1418 Y108.1320
 X77.6431 Y108.3840
 X78.1493 Y108.6240
 X78.6600 Y108.8527
 X79.1752 Y109.0702
 X79.6946 Y109.2772
 X80.2182 Y109.4737
 X80.7458 Y109.6597
 X81.2773 Y109.8360
 X81.8124 Y110.0032
 X82.3511 Y110.1607
 X82.8930 Y110.3100
 X83.4382 Y110.4502
 X83.9865 Y110.5830
 X84.5377 Y110.7075
 X85.0915 Y110.8245
 X85.6480 Y110.9347
 X86.2075 Y111.0375
 X86.7685 Y111.1342
 X87.3317 Y111.2250
 X87.8972 Y111.3105
 X88.4650 Y111.3900
 X89.0335 Y111.4642
 X89.6042 Y111.5340
 X90.1757 Y111.5992
 X90.7488 Y111.6600
 X91.3233 Y111.7177
 X91.8985 Y111.7717
 X92.4745 Y111.8227
 X93.0505 Y111.8707
 X93.6273 Y111.9165
 X94.2047 Y111.9607
 X94.7823 Y112.0027
 X95.3598 Y112.0432
 X95.9373 Y112.0830
 X96.5140 Y112.1220
 X97.0900 Y112.1602
 X98.0493 Y112.2247
 X99.0018 Y112.2900
 X99.9483 Y112.3582
 X100.8873 Y112.4310
 X101.8180 Y112.5097
 X102.7398 Y112.5960
 X103.6525 Y112.6920
 X104.5555 Y112.7985
 X105.4480 Y112.9177
 X106.3285 Y113.0505
 X107.1978 Y113.1990
 X108.0542 Y113.3655
 X108.8980 Y113.5507
 X109.7275 Y113.7555
 X110.5427 Y113.9835
 X111.3422 Y114.2340
 X111.2605 Y113.9632
 X111.1683 Y113.6827
 X111.0670 Y113.3940
 X110.9560 Y113.0970
 X110.8330 Y112.7925
 X110.6995 Y112.4812
 X110.5548 Y112.1640
 X110.3972 Y111.8415
 X110.2270 Y111.5137
 X110.0433 Y111.1830
 X109.8467 Y110.8477
 X109.6353 Y110.5102
 X109.4095 Y110.1705
 X109.1687 Y109.8292
 X108.9115 Y109.4872
 X108.6393 Y109.1452
 X108.2388 Y108.6780
 X107.8180 Y108.2242
 X107.3762 Y107.7847
 X106.9135 Y107.3595
 X106.4312 Y106.9485
 X105.9280 Y106.5510
 X105.4052 Y106.1685
 X104.8623 Y105.8002
 X104.2990 Y105.4470
 X103.7170 Y105.1072
 X103.1148 Y104.7825
 X102.4938 Y104.4720
 X101.8533 Y104.1765
 X101.1940 Y103.8952
 X100.5152 Y103.6290
 X99.8185 Y103.3777
 X99.1030 Y103.1407
 X98.3688 Y102.9187
 X97.6165 Y102.7117
 X96.8462 Y102.5205
 X96.0580 Y102.3435
 X95.2518 Y102.1815
 X94.4282 Y102.0352
 X93.5867 Y101.9032
 X92.7280 Y101.7870
 X91.8528 Y101.6865
 X90.9595 Y101.6010
 X90.0498 Y101.5312
 X89.1235 Y101.4765
 X88.1808 Y101.4375
 X87.2215 Y101.4142
 X86.2458 Y101.4060
 X85.7672 Y101.4000
 X85.2917 Y101.3820
 X84.8199 Y101.3520
 X84.3510 Y101.3100
 X83.8854 Y101.2567
 X83.4234 Y101.1922
 X82.9650 Y101.1157
 X82.5105 Y101.0287
 X82.0600 Y100.9305
 X81.6135 Y100.8210
 X81.1713 Y100.7010
 X80.7336 Y100.5705
 X80.3004 Y100.4295
 X79.8719 Y100.2787
 X79.4484 Y100.1175
 X79.0297 Y99.9457
 X78.6162 Y99.7650
 X78.2079 Y99.5737
 X77.8052 Y99.3735
 X77.4081 Y99.1635
 X77.0165 Y98.9445
 X76.6310 Y98.7165
 X76.2515 Y98.4787
 X75.8781 Y98.2335
 X75.5111 Y97.9785
 X75.1506 Y97.7152
 X74.7965 Y97.4437
 X74.4493 Y97.1640
 X74.1089 Y96.8760
 X73.7757 Y96.5805
 X73.4497 Y96.2767
 X73.1310 Y95.9655
 X72.8198 Y95.6467
 X72.5162 Y95.3212
 X72.2205 Y94.9875
 X71.9327 Y94.6477
 X71.6529 Y94.3005
 X71.3813 Y93.9465
 X71.1183 Y93.5857
 X70.8636 Y93.2182
 X70.6176 Y92.8455
 X70.3804 Y92.4660
 X70.1523 Y92.0805
 X69.9333 Y91.6890
 X69.7233 Y91.2915
 X69.5229 Y90.8887
 X69.3320 Y90.4807
 X69.1509 Y90.0675
 X68.9795 Y89.6482
 X68.8182 Y89.2245
 X68.6669 Y88.7962
 X68.5260 Y88.3635
 X68.3956 Y87.9255
 X68.2756 Y87.4830
 X68.1665 Y87.0367
 X68.0682 Y86.5860
 X67.9809 Y86.1315
 X67.9047 Y85.6732
 X67.8399 Y85.2112
 X67.7865 Y84.7460
 X67.7448 Y84.2770
 X67.7147 Y83.8048
 X67.6967 Y83.3296
 X67.6905 Y82.8514
 X67.6967 Y82.3733
 X67.7147 Y81.8980
 X67.7448 Y81.4260
 X67.7865 Y80.9570
 X67.8399 Y80.4915
 X67.9047 Y80.0295
 X67.9809 Y79.5713
 X68.0682 Y79.1167
 X68.1665 Y78.6662
 X68.2756 Y78.2198
 X68.3956 Y77.7777
 X68.5260 Y77.3399
 X68.6669 Y76.9068
 X68.8182 Y76.4784
 X68.9795 Y76.0546
 X69.1509 Y75.6360
 X69.3320 Y75.2226
 X69.5229 Y74.8144
 X69.7233 Y74.4116
 X69.9333 Y74.0144
 X70.1523 Y73.6230
 X70.3804 Y73.2374
 X70.6176 Y72.8578
 X70.8636 Y72.4845
 X71.1183 Y72.1174
 X71.3813 Y71.7569
 X71.6529 Y71.4028
 X71.9327 Y71.0556
 X72.2205 Y70.7154
 X72.5162 Y70.3821
 X72.8198 Y70.0560
 X73.1310 Y69.7373
 X73.4497 Y69.4260
 X73.7757 Y69.1225
 X74.1089 Y68.8267
 X74.4493 Y68.5389
 X74.7965 Y68.2591
 X75.1506 Y67.9876
 X75.5111 Y67.7244
 X75.8781 Y67.4698
 X76.2515 Y67.2237
 X76.6310 Y66.9866
 X77.0165 Y66.7584
 X77.4081 Y66.5393
 X77.8052 Y66.3295
 X78.2079 Y66.1290
 X78.6162 Y65.9382
 X79.0297 Y65.7570
 X79.4484 Y65.5855
 X79.8719 Y65.4242
 X80.3004 Y65.2731
 X80.7336 Y65.1321
 X81.1713 Y65.0016
 X81.6135 Y64.8816
 X82.0600 Y64.7724
 X82.5105 Y64.6741
 X82.9650 Y64.5868
 X83.4234 Y64.5106
 X83.8854 Y64.4457
 X84.3510 Y64.3924
 X84.8199 Y64.3506
 X85.2917 Y64.3206
 X85.7672 Y64.3025
 X86.2458 Y64.2964
 X86.7235 Y64.3025
 X87.1990 Y64.3206
 X87.6707 Y64.3506
 X88.1402 Y64.3924
 X88.6052 Y64.4457
 X89.0673 Y64.5106
 X89.5255 Y64.5868
 X89.9800 Y64.6741
 X90.4308 Y64.7724
 X90.8770 Y64.8816
 X91.3195 Y65.0016
 X91.7567 Y65.1321
 X92.1903 Y65.2731
 X92.6185 Y65.4242
 X93.0422 Y65.5855
 X93.4608 Y65.7570
 X93.8748 Y65.9382
 X94.2827 Y66.1290
 X94.6855 Y66.3295
 X95.0823 Y66.5393
 X95.4737 Y66.7584
 X95.8593 Y66.9866
 X96.2387 Y67.2237
 X96.6123 Y67.4698
 X96.9797 Y67.7244
 X97.3398 Y67.9876
 X97.6937 Y68.2591
 X98.0410 Y68.5389
 X98.3815 Y68.8267
 X98.7145 Y69.1225
 X99.0408 Y69.4260
 X99.3595 Y69.7373
 X99.6707 Y70.0560
 X99.9745 Y70.3821
 X100.2700 Y70.7154
 X100.5580 Y71.0556
 X100.8377 Y71.4028
 X101.1093 Y71.7569
 X101.3725 Y72.1174
 X101.6268 Y72.4845
 X101.8735 Y72.8578
 X102.1105 Y73.2374
 X102.3385 Y73.6230
 X102.5575 Y74.0144
 X102.7675 Y74.4116
 X102.9677 Y74.8144
 X103.1590 Y75.2226
 X103.3398 Y75.6360
 X103.5115 Y76.0546
 X103.6728 Y76.4784
 X103.8235 Y76.9068
 X103.9645 Y77.3399
 X104.0950 Y77.7777
 X104.2150 Y78.2198
 X104.3245 Y78.6662
 X104.4228 Y79.1167
 X104.5097 Y79.5713
 X104.5862 Y80.0295
 X104.6507 Y80.4915
 X104.7047 Y80.9570
 X104.7460 Y81.4260
 X104.7760 Y81.8980
 X104.7940 Y82.3733
 X104.8007 Y82.8514
 X104.7715 Y83.9098
 X104.6838 Y84.9566
 X104.5383 Y85.9912
 X104.3342 Y87.0120
 X104.0733 Y88.0192
 X103.7545 Y89.0107
 X103.3787 Y89.9865
 X102.9460 Y90.9457
 X102.8680 Y91.0882
 X102.7773 Y91.2195
 X102.6760 Y91.3387
 X102.5635 Y91.4467
 X102.4435 Y91.5420
 X102.3145 Y91.6252
 X102.1788 Y91.6957
 X102.0370 Y91.7520
 X101.8915 Y91.7955
 X101.7415 Y91.8240
 X101.5885 Y91.8382
 X101.4347
 X101.2802 Y91.8225
 X101.1265 Y91.7917
 X100.9743 Y91.7445
 X100.8243 Y91.6807
 X100.6818 Y91.6027
 X100.5505 Y91.5120
 X100.4313 Y91.4100
 X100.3233 Y91.2982
 X100.2272 Y91.1775
 X100.1448 Y91.0485
 X100.0743 Y90.9135
 X100.0180 Y90.7717
 X99.9753 Y90.6255
 X99.9460 Y90.4755
 X99.9318 Y90.3232
 X99.9325 Y90.1695
 X99.9475 Y90.0150
 X99.9790 Y89.8605
 X100.0263 Y89.7082
 X100.0892 Y89.5590
 X100.4477 Y88.7647
 X100.7597 Y87.9562
 X101.0237 Y87.1350
 X101.2398 Y86.3002
 X101.4085 Y85.4542
 X101.5285 Y84.5967
 X101.6013 Y83.7289
 X101.6252 Y82.8514
 X101.6058 Y82.0611
 X101.5457 Y81.2811
 X101.4483 Y80.5124
 X101.3125 Y79.7559
 X101.1407 Y79.0124
 X100.9330 Y78.2830
 X100.6908 Y77.5689
 X100.4147 Y76.8708
 X100.1065 Y76.1896
 X99.7660 Y75.5266
 X99.3955 Y74.8825
 X98.9950 Y74.2584
 X98.5660 Y73.6554
 X98.1093 Y73.0741
 X97.6248 Y72.5159
 X97.1155 Y71.9814
 X96.5815 Y71.4718
 X96.0228 Y70.9881
 X95.4415 Y70.5309
 X94.8385 Y70.1018
 X94.2145 Y69.7014
 X93.5703 Y69.3306
 X92.9073 Y68.9904
 X92.2263 Y68.6820
 X91.5280 Y68.4063
 X90.8140 Y68.1641
 X90.0842 Y67.9565
 X89.3410 Y67.7845
 X88.5842 Y67.6490
 X87.8155 Y67.5510
 X87.0355 Y67.4915
 X86.2458 Y67.4715
 X85.4553 Y67.4915
 X84.6753 Y67.5510
 X83.9064 Y67.6490
 X83.1499 Y67.7845
 X82.4064 Y67.9565
 X81.6772 Y68.1641
 X80.9629 Y68.4063
 X80.2648 Y68.6820
 X79.5837 Y68.9904
 X78.9207 Y69.3306
 X78.2766 Y69.7014
 X77.6525 Y70.1018
 X77.0494 Y70.5309
 X76.4682 Y70.9881
 X75.9099 Y71.4718
 X75.3754 Y71.9814
 X74.8658 Y72.5159
 X74.3821 Y73.0741
 X73.9251 Y73.6554
 X73.4959 Y74.2584
 X73.0954 Y74.8825
 X72.7246 Y75.5266
 X72.3846 Y76.1896
 X72.0761 Y76.8708
 X71.8004 Y77.5689
 X71.5582 Y78.2830
 X71.3506 Y79.0124
 X71.1786 Y79.7559
 X71.0431 Y80.5124
 X70.9451 Y81.2811
 X70.8856 Y82.0611
 X70.8655 Y82.8514
 X70.8856 Y83.6417
 X70.9451 Y84.4218
 X71.0431 Y85.1910
 X71.1786 Y85.9470
 X71.3506 Y86.6910
 X71.5582 Y87.4200
 X71.8004 Y88.1347
 X72.0761 Y88.8322
 X72.3846 Y89.5140
 X72.7246 Y90.1770
 X73.0954 Y90.8212
 X73.4959 Y91.4452
 X73.9251 Y92.0482
 X74.3821 Y92.6295
 X74.8658 Y93.1875
 X75.3754 Y93.7222
 X75.9099 Y94.2315
 X76.4682 Y94.7152
 X77.0494 Y95.1727
 X77.6525 Y95.6017
 X78.2766 Y96.0022
 X78.9207 Y96.3727
 X79.5837 Y96.7132
 X80.2648 Y97.0215
 X80.9629 Y97.2975
 X81.6772 Y97.5397
 X82.4064 Y97.7475
 X83.1499 Y97.9192
 X83.9064 Y98.0550
 X84.6753 Y98.1525
 X85.4553 Y98.2125
 X86.2458 Y98.2320
 X86.8735 Y98.2200
 X87.4967 Y98.1825
 X88.1155 Y98.1210
 X88.7283 Y98.0347
 X89.3358 Y97.9245
 X89.9357 Y97.7895
 X90.5298 Y97.6312
 X91.1155 Y97.4490
 X91.6937 Y97.2435
 X92.2630 Y97.0140
 X92.8240 Y96.7612
 X93.3752 Y96.4860
 X93.9160 Y96.1875
 X94.4470 Y95.8665
 X94.9668 Y95.5230
 X95.4753 Y95.1562
 X95.6095 Y95.0655
 X95.7498 Y94.9897
 X95.8953 Y94.9297
 X96.0437 Y94.8847
 X96.1945 Y94.8547
 X96.3475 Y94.8397
 X96.4998
 X96.6513 Y94.8532
 X96.8012 Y94.8825
 X96.9475 Y94.9252
 X97.0892 Y94.9822
 X97.2265 Y95.0527
 X97.3562 Y95.1375
 X97.4792 Y95.2357
 X97.5932 Y95.3467
 X97.6968 Y95.4720
 X97.7883 Y95.6062
 X97.8632 Y95.7472
 X97.9232 Y95.8920
 X97.9682 Y96.0412
 X97.9982 Y96.1920
 X98.0132 Y96.3450
 X98.0140 Y96.4972
 X97.9998 Y96.6487
 X97.9712 Y96.7987
 X97.9285 Y96.9450
 X97.8715 Y97.0867
 X97.8010 Y97.2240
 X97.7163 Y97.3537
 X97.6180 Y97.4767
 X97.5062 Y97.5907
 X97.3817 Y97.6950
 X96.9055 Y98.0407
 X96.4203 Y98.3700
 X95.9275 Y98.6835
 X95.4265 Y98.9805
 X96.3123 Y99.1477
 X97.1792 Y99.3315
 X98.0282 Y99.5317
 X98.8585 Y99.7485
 X99.6707 Y99.9825
 X100.4635 Y100.2322
 X101.2368 Y100.4992
 X101.9913 Y100.7827
 X102.4690 Y100.3515
 X102.9340 Y99.9097
 X103.3863 Y99.4560
 X103.8243 Y98.9925
 X104.2488 Y98.5185
 X104.6598 Y98.0340
 X105.0572 Y97.5397
 X105.4405 Y97.0365
 X105.8095 Y96.5242
 X106.1642 Y96.0022
 X106.5048 Y95.4720
 X106.8310 Y94.9342
 X107.1422 Y94.3875
 X107.4393 Y93.8332
 X107.7212 Y93.2715
 X107.9883 Y92.7022
 X108.2403 Y92.1270
 X108.4765 Y91.5442
 X108.6978 Y90.9555
 X108.9033 Y90.3607
 X109.0930 Y89.7600
 X109.2670 Y89.1532
 X109.4253 Y88.5420
 X109.5670 Y87.9255
 X109.6930 Y87.3045
 X109.8025 Y86.6797
 X109.8955 Y86.0497
 X109.9720 Y85.4167
 X110.0312 Y84.7800
 X110.0740 Y84.1399
 X110.1003 Y83.4970
 X110.1085 Y82.8514
 X110.1010 Y82.2365
 X110.0778 Y81.6252
 X110.0387 Y81.0182
 X109.9847 Y80.4150
 X109.9165 Y79.8164
 X109.8332 Y79.2222
 X109.7350 Y78.6327
 X109.6232 Y78.0483
 X109.4965 Y77.4689
 X109.3562 Y76.8947
 X109.2018 Y76.3260
 X109.0337 Y75.7632
 X108.8530 Y75.2060
 X108.6580 Y74.6549
 X108.4510 Y74.1102
 X108.2305 Y73.5717
 X107.9973 Y73.0399
 X107.7520 Y72.5151
 X107.4940 Y71.9970
 X107.2240 Y71.4861
 X106.9428 Y70.9828
 X106.6488 Y70.4869
 X106.3443 Y69.9988
 X106.0277 Y69.5186
 X105.7000 Y69.0466
 X105.3618 Y68.5828
 X105.0123 Y68.1276
 X104.6530 Y67.6811
 X104.2825 Y67.2434
 X103.9023 Y66.8147
 X103.5115 Y66.3954
 X103.1118 Y65.9856
 X102.7015 Y65.5852
 X102.2823 Y65.1948
 X101.8540 Y64.8144
 X101.4160 Y64.4443
 X100.9698 Y64.0844
 X100.5145 Y63.7353
 X100.0510 Y63.3967
 X99.5785 Y63.0693
 X99.0985 Y62.7528
 X98.6103 Y62.4478
 X98.1145 Y62.1544
 X97.6112 Y61.8726
 X97.1005 Y61.6027
 X96.5823 Y61.3449
 X96.0572 Y61.0994
 X95.5255 Y60.8664
 X94.9870 Y60.6461
 X94.4425 Y60.4386
 X93.8912 Y60.2441
 X93.3340 Y60.0628
 X92.7708 Y59.8950
 X92.2022 Y59.7408
 X91.6285 Y59.6004
 X91.0487 Y59.4739
 X90.4645 Y59.3615
 X89.8750 Y59.2635
 X89.2810 Y59.1802
 X88.6818 Y59.1116
 X88.0787 Y59.0578
 X87.4720 Y59.0193
 X86.8607 Y58.9959
 X86.2458 Y58.9881
 X85.1200 Y59.0142
 X84.0039 Y59.0920
 X82.8982 Y59.2209
 X81.8044 Y59.4006
 X80.7239 Y59.6301
 X79.6581 Y59.9091
 X78.6082 Y60.2370
 X77.5760 Y60.6132
 X76.5625 Y61.0369
 X75.5694 Y61.5079
 X74.5978 Y62.0253
 X73.6493 Y62.5887
 X72.7254 Y63.1977
 X71.8273 Y63.8513
 X70.9563 Y64.5490
 X70.1141 Y65.2905
 X70.7642 Y67.0238
 X70.8295 Y67.2453
 X70.8617 Y67.4703
 X70.8615 Y67.6953
 X70.8296 Y67.9170
 X70.7668 Y68.1321
 X70.6737 Y68.3371
 X70.5513 Y68.5287
 X70.4004 Y68.7033
 X67.7091 Y71.3947
 X67.3313 Y71.7360
 X66.9284 Y72.0319
 X66.5042 Y72.2823
 X66.0623 Y72.4871
 X65.6061 Y72.6464
 X65.1391 Y72.7602
 X64.6650 Y72.8285
 X64.1873 Y72.8513
 X63.7097 Y72.8285
 X63.2355 Y72.7602
 X62.7686 Y72.6464
 X62.3123 Y72.4871
 X61.8703 Y72.2823
 X61.4462 Y72.0319
 X61.0434 Y71.7360
 X60.6656 Y71.3947
 X57.9743 Y68.7033
 X57.8235 Y68.5287
 X57.7014 Y68.3371
 X57.6086 Y68.1321
 X57.5458 Y67.9170
 X57.5139 Y67.6953
 X57.5135 Y67.4703
 X57.5454 Y67.2453
 X57.6105 Y67.0238
 X58.2605 Y65.2905
 X57.4185 Y64.5490
 X56.5478 Y63.8513
 X55.6499 Y63.1977
 X54.7262 Y62.5887
 X53.7780 Y62.0253
 X52.8067 Y61.5079
 X51.8136 Y61.0369
 X50.8004 Y60.6132
 X49.7681 Y60.2370
 X48.7185 Y59.9091
 X47.6525 Y59.6301
 X46.5719 Y59.4006
 X45.4779 Y59.2209
 X44.3717 Y59.0920
 X43.2552 Y59.0142
 X42.1294 Y58.9881
 X41.5144 Y58.9959
 X40.9032 Y59.0193
 X40.2960 Y59.0578
 X39.6930 Y59.1116
 X39.0943 Y59.1802
 X38.5002 Y59.2635
 X37.9107 Y59.3615
 X37.3263 Y59.4739
 X36.7469 Y59.6004
 X36.1727 Y59.7408
 X35.6041 Y59.8950
 X35.0412 Y60.0628
 X34.4840 Y60.2441
 X33.9329 Y60.4386
 X33.3881 Y60.6461
 X32.8497 Y60.8665
 X32.3179 Y61.0995
 X31.7931 Y61.3449
 X31.2750 Y61.6027
 X30.7642 Y61.8726
 X30.2607 Y62.1544
 X29.7649 Y62.4480
 X29.2768 Y62.7529
 X28.7966 Y63.0693
 X28.3244 Y63.3968
 X27.8607 Y63.7353
 X27.4055 Y64.0845
 X26.9589 Y64.4443
 X26.5214 Y64.8145
 X26.0927 Y65.1949
 X25.6733 Y65.5854
 X25.2636 Y65.9856
 X24.8632 Y66.3955
 X24.4728 Y66.8148
 X24.0924 Y67.2435
 X23.7221 Y67.6812
 X23.3624 Y68.1277
 X23.0131 Y68.5830
 X22.6747 Y69.0467
 X22.3472 Y69.5188
 X22.0308 Y69.9990
 X21.7258 Y70.4871
 X21.4323 Y70.9830
 X21.1505 Y71.4865
 X20.8807 Y71.9973
 X20.6229 Y72.5154
 X20.3774 Y73.0402
 X20.1444 Y73.5721
 X19.9240 Y74.1105
 X19.7165 Y74.6553
 X19.5220 Y75.2064
 X19.3408 Y75.7635
 X19.1730 Y76.3266
 X19.0187 Y76.8952
 X18.8783 Y77.4694
 X18.7518 Y78.0488
 X18.6395 Y78.6333
 X18.5415 Y79.2228
 X18.4582 Y79.8170
 X18.3895 Y80.4158
 X18.3358 Y81.0188
 X18.2972 Y81.6261
 X18.2738 Y82.2372
 X18.2661 Y82.8522
 X18.2746 Y83.4983
 X18.3003 Y84.1415
 X18.3430 Y84.7817
 X18.4025 Y85.4190
 X18.4789 Y86.0520
 X18.5719 Y86.6820
 X18.6813 Y87.3067
 X18.8072 Y87.9277
 X18.9491 Y88.5442
 X19.1073 Y89.1555
 X19.2814 Y89.7622
 X19.4713 Y90.3622
 X19.6769 Y90.9570
 X19.8980 Y91.5457
 X20.1345 Y92.1285
 X20.3863 Y92.7037
 X20.6532 Y93.2730
 X20.9353 Y93.8340
 X21.2321 Y94.3882
 X21.5438 Y94.9342
 X21.8700 Y95.4727
 X22.2106 Y96.0030
 X22.5657 Y96.5242
 X22.9349 Y97.0365
 X23.3182 Y97.5397
 X23.7156 Y98.0332
 X24.1267 Y98.5177
 X24.5514 Y98.9917
 X24.9898 Y99.4552
 X25.4415 Y99.9082
 X25.9064 Y100.3507
 X26.3846 Y100.7820
G0 Z-25.0000
 X90.7585 Y28.6695
G1 Z-58.0000
 X90.1660 Y28.1321
 X89.5637 Y27.6079
 X88.9525 Y27.0972
 X88.3323 Y26.6001
 X87.7037 Y26.1164
 X87.0655 Y25.6463
 X86.4197 Y25.1901
 X85.7657 Y24.7476
 X85.1035 Y24.3189
 X84.4340 Y23.9041
 X83.7567 Y23.5035
 X83.0720 Y23.1168
 X82.3802 Y22.7444
 X81.6816 Y22.3862
 X80.9762 Y22.0423
 X80.2644 Y21.7128
 X80.8482 Y22.2620
 X81.4230 Y22.8318
 X81.9885 Y23.4222
 X82.5445 Y24.0330
 X83.0905 Y24.6642
 X83.6265 Y25.3155
 X84.1522 Y25.9868
 X84.6673 Y26.6779
 X85.1530 Y27.3619
 X85.6248 Y28.0592
 X86.0830 Y28.7694
 X86.5270 Y29.4923
 X86.9567 Y30.2277
 X87.3730 Y30.9748
 X87.7750 Y31.7339
 X88.1620 Y32.5043
 X88.5348 Y33.2859
 X88.8932 Y34.0782
 X89.2375 Y34.8810
 X89.5667 Y35.6939
 X89.8810 Y36.5167
 X90.1803 Y37.3490
 X90.4652 Y38.1904
 X90.7345 Y39.0408
 X90.9887 Y39.8998
 X91.2280 Y40.7671
 X91.4515 Y41.6423
 X91.6593 Y42.5251
 X91.8520 Y43.4152
 X92.0290 Y44.3124
 X92.1903 Y45.2163
 X92.3365 Y46.1266
 X92.4655 Y47.0428
 X92.5795 Y47.9649
 X92.6770 Y48.8924
 X92.7580 Y49.8250
 X92.8233 Y50.7624
 X92.8713 Y51.7043
 X92.9035 Y52.6504
 X92.9193 Y53.6004
 X93.9857 Y53.4468
 X95.0373 Y53.3183
 X96.0722 Y53.2134
 X97.0892 Y53.1309
 X98.0860 Y53.0692
 X99.0625 Y53.0269
 X100.0157 Y53.0025
 X100.9442 Y52.9947
 X102.0318 Y53.0055
 X103.0795 Y53.0361
 X102.9730 Y52.1636
 X102.8470 Y51.2955
 X102.7015 Y50.4321
 X102.5373 Y49.5737
 X102.3542 Y48.7206
 X102.1525 Y47.8731
 X101.9320 Y47.0312
 X101.6935 Y46.1955
 X101.4363 Y45.3662
 X101.1602 Y44.5434
 X100.8670 Y43.7277
 X100.5558 Y42.9190
 X100.2265 Y42.1177
 X99.8792 Y41.3242
 X99.5147 Y40.5387
 X99.1322 Y39.7614
 X98.7332 Y38.9926
 X98.3170 Y38.2326
 X97.8835 Y37.4818
 X97.4335 Y36.7402
 X96.9663 Y36.0084
 X96.4825 Y35.2863
 X95.9822 Y34.5744
 X95.4655 Y33.8730
 X94.9322 Y33.1822
 X94.3833 Y32.5024
 X93.8185 Y31.8339
 X93.2380 Y31.1769
 X92.6410 Y30.5317
 X92.0290 Y29.8986
 X91.4013 Y29.2777
 X90.7585 Y28.6695
G0 Z-25.0000
 X42.1294 Y86.1360
G1 Z-58.0000
 X41.9671 Y86.1277
 X41.8094 Y86.1037
 X41.6574 Y86.0647
 X41.5115 Y86.0115
 X41.3728 Y85.9440
 X41.2418 Y85.8645
 X41.1197 Y85.7737
 X41.0069 Y85.6710
 X40.9045 Y85.5577
 X40.8130 Y85.4362
 X40.7336 Y85.3050
 X40.6667 Y85.1662
 X40.6133 Y85.0207
 X40.5742 Y84.8682
 X40.5501 Y84.7107
 X40.5419 Y84.5484
 Y81.1544
 X40.5501 Y80.9921
 X40.5742 Y80.8345
 X40.6133 Y80.6824
 X40.6667 Y80.5366
 X40.7336 Y80.3977
 X40.8130 Y80.2669
 X40.9045 Y80.1446
 X41.0069 Y80.0319
 X41.1197 Y79.9294
 X41.2418 Y79.8381
 X41.3728 Y79.7585
 X41.5115 Y79.6917
 X41.6574 Y79.6383
 X41.8094 Y79.5991
 X41.9671 Y79.5750
 X42.1294 Y79.5668
 X42.2917 Y79.5750
 X42.4492 Y79.5991
 X42.6012 Y79.6383
 X42.7471 Y79.6917
 X42.8858 Y79.7585
 X43.0168 Y79.8381
 X43.1390 Y79.9294
 X43.2518 Y80.0319
 X43.3543 Y80.1446
 X43.4457 Y80.2669
 X43.5252 Y80.3977
 X43.5921 Y80.5366
 X43.6454 Y80.6824
 X43.6846 Y80.8345
 X43.7088 Y80.9921
 X43.7169 Y81.1544
 Y84.5484
 X43.7088 Y84.7107
 X43.6846 Y84.8682
 X43.6454 Y85.0207
 X43.5921 Y85.1662
 X43.5252 Y85.3050
 X43.4457 Y85.4362
 X43.3543 Y85.5577
 X43.2518 Y85.6710
 X43.1390 Y85.7737
 X43.0168 Y85.8645
 X42.8858 Y85.9440
 X42.7471 Y86.0115
 X42.6012 Y86.0647
 X42.4492 Y86.1037
 X42.2917 Y86.1277
 X42.1294 Y86.1360
G0 Z-25.0000
 Y92.9220
G1 Z-58.0000
 X41.6990 Y92.9107
 X41.2742 Y92.8785
 X40.8556 Y92.8252
 X40.4436 Y92.7517
 X40.0388 Y92.6580
 X39.6416 Y92.5447
 X39.2527 Y92.4127
 X38.8726 Y92.2627
 X38.5016 Y92.0947
 X38.1406 Y91.9095
 X37.7900 Y91.7077
 X37.4501 Y91.4895
 X37.1217 Y91.2562
 X36.8052 Y91.0072
 X36.5012 Y90.7440
 X36.2102 Y90.4665
 X35.9327 Y90.1755
 X35.6693 Y89.8717
 X35.4204 Y89.5552
 X35.1868 Y89.2267
 X34.9686 Y88.8870
 X34.7668 Y88.5367
 X34.5817 Y88.1752
 X34.4136 Y87.8047
 X34.2635 Y87.4245
 X34.1317 Y87.0360
 X34.0187 Y86.6385
 X33.9250 Y86.2335
 X33.8511 Y85.8217
 X33.7978 Y85.4032
 X33.7654 Y84.9786
 X33.7546 Y84.5484
 Y81.1544
 X33.7654 Y80.7241
 X33.7978 Y80.2993
 X33.8511 Y79.8807
 X33.9250 Y79.4687
 X34.0187 Y79.0638
 X34.1317 Y78.6667
 X34.2635 Y78.2778
 X34.4136 Y77.8975
 X34.5817 Y77.5267
 X34.7668 Y77.1657
 X34.9686 Y76.8149
 X35.1868 Y76.4751
 X35.4204 Y76.1467
 X35.6693 Y75.8302
 X35.9327 Y75.5262
 X36.2102 Y75.2352
 X36.5012 Y74.9577
 X36.8052 Y74.6943
 X37.1217 Y74.4454
 X37.4501 Y74.2118
 X37.7900 Y73.9937
 X38.1406 Y73.7918
 X38.5016 Y73.6066
 X38.8726 Y73.4387
 X39.2527 Y73.2885
 X39.6416 Y73.1567
 X40.0388 Y73.0436
 X40.4436 Y72.9499
 X40.8556 Y72.8762
 X41.2742 Y72.8229
 X41.6990 Y72.7905
 X42.1294 Y72.7795
 X42.5597 Y72.7905
 X42.9844 Y72.8229
 X43.4031 Y72.8762
 X43.8150 Y72.9499
 X44.2199 Y73.0436
 X44.6170 Y73.1567
 X45.0059 Y73.2885
 X45.3860 Y73.4387
 X45.7569 Y73.6066
 X46.1179 Y73.7918
 X46.4687 Y73.9937
 X46.8084 Y74.2118
 X47.1368 Y74.4454
 X47.4534 Y74.6943
 X47.7573 Y74.9577
 X48.0483 Y75.2352
 X48.3258 Y75.5262
 X48.5893 Y75.8302
 X48.8380 Y76.1467
 X49.0718 Y76.4751
 X49.2898 Y76.8149
 X49.4917 Y77.1657
 X49.6769 Y77.5267
 X49.8448 Y77.8975
 X49.9950 Y78.2778
 X50.1269 Y78.6667
 X50.2399 Y79.0638
 X50.3336 Y79.4687
 X50.4073 Y79.8807
 X50.4606 Y80.2993
 X50.4930 Y80.7241
 X50.5040 Y81.1544
 Y84.5484
 X50.4930 Y84.9786
 X50.4606 Y85.4032
 X50.4073 Y85.8217
 X50.3336 Y86.2335
 X50.2399 Y86.6385
 X50.1269 Y87.0360
 X49.9950 Y87.4245
 X49.8448 Y87.8047
 X49.6769 Y88.1752
 X49.4917 Y88.5367
 X49.2898 Y88.8870
 X49.0718 Y89.2267
 X48.8380 Y89.5552
 X48.5893 Y89.8717
 X48.3258 Y90.1755
 X48.0483 Y90.4665
 X47.7573 Y90.7440
 X47.4534 Y91.0072
 X47.1368 Y91.2562
 X46.8084 Y91.4895
 X46.4687 Y91.7077
 X46.1179 Y91.9095
 X45.7569 Y92.0947
 X45.3860 Y92.2627
 X45.0059 Y92.4127
 X44.6170 Y92.5447
 X44.2199 Y92.6580
 X43.8150 Y92.7517
 X43.4031 Y92.8252
 X42.9844 Y92.8785
 X42.5597 Y92.9107
 X42.1294 Y92.9220
G0 Z-25.0000
 X86.2443 Y86.1360
G1 Z-58.0000
 X86.0823 Y86.1277
 X85.9248 Y86.1037
 X85.7725 Y86.0647
 X85.6262 Y86.0115
 X85.4875 Y85.9440
 X85.3570 Y85.8645
 X85.2348 Y85.7737
 X85.1222 Y85.6710
 X85.0195 Y85.5577
 X84.9282 Y85.4362
 X84.8486 Y85.3050
 X84.7817 Y85.1662
 X84.7284 Y85.0207
 X84.6892 Y84.8682
 X84.6651 Y84.7107
 X84.6569 Y84.5484
 Y81.1544
 X84.6651 Y80.9921
 X84.6892 Y80.8345
 X84.7284 Y80.6824
 X84.7817 Y80.5366
 X84.8486 Y80.3977
 X84.9282 Y80.2669
 X85.0195 Y80.1446
 X85.1222 Y80.0319
 X85.2348 Y79.9294
 X85.3570 Y79.8381
 X85.4875 Y79.7585
 X85.6262 Y79.6917
 X85.7725 Y79.6383
 X85.9248 Y79.5991
 X86.0823 Y79.5750
 X86.2443 Y79.5668
 X86.4070 Y79.5750
 X86.5645 Y79.5991
 X86.7168 Y79.6383
 X86.8623 Y79.6917
 X87.0018 Y79.7585
 X87.1322 Y79.8381
 X87.2545 Y79.9294
 X87.3670 Y80.0319
 X87.4698 Y80.1446
 X87.5613 Y80.2669
 X87.6407 Y80.3977
 X87.7075 Y80.5366
 X87.7608 Y80.6824
 X87.7998 Y80.8345
 X87.8238 Y80.9921
 X87.8320 Y81.1544
 Y84.5484
 X87.8238 Y84.7107
 X87.7998 Y84.8682
 X87.7608 Y85.0207
 X87.7075 Y85.1662
 X87.6407 Y85.3050
 X87.5613 Y85.4362
 X87.4698 Y85.5577
 X87.3670 Y85.6710
 X87.2545 Y85.7737
 X87.1322 Y85.8645
 X87.0018 Y85.9440
 X86.8623 Y86.0115
 X86.7168 Y86.0647
 X86.5645 Y86.1037
 X86.4070 Y86.1277
 X86.2443 Y86.1360
G0 Z-25.0000
 Y92.9220
G1 Z-58.0000
 X85.8145 Y92.9107
 X85.3893 Y92.8785
 X84.9710 Y92.8252
 X84.5592 Y92.7517
 X84.1544 Y92.6580
 X83.7573 Y92.5447
 X83.3684 Y92.4127
 X82.9884 Y92.2627
 X82.6176 Y92.0947
 X82.2566 Y91.9095
 X81.9060 Y91.7077
 X81.5661 Y91.4895
 X81.2379 Y91.2562
 X80.9214 Y91.0072
 X80.6174 Y90.7440
 X80.3265 Y90.4665
 X80.0490 Y90.1755
 X79.7856 Y89.8717
 X79.5368 Y89.5552
 X79.3030 Y89.2267
 X79.0850 Y88.8870
 X78.8832 Y88.5367
 X78.6979 Y88.1752
 X78.5300 Y87.8047
 X78.3799 Y87.4245
 X78.2481 Y87.0360
 X78.1350 Y86.6385
 X78.0413 Y86.2335
 X77.9676 Y85.8217
 X77.9143 Y85.4032
 X77.8819 Y84.9786
 X77.8710 Y84.5484
 Y81.1544
 X77.8819 Y80.7241
 X77.9143 Y80.2993
 X77.9676 Y79.8807
 X78.0413 Y79.4687
 X78.1350 Y79.0638
 X78.2481 Y78.6667
 X78.3799 Y78.2778
 X78.5300 Y77.8975
 X78.6979 Y77.5267
 X78.8832 Y77.1657
 X79.0850 Y76.8149
 X79.3030 Y76.4751
 X79.5368 Y76.1467
 X79.7856 Y75.8302
 X80.0490 Y75.5262
 X80.3265 Y75.2352
 X80.6174 Y74.9577
 X80.9214 Y74.6943
 X81.2379 Y74.4454
 X81.5661 Y74.2118
 X81.9060 Y73.9937
 X82.2566 Y73.7918
 X82.6176 Y73.6066
 X82.9884 Y73.4387
 X83.3684 Y73.2885
 X83.7573 Y73.1567
 X84.1544 Y73.0436
 X84.5592 Y72.9499
 X84.9710 Y72.8762
 X85.3893 Y72.8229
 X85.8145 Y72.7905
 X86.2443 Y72.7795
 X86.6748 Y72.7905
 X87.0993 Y72.8229
 X87.5185 Y72.8762
 X87.9303 Y72.9499
 X88.3353 Y73.0436
 X88.7320 Y73.1567
 X89.1213 Y73.2885
 X89.5015 Y73.4387
 X89.8720 Y73.6066
 X90.2328 Y73.7918
 X90.5837 Y73.9937
 X90.9235 Y74.2118
 X91.2520 Y74.4454
 X91.5685 Y74.6943
 X91.8722 Y74.9577
 X92.1633 Y75.2352
 X92.4408 Y75.5262
 X92.7040 Y75.8302
 X92.9530 Y76.1467
 X93.1870 Y76.4751
 X93.4052 Y76.8149
 X93.6070 Y77.1657
 X93.7922 Y77.5267
 X93.9603 Y77.8975
 X94.1103 Y78.2778
 X94.2422 Y78.6667
 X94.3547 Y79.0638
 X94.4485 Y79.4687
 X94.5228 Y79.8807
 X94.5760 Y80.2993
 X94.6082 Y80.7241
 X94.6188 Y81.1544
 Y84.5484
 X94.6082 Y84.9788
 X94.5760 Y85.4032
 X94.5228 Y85.8225
 X94.4485 Y86.2342
 X94.3547 Y86.6392
 X94.2422 Y87.0360
 X94.1103 Y87.4245
 X93.9603 Y87.8047
 X93.7922 Y88.1760
 X93.6070 Y88.5367
 X93.4052 Y88.8877
 X93.1870 Y89.2275
 X92.9530 Y89.5552
 X92.7040 Y89.8717
 X92.4408 Y90.1762
 X92.1633 Y90.4672
 X91.8722 Y90.7440
 X91.5685 Y91.0080
 X91.2520 Y91.2562
 X90.9235 Y91.4902
 X90.5837 Y91.7085
 X90.2328 Y91.9102
 X89.8720 Y92.0955
 X89.5015 Y92.2627
 X89.1213 Y92.4135
 X88.7320 Y92.5447
 X88.3353 Y92.6580
 X87.9303 Y92.7517
 X87.5185 Y92.8252
 X87.0993 Y92.8785
 X86.6748 Y92.9107
 X86.2443 Y92.9220
G0 Z-25.0000
 X113.2165 Y85.0042
G1 Z-58.0000
 X113.1925 Y85.0710
 X113.1362 Y85.6815
 X113.0657 Y86.2882
 X112.9818 Y86.8927
 X112.8850 Y87.4942
 X112.7740 Y88.0912
 X112.6510 Y88.6852
 X112.5138 Y89.2755
 X112.3645 Y89.8620
 X112.2018 Y90.4440
 X112.0255 Y91.0215
 X111.8372 Y91.5952
 X111.6362 Y92.1637
 X111.4232 Y92.7270
 X111.1968 Y93.2850
 X110.9582 Y93.8377
 X110.7077 Y94.3852
 X110.4452 Y94.9267
 X110.1700 Y95.4630
 X109.8827 Y95.9925
 X109.5842 Y96.5152
 X109.2730 Y97.0320
 X108.9505 Y97.5420
 X108.6167 Y98.0452
 X108.2710 Y98.5417
 X107.9132 Y99.0307
 X107.5450 Y99.5115
 X107.1647 Y99.9855
 X106.7740 Y100.4512
 X106.3713 Y100.9087
 X105.9580 Y101.3580
 X105.5343 Y101.7990
 X105.0993 Y102.2310
 X106.0060 Y102.7582
 X106.8730 Y103.3162
 X107.7018 Y103.9057
 X108.4900 Y104.5267
 X109.2385 Y105.1770
 X109.9458 Y105.8587
 X110.6125 Y106.5697
 X111.2380 Y107.3107
 X111.5747 Y107.7442
 X111.8898 Y108.1770
 X112.1853 Y108.6082
 X112.4613 Y109.0372
 X112.7185 Y109.4632
 X112.9570 Y109.8855
 X113.1790 Y110.3025
 X113.3830 Y110.7142
 X113.5720 Y111.1192
 X113.7452 Y111.5175
 X113.9035 Y111.9075
 X114.0475 Y112.2885
 X114.1780 Y112.6605
 X114.2957 Y113.0212
 X114.4023 Y113.3707
 X114.4960 Y113.7082
 X114.5793 Y114.0330
 X114.6520 Y114.3435
 X114.7165 Y114.6405
 X114.7705 Y114.9202
 X114.8178 Y115.1850
 X114.8575 Y115.4332
 X114.8898 Y115.6620
 X114.9160 Y115.8727
 X114.9355 Y116.0640
 X114.9513 Y116.2350
 X114.9625 Y116.3842
 X114.9708 Y116.5125
 X114.9753 Y116.6175
 X114.9783 Y116.6977
 X114.9790 Y116.7547
 Y116.7862
 X114.9670 Y116.9902
 X114.9280 Y117.1882
 X114.8642 Y117.3787
 X114.7795 Y117.5595
 X114.6707 Y117.7282
 X114.5425 Y117.8812
 X114.3940 Y118.0185
 X114.2267 Y118.1370
 X114.0468 Y118.2330
 X113.8578 Y118.3050
 X113.6620 Y118.3507
 X113.4632 Y118.3725
 X113.2638 Y118.3687
 X113.0650 Y118.3402
 X112.8708 Y118.2862
 X112.6817 Y118.2060
 X111.8762 Y117.8310
 X111.0392 Y117.4942
 X110.1715 Y117.1935
 X109.2752 Y116.9250
 X108.3520 Y116.6865
 X107.4040 Y116.4757
 X106.4320 Y116.2905
 X105.4375 Y116.1270
 X104.4228 Y115.9845
 X103.3893 Y115.8577
 X102.3377 Y115.7475
 X101.2712 Y115.6500
 X100.1905 Y115.5615
 X99.0970 Y115.4797
 X97.9922 Y115.4032
 X96.8785 Y115.3282
 X95.4377 Y115.2307
 X93.9917 Y115.1280
 X92.5427 Y115.0140
 X91.0915 Y114.8842
 X89.6410 Y114.7327
 X88.1920 Y114.5550
 X86.7475 Y114.3442
 X85.3090 Y114.0982
 X84.0504 Y114.6135
 X82.7819 Y115.0957
 X81.5045 Y115.5457
 X80.2182 Y115.9620
 X78.9231 Y116.3452
 X77.6198 Y116.6970
 X76.3083 Y117.0142
 X74.9891 Y117.2985
 X73.6622 Y117.5497
 X72.3282 Y117.7687
 X70.9872 Y117.9532
 X69.6394 Y118.1040
 X68.2852 Y118.2217
 X66.9249 Y118.3057
 X65.5587 Y118.3567
 X64.1870 Y118.3740
 X62.8154 Y118.3567
 X61.4495 Y118.3057
 X60.0893 Y118.2217
 X58.7352 Y118.1040
 X57.3875 Y117.9532
 X56.0463 Y117.7687
 X54.7122 Y117.5505
 X53.3852 Y117.3000
 X52.0657 Y117.0142
 X50.7540 Y116.6970
 X49.4503 Y116.3467
 X48.1550 Y115.9620
 X46.8682 Y115.5457
 X45.5904 Y115.0957
 X44.3218 Y114.6135
 X43.0626 Y114.0982
 X41.6242 Y114.3457
 X40.1798 Y114.5550
 X38.7314 Y114.7327
 X37.2808 Y114.8850
 X35.8301 Y115.0140
 X34.3809 Y115.1287
 X32.9355 Y115.2307
 X31.4953 Y115.3282
 X30.3815 Y115.4032
 X29.2769 Y115.4797
 X28.1835 Y115.5615
 X27.1025 Y115.6500
 X26.0358 Y115.7475
 X24.9847 Y115.8577
 X23.9510 Y115.9845
 X22.9362 Y116.1270
 X21.9419 Y116.2905
 X20.9698 Y116.4757
 X20.0214 Y116.6865
 X19.0984 Y116.9250
 X18.2024 Y117.1935
 X17.3348 Y117.4942
 X16.4974 Y117.8310
 X15.6917 Y118.2060
 X15.5032 Y118.2862
 X15.3085 Y118.3402
 X15.1099 Y118.3687
 X14.9101 Y118.3725
 X14.7113 Y118.3507
 X14.5162 Y118.3050
 X14.3271 Y118.2330
 X14.1466 Y118.1370
 X13.9797 Y118.0185
 X13.8314 Y117.8812
 X13.7026 Y117.7282
 X13.5947 Y117.5595
 X13.5087 Y117.3787
 X13.4458 Y117.1882
 X13.4072 Y116.9902
 X13.3941 Y116.7862
 X13.3943 Y116.7547
 X13.3954 Y116.6977
 X13.3982 Y116.6175
 X13.4031 Y116.5125
 X13.4110 Y116.3842
 X13.4224 Y116.2350
 X13.4380 Y116.0640
 X13.4585 Y115.8727
 X13.4845 Y115.6620
 X13.5168 Y115.4332
 X13.5559 Y115.1850
 X13.6025 Y114.9202
 X13.6573 Y114.6405
 X13.7210 Y114.3442
 X13.7942 Y114.0337
 X13.8776 Y113.7090
 X13.9718 Y113.3715
 X14.0776 Y113.0212
 X14.1954 Y112.6605
 X14.3261 Y112.2892
 X14.4703 Y111.9075
 X14.6286 Y111.5182
 X14.8018 Y111.1200
 X14.9904 Y110.7142
 X15.1951 Y110.3025
 X15.4166 Y109.8855
 X15.6556 Y109.4632
 X15.9127 Y109.0372
 X16.1886 Y108.6082
 X16.4839 Y108.1770
 X16.7993 Y107.7442
 X17.1355 Y107.3107
 X17.7609 Y106.5697
 X18.4277 Y105.8587
 X19.1354 Y105.1770
 X19.8837 Y104.5267
 X20.6722 Y103.9057
 X21.5004 Y103.3162
 X22.3681 Y102.7582
 X23.2747 Y102.2310
 X22.8395 Y101.7990
 X22.4154 Y101.3580
 X22.0020 Y100.9087
 X21.5997 Y100.4512
 X21.2085 Y99.9855
 X20.8286 Y99.5122
 X20.4600 Y99.0307
 X20.1027 Y98.5425
 X19.7570 Y98.0467
 X19.4227 Y97.5435
 X19.1002 Y97.0335
 X18.7894 Y96.5167
 X18.4905 Y95.9940
 X18.2034 Y95.4645
 X17.9284 Y94.9290
 X17.6656 Y94.3875
 X17.4149 Y93.8400
 X17.1765 Y93.2872
 X16.9505 Y92.7292
 X16.7370 Y92.1652
 X16.5361 Y91.5975
 X16.3478 Y91.0237
 X16.1722 Y90.4462
 X16.0095 Y89.8642
 X15.8598 Y89.2777
 X15.7230 Y88.6875
 X15.5994 Y88.0935
 X15.4890 Y87.4957
 X15.3918 Y86.8942
 X15.3081 Y86.2897
 X15.2378 Y85.6815
 X15.1811 Y85.0710
 X15.1573 Y85.0042
 X15.1439 Y84.9597
 X15.1239 Y84.8925
 X15.0974 Y84.8034
 X15.0646 Y84.6928
 X15.0257 Y84.5613
 X14.9810 Y84.4094
 X14.9307 Y84.2377
 X14.8751 Y84.0470
 X14.8143 Y83.8377
 X14.7485 Y83.6103
 X14.6780 Y83.3655
 X14.6030 Y83.1040
 X14.5237 Y82.8261
 X14.4404 Y82.5327
 X14.3532 Y82.2242
 X14.2624 Y81.9012
 X14.1683 Y81.5642
 X14.0710 Y81.2140
 X13.9707 Y80.8509
 X13.8676 Y80.4759
 X13.7621 Y80.0891
 X13.6543 Y79.6914
 X13.5445 Y79.2833
 X13.4328 Y78.8653
 X13.3195 Y78.4381
 X13.2048 Y78.0023
 X13.0889 Y77.5584
 X12.9720 Y77.1070
 X12.8544 Y76.6488
 X12.7363 Y76.1842
 X12.6180 Y75.7137
 X12.4995 Y75.2384
 X12.3812 Y74.7582
 X12.2633 Y74.2742
 X12.1460 Y73.7868
 X12.0295 Y73.2965
 X11.9141 Y72.8040
 X11.7999 Y72.3098
 X11.6872 Y71.8146
 X11.5762 Y71.3189
 X11.4671 Y70.8233
 X11.3601 Y70.3284
 X11.2556 Y69.8347
 X11.1536 Y69.3429
 X11.0545 Y68.8535
 X10.9584 Y68.3671
 X10.8655 Y67.8844
 X10.7762 Y67.4058
 X10.6905 Y66.9320
 X10.6087 Y66.4635
 X10.5311 Y66.0009
 X10.4578 Y65.5449
 X10.3892 Y65.0961
 X10.3253 Y64.6548
 X10.2665 Y64.2219
 X10.2129 Y63.7977
 X10.1648 Y63.3831
 X10.1224 Y62.9784
 X10.0859 Y62.5844
 X10.0556 Y62.2016
 X10.0316 Y61.8304
 X10.0142 Y61.4717
 X10.0036 Y61.1259
 X10.0000 Y60.7935
 X10.0082 Y60.6314
 X10.0323 Y60.4739
 X10.0714 Y60.3217
 X10.1248 Y60.1758
 X10.1916 Y60.0371
 X10.2712 Y59.9063
 X10.3626 Y59.7840
 X10.4651 Y59.6713
 X10.5778 Y59.5688
 X10.7001 Y59.4774
 X10.8310 Y59.3979
 X10.9697 Y59.3310
 X11.1156 Y59.2775
 X11.2677 Y59.2385
 X11.4252 Y59.2144
 X11.5875 Y59.2062
 X15.0901
 Y55.7036
 X15.0958 Y55.5681
 X15.1127 Y55.4355
 X15.1405 Y55.3061
 X15.1786 Y55.1805
 X15.2266 Y55.0592
 X15.2843 Y54.9427
 X15.3510 Y54.8318
 X15.4264 Y54.7267
 X15.5102 Y54.6280
 X15.6018 Y54.5365
 X15.7008 Y54.4524
 X15.8069 Y54.3764
 X15.9196 Y54.3090
 X16.0384 Y54.2508
 X16.1631 Y54.2021
 X16.2931 Y54.1637
 X16.3575 Y54.1479
 X16.4666 Y54.1219
 X16.6194 Y54.0868
 X16.8147 Y54.0435
 X17.0514 Y53.9933
 X17.3285 Y53.9368
 X17.6450 Y53.8752
 X17.9996 Y53.8093
 X18.3912 Y53.7403
 X18.8190 Y53.6691
 X19.2816 Y53.5967
 X19.7781 Y53.5241
 X20.3074 Y53.4522
 X20.8683 Y53.3821
 X21.4598 Y53.3148
 X22.0809 Y53.2512
 X22.1859 Y52.2873
 X22.3125 Y51.3282
 X22.4607 Y50.3744
 X22.6304 Y49.4259
 X22.8213 Y48.4831
 X23.0333 Y47.5466
 X23.2664 Y46.6161
 X23.5201 Y45.6927
 X23.7945 Y44.7759
 X24.0893 Y43.8667
 X24.4047 Y42.9649
 X24.7401 Y42.0711
 X25.0956 Y41.1857
 X25.4711 Y40.3086
 X25.8662 Y39.4404
 X26.2809 Y38.5815
 X26.7151 Y37.7320
 X27.1685 Y36.8923
 X27.6413 Y36.0627
 X28.1328 Y35.2436
 X28.6433 Y34.4350
 X29.1725 Y33.6376
 X29.7202 Y32.8516
 X30.2862 Y32.0772
 X30.8706 Y31.3147
 X31.4730 Y30.5646
 X32.0934 Y29.8270
 X32.7315 Y29.1024
 X33.3873 Y28.3910
 X34.0606 Y27.6930
 X34.7511 Y27.0090
 X35.4590 Y26.3391
 X36.0343 Y25.8164
 X36.6177 Y25.3054
 X37.2093 Y24.8061
 X37.8087 Y24.3186
 X38.4159 Y23.8428
 X39.0307 Y23.3790
 X39.6529 Y22.9271
 X40.2824 Y22.4871
 X40.9188 Y22.0592
 X41.5623 Y21.6434
 X42.2125 Y21.2397
 X42.8693 Y20.8482
 X43.5324 Y20.4690
 X44.2019 Y20.1020
 X44.8773 Y19.7473
 X45.5586 Y19.4051
 X34.0472 Y18.4460
 X33.6780 Y18.4015
 X33.3167 Y18.3306
 X32.9649 Y18.2341
 X32.6232 Y18.1130
 X32.2929 Y17.9681
 X31.9752 Y17.8002
 X31.6712 Y17.6104
 X31.3819 Y17.3995
 X31.1087 Y17.1683
 X30.8523 Y16.9177
 X30.6142 Y16.6487
 X30.3953 Y16.3620
 X30.1969 Y16.0586
 X30.0200 Y15.7394
 X29.8657 Y15.4052
 X29.7353 Y15.0570
 X28.7463 Y12.0896
 X28.7026 Y11.9331
 X28.6754 Y11.7760
 X28.6643 Y11.6193
 X28.6688 Y11.4641
 X28.6882 Y11.3113
 X28.7222 Y11.1620
 X28.7702 Y11.0172
 X28.8317 Y10.8779
 X28.9062 Y10.7451
 X28.9933 Y10.6198
 X29.0923 Y10.5029
 X29.2028 Y10.3956
 X29.3243 Y10.2988
 X29.4564 Y10.2135
 X29.5983 Y10.1407
 X29.7498 Y10.0815
 X30.0007 Y10.0202
 X30.2520 Y10.0000
 X30.4983 Y10.0194
 X30.7364 Y10.0761
 X30.9620 Y10.1682
 X31.1709 Y10.2935
 X31.3590 Y10.4500
 X31.5223 Y10.6357
 X31.6565 Y10.8484
 X31.7577 Y11.0861
 X32.7470 Y14.0534
 X32.8501 Y14.3007
 X32.9862 Y14.5264
 X33.1519 Y14.7277
 X33.3440 Y14.9023
 X33.5591 Y15.0477
 X33.7940 Y15.1611
 X34.0457 Y15.2402
 X34.3107 Y15.2824
 X35.4515 Y15.3774
 Y11.5875
 X35.4598 Y11.4252
 X35.4839 Y11.2676
 X35.5230 Y11.1155
 X35.5763 Y10.9696
 X35.6430 Y10.8309
 X35.7225 Y10.7000
 X35.8139 Y10.5778
 X35.9162 Y10.4650
 X36.0290 Y10.3626
 X36.1512 Y10.2712
 X36.2821 Y10.1917
 X36.4209 Y10.1248
 X36.5668 Y10.0714
 X36.7190 Y10.0323
 X36.8767 Y10.0082
 X37.0391 Y10.0000
 X37.2014 Y10.0082
 X37.3590 Y10.0323
 X37.5110 Y10.0714
 X37.6568 Y10.1248
 X37.7957 Y10.1917
 X37.9265 Y10.2712
 X38.0487 Y10.3626
 X38.1616 Y10.4650
 X38.2640 Y10.5778
 X38.3554 Y10.7000
 X38.4349 Y10.8309
 X38.5018 Y10.9696
 X38.5552 Y11.1155
 X38.5943 Y11.2676
 X38.6183 Y11.4252
 X38.6265 Y11.5875
 Y15.6420
 X40.7422 Y15.8176
 X42.3204 Y11.0850
 X42.4214 Y10.8477
 X42.5556 Y10.6353
 X42.7188 Y10.4498
 X42.9070 Y10.2934
 X43.1159 Y10.1682
 X43.3413 Y10.0761
 X43.5793 Y10.0194
 X43.8255 Y10.0000
 X44.0765 Y10.0198
 X44.3276 Y10.0815
 X44.4789 Y10.1405
 X44.6210 Y10.2132
 X44.7531 Y10.2984
 X44.8745 Y10.3951
 X44.9851 Y10.5024
 X45.0841 Y10.6193
 X45.1712 Y10.7446
 X45.2457 Y10.8775
 X45.3074 Y11.0169
 X45.3554 Y11.1618
 X45.3895 Y11.3111
 X45.4091 Y11.4639
 X45.4137 Y11.6192
 X45.4027 Y11.7759
 X45.3757 Y11.9331
 X45.3322 Y12.0896
 X43.9989 Y16.0886
 X52.3170 Y16.7821
 X53.7564 Y16.3898
 X55.2111 Y16.0481
 X56.6796 Y15.7576
 X58.1607 Y15.5186
 X59.6532 Y15.3320
 X61.1559 Y15.1979
 X62.6676 Y15.1171
 X64.1870 Y15.0900
 X65.7065 Y15.1171
 X67.2182 Y15.1979
 X68.7208 Y15.3320
 X70.2133 Y15.5186
 X71.6942 Y15.7576
 X73.1627 Y16.0481
 X74.6173 Y16.3898
 X76.0568 Y16.7821
 X84.3749 Y16.0886
 X83.0414 Y12.0896
 X82.9980 Y11.9331
 X82.9710 Y11.7759
 X82.9600 Y11.6192
 X82.9646 Y11.4639
 X82.9841 Y11.3111
 X83.0183 Y11.1618
 X83.0664 Y11.0169
 X83.1280 Y10.8775
 X83.2026 Y10.7446
 X83.2895 Y10.6193
 X83.3886 Y10.5024
 X83.4992 Y10.3951
 X83.6208 Y10.2984
 X83.7526 Y10.2132
 X83.8946 Y10.1405
 X84.0461 Y10.0815
 X84.2973 Y10.0198
 X84.5484 Y10.0000
 X84.7949 Y10.0194
 X85.0330 Y10.0761
 X85.2580 Y10.1682
 X85.4673 Y10.2934
 X85.6548 Y10.4498
 X85.8182 Y10.6353
 X85.9525 Y10.8477
 X86.0530 Y11.0850
 X87.6310 Y15.8176
 X89.7467 Y15.6420
 Y11.5875
 X89.7550 Y11.4252
 X89.7790 Y11.2676
 X89.8187 Y11.1155
 X89.8720 Y10.9696
 X89.9387 Y10.8309
 X90.0182 Y10.7000
 X90.1098 Y10.5778
 X90.2117 Y10.4650
 X90.3250 Y10.3626
 X90.4472 Y10.2712
 X90.5777 Y10.1917
 X90.7165 Y10.1248
 X90.8627 Y10.0714
 X91.0150 Y10.0323
 X91.1725 Y10.0082
 X91.3345 Y10.0000
 X91.4972 Y10.0082
 X91.6548 Y10.0323
 X91.8070 Y10.0714
 X91.9525 Y10.1248
 X92.0913 Y10.1917
 X92.2225 Y10.2712
 X92.3448 Y10.3626
 X92.4573 Y10.4650
 X92.5600 Y10.5778
 X92.6507 Y10.7000
 X92.7302 Y10.8309
 X92.7978 Y10.9696
 X92.8510 Y11.1155
 X92.8900 Y11.2676
 X92.9140 Y11.4252
 X92.9223 Y11.5875
 Y15.3774
 X94.0630 Y15.2824
 X94.3277 Y15.2402
 X94.5797 Y15.1611
 X94.8145 Y15.0477
 X95.0298 Y14.9023
 X95.2218 Y14.7277
 X95.3875 Y14.5264
 X95.5240 Y14.3007
 X95.6268 Y14.0534
 X96.6160 Y11.0861
 X96.7173 Y10.8484
 X96.8515 Y10.6357
 X97.0150 Y10.4500
 X97.2032 Y10.2935
 X97.4118 Y10.1682
 X97.6375 Y10.0761
 X97.8752 Y10.0194
 X98.1220 Y10.0000
 X98.3732 Y10.0202
 X98.6238 Y10.0815
 X98.7752 Y10.1407
 X98.9177 Y10.2135
 X99.0498 Y10.2988
 X99.1713 Y10.3956
 X99.2815 Y10.5029
 X99.3805 Y10.6198
 X99.4675 Y10.7451
 X99.5417 Y10.8779
 X99.6040 Y11.0172
 X99.6520 Y11.1620
 X99.6857 Y11.3113
 X99.7053 Y11.4641
 X99.7097 Y11.6193
 X99.6985 Y11.7760
 X99.6715 Y11.9331
 X99.6273 Y12.0896
 X98.6388 Y15.0570
 X98.5083 Y15.4052
 X98.3538 Y15.7394
 X98.1767 Y16.0586
 X97.9788 Y16.3620
 X97.7597 Y16.6487
 X97.5212 Y16.9177
 X97.2655 Y17.1683
 X96.9917 Y17.3995
 X96.7030 Y17.6104
 X96.3985 Y17.8002
 X96.0813 Y17.9681
 X95.7512 Y18.1130
 X95.4093 Y18.2341
 X95.0575 Y18.3306
 X94.6968 Y18.4015
 X94.3277 Y18.4460
 X82.8152 Y19.4051
 X83.4965 Y19.7473
 X84.1720 Y20.1020
 X84.8414 Y20.4690
 X85.5048 Y20.8482
 X86.1610 Y21.2397
 X86.8113 Y21.6434
 X87.4547 Y22.0592
 X88.0915 Y22.4871
 X88.7207 Y22.9271
 X89.3432 Y23.3790
 X89.9575 Y23.8428
 X90.5650 Y24.3186
 X91.1642 Y24.8061
 X91.7560 Y25.3054
 X92.3395 Y25.8164
 X92.9147 Y26.3391
 X93.6227 Y27.0090
 X94.3135 Y27.6930
 X94.9862 Y28.3910
 X95.6425 Y29.1024
 X96.2807 Y29.8271
 X96.9010 Y30.5646
 X97.5033 Y31.3147
 X98.0875 Y32.0772
 X98.6538 Y32.8516
 X99.2013 Y33.6378
 X99.7308 Y34.4352
 X100.2407 Y35.2436
 X100.7328 Y36.0627
 X101.2053 Y36.8924
 X101.6590 Y37.7321
 X102.0925 Y38.5816
 X102.5072 Y39.4405
 X102.9025 Y40.3088
 X103.2782 Y41.1858
 X103.6337 Y42.0714
 X103.9690 Y42.9651
 X104.2840 Y43.8669
 X104.5795 Y44.7763
 X104.8533 Y45.6930
 X105.1075 Y46.6166
 X105.3400 Y47.5469
 X105.5523 Y48.4836
 X105.7428 Y49.4265
 X105.9130 Y50.3751
 X106.0607 Y51.3290
 X106.1875 Y52.2880
 X106.2925 Y53.2519
 X106.9135 Y53.3154
 X107.5053 Y53.3827
 X108.0662 Y53.4526
 X108.5958 Y53.5244
 X109.0922 Y53.5970
 X109.5550 Y53.6693
 X109.9825 Y53.7405
 X110.3740 Y53.8094
 X110.7288 Y53.8752
 X111.0453 Y53.9368
 X111.3220 Y53.9934
 X111.5590 Y54.0437
 X111.7540 Y54.0868
 X111.9070 Y54.1219
 X112.0165 Y54.1479
 X112.0803 Y54.1637
 X112.2108 Y54.2019
 X112.3353 Y54.2505
 X112.4537 Y54.3087
 X112.5670 Y54.3759
 X112.6727 Y54.4519
 X112.7717 Y54.5360
 X112.8633 Y54.6276
 X112.9472 Y54.7263
 X113.0222 Y54.8314
 X113.0890 Y54.9424
 X113.1467 Y55.0590
 X113.1947 Y55.1803
 X113.2330 Y55.3059
 X113.2608 Y55.4355
 X113.2780 Y55.5681
 X113.2833 Y55.7036
 Y59.2062
 X116.7865
 X116.9492 Y59.2144
 X117.1060 Y59.2385
 X117.2583 Y59.2775
 X117.4045 Y59.3310
 X117.5425 Y59.3979
 X117.6737 Y59.4774
 X117.7960 Y59.5688
 X117.9085 Y59.6713
 X118.0112 Y59.7840
 X118.1035 Y59.9063
 X118.1822 Y60.0371
 X118.2490 Y60.1758
 X118.3022 Y60.3217
 X118.3420 Y60.4739
 X118.3653 Y60.6314
 X118.3742 Y60.7935
 X118.3697 Y61.1259
 X118.3593 Y61.4717
 X118.3427 Y61.8304
 X118.3188 Y62.2016
 X118.2873 Y62.5844
 X118.2512 Y62.9784
 X118.2092 Y63.3831
 X118.1605 Y63.7977
 X118.1072 Y64.2219
 X118.0487 Y64.6548
 X117.9843 Y65.0961
 X117.9160 Y65.5449
 X117.8425 Y66.0009
 X117.7645 Y66.4635
 X117.6835 Y66.9320
 X117.5980 Y67.4058
 X117.5080 Y67.8844
 X117.4158 Y68.3671
 X117.3190 Y68.8535
 X117.2200 Y69.3429
 X117.1180 Y69.8347
 X117.0138 Y70.3284
 X116.9065 Y70.8233
 X116.7977 Y71.3189
 X116.6867 Y71.8146
 X116.5742 Y72.3098
 X116.4595 Y72.8040
 X116.3440 Y73.2965
 X116.2285 Y73.7868
 X116.1107 Y74.2742
 X115.9930 Y74.7582
 X115.8738 Y75.2384
 X115.7553 Y75.7137
 X115.6375 Y76.1842
 X115.5190 Y76.6488
 X115.4020 Y77.1070
 X115.2842 Y77.5584
 X115.1687 Y78.0023
 X115.0540 Y78.4381
 X114.9407 Y78.8653
 X114.8290 Y79.2833
 X114.7195 Y79.6914
 X114.6115 Y80.0891
 X114.5065 Y80.4759
 X114.4030 Y80.8509
 X114.3032 Y81.2140
 X114.2050 Y81.5642
 X114.1112 Y81.9012
 X114.0205 Y82.2242
 X113.9335 Y82.5327
 X113.8503 Y82.8261
 X113.7707 Y83.1040
 X113.6958 Y83.3655
 X113.6252 Y83.6103
 X113.5593 Y83.8377
 X113.4985 Y84.0470
 X113.4430 Y84.2377
 X113.3928 Y84.4094
 X113.3477 Y84.5613
 X113.3088 Y84.6928
 X113.2765 Y84.8034
 X113.2495 Y84.8925
 X113.2300 Y84.9597
 X113.2165 Y85.0042
G0 Z-25.0000
G0 Z-25.0000
M2 (end program)
