$X
$H
G10 P0 L20 X0 Y0 Z0
G40 (disable tool radius compensation)
G49 (disable tool length compensation)
G80 (cancel modal motion)
G54 (select coordinate system 1)
G90 (disable incremental moves)
G21 (metric)
F300.00000
S250.00000
G61 (exact path mode)
;PYCAM_TOOLPATH_SETTINGS: START
;[Bounds]
;maxz = 0.0
;maxx = 7.22487
;maxy = 8.73107
;minx = 1.50635
;miny = 0.0
;minz = 0.0
;
;[Tool]
;torus_radius = 0.125
;shape = CylindricalCutter
;tool_radius = 1.5875
;feedrate = 300.0
;
;[Process]
;engrave_offset = 0.0
;step_down = 3.0
;generator = EngraveCutter
;postprocessor = SimpleCutter
;overlap_percent = 0
;milling_style = ignore
;material_allowance = 0.0
;pocketing_type = none
;path_direction = x
;
;PYCAM_TOOLPATH_SETTINGS: END
G0 Z-25.0000
M3 (start spindle)
G04 P3 (wait for 3 seconds)
 X4.36561 Y0.00000
G1 Z-41.5000
 X4.30062
 X4.10568 Y0.00656
 X3.84592 Y0.02653
 X3.58849 Y0.06066
 X3.33572 Y0.10948
 X3.08996 Y0.17372
 X2.85351 Y0.25401
 X2.62864 Y0.35097
 X2.41764 Y0.46528
 X2.22287 Y0.59755
 X2.04656 Y0.74843
 X1.89111 Y0.91862
 X1.75874 Y1.10862
 X1.65175 Y1.31923
 X1.57249 Y1.55100
 X1.52322 Y1.80464
 X1.50635 Y2.01167
 Y2.15349
 X1.52528 Y2.37175
 X1.57850 Y2.63043
 X1.66043 Y2.86068
 X1.76551 Y3.06646
 X1.88824 Y3.25174
 X2.02306 Y3.42036
 X2.16444 Y3.57633
 X2.27100 Y3.68701
 X2.30681 Y3.72358
 X2.33231 Y3.74962
 X2.40853 Y3.82801
 X2.50439 Y3.93067
 X2.59201 Y4.03321
 X2.66906 Y4.13743
 X2.73307 Y4.24490
 X2.78179 Y4.35742
 X2.81278 Y4.47657
 X2.82362 Y4.57226
 Y4.65483
 X2.83062 Y4.80697
 X2.85140 Y5.00011
 X2.88564 Y5.18306
 X2.93278 Y5.35542
 X2.99251 Y5.51671
 X3.06446 Y5.66644
 X3.14817 Y5.80410
 X3.24322 Y5.92931
 X3.34928 Y6.04150
 X3.46593 Y6.14031
 X3.59278 Y6.22515
 X3.72939 Y6.29563
 X3.87538 Y6.35129
 X4.03033 Y6.39160
 X4.19385 Y6.41618
 X4.32264 Y6.42443
 X4.37847
 X4.41704 Y6.41407
 X4.45915 Y6.38569
 X4.48753 Y6.34364
 X4.49794 Y6.30507
 Y6.27929
 X4.48753 Y6.24072
 X4.45915 Y6.19862
 X4.41704 Y6.17025
 X4.37847 Y6.15983
 X4.32319
 X4.19590 Y6.15028
 X4.04010 Y6.12244
 X3.89768 Y6.07781
 X3.76833 Y6.01774
 X3.65164 Y5.94363
 X3.54719 Y5.85688
 X3.45458 Y5.75896
 X3.37343 Y5.65121
 X3.30328 Y5.53504
 X3.24382 Y5.41183
 X3.19461 Y5.28304
 X3.15522 Y5.15007
 X3.12532 Y5.01426
 X3.10444 Y4.87711
 X3.09218 Y4.73990
 X3.08822 Y4.63807
 Y4.56282
 X3.07525 Y4.43892
 X3.03847 Y4.28706
 X2.98101 Y4.14649
 X2.90614 Y4.01508
 X2.81700 Y3.89074
 X2.71669 Y3.77126
 X2.60851 Y3.65468
 X2.52387 Y3.56760
 X2.49556 Y3.53874
 X2.46197 Y3.50439
 X2.36187 Y3.40061
 X2.23172 Y3.25749
 X2.10938 Y3.10562
 X1.99935 Y2.94108
 X1.90603 Y2.76014
 X1.83393 Y2.55903
 X1.78743 Y2.33376
 X1.77094 Y2.14399
 Y2.00618
 X1.79335 Y1.78261
 X1.85742 Y1.51882
 X1.95817 Y1.28733
 X2.09065 Y1.08599
 X2.25000 Y0.91276
 X2.43126 Y0.76552
 X2.62950 Y0.64220
 X2.83979 Y0.54069
 X3.05724 Y0.45898
 X3.27692 Y0.39491
 X3.49388 Y0.34641
 X3.70318 Y0.31141
 X3.89990 Y0.28781
 X4.07921 Y0.27355
 X4.23606 Y0.26649
 X4.33322 Y0.26459
 X4.37847
 X4.41704 Y0.25423
 X4.45915 Y0.22586
 X4.48753 Y0.18376
 X4.49794 Y0.14518
 Y0.11941
 X4.48753 Y0.08084
 X4.45915 Y0.03879
 X4.41704 Y0.01042
 X4.37847 Y0.00000
 X4.36561
 X4.35271
 X4.31413 Y0.01042
 X4.27208 Y0.03879
 X4.24371 Y0.08084
 X4.23335 Y0.11941
 Y0.14518
 X4.24371 Y0.18376
 X4.27208 Y0.22586
 X4.31413 Y0.25423
 X4.35271 Y0.26459
 X4.39794
 X4.49511 Y0.26649
 X4.65201 Y0.27355
 X4.83128 Y0.28781
 X5.02806 Y0.31141
 X5.23736 Y0.34641
 X5.45432 Y0.39491
 X5.67393 Y0.45898
 X5.89139 Y0.54069
 X6.10172 Y0.64220
 X6.29992 Y0.76552
 X6.48118 Y0.91276
 X6.64051 Y1.08599
 X6.77300 Y1.28733
 X6.87375 Y1.51882
 X6.93782 Y1.78261
 X6.96029 Y2.00618
 Y2.14399
 X6.94379 Y2.33376
 X6.89725 Y2.55903
 X6.82514 Y2.76014
 X6.73182 Y2.94108
 X6.62181 Y3.10562
 X6.49951 Y3.25749
 X6.36931 Y3.40061
 X6.26926 Y3.50439
 X6.23568 Y3.53874
 X6.20731 Y3.56771
 X6.12267 Y3.65511
 X6.01449 Y3.77186
 X5.91417 Y3.89133
 X5.82503 Y4.01563
 X5.75017 Y4.14686
 X5.69271 Y4.28728
 X5.65593 Y4.43896
 X5.64301 Y4.56282
 Y4.63807
 X5.63900 Y4.73990
 X5.62674 Y4.87711
 X5.60590 Y5.01426
 X5.57596 Y5.15007
 X5.53657 Y5.28304
 X5.48736 Y5.41183
 X5.42790 Y5.53504
 X5.35781 Y5.65121
 X5.27664 Y5.75896
 X5.18403 Y5.85688
 X5.07958 Y5.94363
 X4.96283 Y6.01774
 X4.83350 Y6.07781
 X4.69114 Y6.12244
 X4.53526 Y6.15028
 X4.40799 Y6.15983
 X4.35271
 X4.31413 Y6.17025
 X4.27208 Y6.19862
 X4.24371 Y6.24072
 X4.23335 Y6.27929
 Y6.30507
 X4.24371 Y6.34364
 X4.27208 Y6.38569
 X4.31413 Y6.41407
 X4.35271 Y6.42443
 X4.40853
 X4.53733 Y6.41618
 X4.70085 Y6.39160
 X4.85585 Y6.35129
 X5.00185 Y6.29563
 X5.13846 Y6.22515
 X5.26525 Y6.14031
 X5.38189 Y6.04150
 X5.48796 Y5.92931
 X5.58306 Y5.80410
 X5.66672 Y5.66644
 X5.73867 Y5.51671
 X5.79839 Y5.35542
 X5.84560 Y5.18306
 X5.87978 Y5.00011
 X5.90056 Y4.80697
 X5.90761 Y4.65483
 Y4.57226
 X5.91840 Y4.47657
 X5.94938 Y4.35742
 X5.99810 Y4.24490
 X6.06218 Y4.13743
 X6.13917 Y4.03321
 X6.22683 Y3.93067
 X6.32269 Y3.82801
 X6.39887 Y3.74962
 X6.42443 Y3.72358
 X6.46018 Y3.68701
 X6.56679 Y3.57633
 X6.70811 Y3.42036
 X6.84293 Y3.25174
 X6.96565 Y3.06646
 X7.07075 Y2.86068
 X7.15267 Y2.63043
 X7.20589 Y2.37175
 X7.22487 Y2.15349
 Y2.01167
 X7.20796 Y1.80464
 X7.15869 Y1.55100
 X7.07943 Y1.31923
 X6.97250 Y1.10862
 X6.84011 Y0.91862
 X6.68463 Y0.74843
 X6.50836 Y0.59755
 X6.31353 Y0.46528
 X6.10260 Y0.35097
 X5.87771 Y0.25401
 X5.64122 Y0.17372
 X5.39546 Y0.10948
 X5.14274 Y0.06066
 X4.88531 Y0.02653
 X4.62549 Y0.00656
 X4.43056 Y0.00000
 X4.36561
G0 Z-25.0000
 X3.66710 Y4.47851
G1 Z-41.5000
 X3.65500
 X3.61882 Y4.48763
 X3.57807 Y4.51269
 X3.54878 Y4.55072
 X3.53597 Y4.58632
 X3.53483 Y4.59847
 X3.52989 Y4.65207
 X3.53483 Y4.81461
 X3.56961 Y5.00906
 X3.62869 Y5.17985
 X3.70167 Y5.32503
 X3.77815 Y5.44271
 X3.84776 Y5.53093
 X3.90001 Y5.58778
 X3.91976 Y5.60715
 X3.92464 Y5.61128
 X3.93408 Y5.61979
 X3.96935 Y5.63775
 X4.01921 Y5.64497
 X4.06819 Y5.63331
 X4.10178 Y5.61247
 X4.11057 Y5.60319
 X4.11925 Y5.59358
 X4.13781 Y5.55767
 X4.14524 Y5.50743
 X4.13331 Y5.45822
 X4.11187 Y5.42458
 X4.10243 Y5.41585
 X4.10135 Y5.41515
 X4.08637 Y5.40022
 X4.04704 Y5.35678
 X3.99294 Y5.28738
 X3.93261 Y5.19417
 X3.87440 Y5.07904
 X3.82693 Y4.94401
 X3.79861 Y4.79101
 X3.79422 Y4.66396
 X3.79801 Y4.62207
 X3.79915 Y4.60938
 X3.79232 Y4.57032
 X3.76790 Y4.52599
 X3.72851 Y4.49382
 X3.69092 Y4.47976
 X3.67806 Y4.47851
 X3.66710
 X4.36561 Y6.75390
 X4.35439
 X4.32069 Y6.76183
 X4.28168 Y6.78407
 X4.25222 Y6.81836
 X4.23807 Y6.85118
 X4.23617 Y6.86257
 X4.22965 Y6.89708
 X4.20264 Y6.99908
 X4.15625 Y7.12929
 X4.09912 Y7.25287
 X4.03321 Y7.36947
 X3.96061 Y7.47879
 X3.88340 Y7.58046
 X3.80365 Y7.67415
 X3.72336 Y7.75950
 X3.64464 Y7.83621
 X3.56956 Y7.90386
 X3.50011 Y7.96218
 X3.43842 Y8.01085
 X3.38650 Y8.04943
 X3.34646 Y8.07764
 X3.32026 Y8.09517
 X3.31213 Y8.10053
 X3.31011 Y8.10157
 X3.29915 Y8.10835
 X3.27175 Y8.13747
 X3.25092 Y8.18365
 X3.24897 Y8.23421
 X3.26058 Y8.27235
 X3.26742 Y8.28321
 X3.27419 Y8.29417
 X3.30350 Y8.32156
 X3.34993 Y8.34244
 X3.40050 Y8.34451
 X3.43838 Y8.33311
 X3.44911 Y8.32628
 X3.45318 Y8.32389
 X3.46522 Y8.31619
 X3.49821 Y8.29432
 X3.54579 Y8.26096
 X3.60579 Y8.21647
 X3.67606 Y8.16108
 X3.75435 Y8.09500
 X3.83843 Y8.01861
 X3.92617 Y7.93212
 X4.01535 Y7.83589
 X4.10374 Y7.73008
 X4.18918 Y7.61507
 X4.26947 Y7.49104
 X4.34239 Y7.35835
 X4.40576 Y7.21729
 X4.45742 Y7.06803
 X4.48774 Y6.95057
 X4.49511 Y6.91092
 X4.49750 Y6.89833
 X4.49457 Y6.85851
 X4.47467 Y6.81201
 X4.43881 Y6.77632
 X4.40289 Y6.75885
 X4.39031 Y6.75640
 X4.38824 Y6.75608
 X4.37125 Y6.75390
 X4.36561
 X4.42632 Y6.75250
 X4.41476
 X4.38010 Y6.75319
 X4.36393 Y6.75390
 X4.35856
 X4.34657 Y6.75461
 X4.31114 Y6.76568
 X4.27225 Y6.79275
 X4.24517 Y6.83176
 X4.23406 Y6.86719
 X4.23335 Y6.87918
 X4.23318 Y6.88314
 X4.23275 Y6.89507
 X4.23215 Y6.92817
 X4.23232 Y6.97678
 X4.23421 Y7.03922
 X4.23861 Y7.11393
 X4.24642 Y7.19911
 X4.25851 Y7.29318
 X4.27572 Y7.39442
 X4.29883 Y7.50125
 X4.32883 Y7.61193
 X4.36654 Y7.72483
 X4.41276 Y7.83822
 X4.46837 Y7.95057
 X4.53429 Y8.06011
 X4.61133 Y8.16521
 X4.67692 Y8.24067
 X4.72390 Y8.28765
 X4.79937 Y8.35319
 X4.90446 Y8.43024
 X5.01400 Y8.49604
 X5.12631 Y8.55160
 X5.23975 Y8.59771
 X5.35260 Y8.63531
 X5.46322 Y8.66515
 X5.56999 Y8.68815
 X5.67117 Y8.70524
 X5.76514 Y8.71718
 X5.85021 Y8.72487
 X5.92475 Y8.72917
 X5.98703 Y8.73096
 X6.03543 Y8.73107
 X6.06831 Y8.73042
 X6.08008 Y8.72999
 X6.08399 Y8.72982
 X6.09597 Y8.72911
 X6.13157 Y8.71799
 X6.17057 Y8.69092
 X6.19769 Y8.65201
 X6.20882 Y8.61660
 X6.20958 Y8.60460
 X6.20969 Y8.60075
 X6.21007 Y8.58897
 X6.21067 Y8.55610
 X6.21039 Y8.50765
 X6.20850 Y8.44536
 X6.20410 Y8.37082
 X6.19629 Y8.28569
 X6.18419 Y8.19174
 X6.16704 Y8.09050
 X6.14388 Y7.98378
 X6.11388 Y7.87310
 X6.07617 Y7.76025
 X6.02994 Y7.64686
 X5.97428 Y7.53456
 X5.90831 Y7.42503
 X5.83128 Y7.31999
 X5.76568 Y7.24451
 X5.74219 Y7.22103
 X5.70275 Y7.18158
 X5.57064 Y7.07704
 X5.38488 Y6.96582
 X5.19303 Y6.88319
 X5.00315 Y6.82497
 X4.82340 Y6.78700
 X4.66189 Y6.76503
 X4.52686 Y6.75493
 X4.45144 Y6.75250
 X4.42632
 X5.94358 Y8.46528
 X5.91872 Y8.46431
 X5.84440 Y8.45899
 X5.72515 Y8.44553
 X5.59110 Y8.42247
 X5.44764 Y8.38737
 X5.30013 Y8.33772
 X5.15386 Y8.27106
 X5.01426 Y8.18494
 X4.91613 Y8.10628
 X4.88667 Y8.07682
 X4.85715 Y8.04725
 X4.77849 Y7.94874
 X4.69228 Y7.80886
 X4.62554 Y7.66260
 X4.57585 Y7.51519
 X4.54075 Y7.37185
 X4.51768 Y7.23801
 X4.50424 Y7.11882
 X4.49892 Y7.04443
 X4.49794 Y7.01958
 X4.52285 Y7.02067
 X4.59754 Y7.02604
 X4.71712 Y7.03956
 X4.85140 Y7.06267
 X4.99507 Y7.09782
 X5.14268 Y7.14751
 X5.28896 Y7.21414
 X5.42860 Y7.30029
 X5.52681 Y7.37885
 X5.55626 Y7.40831
 X5.58567 Y7.43778
 X5.66428 Y7.53597
 X5.75038 Y7.67563
 X5.81700 Y7.82183
 X5.86660 Y7.96935
 X5.90153 Y8.11285
 X5.92443 Y8.24685
 X5.93761 Y8.36615
 X5.94265 Y8.44049
 X5.94358 Y8.46528
G0 Z-25.0000
M5 (stop spindle)
G04 P3 (wait for 3 seconds)
G0 Z-25.0000
M2 (end program)
