$X
$H
G10 P0 L20 X0 Y0 Z0
G40 (disable tool radius compensation)
G49 (disable tool length compensation)
G80 (cancel modal motion)
G54 (select coordinate system 1)
G90 (disable incremental moves)
G21 (metric)
F300.00000
S250.00000
G61 (exact path mode)
;PYCAM_TOOLPATH_SETTINGS: START
;[Bounds]
;maxz = 0.0
;maxx = 133.858
;maxy = 118.454
;minx = 0.0
;miny = 15.4054
;minz = 0.0
;
;[Tool]
;torus_radius = 0.125
;shape = CylindricalCutter
;tool_radius = 1.5875
;feedrate = 300.0
;
;[Process]
;engrave_offset = 0.0
;step_down = 3.0
;generator = EngraveCutter
;postprocessor = SimpleCutter
;overlap_percent = 0
;milling_style = ignore
;material_allowance = 0.0
;pocketing_type = none
;path_direction = x
;
;PYCAM_TOOLPATH_SETTINGS: END
G0 Z-25.0000
M3 (start spindle)
G04 P3 (wait for 3 seconds)
 X46.58180 Y66.54170
G1 Z-41.5000
 X46.46810
 X46.13110 Y66.55580
 X45.68060 Y66.59750
 X45.22860 Y66.66570
 X44.77510 Y66.76010
 X44.32000 Y66.87970
 X43.86330 Y67.02370
 X43.40460 Y67.19170
 X42.94420 Y67.38260
 X42.48150 Y67.59580
 X42.01680 Y67.83060
 X41.54970 Y68.08610
 X41.08040 Y68.36170
 X40.60860 Y68.65670
 X40.13420 Y68.97010
 X39.65690 Y69.30140
 X39.17710 Y69.64990
 X38.69430 Y70.01460
 X38.20850 Y70.39490
 X37.71960 Y70.79010
 X37.22750 Y71.19940
 X36.73190 Y71.62210
 X36.23290 Y72.05740
 X35.73060 Y72.50460
 X35.22440 Y72.96290
 X34.71440 Y73.43170
 X34.20070 Y73.91000
 X33.68290 Y74.39740
 X33.16110 Y74.89280
 X32.63500 Y75.39570
 X32.10470 Y75.90530
 X31.57000 Y76.42080
 X31.16540 Y76.81140
 X31.03070 Y76.94150
 X30.77280 Y77.19070
 X29.99850 Y77.93780
 X28.95070 Y78.94320
 X27.88640 Y79.95330
 X26.80380 Y80.96390
 X25.70170 Y81.97060
 X24.57860 Y82.96880
 X23.43350 Y83.95430
 X22.26460 Y84.92280
 X21.07100 Y85.86970
 X19.85070 Y86.79080
 X18.60290 Y87.68170
 X17.32610 Y88.53780
 X16.01870 Y89.35490
 X14.67960 Y90.12860
 X13.30740 Y90.85440
 X12.25560 Y91.36720
 X11.90060 Y91.52820
 X12.18820 Y91.69570
 X13.06040 Y92.18150
 X14.22350 Y92.79310
 X15.38960 Y93.36280
 X16.55870 Y93.89070
 X17.73070 Y94.37670
 X18.90530 Y94.82080
 X20.08220 Y95.22290
 X21.26150 Y95.58290
 X22.44290 Y95.90070
 X23.62620 Y96.17640
 X24.81140 Y96.40990
 X25.99820 Y96.60100
 X27.18640 Y96.74970
 X28.37580 Y96.85610
 X29.56640 Y96.91990
 X30.46010 Y96.94130
 X31.05470
 X31.94500 Y96.91940
 X33.11310 Y96.85500
 X34.26170 Y96.74930
 X35.39000 Y96.60390
 X36.49740 Y96.41990
 X37.58320 Y96.19890
 X38.64680 Y95.94210
 X39.68760 Y95.65110
 X40.70490 Y95.32720
 X41.69790 Y94.97180
 X42.66610 Y94.58640
 X43.60890 Y94.17220
 X44.52540 Y93.73070
 X45.41510 Y93.26320
 X46.27740 Y92.77120
 X47.11140 Y92.25630
 X47.91670 Y91.71940
 X48.69260 Y91.16220
 X49.43830 Y90.58610
 X50.15330 Y89.99240
 X50.83680 Y89.38250
 X51.48830 Y88.75780
 X52.10690 Y88.11970
 X52.69220 Y87.46970
 X53.24350 Y86.80900
 X53.76000 Y86.13920
 X54.24110 Y85.46150
 X54.68620 Y84.77740
 X55.09460 Y84.08830
 X55.46570 Y83.39560
 X55.79880 Y82.70060
 X56.02370 Y82.18030
 X56.09310 Y82.00460
 X56.12990 Y81.91140
 X56.23510 Y81.62970
 X56.37490 Y81.22710
 X56.50890 Y80.79860
 X56.63440 Y80.34610
 X56.74830 Y79.87150
 X56.84750 Y79.37650
 X56.92880 Y78.86290
 X56.98930 Y78.33280
 X57.02580 Y77.78790
 X57.03540 Y77.23000
 X57.01490 Y76.66110
 X56.96140 Y76.08280
 X56.87170 Y75.49720
 X56.74260 Y74.90600
 X56.57140 Y74.31110
 X56.41400 Y73.86150
 X56.35490 Y73.71430
 X56.13390 Y73.93860
 X55.45970 Y74.60010
 X54.55690 Y75.45040
 X53.65030 Y76.26600
 X52.74320 Y77.04690
 X51.83920 Y77.79370
 X50.94190 Y78.50690
 X50.05510 Y79.18680
 X49.18240 Y79.83390
 X48.32690 Y80.44850
 X47.49260 Y81.03100
 X46.68310 Y81.58180
 X45.90180 Y82.10140
 X45.15240 Y82.59030
 X44.43850 Y83.04870
 X43.76350 Y83.47720
 X43.28940 Y83.77650
 X43.13120 Y83.87610
 X43.04360 Y83.93120
 X42.78100 Y84.09690
 X42.44460 Y84.30970
 X42.12360 Y84.51360
 X41.82000 Y84.70850
 X41.53510 Y84.89330
 X41.27080 Y85.06790
 X41.02880 Y85.23140
 X40.86490 Y85.34500
 X40.81080 Y85.38350
 X37.74440 Y81.07040
 X37.80900 Y81.02440
 X38.00490 Y80.88850
 X38.28420 Y80.69890
 X38.58150 Y80.50190
 X38.89630 Y80.29710
 X39.22720 Y80.08460
 X39.57390 Y79.86400
 X39.93530 Y79.63540
 X40.21670 Y79.45780
 X40.31060 Y79.39860
 X40.47240 Y79.29670
 X40.95810 Y78.99000
 X41.64260 Y78.55510
 X42.36080 Y78.09390
 X43.10900 Y77.60560
 X43.88350 Y77.08970
 X44.68100 Y76.54610
 X45.49760 Y75.97400
 X46.33000 Y75.37310
 X47.17460 Y74.74280
 X48.02780 Y74.08280
 X48.88610 Y73.39250
 X49.74580 Y72.67150
 X50.60360 Y71.91940
 X51.45570 Y71.13570
 X52.29880 Y70.31990
 X52.92440 Y69.68650
 X53.12900 Y69.47150
 X52.92150 Y69.29280
 X52.27830 Y68.78070
 X51.43900 Y68.18350
 X50.61030 Y67.67970
 X49.79070 Y67.26860
 X48.97920 Y66.94990
 X48.17460 Y66.72280
 X47.37600 Y66.58680
 X46.78030 Y66.54170
 X46.58180
G0 Z-25.0000
 X101.73500 Y87.36220
G1 Z-41.5000
 X101.59200 Y87.15140
 X101.16200 Y86.51890
 X100.59300 Y85.68390
 X100.02800 Y84.85850
 X99.46640 Y84.04400
 X98.90810 Y83.24150
 X98.35250 Y82.45240
 X97.79900 Y81.67750
 X97.24740 Y80.91830
 X96.69710 Y80.17610
 X96.14750 Y79.45180
 X95.59850 Y78.74680
 X95.04930 Y78.06240
 X94.49970 Y77.39940
 X93.94920 Y76.75940
 X93.39720 Y76.14360
 X92.84330 Y75.55290
 X92.28720 Y74.98870
 X91.72850 Y74.45220
 X91.16640 Y73.94460
 X90.60070 Y73.46710
 X90.03100 Y73.02080
 X89.45670 Y72.60710
 X88.87740 Y72.22710
 X88.29260 Y71.88190
 X87.70190 Y71.57290
 X87.10490 Y71.30110
 X86.50110 Y71.06790
 X85.89010 Y70.87430
 X85.27140 Y70.72170
 X84.64460 Y70.61120
 X84.00900 Y70.54400
 X83.52570 Y70.52140
 X83.17240
 X82.59600 Y70.55060
 X81.81280 Y70.63860
 X81.01420 Y70.78560
 X80.19890 Y70.99180
 X79.36610 Y71.25760
 X78.51440 Y71.58360
 X77.64310 Y71.96960
 X76.97150 Y72.29970
 X76.75100 Y72.41610
 X76.81000 Y72.51150
 X77.40970 Y73.47000
 X77.47070 Y73.56680
 X77.59310 Y73.76030
 X77.96240 Y74.33920
 X78.45350 Y75.10140
 X78.94310 Y75.85240
 X79.43030 Y76.59140
 X79.91390 Y77.31750
 X80.39320 Y78.02970
 X80.86710 Y78.72710
 X81.33460 Y79.40880
 X81.79470 Y80.07380
 X82.24650 Y80.72110
 X82.68900 Y81.35000
 X83.12110 Y81.95940
 X83.54190 Y82.54850
 X83.95060 Y83.11630
 X84.34580 Y83.66170
 X84.72690 Y84.18400
 X85.09290 Y84.68240
 X85.44260 Y85.15560
 X85.77530 Y85.60290
 X86.08960 Y86.02330
 X86.38490 Y86.41600
 X86.66010 Y86.77990
 X86.91430 Y87.11400
 X87.14640 Y87.41760
 X87.35540 Y87.68990
 X87.54040 Y87.92960
 X87.70040 Y88.13580
 X87.83430 Y88.30790
 X87.94140 Y88.44470
 X88.02060 Y88.54530
 X88.07070 Y88.60890
 X88.08600 Y88.62810
 X88.09110 Y88.63430
 X83.95010 Y91.93070
 X83.93580 Y91.91260
 X83.89280 Y91.85830
 X83.80620 Y91.74890
 X83.69170 Y91.60310
 X83.54990 Y91.42190
 X83.38180 Y91.20610
 X83.18860 Y90.95680
 X82.97100 Y90.67470
 X82.73010 Y90.36070
 X82.46690 Y90.01580
 X82.18240 Y89.64070
 X81.87740 Y89.23640
 X81.55290 Y88.80360
 X81.21010 Y88.34350
 X80.84970 Y87.85670
 X80.47260 Y87.34430
 X80.08010 Y86.80690
 X79.67290 Y86.24570
 X79.25220 Y85.66140
 X78.81880 Y85.05490
 X78.37350 Y84.42710
 X77.91760 Y83.77870
 X77.45190 Y83.11100
 X76.97740 Y82.42440
 X76.49500 Y81.72030
 X76.00570 Y80.99900
 X75.51060 Y80.26180
 X75.01060 Y79.50940
 X74.50640 Y78.74280
 X73.99930 Y77.96280
 X73.49030 Y77.17030
 X72.98000 Y76.36610
 X72.59670 Y75.75540
 X72.46970 Y75.55120
 X72.32070 Y75.71180
 X71.89610 Y76.21470
 X71.37600 Y76.91150
 X70.90920 Y77.64070
 X70.49650 Y78.40080
 X70.13830 Y79.19110
 X69.83490 Y80.01010
 X69.58650 Y80.85690
 X69.39390 Y81.73060
 X69.25710 Y82.62960
 X69.17650 Y83.55310
 X69.15280 Y84.49970
 X69.18610 Y85.46880
 X69.27710 Y86.45860
 X69.42570 Y87.46860
 X69.63260 Y88.49740
 X69.82570 Y89.28400
 X69.89830 Y89.54390
 X69.97630 Y89.82280
 X70.23870 Y90.65180
 X70.63890 Y91.75610
 X71.09740 Y92.85460
 X71.61240 Y93.94500
 X72.18220 Y95.02510
 X72.80540 Y96.09310
 X73.48040 Y97.14620
 X74.20540 Y98.18250
 X74.97920 Y99.19990
 X75.79960 Y100.19600
 X76.66540 Y101.16900
 X77.57510 Y102.11600
 X78.52680 Y103.03500
 X79.51890 Y103.92500
 X80.55000 Y104.78200
 X81.34750 Y105.40400
 X81.61830 Y105.60500
 X81.72900 Y105.68700
 X82.06390 Y105.93000
 X82.52830 Y106.25800
 X83.01140 Y106.58800
 X83.51350 Y106.91900
 X84.03420 Y107.25100
 X84.57390 Y107.58300
 X85.13220 Y107.91300
 X85.70930 Y108.24000
 X86.30530 Y108.56500
 X86.92000 Y108.88500
 X87.55350 Y109.20100
 X88.20570 Y109.51100
 X88.87670 Y109.81500
 X89.56640 Y110.11000
 X90.27490 Y110.39800
 X91.00190 Y110.67600
 X91.74790 Y110.94500
 X92.51250 Y111.20200
 X93.29580 Y111.44700
 X94.09790 Y111.68000
 X94.91870 Y111.89900
 X95.75820 Y112.10400
 X96.61640 Y112.29300
 X97.49320 Y112.46600
 X98.38880 Y112.62200
 X99.30290 Y112.76000
 X100.23600 Y112.87900
 X101.18700 Y112.97900
 X102.15700 Y113.05800
 X103.14600 Y113.11500
 X104.15400 Y113.15000
 X104.92300 Y113.16200
 X105.68900
 X107.21700 Y113.11500
 X109.26900 Y112.97500
 X111.33300 Y112.74100
 X113.40900 Y112.41400
 X115.49600 Y111.99500
 X117.59300 Y111.48300
 X119.69800 Y110.87900
 X121.28700 Y110.36700
 X121.81200 Y110.18300
 X121.60900 Y110.04200
 X121.00800 Y109.61000
 X120.21900 Y109.02200
 X119.44500 Y108.41800
 X118.68500 Y107.80000
 X117.93900 Y107.16800
 X117.20700 Y106.52300
 X116.48800 Y105.86600
 X115.78200 Y105.19600
 X115.08900 Y104.51500
 X114.40700 Y103.82400
 X113.73800 Y103.12300
 X113.08000 Y102.41300
 X112.43300 Y101.69500
 X111.79600 Y100.96900
 X111.17000 Y100.23600
 X110.55300 Y99.49650
 X109.94600 Y98.75150
 X109.34900 Y98.00140
 X108.76000 Y97.24710
 X108.17900 Y96.48920
 X107.60700 Y95.72830
 X107.04200 Y94.96530
 X106.48500 Y94.20060
 X105.93400 Y93.43500
 X105.39000 Y92.66940
 X104.85200 Y91.90430
 X104.32000 Y91.14030
 X103.79400 Y90.37820
 X103.27300 Y89.61860
 X102.75600 Y88.86240
 X102.24300 Y88.11000
 X101.86200 Y87.54920
 X101.73500 Y87.36220
G0 Z-25.0000
 X105.18000 Y118.45400
G1 Z-41.5000
 X104.71900
 X103.33400 Y118.41900
 X101.50600 Y118.31500
 X99.69490 Y118.14200
 X97.90360 Y117.90100
 X96.13350 Y117.59300
 X94.38570 Y117.21700
 X92.66210 Y116.77400
 X90.96380 Y116.26500
 X89.29240 Y115.68900
 X87.64930 Y115.04900
 X86.03600 Y114.34300
 X84.45400 Y113.57300
 X82.90490 Y112.73900
 X81.38990 Y111.84200
 X79.91060 Y110.88100
 X78.82350 Y110.12100
 X78.46830 Y109.85800
 X78.31100 Y109.74100
 X77.84350 Y109.38500
 X77.22890 Y108.90200
 X76.62500 Y108.40800
 X76.03210 Y107.90400
 X75.45030 Y107.39000
 X74.87970 Y106.86700
 X74.32080 Y106.33400
 X73.77380 Y105.79300
 X73.23890 Y105.24300
 X72.71610 Y104.68400
 X72.20600 Y104.11800
 X71.70860 Y103.54400
 X71.22420 Y102.96300
 X70.75290 Y102.37500
 X70.29530 Y101.78100
 X69.85130 Y101.17900
 X69.42110 Y100.57200
 X69.00530 Y99.95970
 X68.60380 Y99.34170
 X68.21690 Y98.71880
 X67.84490 Y98.09100
 X67.48790 Y97.45890
 X67.14640 Y96.82280
 X66.82040 Y96.18290
 X66.51010 Y95.53960
 X66.21600 Y94.89330
 X65.93820 Y94.24420
 X65.67680 Y93.59260
 X65.43220 Y92.93900
 X65.20440 Y92.28360
 X64.99400 Y91.62680
 X64.84720 Y91.13370
 X64.80110 Y90.96880
 X64.74880 Y90.78170
 X64.60220 Y90.21740
 X64.42710 Y89.47080
 X64.27580 Y88.72940
 X64.14790 Y87.99360
 X64.04350 Y87.26330
 X63.96240 Y86.53940
 X63.90460 Y85.82180
 X63.86970 Y85.11080
 X63.85790 Y84.40690
 X63.86900 Y83.71040
 X63.90290 Y83.02140
 X63.95940 Y82.34060
 X64.03860 Y81.66780
 X64.14010 Y81.00360
 X64.26390 Y80.34850
 X64.41000 Y79.70240
 X64.57820 Y79.06580
 X64.76830 Y78.43920
 X64.98030 Y77.82250
 X65.21420 Y77.21640
 X65.46960 Y76.62100
 X65.74670 Y76.03670
 X66.04510 Y75.46360
 X66.36490 Y74.90240
 X66.70600 Y74.35310
 X67.06810 Y73.81610
 X67.45110 Y73.29170
 X67.85510 Y72.78030
 X68.28000 Y72.28210
 X68.72540 Y71.79740
 X69.19140 Y71.32650
 X69.55420 Y70.98180
 X69.67780 Y70.86990
 X69.50680 Y70.56970
 X69.00060 Y69.66500
 X68.33810 Y68.45290
 X67.69260 Y67.23570
 X67.06720 Y66.01610
 X66.46430 Y64.79610
 X65.88670 Y63.57830
 X65.33670 Y62.36530
 X64.94400 Y61.46180
 X64.81720 Y61.15900
 X64.70220 Y61.44490
 X64.33600 Y62.29390
 X63.81880 Y63.39900
 X63.26780 Y64.47490
 X62.68530 Y65.52140
 X62.07360 Y66.53890
 X61.43470 Y67.52760
 X60.77120 Y68.48810
 X60.26000 Y69.18990
 X60.08510 Y69.42030
 X60.20780 Y69.61530
 X60.55220 Y70.21530
 X60.96600 Y71.03070
 X61.32600 Y71.86560
 X61.63210 Y72.71860
 X61.88420 Y73.58860
 X62.08170 Y74.47460
 X62.22470 Y75.37530
 X62.31290 Y76.28940
 X62.34600 Y77.21600
 X62.32380 Y78.15370
 X62.24600 Y79.10140
 X62.11240 Y80.05810
 X61.92280 Y81.02220
 X61.67680 Y81.99290
 X61.37440 Y82.96900
 X61.11110 Y83.70650
 X61.01540 Y83.94920
 X60.92360 Y84.18110
 X60.62680 Y84.86860
 X60.19260 Y85.77810
 X59.71380 Y86.67600
 X59.19130 Y87.56130
 X58.62620 Y88.43280
 X58.01990 Y89.28900
 X57.37310 Y90.12900
 X56.68680 Y90.95150
 X55.96250 Y91.75530
 X55.20080 Y92.53890
 X54.40320 Y93.30120
 X53.57040 Y94.04110
 X52.70360 Y94.75720
 X51.80390 Y95.44850
 X50.87220 Y96.11350
 X50.15320 Y96.59600
 X49.91000 Y96.75110
 X49.64640 Y96.91900
 X48.84360 Y97.40360
 X47.75500 Y98.01610
 X46.64510 Y98.58850
 X45.51510 Y99.12030
 X44.36580 Y99.61140
 X43.19830 Y100.06100
 X42.01390 Y100.47000
 X40.81330 Y100.83700
 X39.59790 Y101.16100
 X38.36850 Y101.44400
 X37.12610 Y101.68400
 X35.87190 Y101.88100
 X34.60690 Y102.03400
 X33.33240 Y102.14400
 X32.04890 Y102.21100
 X31.08070 Y102.23300
 X30.34210
 X29.09430 Y102.19600
 X27.42680 Y102.08400
 X25.75670 Y101.89800
 X24.08560 Y101.63900
 X22.41470 Y101.30700
 X20.74580 Y100.90300
 X19.08030 Y100.42700
 X17.41930 Y99.87930
 X15.76460 Y99.26100
 X14.11740 Y98.57240
 X12.47920 Y97.81390
 X10.85160 Y96.98610
 X9.23583 Y96.08940
 X7.63346 Y95.12460
 X6.04590 Y94.09190
 X4.86268 Y93.27330
 X4.47461 Y92.99180
 X0.00000 Y89.74490
 X5.33436 Y88.29680
 X5.54021 Y88.24080
 X6.15419 Y88.06000
 X6.96376 Y87.79830
 X7.76329 Y87.51280
 X8.55296 Y87.20430
 X9.33290 Y86.87400
 X10.10330 Y86.52260
 X10.86430 Y86.15130
 X11.61620 Y85.76080
 X12.35900 Y85.35220
 X13.09300 Y84.92640
 X13.81830 Y84.48430
 X14.53510 Y84.02690
 X15.24360 Y83.55530
 X15.94390 Y83.07010
 X16.63630 Y82.57260
 X17.32080 Y82.06370
 X17.99780 Y81.54420
 X18.66720 Y81.01510
 X19.32940 Y80.47740
 X19.98460 Y79.93190
 X20.63260 Y79.37970
 X21.27400 Y78.82180
 X21.90890 Y78.25920
 X22.53720 Y77.69250
 X23.15930 Y77.12290
 X23.77540 Y76.55140
 X24.38560 Y75.97890
 X24.99000 Y75.40630
 X25.58890 Y74.83440
 X26.18250 Y74.26460
 X26.77070 Y73.69740
 X27.20820 Y73.27490
 X27.35400 Y73.13400
 X27.50210 Y72.99110
 X27.94630 Y72.56240
 X28.53650 Y71.99360
 X29.12530 Y71.42890
 X29.71260 Y70.86920
 X30.29890 Y70.31540
 X30.88430 Y69.76850
 X31.46900 Y69.22960
 X32.05350 Y68.69970
 X32.63760 Y68.17960
 X33.22190 Y67.67060
 X33.80650 Y67.17330
 X34.39180 Y66.68920
 X34.97760 Y66.21880
 X35.56470 Y65.76330
 X36.15310 Y65.32390
 X36.74280 Y64.90130
 X37.33430 Y64.49650
 X37.92780 Y64.11070
 X38.52360 Y63.74490
 X39.12180 Y63.39970
 X39.72280 Y63.07650
 X40.32650 Y62.77630
 X40.93360 Y62.49990
 X41.54400 Y62.24830
 X42.15810 Y62.02250
 X42.77610 Y61.82360
 X43.39820 Y61.65260
 X44.02470 Y61.51040
 X44.65570 Y61.39810
 X45.29170 Y61.31650
 X45.93260 Y61.26690
 X46.41740 Y61.25000
 X46.74110
 X47.21880 Y61.26600
 X47.85250 Y61.31400
 X48.48320 Y61.39400
 X49.11080 Y61.50630
 X49.73610 Y61.65070
 X50.35890 Y61.82760
 X50.97940 Y62.03680
 X51.59810 Y62.27860
 X52.21500 Y62.55310
 X52.83040 Y62.86030
 X53.44440 Y63.20010
 X54.05750 Y63.57310
 X54.66970 Y63.97890
 X55.28140 Y64.41780
 X55.89260 Y64.88990
 X56.35290 Y65.26640
 X56.50380 Y65.39510
 X56.65070 Y65.18780
 X57.07900 Y64.55670
 X57.63140 Y63.69460
 X58.15860 Y62.80860
 X58.65900 Y61.89860
 X59.13060 Y60.96430
 X59.57120 Y60.00540
 X59.97920 Y59.02150
 X60.35240 Y58.01260
 X60.68890 Y56.97850
 X60.98690 Y55.91860
 X61.24440 Y54.83290
 X61.45940 Y53.72110
 X61.63000 Y52.58290
 X61.75430 Y51.41820
 X61.83030 Y50.22640
 X61.85610 Y49.31220
 Y15.40540
 X67.14780
 Y16.48860
 X67.14790 Y16.80470
 Y17.15680
 X67.14810 Y17.54350
 Y18.41490
 X67.14820 Y18.89650
 Y19.40690
 X67.14830 Y19.94470
 Y20.50850
 X67.14850 Y21.09650
 X67.14860 Y21.70760
 Y22.34030
 X67.14870 Y22.99310
 Y23.66440
 X67.14890 Y24.35290
 Y25.05720
 X67.14900 Y25.77580
 X67.14920 Y26.50740
 X67.14930 Y27.25030
 Y28.00310
 X67.14940 Y28.76440
 X67.14960 Y29.53290
 Y30.30690
 X67.14970 Y31.08510
 X67.14990 Y31.86610
 Y32.64830
 X67.15010 Y34.21080
 X67.15030 Y34.98820
 Y35.76110
 X67.15040 Y36.52810
 X67.15060 Y37.28760
 Y38.03820
 X67.15080 Y39.50720
 Y40.22280
 X67.15100 Y40.92350
 X67.15110 Y41.60820
 Y42.27540
 X67.15130 Y42.92360
 Y43.55140
 X67.15140 Y44.15740
 Y44.73990
 X67.15150 Y45.29780
 Y46.33330
 X67.15170 Y46.80820
 Y47.25250
 X67.15180 Y47.66470
 Y48.69510
 X67.15190 Y48.96490
 Y49.84110
 X67.18080 Y50.45260
 X67.26690 Y51.31420
 X67.40960 Y52.22120
 X67.60780 Y53.17320
 X67.86100 Y54.16960
 X68.16820 Y55.20940
 X68.52870 Y56.29240
 X68.94170 Y57.41750
 X69.40650 Y58.58430
 X69.92220 Y59.79220
 X70.48810 Y61.04030
 X71.10330 Y62.32820
 X71.76710 Y63.65500
 X72.47860 Y65.02030
 X73.23720 Y66.42320
 X73.83850 Y67.50460
 X74.04210 Y67.86320
 X74.34290 Y67.70070
 X75.26110 Y67.24170
 X76.46180 Y66.70470
 X77.64540 Y66.25180
 X78.81370 Y65.88250
 X79.96820 Y65.59610
 X81.11060 Y65.39220
 X82.24210 Y65.27030
 X83.08390 Y65.22970
 X83.59000
 X84.26650 Y65.25670
 X85.14930 Y65.33650
 X86.01350 Y65.46780
 X86.85990 Y65.64870
 X87.68900 Y65.87790
 X88.50170 Y66.15350
 X89.29860 Y66.47390
 X90.08040 Y66.83760
 X90.84780 Y67.24310
 X91.60150 Y67.68870
 X92.34220 Y68.17280
 X93.07060 Y68.69380
 X93.78720 Y69.24990
 X94.49310 Y69.83970
 X95.18850 Y70.46170
 X95.87440 Y71.11400
 X96.55150 Y71.79540
 X97.22040 Y72.50390
 X97.88180 Y73.23810
 X98.53640 Y73.99640
 X99.18470 Y74.77710
 X99.82790 Y75.57860
 X100.46600 Y76.39930
 X101.10000 Y77.23780
 X101.73100 Y78.09220
 X102.35900 Y78.96110
 X102.98600 Y79.84280
 X103.61100 Y80.73560
 X104.23500 Y81.63820
 X104.86000 Y82.54860
 X105.48500 Y83.46560
 X105.95500 Y84.15680
 X106.11200 Y84.38720
 X106.25200 Y84.59430
 X106.67400 Y85.21500
 X107.24200 Y86.04860
 X107.81600 Y86.88680
 X108.39500 Y87.72860
 X108.98100 Y88.57290
 X109.57400 Y89.41860
 X110.17500 Y90.26460
 X110.78300 Y91.10970
 X111.39900 Y91.95310
 X112.02500 Y92.79330
 X112.66000 Y93.62970
 X113.30400 Y94.46070
 X113.95900 Y95.28560
 X114.62400 Y96.10310
 X115.30000 Y96.91190
 X115.98800 Y97.71150
 X116.68800 Y98.50030
 X117.40100 Y99.27740
 X118.12600 Y100.04200
 X118.86500 Y100.79200
 X119.61800 Y101.52700
 X120.38500 Y102.24700
 X121.16700 Y102.94800
 X121.96300 Y103.63200
 X122.77600 Y104.29600
 X123.60500 Y104.94000
 X124.45000 Y105.56200
 X125.31300 Y106.16200
 X126.19300 Y106.73800
 X127.09100 Y107.28800
 X128.00800 Y107.81300
 X128.70700 Y108.19100
 X128.94300 Y108.31100
 X133.85800 Y110.82900
 X128.81600 Y113.08200
 X128.44400 Y113.24800
 X127.32000 Y113.73000
 X125.82600 Y114.33600
 X124.33200 Y114.90100
 X122.84100 Y115.42500
 X121.35100 Y115.90700
 X119.86300 Y116.34800
 X118.37800 Y116.74700
 X116.89600 Y117.10400
 X115.41700 Y117.42000
 X113.94100 Y117.69400
 X112.47000 Y117.92600
 X111.00200 Y118.11500
 X109.53900 Y118.26300
 X108.08100 Y118.36900
 X106.62800 Y118.43200
 X105.54200 Y118.45400
 X105.18000
G0 Z-25.0000
M5 (stop spindle)
G04 P3 (wait for 3 seconds)
G0 Z-25.0000
M2 (end program)
