;PYCAM-META-DATA: Filename: /media/martoio/MARTOIO/ME43/std_lib/svg/006-dog.svg
;PYCAM-META-DATA: Timestamp: 2017-12-11 12:49:48.789961
;PYCAM-META-DATA: Version: 0.5.1
;Estimated machine time: 10 minutes
G40 (disable tool radius compensation)
G49 (disable tool length compensation)
G80 (cancel modal motion)
G54 (select coordinate system 1)
G90 (disable incremental moves)
G21 (metric)
G61 (exact path mode)
F200.00000
S1000.00000
;PYCAM_TOOLPATH_SETTINGS: START
;[Bounds]
;maxz = -40.0
;maxx = 127.622435482
;maxy = 114.51985025
;minx = 0.750233138025
;miny = 1.94137725
;minz = -40.0
;
;[Tool]
;torus_radius = 0.125
;speed = 1000.0
;shape = CylindricalCutter
;tool_radius = 1.5875
;feedrate = 200.0
;
;[Process]
;engrave_offset = 0.0
;step_down = 0.01
;generator = EngraveCutter
;postprocessor = SimpleCutter
;milling_style = conventional
;material_allowance = 0.0
;pocketing_type = holes
;path_direction = x
;
;PYCAM_TOOLPATH_SETTINGS: END
T1 M6
G0 Z-25.0000
 X16.6529 Y82.8632
G1 Z-40.0000
 X16.5213 Y83.0172
 X16.2919 Y83.2673
 X16.0593 Y83.5019
 X15.8272 Y83.7199
 X15.5907 Y83.9261
 X15.3600 Y84.1121
 X16.7140 Y83.0894
 X16.6529 Y82.8632
G0 Z-25.0000
 X21.6932 Y54.6473
G1 Z-40.0000
 X21.5783 Y54.5383
 X21.4612 Y54.4450
 X21.3424 Y54.3665
 X21.2231 Y54.3014
 X21.1039 Y54.2490
 X20.9858 Y54.2081
 X20.8697 Y54.1775
 X20.7563 Y54.1561
 X20.6468 Y54.1429
 X20.5417 Y54.1367
 X20.4420 Y54.1365
 X20.3486 Y54.1412
 X20.2624 Y54.1496
 X20.1841 Y54.1607
 X20.1147 Y54.1734
 X20.0552 Y54.1865
 X19.8220 Y54.2587
 X19.6046 Y54.3579
 X19.4046 Y54.4822
 X19.2240 Y54.6299
 X19.0647 Y54.7995
 X18.9286 Y54.9891
 X18.8174 Y55.1972
 X18.7333 Y55.4216
 X18.5687 Y55.9855
 X18.4027 Y56.5982
 X18.2374 Y57.2602
 X18.0746 Y57.9717
 X17.9163 Y58.7332
 X17.7643 Y59.5448
 X17.6204 Y60.4070
 X17.4868 Y61.3201
 X17.3651 Y62.2842
 X17.2573 Y63.2999
 X17.1654 Y64.3675
 X17.0911 Y65.4872
 X17.0365 Y66.6593
 X17.0034 Y67.8842
 X16.9936 Y69.1622
 X17.0093 Y70.4935
 X17.0175 Y71.1753
 X17.0128 Y71.8312
 X16.9957 Y72.4619
 X16.9668 Y73.0677
 X16.9265 Y73.6493
 X16.8754 Y74.2068
 X16.8140 Y74.7412
 X16.7428 Y75.2528
 X16.6624 Y75.7419
 X16.5732 Y76.2092
 X16.4758 Y76.6553
 X16.3707 Y77.0805
 X16.2584 Y77.4853
 X16.1394 Y77.8703
 X16.0144 Y78.2359
 X15.8836 Y78.5827
 X15.7478 Y78.9110
 X15.6074 Y79.2220
 X15.4630 Y79.5145
 X15.3150 Y79.7912
 X15.1639 Y80.0515
 X15.0104 Y80.2952
 X14.8549 Y80.5240
 X14.6980 Y80.7377
 X14.5400 Y80.9372
 X14.3817 Y81.1225
 X14.2235 Y81.2950
 X14.0658 Y81.4540
 X13.9093 Y81.6010
 X13.7545 Y81.7360
 X13.6019 Y81.8590
 X13.4520 Y81.9722
 X13.5130 Y82.1980
 X13.5801 Y82.4402
 X13.6532 Y82.6990
 X13.7325 Y82.9742
 X13.8180 Y83.2637
 X13.9097 Y83.5682
 X14.0077 Y83.8855
 X14.1121 Y84.2170
 X14.2230 Y84.5597
 X14.3403 Y84.9152
 X14.4642 Y85.2812
 X14.5947 Y85.6577
 X14.7318 Y86.0440
 X14.8756 Y86.4392
 X15.0263 Y86.8435
 X15.1838 Y87.2552
 X15.3482 Y87.6737
 X15.5196 Y88.0990
 X15.6980 Y88.5302
 X15.8835 Y88.9667
 X16.0761 Y89.4077
 X16.2759 Y89.8517
 X16.4830 Y90.2995
 X16.6974 Y90.7502
 X16.9192 Y91.2025
 X17.1484 Y91.6555
 X17.3852 Y92.1100
 X17.6294 Y92.5637
 X17.8814 Y93.0167
 X18.1409 Y93.4690
 X18.4083 Y93.9182
 X18.6834 Y94.3652
 X18.9664 Y94.8085
 X19.2573 Y95.2480
 X19.5561 Y95.6830
 X19.8630 Y96.1127
 X20.1781 Y96.5357
 X20.5012 Y96.9527
 X20.8325 Y97.3622
 X21.1722 Y97.7635
 X21.5202 Y98.1557
 X21.8766 Y98.5397
 X22.2413 Y98.9132
 X22.6147 Y99.2755
 X22.9966 Y99.6272
 X23.3871 Y99.9670
 X23.7863 Y100.2940
 X24.1943 Y100.6075
 X24.6112 Y100.9075
 X25.0368 Y101.1925
 X25.4713 Y101.4625
 X25.9149 Y101.7167
 X26.3675 Y101.9545
 X26.8292 Y102.1750
 X27.3001 Y102.3775
 X27.7802 Y102.5612
 X28.2696 Y102.7262
 X28.7684 Y102.8710
 X29.2765 Y102.9955
 X29.7941 Y103.0990
 X30.3212 Y103.1800
 X30.8579 Y103.2392
 X31.4043 Y103.2752
 X31.9604 Y103.2872
 X32.4351 Y103.2767
 X32.9202 Y103.2460
 X33.4140 Y103.1965
 X33.9143 Y103.1290
 X34.4194 Y103.0465
 X34.9274 Y102.9490
 X35.4364 Y102.8395
 X35.9446 Y102.7172
 X36.4500 Y102.5852
 X36.9509 Y102.4450
 X37.4453 Y102.2972
 X37.9315 Y102.1442
 X38.4074 Y101.9867
 X38.8712 Y101.8262
 X39.3212 Y101.6642
 X39.7553 Y101.5022
 X38.9769 Y101.0470
 X38.2398 Y100.5602
 X37.5424 Y100.0412
 X36.8837 Y99.4930
 X36.2620 Y98.9162
 X35.6762 Y98.3110
 X35.1249 Y97.6795
 X34.6068 Y97.0217
 X34.1207 Y96.3400
 X33.6650 Y95.6350
 X33.2387 Y94.9075
 X32.8403 Y94.1582
 X32.4686 Y93.3895
 X32.1220 Y92.6020
 X31.7995 Y91.7957
 X31.4997 Y90.9737
 X31.2212 Y90.1352
 X30.9627 Y89.2817
 X30.7229 Y88.4155
 X30.5004 Y87.5365
 X30.2941 Y86.6462
 X30.1025 Y85.7455
 X29.9243 Y84.8357
 X29.7581 Y83.9177
 X29.6028 Y82.9930
 X29.4570 Y82.0622
 X29.3193 Y81.1270
 X29.1884 Y80.1872
 X29.0630 Y79.2460
 X28.9419 Y78.3025
 X28.8236 Y77.3587
 X28.7068 Y76.4157
 X28.6117 Y75.6484
 X28.5158 Y74.8801
 X28.4180 Y74.1114
 X28.3181 Y73.3432
 X28.2152 Y72.5759
 X28.1086 Y71.8103
 X27.9974 Y71.0471
 X27.8810 Y70.2867
 X27.7589 Y69.5300
 X27.6301 Y68.7778
 X27.4941 Y68.0304
 X27.3500 Y67.2886
 X27.1972 Y66.5531
 X27.0349 Y65.8246
 X26.8626 Y65.1036
 X26.6794 Y64.3909
 X26.4846 Y63.6871
 X26.2776 Y62.9929
 X26.0576 Y62.3088
 X25.8239 Y61.6357
 X25.5758 Y60.9741
 X25.3126 Y60.3248
 X25.0336 Y59.6883
 X24.7380 Y59.0653
 X24.4251 Y58.4565
 X24.0944 Y57.8626
 X23.7450 Y57.2841
 X23.3762 Y56.7218
 X22.9873 Y56.1763
 X22.5777 Y55.6484
 X22.1466 Y55.1385
 X21.6932 Y54.6473
G0 Z-25.0000
 X48.8438 Y24.0727
G1 Z-40.0000
 X49.3646 Y23.9567
 X49.8917 Y23.8553
 X50.4247 Y23.7688
 X50.9631 Y23.6975
 X51.5066 Y23.6417
 X52.0545 Y23.6016
 X52.6065 Y23.5774
 X53.1622 Y23.5691
 X54.1192 Y23.5961
 Y20.0687
 X54.1358 Y19.4996
 X54.1843 Y18.9389
 X53.7446 Y19.2007
 X53.3193 Y19.4736
 X52.9083 Y19.7572
 X52.5117 Y20.0505
 X52.1292 Y20.3529
 X51.7609 Y20.6636
 X51.4067 Y20.9821
 X51.0665 Y21.3074
 X50.7404 Y21.6389
 X50.4281 Y21.9760
 X50.1297 Y22.3178
 X49.8451 Y22.6635
 X49.5743 Y23.0126
 X49.3172 Y23.3643
 X49.0738 Y23.7180
 X48.8438 Y24.0727
G0 Z-25.0000
 X59.7930 Y21.1041
G1 Z-40.0000
 X59.7419 Y21.0716
 Y21.6926
 X59.7610 Y21.3141
 X59.7930 Y21.1041
G0 Z-25.0000
 X68.2229 Y21.3316
G1 Z-40.0000
 Y20.1050
 X68.2166 Y19.8600
 X68.2009 Y19.6546
 X68.1752 Y19.4526
 X68.1399 Y19.2551
 X68.0950 Y19.0613
 X68.0410 Y18.8712
 X67.9778 Y18.6850
 X67.9058 Y18.5026
 X67.8250 Y18.3242
 X67.7359 Y18.1505
 X67.6388 Y17.9818
 X67.5333 Y17.8174
 X67.4202 Y17.6584
 X67.3000 Y17.5054
 X67.1721 Y17.3578
 X67.0378 Y17.2169
 X66.8965 Y17.0821
 X66.7492 Y16.9544
 X66.5961 Y16.8341
 X66.4372 Y16.7209
 X66.2733 Y16.6157
 X66.1040 Y16.5182
 X65.9305 Y16.4292
 X65.7524 Y16.3486
 X65.5701 Y16.2765
 X65.3838 Y16.2133
 X65.1938 Y16.1592
 X65.0000 Y16.1144
 X64.8023 Y16.0790
 X64.6009 Y16.0533
 X64.3961 Y16.0377
 X64.1869 Y16.0324
 X63.9775 Y16.0377
 X63.7728 Y16.0533
 X63.5713 Y16.0790
 X63.3735 Y16.1144
 X63.1798 Y16.1592
 X62.9899 Y16.2133
 X62.8038 Y16.2764
 X62.6212 Y16.3486
 X62.4429 Y16.4293
 X62.2697 Y16.5182
 X62.1004 Y16.6157
 X61.9361 Y16.7211
 X61.7775 Y16.8341
 X61.6244 Y16.9544
 X61.4772 Y17.0820
 X61.3356 Y17.2170
 X61.2014 Y17.3578
 X61.0736 Y17.5054
 X60.9528 Y17.6590
 X60.8401 Y17.8174
 X60.7348 Y17.9815
 X60.6374 Y18.1507
 X60.5483 Y18.3244
 X60.4678 Y18.5023
 X60.3958 Y18.6847
 X60.3325 Y18.8712
 X60.2785 Y19.0613
 X60.2336 Y19.2551
 X60.1982 Y19.4532
 X60.1725 Y19.6546
 X60.1569 Y19.8594
 X60.1506 Y20.1050
 Y21.3312
 X59.7930 Y21.1041
 X59.8286 Y20.8714
 X59.9386 Y20.4439
 X60.0888 Y20.0331
 X60.2775 Y19.6418
 X60.4999 Y19.2763
 X60.7547 Y18.9350
 X61.0415 Y18.6195
 X61.3562 Y18.3334
 X61.6983 Y18.0775
 X62.0650 Y17.8549
 X62.4540 Y17.6673
 X62.8659 Y17.5163
 X63.2934 Y17.4067
 X63.7356 Y17.3387
 X64.1870 Y17.3162
 X64.6383 Y17.3387
 X65.0802 Y17.4067
 X65.5080 Y17.5164
 X65.9200 Y17.6676
 X66.3086 Y17.8551
 X66.6760 Y18.0782
 X67.0178 Y18.3343
 X67.3319 Y18.6198
 X67.6189 Y18.9358
 X67.8737 Y19.2773
 X68.0962 Y19.6435
 X68.2843 Y20.0343
 X68.4340 Y20.4439
 X68.5443 Y20.8720
 X68.5797 Y21.1050
 X68.2229 Y21.3316
 X68.5797 Y21.1050
 X68.6117 Y21.3148
 X68.6307 Y21.6926
 Y21.0726
 X68.5797 Y21.1050
G0 Z-25.0000
 X74.1884 Y18.9350
G1 Z-40.0000
 X74.2373 Y19.4975
 X74.2545 Y20.0677
 Y23.5961
 X75.2115 Y23.5691
 X75.7676 Y23.5774
 X76.3201 Y23.6016
 X76.8686 Y23.6418
 X77.4126 Y23.6978
 X77.9517 Y23.7692
 X78.4854 Y23.8557
 X79.0133 Y23.9573
 X79.5348 Y24.0737
 X79.3049 Y23.7176
 X79.0615 Y23.3629
 X78.8045 Y23.0101
 X78.5338 Y22.6602
 X78.2492 Y22.3137
 X77.9509 Y21.9716
 X77.6386 Y21.6341
 X77.3122 Y21.3023
 X76.9718 Y20.9769
 X76.6173 Y20.6585
 X76.2485 Y20.3478
 X75.8654 Y20.0456
 X75.4679 Y19.7525
 X75.0560 Y19.4691
 X74.6294 Y19.1964
 X74.1884 Y18.9350
G0 Z-25.0000
 X71.0804 Y20.0687
G1 Z-40.0000
 X71.0714 Y19.7145
 X71.0446 Y19.3649
 X71.0007 Y19.0203
 X70.9400 Y18.6811
 X70.8629 Y18.3479
 X70.7699 Y18.0209
 X70.6613 Y17.7007
 X70.5377 Y17.3878
 X70.3995 Y17.0825
 X70.2471 Y16.7852
 X70.0810 Y16.4966
 X69.9014 Y16.2167
 X69.7091 Y15.9463
 X69.5043 Y15.6858
 X69.2874 Y15.4355
 X69.0591 Y15.1959
 X68.8195 Y14.9675
 X68.5693 Y14.7505
 X68.3087 Y14.5457
 X68.0384 Y14.3532
 X67.7588 Y14.1737
 X67.4700 Y14.0075
 X67.1729 Y13.8550
 X66.8676 Y13.7168
 X66.5547 Y13.5931
 X66.2345 Y13.4845
 X65.9076 Y13.3914
 X65.5744 Y13.3143
 X65.2352 Y13.2536
 X64.8906 Y13.2096
 X64.5410 Y13.1829
 X64.1869 Y13.1740
 X63.8326 Y13.1829
 X63.4830 Y13.2096
 X63.1384 Y13.2536
 X62.7992 Y13.3143
 X62.4659 Y13.3914
 X62.1391 Y13.4845
 X61.8190 Y13.5931
 X61.5061 Y13.7168
 X61.2008 Y13.8550
 X60.9035 Y14.0075
 X60.6149 Y14.1737
 X60.3351 Y14.3532
 X60.0648 Y14.5457
 X59.8043 Y14.7505
 X59.5541 Y14.9675
 X59.3145 Y15.1959
 X59.0861 Y15.4355
 X58.8693 Y15.6858
 X58.6644 Y15.9463
 X58.4720 Y16.2167
 X58.2925 Y16.4966
 X58.1264 Y16.7852
 X57.9739 Y17.0825
 X57.8357 Y17.3878
 X57.7121 Y17.7007
 X57.6035 Y18.0209
 X57.5105 Y18.3479
 X57.4334 Y18.6811
 X57.3728 Y19.0203
 X57.3287 Y19.3649
 X57.3021 Y19.7145
 X57.2931 Y20.0687
 Y24.0282
 X58.0168 Y24.2093
 X58.7260 Y24.4194
 X59.4191 Y24.6585
 X60.0950 Y24.9260
 X60.7523 Y25.2215
 X61.3898 Y25.5446
 X62.0058 Y25.8949
 X62.5994 Y26.2719
 Y21.7646
 X62.6075 Y21.6025
 X62.6316 Y21.4448
 X62.6708 Y21.2928
 X62.7241 Y21.1469
 X62.7910 Y21.0082
 X62.8706 Y20.8774
 X62.9619 Y20.7551
 X63.0644 Y20.6423
 X63.1771 Y20.5399
 X63.2994 Y20.4484
 X63.4302 Y20.3690
 X63.5690 Y20.3021
 X63.7148 Y20.2486
 X63.8669 Y20.2096
 X64.0245 Y20.1854
 X64.1869 Y20.1773
 X64.3491 Y20.1854
 X64.5066 Y20.2096
 X64.6586 Y20.2486
 X64.8044 Y20.3021
 X64.9430 Y20.3690
 X65.0738 Y20.4484
 X65.1959 Y20.5399
 X65.3087 Y20.6423
 X65.4110 Y20.7551
 X65.5023 Y20.8774
 X65.5818 Y21.0082
 X65.6486 Y21.1469
 X65.7019 Y21.2928
 X65.7410 Y21.4448
 X65.7650 Y21.6025
 X65.7732 Y21.7646
 Y26.2719
 X66.3670 Y25.8949
 X66.9833 Y25.5446
 X67.6206 Y25.2215
 X68.2779 Y24.9260
 X68.9537 Y24.6585
 X69.6471 Y24.4194
 X70.3562 Y24.2093
 X71.0804 Y24.0282
 Y20.0687
G0 Z-25.0000
 X69.9136 Y43.8451
G1 Z-40.0000
 X69.9058 Y43.8293
 X69.8810 Y43.7869
 X69.8433 Y43.7310
 X69.7900 Y43.6615
 X69.7195 Y43.5788
 X69.6333 Y43.4871
 X69.5301 Y43.3869
 X69.4104 Y43.2796
 X69.2747 Y43.1664
 X69.1245 Y43.0494
 X68.9609 Y42.9296
 X68.7833 Y42.8069
 X68.5939 Y42.6825
 X68.3938 Y42.5574
 X68.1843 Y42.4320
 X67.9659 Y42.3067
 X67.7403 Y42.1818
 X67.5079 Y42.0576
 X67.2695 Y41.9340
 X67.0266 Y41.8115
 X66.7804 Y41.6903
 X66.5318 Y41.5705
 X66.2806 Y41.4516
 X66.0286 Y41.3341
 X65.7758 Y41.2176
 X65.5243 Y41.1024
 X65.2698 Y40.9865
 X65.2222 Y40.9646
 X64.9192 Y40.8457
 X64.6788 Y40.7802
 X64.4337 Y40.7408
 X64.1868 Y40.7276
 X63.9399 Y40.7408
 X63.6948 Y40.7802
 X63.4541 Y40.8458
 X63.1527 Y40.9640
 X63.1053 Y40.9859
 X62.8490 Y41.1025
 X62.5976 Y41.2176
 X62.3453 Y41.3340
 X62.0934 Y41.4515
 X61.8418 Y41.5706
 X61.5929 Y41.6904
 X61.3471 Y41.8115
 X61.1045 Y41.9338
 X60.8657 Y42.0577
 X60.6332 Y42.1819
 X60.4079 Y42.3066
 X60.1894 Y42.4320
 X59.9798 Y42.5574
 X59.7796 Y42.6826
 X59.5903 Y42.8069
 X59.4132 Y42.9294
 X59.2493 Y43.0494
 X59.0990 Y43.1664
 X58.9633 Y43.2796
 X58.8436 Y43.3869
 X58.7402 Y43.4873
 X58.6541 Y43.5788
 X58.5841 Y43.6609
 X58.5305 Y43.7310
 X58.4924 Y43.7875
 X58.4678 Y43.8293
 X58.4600 Y43.8451
 X58.4603 Y43.8474
 X58.4657 Y43.8723
 X58.4761 Y43.9061
 X58.4939 Y43.9516
 X58.5213 Y44.0085
 X58.5603 Y44.0766
 X58.6133 Y44.1562
 X58.6814 Y44.2457
 X58.7655 Y44.3435
 X58.8667 Y44.4486
 X58.9850 Y44.5591
 X59.1200 Y44.6729
 X59.2725 Y44.7896
 X59.4412 Y44.9071
 X59.6261 Y45.0243
 X59.8265 Y45.1401
 X60.0416 Y45.2532
 X60.2713 Y45.3631
 X60.5133 Y45.4681
 X60.7688 Y45.5682
 X61.0363 Y45.6627
 X61.3139 Y45.7501
 X61.6020 Y45.8303
 X61.9002 Y45.9030
 X62.2065 Y45.9672
 X62.5207 Y46.0226
 X62.8424 Y46.0688
 X63.1711 Y46.1054
 X63.5050 Y46.1321
 X63.8432 Y46.1482
 X64.1869 Y46.1537
 X64.5303 Y46.1482
 X64.8686 Y46.1321
 X65.2024 Y46.1054
 X65.5312 Y46.0688
 X65.8529 Y46.0226
 X66.1671 Y45.9672
 X66.4733 Y45.9030
 X66.7715 Y45.8303
 X67.0597 Y45.7501
 X67.3372 Y45.6627
 X67.6049 Y45.5682
 X67.8602 Y45.4681
 X68.1024 Y45.3630
 X68.3320 Y45.2532
 X68.5469 Y45.1401
 X68.7474 Y45.0243
 X68.9324 Y44.9071
 X69.1012 Y44.7895
 X69.2540 Y44.6727
 X69.3889 Y44.5589
 X69.5070 Y44.4486
 X69.6082 Y44.3435
 X69.6923 Y44.2457
 X69.7603 Y44.1564
 X69.8132 Y44.0768
 X69.8525 Y44.0082
 X69.8799 Y43.9513
 X69.8977 Y43.9061
 X69.9080 Y43.8723
 X69.9133 Y43.8477
 X69.9136 Y43.8451
 X72.7766 Y43.8140
 X72.7660 Y43.5778
 X72.7349 Y43.3466
 X72.6841 Y43.1205
 X72.6144 Y42.8993
 X72.5268 Y42.6829
 X72.4220 Y42.4713
 X72.3008 Y42.2645
 X72.1644 Y42.0622
 X72.0131 Y41.8646
 X71.8482 Y41.6712
 X71.6705 Y41.4824
 X71.4806 Y41.2978
 X71.2795 Y41.1175
 X71.0681 Y40.9413
 X70.8471 Y40.7691
 X70.6175 Y40.6010
 X70.3800 Y40.4369
 X70.1357 Y40.2764
 X69.8851 Y40.1198
 X69.6294 Y39.9668
 X69.3692 Y39.8174
 X69.1055 Y39.6714
 X68.8390 Y39.5291
 X68.5706 Y39.3899
 X68.3012 Y39.2540
 X68.0318 Y39.1213
 X67.7630 Y38.9918
 X67.4957 Y38.8653
 X67.2306 Y38.7417
 X66.9689 Y38.6210
 X66.7112 Y38.5031
 X66.4586 Y38.3880
 X66.3416 Y38.3342
 X65.8195 Y38.1294
 X65.2832 Y37.9832
 X64.7373 Y37.8954
 X64.1868 Y37.8661
 X63.6362 Y37.8954
 X63.0905 Y37.9832
 X62.5540 Y38.1294
 X62.0318 Y38.3342
 X61.9151 Y38.3880
 X61.6624 Y38.5031
 X61.4047 Y38.6210
 X61.1429 Y38.7417
 X60.8780 Y38.8653
 X60.6107 Y38.9918
 X60.3419 Y39.1213
 X60.0723 Y39.2540
 X59.8031 Y39.3899
 X59.5347 Y39.5291
 X59.2682 Y39.6714
 X59.0045 Y39.8174
 X58.7443 Y39.9668
 X58.4885 Y40.1198
 X58.2380 Y40.2764
 X57.9935 Y40.4369
 X57.7562 Y40.6010
 X57.5266 Y40.7691
 X57.3056 Y40.9413
 X57.0942 Y41.1175
 X56.8931 Y41.2978
 X56.7032 Y41.4824
 X56.5254 Y41.6712
 X56.3606 Y41.8646
 X56.2094 Y42.0622
 X56.0729 Y42.2645
 X55.9517 Y42.4713
 X55.8469 Y42.6829
 X55.7592 Y42.8993
 X55.6896 Y43.1205
 X55.6388 Y43.3466
 X55.6077 Y43.5778
 X55.5972 Y43.8140
 X55.6085 Y44.0768
 X55.6424 Y44.3366
 X55.6982 Y44.5933
 X55.7753 Y44.8462
 X55.8731 Y45.0952
 X55.9908 Y45.3398
 X56.1282 Y45.5798
 X56.2845 Y45.8147
 X56.4592 Y46.0442
 X56.6516 Y46.2679
 X56.8612 Y46.4855
 X57.0873 Y46.6967
 X57.3294 Y46.9009
 X57.5870 Y47.0980
 X57.8593 Y47.2876
 X58.1459 Y47.4692
 X58.4462 Y47.6427
 X58.7595 Y47.8075
 X59.0852 Y47.9633
 X59.4228 Y48.1099
 X59.7718 Y48.2466
 X60.1313 Y48.3735
 X60.5012 Y48.4900
 X60.8804 Y48.5956
 X61.2686 Y48.6902
 X61.6651 Y48.7733
 X62.0695 Y48.8446
 X62.4809 Y48.9037
 X62.8990 Y48.9503
 X63.3230 Y48.9842
 X63.7525 Y49.0046
 X64.1869 Y49.0115
 X64.6211 Y49.0046
 X65.0505 Y48.9842
 X65.4746 Y48.9503
 X65.8926 Y48.9037
 X66.3041 Y48.8446
 X66.7085 Y48.7733
 X67.1050 Y48.6902
 X67.4931 Y48.5956
 X67.8724 Y48.4900
 X68.2421 Y48.3735
 X68.6018 Y48.2466
 X68.9507 Y48.1099
 X69.2883 Y47.9633
 X69.6141 Y47.8075
 X69.9274 Y47.6427
 X70.2276 Y47.4692
 X70.5143 Y47.2876
 X70.7866 Y47.0980
 X71.0442 Y46.9009
 X71.2864 Y46.6967
 X71.5125 Y46.4855
 X71.7221 Y46.2679
 X71.9145 Y46.0442
 X72.0892 Y45.8147
 X72.2454 Y45.5798
 X72.3828 Y45.3398
 X72.5006 Y45.0952
 X72.5984 Y44.8462
 X72.6755 Y44.5933
 X72.7313 Y44.3366
 X72.7651 Y44.0768
 X72.7766 Y43.8140
G0 Z-25.0000
 X111.3632 Y70.4935
G1 Z-40.0000
 X111.3789 Y69.1622
 X111.3692 Y67.8842
 X111.3362 Y66.6593
 X111.2822 Y65.4872
 X111.2079 Y64.3675
 X111.1157 Y63.2999
 X111.0084 Y62.2842
 X110.8869 Y61.3201
 X110.7527 Y60.4070
 X110.6094 Y59.5448
 X110.4572 Y58.7332
 X110.2989 Y57.9717
 X110.1362 Y57.2602
 X109.9712 Y56.5982
 X109.8047 Y55.9855
 X109.6404 Y55.4216
 X109.5564 Y55.1972
 X109.4447 Y54.9891
 X109.3089 Y54.7995
 X109.1499 Y54.6299
 X108.9692 Y54.4822
 X108.7689 Y54.3579
 X108.5514 Y54.2587
 X108.3189 Y54.1865
 X108.2589 Y54.1734
 X108.1892 Y54.1607
 X108.1112 Y54.1496
 X108.0249 Y54.1412
 X107.9312 Y54.1365
 X107.8314 Y54.1367
 X107.7264 Y54.1429
 X107.6169 Y54.1561
 X107.5037 Y54.1775
 X107.3874 Y54.2081
 X107.2697 Y54.2490
 X107.1504 Y54.3014
 X107.0312 Y54.3665
 X106.9127 Y54.4450
 X106.7949 Y54.5383
 X106.6802 Y54.6473
 X106.2272 Y55.1385
 X105.7959 Y55.6484
 X105.3864 Y56.1763
 X104.9972 Y56.7218
 X104.6282 Y57.2841
 X104.2794 Y57.8626
 X103.9487 Y58.4565
 X103.6352 Y59.0653
 X103.3397 Y59.6883
 X103.0607 Y60.3248
 X102.7982 Y60.9741
 X102.5499 Y61.6357
 X102.3159 Y62.3088
 X102.0962 Y62.9929
 X101.8892 Y63.6871
 X101.6942 Y64.3909
 X101.5112 Y65.1036
 X101.3387 Y65.8246
 X101.1767 Y66.5531
 X101.0237 Y67.2886
 X100.8797 Y68.0304
 X100.7432 Y68.7778
 X100.6149 Y69.5300
 X100.4927 Y70.2867
 X100.3764 Y71.0471
 X100.2647 Y71.8103
 X100.1582 Y72.5759
 X100.0554 Y73.3432
 X99.9557 Y74.1114
 X99.8582 Y74.8801
 X99.7614 Y75.6484
 X99.6669 Y76.4157
 X99.5402 Y77.4397
 X99.4104 Y78.4662
 X99.2777 Y79.4935
 X99.1389 Y80.5202
 X98.9934 Y81.5447
 X98.8389 Y82.5655
 X98.6732 Y83.5795
 X98.4954 Y84.5867
 X98.3042 Y85.5842
 X98.0964 Y86.5712
 X97.8722 Y87.5455
 X97.6284 Y88.5055
 X97.3637 Y89.4490
 X97.0772 Y90.3752
 X96.7659 Y91.2820
 X96.4299 Y92.1677
 X96.3617 Y92.3155
 X96.2814 Y92.4527
 X96.1884 Y92.5795
 X96.0842 Y92.6950
 X95.9709 Y92.7985
 X95.8487 Y92.8907
 X95.7182 Y92.9702
 X95.5809 Y93.0370
 X95.4384 Y93.0895
 X95.2914 Y93.1292
 X95.1399 Y93.1547
 X94.9862 Y93.1652
 X94.8309 Y93.1607
 X94.6757 Y93.1405
 X94.5204 Y93.1037
 X94.3667 Y93.0512
 X94.2189 Y92.9837
 X94.0817 Y92.9027
 X93.9549 Y92.8097
 X93.8394 Y92.7062
 X93.7352 Y92.5922
 X93.6437 Y92.4700
 X93.5642 Y92.3395
 X93.4974 Y92.2030
 X93.4442 Y92.0597
 X93.4052 Y91.9127
 X93.3797 Y91.7620
 X93.3692 Y91.6082
 X93.3737 Y91.4530
 X93.3939 Y91.2970
 X93.4307 Y91.1417
 X93.4832 Y90.9887
 X93.7922 Y90.1750
 X94.0779 Y89.3417
 X94.3412 Y88.4882
 X94.5849 Y87.6167
 X94.8092 Y86.7272
 X95.0177 Y85.8205
 X95.2097 Y84.8987
 X95.3882 Y83.9612
 X95.5547 Y83.0095
 X95.7107 Y82.0450
 X95.8584 Y81.0677
 X95.9979 Y80.0785
 X96.1322 Y79.0795
 X96.2627 Y78.0702
 X96.3902 Y77.0521
 X96.5177 Y76.0260
 X96.5994 Y75.3678
 X96.6812 Y74.7087
 X96.7644 Y74.0492
 X96.8484 Y73.3897
 X96.9347 Y72.7302
 X97.0239 Y72.0712
 X97.1154 Y71.4131
 X97.2099 Y70.7561
 X97.3082 Y70.1007
 X97.4109 Y69.4470
 X97.5174 Y68.7955
 X97.6299 Y68.1464
 X97.7469 Y67.5002
 X97.8699 Y66.8570
 X97.9997 Y66.2173
 X98.1354 Y65.5812
 X98.2787 Y64.9493
 X98.4294 Y64.3218
 X98.5884 Y63.6992
 X98.7557 Y63.0814
 X98.9319 Y62.4692
 X99.1172 Y61.8625
 X99.3122 Y61.2620
 X99.5177 Y60.6678
 X99.7337 Y60.0803
 X99.9609 Y59.4998
 X100.1994 Y58.9266
 X100.4499 Y58.3611
 X100.7124 Y57.8036
 X100.9884 Y57.2544
 X101.2772 Y56.7138
 X101.5802 Y56.1823
 X101.5104 Y55.5912
 X101.4294 Y55.0086
 X101.3387 Y54.4344
 X101.2374 Y53.8689
 X101.1264 Y53.3120
 X101.0064 Y52.7639
 X100.8774 Y52.2247
 X100.7402 Y51.6944
 X100.5954 Y51.1730
 X100.4432 Y50.6608
 X100.2842 Y50.1578
 X100.1192 Y49.6640
 X99.9474 Y49.1797
 X99.7704 Y48.7046
 X99.5882 Y48.2393
 X99.4014 Y47.7834
 X99.2102 Y47.3374
 X99.0159 Y46.9010
 X98.8179 Y46.4746
 X98.6169 Y46.0581
 X98.4137 Y45.6518
 X98.2089 Y45.2554
 X98.0019 Y44.8694
 X97.7949 Y44.4936
 X97.5864 Y44.1282
 X97.3779 Y43.7733
 X97.1702 Y43.4291
 X96.9632 Y43.0953
 X96.7577 Y42.7724
 X96.5529 Y42.4603
 X96.3512 Y42.1590
 X96.1517 Y41.8688
 X95.7834 Y41.3508
 X95.4069 Y40.8425
 X95.0222 Y40.3440
 X94.6292 Y39.8561
 X94.2294 Y39.3791
 X93.8229 Y38.9136
 X93.4104 Y38.4599
 X92.9919 Y38.0186
 X92.5689 Y37.5902
 X92.1407 Y37.1749
 X91.7087 Y36.7734
 X91.2722 Y36.3860
 X90.8334 Y36.0134
 X90.3917 Y35.6558
 X89.9484 Y35.3138
 X89.5029 Y34.9878
 X89.4564 Y35.5134
 X89.3777 Y36.0334
 X89.2682 Y36.5471
 X89.1279 Y37.0538
 X88.9562 Y37.5530
 X88.7544 Y38.0441
 X88.5227 Y38.5261
 X88.2617 Y38.9987
 X87.9707 Y39.4612
 X87.6512 Y39.9129
 X87.3032 Y40.3532
 X86.9267 Y40.7814
 X86.5224 Y41.1969
 X86.0904 Y41.5991
 X85.6314 Y41.9873
 X85.1462 Y42.3609
 X84.6597 Y42.7014
 X84.1562 Y43.0230
 X83.6363 Y43.3253
 X83.1008 Y43.6080
 X82.5503 Y43.8710
 X81.9857 Y44.1140
 X81.4079 Y44.3369
 X80.8176 Y44.5391
 X80.2159 Y44.7208
 X79.6034 Y44.8814
 X78.9809 Y45.0208
 X78.3492 Y45.1388
 X77.7092 Y45.2351
 X77.0618 Y45.3093
 X76.4077 Y45.3615
 X75.7478 Y45.3912
 X75.6423 Y45.7550
 X75.5156 Y46.1125
 X75.3683 Y46.4632
 X75.2006 Y46.8068
 X75.0129 Y47.1431
 X74.8061 Y47.4716
 X74.5803 Y47.7920
 X74.3362 Y48.1040
 X74.0741 Y48.4072
 X73.7945 Y48.7012
 X73.4981 Y48.9858
 X73.1850 Y49.2607
 X72.8560 Y49.5255
 X72.5113 Y49.7798
 X72.1516 Y50.0233
 X71.7773 Y50.2557
 X71.3888 Y50.4767
 X70.9867 Y50.6857
 X70.5713 Y50.8827
 X70.1434 Y51.0671
 X69.7031 Y51.2388
 X69.2510 Y51.3974
 X68.7876 Y51.5423
 X68.3133 Y51.6736
 X67.8289 Y51.7906
 X67.3344 Y51.8932
 X66.8306 Y51.9808
 X66.3179 Y52.0533
 X65.7966 Y52.1103
 X65.2673 Y52.1514
 X64.7306 Y52.1763
 X64.1869 Y52.1846
 X63.6431 Y52.1763
 X63.1063 Y52.1514
 X62.5770 Y52.1103
 X62.0558 Y52.0533
 X61.5431 Y51.9808
 X61.0392 Y51.8932
 X60.5447 Y51.7906
 X60.0602 Y51.6736
 X59.5859 Y51.5423
 X59.1226 Y51.3974
 X58.6706 Y51.2388
 X58.2303 Y51.0671
 X57.8022 Y50.8826
 X57.3870 Y50.6856
 X56.9848 Y50.4765
 X56.5964 Y50.2556
 X56.2221 Y50.0232
 X55.8624 Y49.7795
 X55.5179 Y49.5253
 X55.1888 Y49.2605
 X54.8759 Y48.9856
 X54.5794 Y48.7009
 X54.2998 Y48.4067
 X54.0378 Y48.1035
 X53.7937 Y47.7914
 X53.5679 Y47.4710
 X53.3612 Y47.1425
 X53.1737 Y46.8061
 X53.0060 Y46.4624
 X52.8586 Y46.1117
 X52.7320 Y45.7541
 X52.6267 Y45.3902
 X52.0610 Y45.3665
 X51.4980 Y45.3266
 X50.9387 Y45.2701
 X50.3841 Y45.1970
 X50.2249 Y45.1649
 X50.0726 Y45.1179
 X49.9281 Y45.0569
 X49.7918 Y44.9825
 X49.6645 Y44.8960
 X49.5468 Y44.7981
 X49.4395 Y44.6897
 X49.3431 Y44.5718
 X49.2584 Y44.4453
 X49.1861 Y44.3110
 X49.1267 Y44.1698
 X49.0811 Y44.0228
 X49.0498 Y43.8707
 X49.0334 Y43.7144
 X49.0328 Y43.5551
 X49.0487 Y43.3933
 X49.0770 Y43.2484
 X49.1178 Y43.1091
 X49.1705 Y42.9760
 X49.2342 Y42.8497
 X49.3084 Y42.7305
 X49.3922 Y42.6189
 X49.4850 Y42.5157
 X49.5863 Y42.4211
 X49.6953 Y42.3358
 X49.8113 Y42.2603
 X49.9334 Y42.1949
 X50.0614 Y42.1403
 X50.1943 Y42.0969
 X50.3314 Y42.0654
 X50.4720 Y42.0461
 X50.6156 Y42.0395
 X50.8511 Y42.0569
 X51.7379 Y42.1628
 X52.6370 Y42.2173
 X52.7378 Y41.8907
 X52.8562 Y41.5736
 X52.9915 Y41.2658
 X53.1428 Y40.9670
 X53.3094 Y40.6772
 X53.4905 Y40.3961
 X53.6850 Y40.1235
 X53.8924 Y39.8591
 X54.1117 Y39.6030
 X54.3423 Y39.3547
 X54.5832 Y39.1142
 X54.8336 Y38.8811
 X55.0929 Y38.6554
 X55.3600 Y38.4368
 X55.6342 Y38.2252
 X55.9148 Y38.0203
 X56.2009 Y37.8219
 X56.4916 Y37.6300
 X56.7862 Y37.4441
 X57.0839 Y37.2642
 X57.3838 Y37.0901
 X57.6851 Y36.9215
 X57.9871 Y36.7583
 X58.2889 Y36.6004
 X58.5897 Y36.4474
 X58.8887 Y36.2991
 X59.1851 Y36.1555
 X59.4780 Y36.0162
 X59.7668 Y35.8812
 X60.0504 Y35.7502
 X60.3282 Y35.6229
 X60.5994 Y35.4992
 X60.7163 Y35.4467
 X61.1335 Y35.2700
 X61.5574 Y35.1168
 X61.9870 Y34.9871
 X62.4214 Y34.8810
 X62.8597 Y34.7983
 X63.3008 Y34.7393
 X63.7439 Y34.7038
 X64.1879 Y34.6919
 X64.6315 Y34.7038
 X65.0743 Y34.7393
 X65.5151 Y34.7983
 X65.9534 Y34.8810
 X66.3878 Y34.9871
 X66.8173 Y35.1168
 X67.2412 Y35.2700
 X67.6585 Y35.4467
 X67.7751 Y35.4992
 X68.0462 Y35.6229
 X68.3241 Y35.7502
 X68.6078 Y35.8812
 X68.8964 Y36.0162
 X69.1894 Y36.1555
 X69.4857 Y36.2991
 X69.7848 Y36.4474
 X70.0856 Y36.6004
 X70.3874 Y36.7583
 X70.6894 Y36.9215
 X70.9907 Y37.0901
 X71.2907 Y37.2642
 X71.5883 Y37.4441
 X71.8829 Y37.6300
 X72.1736 Y37.8219
 X72.4597 Y38.0203
 X72.7403 Y38.2252
 X73.0146 Y38.4368
 X73.2817 Y38.6554
 X73.5409 Y38.8811
 X73.7914 Y39.1142
 X74.0323 Y39.3547
 X74.2628 Y39.6030
 X74.4822 Y39.8591
 X74.6896 Y40.1235
 X74.8842 Y40.3961
 X75.0651 Y40.6772
 X75.2317 Y40.9670
 X75.3830 Y41.2658
 X75.5183 Y41.5736
 X75.6367 Y41.8907
 X75.7375 Y42.2173
 X76.2867 Y42.1901
 X76.8282 Y42.1445
 X77.3617 Y42.0810
 X77.8862 Y42.0002
 X78.4012 Y41.9024
 X78.9061 Y41.7879
 X79.4001 Y41.6575
 X79.8826 Y41.5115
 X80.3531 Y41.3502
 X80.8109 Y41.1743
 X81.2551 Y40.9839
 X81.6854 Y40.7798
 X82.1011 Y40.5623
 X82.5013 Y40.3319
 X82.8855 Y40.0890
 X83.2532 Y39.8342
 X83.6036 Y39.5677
 X83.9360 Y39.2900
 X84.2499 Y39.0017
 X84.5446 Y38.7031
 X84.8194 Y38.3948
 X85.0734 Y38.0771
 X85.3067 Y37.7505
 X85.5182 Y37.4155
 X85.7072 Y37.0724
 X85.8729 Y36.7218
 X86.0147 Y36.3642
 X86.1324 Y35.9999
 X86.2254 Y35.6294
 X86.2922 Y35.2533
 X86.3334 Y34.8717
 X86.3469 Y34.4854
 X86.3319 Y34.0876
 X86.2892 Y33.6949
 X86.2179 Y33.3078
 X86.1204 Y32.9268
 X85.9959 Y32.5526
 X85.8452 Y32.1854
 X85.6697 Y31.8259
 X85.4702 Y31.4744
 X85.2474 Y31.1315
 X85.0007 Y30.7978
 X84.7324 Y30.4735
 X84.4425 Y30.1593
 X84.1318 Y29.8558
 X83.8010 Y29.5632
 X83.4507 Y29.2822
 X83.0818 Y29.0132
 X82.6949 Y28.7567
 X82.2908 Y28.5131
 X81.8699 Y28.2831
 X81.4334 Y28.0670
 X80.9815 Y27.8655
 X80.5152 Y27.6788
 X80.0352 Y27.5077
 X79.5422 Y27.3524
 X79.0368 Y27.2136
 X78.5197 Y27.0917
 X77.9918 Y26.9873
 X77.4536 Y26.9007
 X76.9058 Y26.8325
 X76.3493 Y26.7832
 X75.7846 Y26.7532
 X75.2125 Y26.7431
 X74.6372 Y26.7533
 X74.0676 Y26.7837
 X73.5044 Y26.8341
 X72.9483 Y26.9043
 X72.4004 Y26.9940
 X71.8613 Y27.1031
 X71.3316 Y27.2311
 X70.8122 Y27.3780
 X70.3040 Y27.5434
 X69.8076 Y27.7273
 X69.3239 Y27.9291
 X68.8535 Y28.1489
 X68.3975 Y28.3863
 X67.9564 Y28.6411
 X67.5310 Y28.9130
 X67.1221 Y29.2019
 X66.7904 Y29.4275
 X66.4446 Y29.6231
 X66.0868 Y29.7886
 X65.7188 Y29.9240
 X65.3430 Y30.0293
 X64.9610 Y30.1046
 X64.5752 Y30.1496
 X64.1872 Y30.1648
 X63.7994 Y30.1496
 X63.4135 Y30.1046
 X63.0316 Y30.0293
 X62.6556 Y29.9240
 X62.2878 Y29.7886
 X61.9300 Y29.6231
 X61.5843 Y29.4275
 X61.2526 Y29.2019
 X60.8437 Y28.9130
 X60.4184 Y28.6411
 X59.9772 Y28.3863
 X59.5211 Y28.1489
 X59.0507 Y27.9291
 X58.5671 Y27.7273
 X58.0707 Y27.5434
 X57.5625 Y27.3780
 X57.0432 Y27.2311
 X56.5136 Y27.1031
 X55.9745 Y26.9940
 X55.4266 Y26.9043
 X54.8708 Y26.8341
 X54.3077 Y26.7837
 X53.7383 Y26.7533
 X53.1632 Y26.7431
 X52.5911 Y26.7532
 X52.0265 Y26.7832
 X51.4699 Y26.8325
 X50.9222 Y26.9007
 X50.3840 Y26.9873
 X49.8560 Y27.0917
 X49.3390 Y27.2136
 X48.8336 Y27.3524
 X48.3405 Y27.5077
 X47.8605 Y27.6788
 X47.3943 Y27.8655
 X46.9424 Y28.0670
 X46.5059 Y28.2831
 X46.0850 Y28.5131
 X45.6809 Y28.7567
 X45.2940 Y29.0132
 X44.9250 Y29.2822
 X44.5748 Y29.5632
 X44.2439 Y29.8558
 X43.9332 Y30.1593
 X43.6433 Y30.4735
 X43.3749 Y30.7978
 X43.1287 Y31.1315
 X42.9054 Y31.4744
 X42.7058 Y31.8259
 X42.5304 Y32.1854
 X42.3803 Y32.5526
 X42.2556 Y32.9268
 X42.1575 Y33.3078
 X42.0866 Y33.6949
 X42.0436 Y34.0876
 X42.0291 Y34.4854
 X42.0407 Y34.8342
 X42.0750 Y35.1813
 X42.1322 Y35.5262
 X42.2118 Y35.8683
 X42.3136 Y36.2072
 X42.4371 Y36.5423
 X42.5823 Y36.8732
 X42.7489 Y37.1994
 X42.9365 Y37.5205
 X43.1449 Y37.8359
 X43.3739 Y38.1451
 X43.6230 Y38.4477
 X43.8923 Y38.7431
 X44.1814 Y39.0309
 X44.4898 Y39.3107
 X44.8175 Y39.5817
 X44.9396 Y39.6888
 X45.0482 Y39.8055
 X45.1433 Y39.9305
 X45.2245 Y40.0628
 X45.2919 Y40.2013
 X45.3451 Y40.3448
 X45.3844 Y40.4924
 X45.4092 Y40.6426
 X45.4197 Y40.7945
 X45.4155 Y40.9470
 X45.3968 Y41.0990
 X45.3632 Y41.2493
 X45.3146 Y41.3967
 X45.2510 Y41.5403
 X45.1720 Y41.6788
 X45.0779 Y41.8111
 X44.9708 Y41.9333
 X44.8542 Y42.0419
 X44.7292 Y42.1370
 X44.5969 Y42.2182
 X44.4586 Y42.2855
 X44.3150 Y42.3388
 X44.1677 Y42.3780
 X44.0175 Y42.4029
 X43.8656 Y42.4133
 X43.7132 Y42.4092
 X43.5614 Y42.3904
 X43.4111 Y42.3569
 X43.2638 Y42.3082
 X43.1204 Y42.2446
 X42.9819 Y42.1657
 X42.8495 Y42.0714
 X42.4070 Y41.7053
 X41.9888 Y41.3261
 X41.5953 Y40.9344
 X41.2269 Y40.5310
 X40.8836 Y40.1163
 X40.5662 Y39.6910
 X40.2746 Y39.2557
 X40.0093 Y38.8110
 X39.7706 Y38.3576
 X39.5587 Y37.8959
 X39.3742 Y37.4267
 X39.2170 Y36.9504
 X39.0878 Y36.4678
 X38.9868 Y35.9795
 X38.9142 Y35.4859
 X38.8704 Y34.9878
 X38.4254 Y35.3138
 X37.9819 Y35.6558
 X37.5404 Y36.0134
 X37.1016 Y36.3860
 X36.6659 Y36.7734
 X36.2338 Y37.1749
 X35.8058 Y37.5902
 X35.3823 Y38.0186
 X34.9640 Y38.4599
 X34.5515 Y38.9136
 X34.1450 Y39.3791
 X33.7451 Y39.8561
 X33.3525 Y40.3440
 X32.9676 Y40.8425
 X32.5908 Y41.3508
 X32.2229 Y41.8688
 X32.0234 Y42.1589
 X31.8214 Y42.4601
 X31.6172 Y42.7721
 X31.4114 Y43.0951
 X31.2043 Y43.4286
 X30.9964 Y43.7729
 X30.7881 Y44.1278
 X30.5800 Y44.4931
 X30.3724 Y44.8688
 X30.1658 Y45.2549
 X29.9607 Y45.6512
 X29.7576 Y46.0577
 X29.5568 Y46.4741
 X29.3588 Y46.9006
 X29.1642 Y47.3369
 X28.9733 Y47.7831
 X28.7865 Y48.2388
 X28.6043 Y48.7043
 X28.4273 Y49.1792
 X28.2557 Y49.6637
 X28.0904 Y50.1575
 X27.9313 Y50.6606
 X27.7791 Y51.1729
 X27.6343 Y51.6941
 X27.4973 Y52.2245
 X27.3686 Y52.7638
 X27.2485 Y53.3120
 X27.1376 Y53.8688
 X27.0364 Y54.4344
 X26.9453 Y55.0085
 X26.8645 Y55.5912
 X26.7949 Y56.1823
 X27.0974 Y56.7138
 X27.3863 Y57.2544
 X27.6620 Y57.8036
 X27.9248 Y58.3611
 X28.1753 Y58.9265
 X28.4138 Y59.4998
 X28.6409 Y60.0802
 X28.8569 Y60.6678
 X29.0622 Y61.2620
 X29.2574 Y61.8625
 X29.4428 Y62.4690
 X29.6190 Y63.0813
 X29.7862 Y63.6990
 X29.9450 Y64.3217
 X30.0957 Y64.9493
 X30.2390 Y65.5811
 X30.3750 Y66.2171
 X30.5044 Y66.8567
 X30.6275 Y67.4999
 X30.7448 Y68.1462
 X30.8567 Y68.7952
 X30.9637 Y69.4467
 X31.0661 Y70.1003
 X31.1645 Y70.7557
 X31.2592 Y71.4125
 X31.3508 Y72.0707
 X31.4395 Y72.7295
 X31.5259 Y73.3889
 X31.6103 Y74.0485
 X31.6934 Y74.7079
 X31.7754 Y75.3668
 X31.8569 Y76.0249
 X31.9862 Y77.0685
 X32.1164 Y78.1040
 X32.2490 Y79.1305
 X32.3860 Y80.1460
 X32.5289 Y81.1517
 X32.6794 Y82.1447
 X32.8392 Y83.1250
 X33.0101 Y84.0910
 X33.1939 Y85.0420
 X33.3920 Y85.9780
 X33.6064 Y86.8967
 X33.8386 Y87.7982
 X34.0904 Y88.6810
 X34.3634 Y89.5442
 X34.6595 Y90.3865
 X34.9803 Y91.2077
 X35.3373 Y92.0252
 X35.7175 Y92.8037
 X36.1218 Y93.5417
 X36.5504 Y94.2415
 X37.0039 Y94.9030
 X37.4828 Y95.5262
 X37.9880 Y96.1120
 X38.5198 Y96.6617
 X39.0788 Y97.1747
 X39.6654 Y97.6525
 X40.2804 Y98.0950
 X40.9243 Y98.5030
 X41.5976 Y98.8772
 X42.3008 Y99.2177
 X43.0345 Y99.5260
 X43.7994 Y99.8012
 X44.4206 Y99.5980
 X45.0179 Y99.4352
 X45.5938 Y99.3092
 X46.1509 Y99.2177
 X46.6915 Y99.1600
 X47.2182 Y99.1315
 X47.7335 Y99.1307
 X48.2396 Y99.1562
 X48.7392 Y99.2035
 X49.2347 Y99.2717
 X49.7287 Y99.3580
 X50.2233 Y99.4607
 X50.7215 Y99.5755
 X51.2252 Y99.7015
 X51.7372 Y99.8365
 X52.2599 Y99.9767
 X52.7681 Y100.1140
 X53.2944 Y100.2527
 X53.8417 Y100.3930
 X54.4130 Y100.5325
 X55.0112 Y100.6697
 X55.6392 Y100.8040
 X56.2997 Y100.9322
 X56.9957 Y101.0537
 X57.7301 Y101.1670
 X58.5057 Y101.2705
 X59.3256 Y101.3620
 X60.1924 Y101.4400
 X61.1092 Y101.5037
 X62.0788 Y101.5517
 X63.1041 Y101.5810
 X64.1879 Y101.5915
 X65.2715 Y101.5810
 X66.2966 Y101.5517
 X67.2661 Y101.5037
 X68.1827 Y101.4400
 X69.0495 Y101.3620
 X69.8692 Y101.2705
 X70.6448 Y101.1670
 X71.3792 Y101.0537
 X72.0751 Y100.9322
 X72.7356 Y100.8040
 X73.3636 Y100.6697
 X73.9617 Y100.5325
 X74.5331 Y100.3930
 X75.0803 Y100.2527
 X75.6067 Y100.1140
 X76.1148 Y99.9767
 X76.7336 Y99.8110
 X77.3381 Y99.6535
 X77.9321 Y99.5095
 X78.5200 Y99.3827
 X79.1058 Y99.2770
 X79.6937 Y99.1967
 X80.2880 Y99.1457
 X80.8926 Y99.1277
 X81.3149 Y99.1367
 X81.7454 Y99.1645
 X82.1855 Y99.2125
 X82.6364 Y99.2822
 X83.0995 Y99.3745
 X83.5760 Y99.4907
 X84.0670 Y99.6325
 X84.5741 Y99.8005
 X85.3989 Y99.5020
 X86.1864 Y99.1667
 X86.9379 Y98.7940
 X87.6534 Y98.3830
 X88.3344 Y97.9330
 X88.9817 Y97.4425
 X89.5959 Y96.9122
 X90.1779 Y96.3400
 X90.2964 Y96.2282
 X90.4224 Y96.1307
 X90.5559 Y96.0482
 X90.6954 Y95.9800
 X90.8394 Y95.9260
 X90.9872 Y95.8862
 X91.1379 Y95.8607
 X91.2894 Y95.8502
 X91.4417 Y95.8547
 X91.5932 Y95.8727
 X91.7432 Y95.9057
 X91.8894 Y95.9537
 X92.0312 Y96.0160
 X92.1684 Y96.0925
 X92.2989 Y96.1840
 X92.4219 Y96.2905
 X92.5337 Y96.4082
 X92.6304 Y96.5350
 X92.7137 Y96.6677
 X92.7819 Y96.8072
 X92.8359 Y96.9520
 X92.8757 Y97.0997
 X92.9012 Y97.2497
 X92.9117 Y97.4020
 X92.9079 Y97.5542
 X92.8899 Y97.7057
 X92.8569 Y97.8550
 X92.8089 Y98.0012
 X92.7467 Y98.1437
 X92.6702 Y98.2810
 X92.5787 Y98.4115
 X92.4722 Y98.5345
 X92.0439 Y98.9657
 X91.5992 Y99.3797
 X91.1387 Y99.7765
 X90.6632 Y100.1560
 X90.1719 Y100.5175
 X89.6657 Y100.8625
 X89.1437 Y101.1887
 X88.6074 Y101.4985
 X89.0417 Y101.6605
 X89.4917 Y101.8225
 X89.9567 Y101.9830
 X90.4329 Y102.1412
 X90.9197 Y102.2950
 X91.4147 Y102.4427
 X91.9164 Y102.5837
 X92.4227 Y102.7157
 X92.9319 Y102.8380
 X93.4419 Y102.9482
 X93.9504 Y103.0457
 X94.4567 Y103.1290
 X94.9577 Y103.1957
 X95.4527 Y103.2460
 X95.9387 Y103.2767
 X96.4142 Y103.2872
 X96.9692 Y103.2752
 X97.5144 Y103.2392
 X98.0507 Y103.1800
 X98.5772 Y103.0990
 X99.0939 Y102.9955
 X99.6009 Y102.8710
 X100.0997 Y102.7262
 X100.5879 Y102.5612
 X101.0679 Y102.3775
 X101.5382 Y102.1750
 X101.9994 Y101.9545
 X102.4517 Y101.7167
 X102.8942 Y101.4625
 X103.3284 Y101.1925
 X103.7544 Y100.9075
 X104.1707 Y100.6075
 X104.5779 Y100.2932
 X104.9769 Y99.9662
 X105.3677 Y99.6265
 X105.7494 Y99.2755
 X106.1222 Y98.9125
 X106.4874 Y98.5390
 X106.8437 Y98.1557
 X107.1917 Y97.7627
 X107.5314 Y97.3615
 X107.8622 Y96.9520
 X108.1854 Y96.5350
 X108.5012 Y96.1120
 X108.8079 Y95.6822
 X109.1064 Y95.2472
 X109.3982 Y94.8077
 X109.6809 Y94.3645
 X109.9562 Y93.9175
 X110.2239 Y93.4675
 X110.4834 Y93.0160
 X110.7354 Y92.5630
 X110.9799 Y92.1085
 X111.2169 Y91.6547
 X111.4464 Y91.2010
 X111.6684 Y90.7487
 X111.8837 Y90.2987
 X112.0907 Y89.8510
 X112.2909 Y89.4062
 X112.4837 Y88.9652
 X112.6697 Y88.5287
 X112.8482 Y88.0975
 X113.0199 Y87.6722
 X113.1849 Y87.2537
 X113.3424 Y86.8420
 X113.4939 Y86.4377
 X113.6379 Y86.0425
 X113.7752 Y85.6562
 X113.9064 Y85.2797
 X114.0302 Y84.9137
 X114.1479 Y84.5582
 X114.2597 Y84.2155
 X114.3632 Y83.8847
 X114.4622 Y83.5667
 X114.5544 Y83.2622
 X114.6407 Y82.9727
 X114.7194 Y82.6982
 X114.7929 Y82.4395
 X114.8604 Y82.1965
 X114.9219 Y81.9707
 X114.7719 Y81.8582
 X114.6189 Y81.7345
 X114.4644 Y81.5995
 X114.3069 Y81.4532
 X114.1502 Y81.2935
 X113.9912 Y81.1217
 X113.8329 Y80.9357
 X113.6754 Y80.7370
 X113.5179 Y80.5225
 X113.3627 Y80.2945
 X113.2089 Y80.0500
 X113.0582 Y79.7905
 X112.9097 Y79.5137
 X112.7657 Y79.2205
 X112.6254 Y78.9101
 X112.4897 Y78.5817
 X112.3584 Y78.2350
 X112.2339 Y77.8694
 X112.1147 Y77.4845
 X112.0022 Y77.0797
 X111.8972 Y76.6545
 X111.7997 Y76.2086
 X111.7104 Y75.7412
 X111.6302 Y75.2522
 X111.5589 Y74.7407
 X111.4974 Y74.2064
 X111.4464 Y73.6488
 X111.4059 Y73.0673
 X111.3767 Y72.4616
 X111.3602 Y71.8311
 X111.3549 Y71.1752
 X111.3632 Y70.4935
G0 Z-25.0000
 X53.1758 Y69.9374
G1 Z-40.0000
 X53.0987 Y70.0805
 X53.0093 Y70.2125
 X52.9087 Y70.3331
 X52.7978 Y70.4420
 X52.6779 Y70.5386
 X52.5500 Y70.6226
 X52.4150 Y70.6938
 X52.2741 Y70.7516
 X52.1284 Y70.7959
 X51.9788 Y70.8259
 X51.8265 Y70.8416
 X51.6725 Y70.8424
 X51.5178 Y70.8280
 X51.3637 Y70.7981
 X51.2110 Y70.7522
 X51.0608 Y70.6898
 X50.9178 Y70.6129
 X50.7858 Y70.5235
 X50.6652 Y70.4229
 X50.5565 Y70.3121
 X50.4598 Y70.1921
 X50.3757 Y70.0643
 X50.3046 Y69.9293
 X50.2468 Y69.7884
 X50.2026 Y69.6427
 X50.1725 Y69.4931
 X50.1569 Y69.3408
 X50.1562 Y69.1868
 X50.1705 Y69.0322
 X50.2004 Y68.8781
 X50.2463 Y68.7254
 X50.3087 Y68.5753
 X50.4913 Y68.1302
 X50.6221 Y67.6700
 X50.7008 Y67.1966
 X50.7272 Y66.7118
 Y63.3199
 X50.7215 Y63.0964
 X50.7047 Y62.8757
 X50.6770 Y62.6583
 X50.6387 Y62.4443
 X50.5900 Y62.2340
 X50.5313 Y62.0277
 X50.4629 Y61.8256
 X50.3848 Y61.6281
 X50.2976 Y61.4355
 X50.2013 Y61.2479
 X50.0966 Y61.0657
 X49.9832 Y60.8892
 X49.8619 Y60.7186
 X49.7326 Y60.5543
 X49.5959 Y60.3963
 X49.4517 Y60.2452
 X49.3005 Y60.1010
 X49.1426 Y59.9642
 X48.9782 Y59.8349
 X48.8076 Y59.7135
 X48.6311 Y59.6003
 X48.4490 Y59.4954
 X48.2614 Y59.3993
 X48.0688 Y59.3120
 X47.8712 Y59.2340
 X47.6692 Y59.1655
 X47.4629 Y59.1068
 X47.2526 Y59.0582
 X47.0386 Y59.0198
 X46.8212 Y58.9922
 X46.6004 Y58.9753
 X46.3770 Y58.9697
 X46.1536 Y58.9753
 X45.9329 Y58.9922
 X45.7157 Y59.0198
 X45.5017 Y59.0582
 X45.2915 Y59.1068
 X45.0852 Y59.1655
 X44.8832 Y59.2340
 X44.6860 Y59.3120
 X44.4934 Y59.3993
 X44.3059 Y59.4954
 X44.1236 Y59.6003
 X43.9472 Y59.7135
 X43.7767 Y59.8349
 X43.6123 Y59.9642
 X43.4545 Y60.1010
 X43.3034 Y60.2452
 X43.1592 Y60.3963
 X43.0224 Y60.5543
 X42.8931 Y60.7186
 X42.7718 Y60.8892
 X42.6586 Y61.0657
 X42.5537 Y61.2479
 X42.4575 Y61.4355
 X42.3704 Y61.6281
 X42.2923 Y61.8256
 X42.2239 Y62.0277
 X42.1651 Y62.2340
 X42.1165 Y62.4443
 X42.0782 Y62.6583
 X42.0504 Y62.8757
 X42.0337 Y63.0964
 X42.0281 Y63.3199
 Y66.7118
 X42.0337 Y66.9353
 X42.0504 Y67.1558
 X42.0782 Y67.3732
 X42.1165 Y67.5872
 X42.1651 Y67.7974
 X42.2239 Y68.0035
 X42.2923 Y68.2055
 X42.3704 Y68.4029
 X42.4575 Y68.5955
 X42.5537 Y68.7830
 X42.6586 Y68.9651
 X42.7718 Y69.1415
 X42.8931 Y69.3121
 X43.0224 Y69.4764
 X43.1592 Y69.6344
 X43.3034 Y69.7855
 X43.4545 Y69.9296
 X43.6123 Y70.0664
 X43.7767 Y70.1956
 X43.9472 Y70.3169
 X44.1236 Y70.4302
 X44.3059 Y70.5350
 X44.4934 Y70.6312
 X44.6860 Y70.7185
 X44.8832 Y70.7964
 X45.0852 Y70.8650
 X45.2915 Y70.9236
 X45.5017 Y70.9723
 X45.7157 Y71.0106
 X45.9329 Y71.0383
 X46.1536 Y71.0552
 X46.3770 Y71.0608
 X46.5392 Y71.0690
 X46.6968 Y71.0931
 X46.8488 Y71.1323
 X46.9947 Y71.1856
 X47.1335 Y71.2526
 X47.2644 Y71.3321
 X47.3867 Y71.4235
 X47.4994 Y71.5260
 X47.6019 Y71.6387
 X47.6933 Y71.7609
 X47.7728 Y71.8919
 X47.8396 Y72.0306
 X47.8931 Y72.1764
 X47.9322 Y72.3285
 X47.9561 Y72.4861
 X47.9644 Y72.6483
 X47.9561 Y72.8104
 X47.9322 Y72.9679
 X47.8931 Y73.1198
 X47.8396 Y73.2656
 X47.7728 Y73.4043
 X47.6933 Y73.5352
 X47.6019 Y73.6573
 X47.4994 Y73.7699
 X47.3867 Y73.8725
 X47.2644 Y73.9638
 X47.1335 Y74.0434
 X46.9947 Y74.1103
 X46.8488 Y74.1636
 X46.6968 Y74.2028
 X46.5392 Y74.2268
 X46.3770 Y74.2351
 X45.9903 Y74.2252
 X45.6088 Y74.1961
 X45.2327 Y74.1482
 X44.8626 Y74.0819
 X44.4989 Y73.9978
 X44.1422 Y73.8962
 X43.7928 Y73.7777
 X43.4513 Y73.6428
 X43.1183 Y73.4919
 X42.7939 Y73.3256
 X42.4789 Y73.1441
 X42.1736 Y72.9483
 X41.8787 Y72.7383
 X41.5943 Y72.5147
 X41.3213 Y72.2781
 X41.0598 Y72.0288
 X40.8105 Y71.7674
 X40.5740 Y71.4942
 X40.3505 Y71.2100
 X40.1405 Y70.9150
 X39.9446 Y70.6097
 X39.7634 Y70.2947
 X39.5970 Y69.9703
 X39.4462 Y69.6371
 X39.3113 Y69.2957
 X39.1928 Y68.9463
 X39.0913 Y68.5895
 X39.0071 Y68.2260
 X38.9408 Y67.8559
 X38.8929 Y67.4798
 X38.8639 Y67.0984
 X38.8541 Y66.7118
 Y63.3188
 X38.8639 Y62.9324
 X38.8929 Y62.5509
 X38.9408 Y62.1749
 X39.0071 Y61.8047
 X39.0913 Y61.4412
 X39.1928 Y61.0844
 X39.3113 Y60.7351
 X39.4462 Y60.3936
 X39.5970 Y60.0604
 X39.7634 Y59.7361
 X39.9446 Y59.4211
 X40.1405 Y59.1158
 X40.3505 Y58.8208
 X40.5740 Y58.5365
 X40.8105 Y58.2634
 X41.0598 Y58.0019
 X41.3213 Y57.7526
 X41.5943 Y57.5160
 X41.8787 Y57.2924
 X42.1736 Y57.0824
 X42.4789 Y56.8865
 X42.7939 Y56.7052
 X43.1183 Y56.5388
 X43.4513 Y56.3879
 X43.7928 Y56.2530
 X44.1422 Y56.1345
 X44.4989 Y56.0330
 X44.8626 Y55.9488
 X45.2327 Y55.8826
 X45.6088 Y55.8347
 X45.9903 Y55.8055
 X46.3770 Y55.7957
 X46.7635 Y55.8055
 X47.1451 Y55.8347
 X47.5211 Y55.8826
 X47.8913 Y55.9488
 X48.2551 Y56.0330
 X48.6119 Y56.1345
 X48.9613 Y56.2530
 X49.3028 Y56.3879
 X49.6361 Y56.5388
 X49.9604 Y56.7052
 X50.2754 Y56.8865
 X50.5808 Y57.0824
 X50.8759 Y57.2924
 X51.1602 Y57.5160
 X51.4334 Y57.7526
 X51.6948 Y58.0019
 X51.9441 Y58.2634
 X52.1807 Y58.5365
 X52.4043 Y58.8208
 X52.6143 Y59.1158
 X52.8102 Y59.4211
 X52.9916 Y59.7361
 X53.1581 Y60.0604
 X53.3089 Y60.3936
 X53.4437 Y60.7351
 X53.5623 Y61.0844
 X53.6639 Y61.4412
 X53.7480 Y61.8047
 X53.8143 Y62.1749
 X53.8622 Y62.5509
 X53.8913 Y62.9324
 X53.9012 Y63.3188
 Y66.7118
 X53.8897 Y67.1327
 X53.8553 Y67.5491
 X53.7983 Y67.9609
 X53.7185 Y68.3677
 X53.6164 Y68.7692
 X53.4917 Y69.1648
 X53.3448 Y69.5543
 X53.1758 Y69.9374
G0 Z-25.0000
 X88.7942
G1 Z-40.0000
 X88.7169 Y70.0805
 X88.6277 Y70.2125
 X88.5272 Y70.3331
 X88.4162 Y70.4420
 X88.2962 Y70.5386
 X88.1687 Y70.6226
 X88.0337 Y70.6938
 X87.8927 Y70.7516
 X87.7472 Y70.7959
 X87.5972 Y70.8259
 X87.4449 Y70.8416
 X87.2912 Y70.8424
 X87.1359 Y70.8280
 X86.9822 Y70.7981
 X86.8292 Y70.7522
 X86.6792 Y70.6898
 X86.5359 Y70.6129
 X86.4039 Y70.5235
 X86.2839 Y70.4229
 X86.1752 Y70.3121
 X86.0784 Y70.1921
 X85.9944 Y70.0643
 X85.9232 Y69.9293
 X85.8654 Y69.7884
 X85.8212 Y69.6427
 X85.7912 Y69.4931
 X85.7754 Y69.3408
 X85.7747 Y69.1868
 X85.7889 Y69.0322
 X85.8189 Y68.8781
 X85.8647 Y68.7254
 X85.9269 Y68.5753
 X86.1099 Y68.1302
 X86.2404 Y67.6700
 X86.3192 Y67.1966
 X86.3454 Y66.7118
 Y63.3199
 X86.3402 Y63.0964
 X86.3229 Y62.8757
 X86.2952 Y62.6583
 X86.2569 Y62.4443
 X86.2082 Y62.2340
 X86.1497 Y62.0277
 X86.0814 Y61.8256
 X86.0034 Y61.6281
 X85.9164 Y61.4355
 X85.8197 Y61.2479
 X85.7154 Y61.0657
 X85.6014 Y60.8892
 X85.4807 Y60.7186
 X85.3509 Y60.5543
 X85.2144 Y60.3963
 X85.0704 Y60.2452
 X84.9192 Y60.1010
 X84.7613 Y59.9642
 X84.5969 Y59.8349
 X84.4264 Y59.7135
 X84.2499 Y59.6003
 X84.0677 Y59.4954
 X83.8802 Y59.3993
 X83.6876 Y59.3120
 X83.4902 Y59.2340
 X83.2883 Y59.1655
 X83.0820 Y59.1068
 X82.8718 Y59.0582
 X82.6578 Y59.0198
 X82.4405 Y58.9922
 X82.2199 Y58.9753
 X81.9965 Y58.9697
 X81.7730 Y58.9753
 X81.5523 Y58.9922
 X81.3349 Y59.0198
 X81.1208 Y59.0582
 X80.9106 Y59.1068
 X80.7043 Y59.1655
 X80.5023 Y59.2340
 X80.3048 Y59.3120
 X80.1122 Y59.3993
 X79.9246 Y59.4954
 X79.7425 Y59.6003
 X79.5659 Y59.7135
 X79.3953 Y59.8349
 X79.2310 Y59.9642
 X79.0731 Y60.1010
 X78.9220 Y60.2452
 X78.7778 Y60.3963
 X78.6410 Y60.5543
 X78.5118 Y60.7186
 X78.3903 Y60.8892
 X78.2771 Y61.0657
 X78.1722 Y61.2479
 X78.0761 Y61.4355
 X77.9888 Y61.6281
 X77.9108 Y61.8256
 X77.8424 Y62.0277
 X77.7836 Y62.2340
 X77.7350 Y62.4443
 X77.6967 Y62.6583
 X77.6690 Y62.8757
 X77.6521 Y63.0964
 X77.6465 Y63.3199
 Y66.7118
 X77.6521 Y66.9353
 X77.6690 Y67.1558
 X77.6967 Y67.3732
 X77.7350 Y67.5872
 X77.7836 Y67.7974
 X77.8424 Y68.0035
 X77.9108 Y68.2055
 X77.9888 Y68.4029
 X78.0761 Y68.5955
 X78.1722 Y68.7830
 X78.2771 Y68.9651
 X78.3903 Y69.1415
 X78.5118 Y69.3121
 X78.6410 Y69.4764
 X78.7778 Y69.6344
 X78.9220 Y69.7855
 X79.0731 Y69.9296
 X79.2310 Y70.0664
 X79.3953 Y70.1956
 X79.5659 Y70.3169
 X79.7425 Y70.4302
 X79.9246 Y70.5350
 X80.1122 Y70.6312
 X80.3048 Y70.7185
 X80.5023 Y70.7964
 X80.7043 Y70.8650
 X80.9106 Y70.9236
 X81.1208 Y70.9723
 X81.3349 Y71.0106
 X81.5523 Y71.0383
 X81.7730 Y71.0552
 X81.9965 Y71.0608
 X82.1588 Y71.0690
 X82.3163 Y71.0931
 X82.4684 Y71.1323
 X82.6142 Y71.1856
 X82.7528 Y71.2526
 X82.8836 Y71.3321
 X83.0057 Y71.4235
 X83.1185 Y71.5260
 X83.2208 Y71.6387
 X83.3120 Y71.7609
 X83.3915 Y71.8919
 X83.4582 Y72.0306
 X83.5116 Y72.1764
 X83.5508 Y72.3285
 X83.5747 Y72.4861
 X83.5829 Y72.6483
 X83.5747 Y72.8104
 X83.5508 Y72.9679
 X83.5116 Y73.1198
 X83.4582 Y73.2656
 X83.3915 Y73.4043
 X83.3120 Y73.5352
 X83.2208 Y73.6573
 X83.1185 Y73.7699
 X83.0057 Y73.8725
 X82.8836 Y73.9638
 X82.7528 Y74.0434
 X82.6142 Y74.1103
 X82.4684 Y74.1636
 X82.3163 Y74.2028
 X82.1588 Y74.2268
 X81.9965 Y74.2351
 X81.6099 Y74.2252
 X81.2284 Y74.1961
 X80.8522 Y74.1482
 X80.4821 Y74.0819
 X80.1185 Y73.9978
 X79.7617 Y73.8962
 X79.4123 Y73.7777
 X79.0707 Y73.6428
 X78.7375 Y73.4919
 X78.4131 Y73.3256
 X78.0981 Y73.1441
 X77.7929 Y72.9483
 X77.4977 Y72.7383
 X77.2135 Y72.5147
 X76.9403 Y72.2781
 X76.6789 Y72.0288
 X76.4295 Y71.7674
 X76.1928 Y71.4942
 X75.9693 Y71.2100
 X75.7593 Y70.9150
 X75.5633 Y70.6097
 X75.3820 Y70.2947
 X75.2156 Y69.9703
 X75.0648 Y69.6371
 X74.9298 Y69.2957
 X74.8114 Y68.9463
 X74.7098 Y68.5895
 X74.6256 Y68.2260
 X74.5594 Y67.8559
 X74.5115 Y67.4798
 X74.4823 Y67.0984
 X74.4725 Y66.7118
 Y63.3188
 X74.4823 Y62.9324
 X74.5115 Y62.5509
 X74.5594 Y62.1749
 X74.6256 Y61.8047
 X74.7098 Y61.4412
 X74.8114 Y61.0844
 X74.9298 Y60.7351
 X75.0648 Y60.3936
 X75.2156 Y60.0604
 X75.3820 Y59.7361
 X75.5633 Y59.4211
 X75.7593 Y59.1158
 X75.9693 Y58.8208
 X76.1928 Y58.5365
 X76.4295 Y58.2634
 X76.6789 Y58.0019
 X76.9403 Y57.7526
 X77.2135 Y57.5160
 X77.4977 Y57.2924
 X77.7929 Y57.0824
 X78.0981 Y56.8865
 X78.4131 Y56.7052
 X78.7375 Y56.5388
 X79.0707 Y56.3879
 X79.4123 Y56.2530
 X79.7617 Y56.1345
 X80.1185 Y56.0330
 X80.4821 Y55.9488
 X80.8522 Y55.8826
 X81.2284 Y55.8347
 X81.6099 Y55.8055
 X81.9965 Y55.7957
 X82.3830 Y55.8055
 X82.7646 Y55.8347
 X83.1407 Y55.8826
 X83.5109 Y55.9488
 X83.8745 Y56.0330
 X84.2312 Y56.1345
 X84.5807 Y56.2530
 X84.9222 Y56.3879
 X85.2557 Y56.5388
 X85.5797 Y56.7052
 X85.8947 Y56.8865
 X86.1999 Y57.0824
 X86.4947 Y57.2924
 X86.7789 Y57.5160
 X87.0527 Y57.7526
 X87.3137 Y58.0019
 X87.5634 Y58.2634
 X87.7997 Y58.5365
 X88.0232 Y58.8208
 X88.2332 Y59.1158
 X88.4289 Y59.4211
 X88.6104 Y59.7361
 X88.7769 Y60.0604
 X88.9277 Y60.3936
 X89.0627 Y60.7351
 X89.1812 Y61.0844
 X89.2824 Y61.4412
 X89.3664 Y61.8047
 X89.4324 Y62.1749
 X89.4804 Y62.5509
 X89.5097 Y62.9324
 X89.5194 Y63.3188
 Y66.7118
 X89.5082 Y67.1327
 X89.4737 Y67.5491
 X89.4174 Y67.9609
 X89.3372 Y68.3677
 X89.2352 Y68.7692
 X89.1107 Y69.1648
 X88.9637 Y69.5543
 X88.7942 Y69.9374
G0 Z-25.0000
 X118.3179 Y81.4615
G1 Z-40.0000
 X118.3097 Y81.5012
 X118.2924 Y81.5740
 X118.2699 Y81.6782
 X118.2377 Y81.8125
 X118.1987 Y81.9767
 X118.1507 Y82.1687
 X118.0959 Y82.3885
 X118.0322 Y82.6345
 X117.9602 Y82.9060
 X117.8799 Y83.2015
 X117.7914 Y83.5202
 X117.6939 Y83.8607
 X117.5874 Y84.2230
 X117.4719 Y84.6055
 X117.3482 Y85.0067
 X117.2132 Y85.4260
 X117.0707 Y85.8625
 X116.9177 Y86.3147
 X116.7564 Y86.7820
 X116.5832 Y87.2635
 X116.4017 Y87.7577
 X116.2104 Y88.2640
 X116.0079 Y88.7807
 X115.7957 Y89.3072
 X115.5729 Y89.8427
 X115.3404 Y90.3865
 X115.0967 Y90.9362
 X114.8417 Y91.4920
 X114.5762 Y92.0522
 X114.3002 Y92.6162
 X114.0122 Y93.1825
 X113.7137 Y93.7510
 X113.2914 Y94.5190
 X112.8602 Y95.2637
 X112.4207 Y95.9860
 X111.9729 Y96.6842
 X111.5162 Y97.3600
 X111.0512 Y98.0117
 X110.5772 Y98.6402
 X110.0964 Y99.2447
 X109.6067 Y99.8260
 X109.1094 Y100.3832
 X108.6039 Y100.9172
 X108.0917 Y101.4265
 X107.5712 Y101.9125
 X107.0432 Y102.3737
 X106.5084 Y102.8110
 X105.9662 Y103.2242
 X105.4172 Y103.6127
 X104.8614 Y103.9772
 X104.2982 Y104.3170
 X103.7282 Y104.6320
 X103.1522 Y104.9222
 X102.5694 Y105.1877
 X101.9807 Y105.4285
 X101.3852 Y105.6445
 X100.7837 Y105.8350
 X100.1762 Y106.0007
 X99.5634 Y106.1410
 X98.9447 Y106.2565
 X98.3199 Y106.3457
 X97.6899 Y106.4095
 X97.0539 Y106.4485
 X96.4134 Y106.4612
 X95.9252 Y106.4522
 X95.4294 Y106.4260
 X94.9292 Y106.3840
 X94.4244 Y106.3262
 X93.9167 Y106.2550
 X93.4082 Y106.1702
 X92.8989 Y106.0735
 X92.3912 Y105.9662
 X91.8857 Y105.8492
 X91.3839 Y105.7240
 X90.8867 Y105.5905
 X90.3962 Y105.4510
 X89.9132 Y105.3055
 X89.4392 Y105.1562
 X88.9757 Y105.0032
 X88.5227 Y104.8480
 X88.0832 Y104.6920
 X87.6579 Y104.5360
 X87.2477 Y104.3807
 X86.8547 Y104.2270
 X86.4789 Y104.0770
 X86.1227 Y103.9307
 X85.7874 Y103.7905
 X85.4739 Y103.6562
 X85.1829 Y103.5295
 X84.9171 Y103.4110
 X84.6768 Y103.3022
 X84.4637 Y103.2040
 X84.2789 Y103.1170
 X84.1237 Y103.0435
 X83.9995 Y102.9842
 X83.9075 Y102.9392
 X83.4174 Y102.7592
 X82.9510 Y102.6115
 X82.5046 Y102.4945
 X82.0748 Y102.4075
 X81.6581 Y102.3475
 X81.2510 Y102.3137
 X80.8502 Y102.3040
 X80.4520 Y102.3175
 X80.0527 Y102.3520
 X79.6493 Y102.4052
 X79.2378 Y102.4765
 X78.8151 Y102.5642
 X78.3775 Y102.6662
 X77.9216 Y102.7810
 X77.4437 Y102.9062
 X76.9406 Y103.0412
 X76.6847 Y103.1102
 X76.4226 Y103.1807
 X76.1542 Y103.2520
 X75.8790 Y103.3247
 X75.5967 Y103.3975
 X75.3070 Y103.4710
 X75.0097 Y103.5445
 X74.7044 Y103.6180
 X74.3907 Y103.6907
 X74.0686 Y103.7635
 X73.7374 Y103.8355
 X73.3971 Y103.9067
 X73.0473 Y103.9765
 X72.6876 Y104.0447
 X72.3179 Y104.1115
 X71.9376 Y104.1760
 X71.5467 Y104.2390
 X71.1447 Y104.2990
 X70.7315 Y104.3567
 X70.3065 Y104.4115
 X69.8695 Y104.4632
 X69.4203 Y104.5120
 X68.9587 Y104.5570
 X68.4840 Y104.5982
 X67.9961 Y104.6357
 X67.4949 Y104.6687
 X66.9798 Y104.6972
 X66.4506 Y104.7212
 X65.9070 Y104.7400
 X65.3488 Y104.7542
 X64.7754 Y104.7625
 X64.1869 Y104.7655
 X63.5981 Y104.7625
 X63.0247 Y104.7542
 X62.4664 Y104.7400
 X61.9227 Y104.7212
 X61.3936 Y104.6972
 X60.8783 Y104.6687
 X60.3771 Y104.6357
 X59.8893 Y104.5982
 X59.4146 Y104.5570
 X58.9529 Y104.5120
 X58.5037 Y104.4632
 X58.0667 Y104.4115
 X57.6417 Y104.3567
 X57.2284 Y104.2990
 X56.8264 Y104.2390
 X56.4354 Y104.1760
 X56.0552 Y104.1115
 X55.6856 Y104.0447
 X55.3259 Y103.9765
 X54.9761 Y103.9067
 X54.6357 Y103.8355
 X54.3046 Y103.7635
 X53.9823 Y103.6907
 X53.6687 Y103.6180
 X53.3633 Y103.5445
 X53.0660 Y103.4710
 X52.7762 Y103.3975
 X52.4939 Y103.3247
 X52.2187 Y103.2520
 X51.9501 Y103.1807
 X51.6881 Y103.1102
 X51.4321 Y103.0412
 X50.9291 Y102.9062
 X50.4514 Y102.7802
 X49.9955 Y102.6655
 X49.5581 Y102.5635
 X49.1354 Y102.4765
 X48.7241 Y102.4052
 X48.3206 Y102.3512
 X47.9215 Y102.3167
 X47.5232 Y102.3040
 X47.1224 Y102.3137
 X46.7153 Y102.3475
 X46.2988 Y102.4067
 X45.8690 Y102.4945
 X45.4226 Y102.6115
 X44.9561 Y102.7592
 X44.4662 Y102.9392
 X44.3742 Y102.9842
 X44.2499 Y103.0435
 X44.0948 Y103.1170
 X43.9099 Y103.2040
 X43.6967 Y103.3022
 X43.4565 Y103.4110
 X43.1904 Y103.5295
 X42.8998 Y103.6562
 X42.5861 Y103.7905
 X42.2505 Y103.9307
 X41.8944 Y104.0770
 X41.5190 Y104.2270
 X41.1255 Y104.3807
 X40.7154 Y104.5360
 X40.2899 Y104.6920
 X39.8504 Y104.8480
 X39.3980 Y105.0032
 X38.9341 Y105.1562
 X38.4600 Y105.3055
 X37.9770 Y105.4510
 X37.4864 Y105.5905
 X36.9897 Y105.7240
 X36.4878 Y105.8492
 X35.9822 Y105.9662
 X35.4743 Y106.0735
 X34.9652 Y106.1702
 X34.4564 Y106.2550
 X33.9490 Y106.3262
 X33.4444 Y106.3840
 X32.9438 Y106.4260
 X32.4488 Y106.4522
 X31.9604 Y106.4612
 X31.3195 Y106.4485
 X30.6839 Y106.4095
 X30.0536 Y106.3457
 X29.4291 Y106.2565
 X28.8100 Y106.1410
 X28.1968 Y106.0007
 X27.5894 Y105.8350
 X26.9880 Y105.6445
 X26.3927 Y105.4285
 X25.8037 Y105.1877
 X25.2209 Y104.9222
 X24.6447 Y104.6320
 X24.0750 Y104.3170
 X23.5121 Y103.9772
 X22.9559 Y103.6127
 X22.4068 Y103.2242
 X21.8646 Y102.8110
 X21.3297 Y102.3737
 X20.8020 Y101.9125
 X20.2817 Y101.4265
 X19.7690 Y100.9172
 X19.2640 Y100.3832
 X18.7667 Y99.8260
 X18.2772 Y99.2447
 X17.7958 Y98.6402
 X17.3226 Y98.0117
 X16.8575 Y97.3600
 X16.4008 Y96.6842
 X15.9526 Y95.9860
 X15.5130 Y95.2637
 X15.0821 Y94.5190
 X14.6600 Y93.7510
 X14.3612 Y93.1825
 X14.0736 Y92.6162
 X13.7972 Y92.0522
 X13.5317 Y91.4920
 X13.2772 Y90.9362
 X13.0334 Y90.3865
 X12.8003 Y89.8427
 X12.5776 Y89.3072
 X12.3654 Y88.7807
 X12.1633 Y88.2640
 X11.9714 Y87.7577
 X11.7896 Y87.2635
 X11.6175 Y86.7820
 X11.4552 Y86.3147
 X11.3026 Y85.8625
 X11.1594 Y85.4260
 X11.0256 Y85.0067
 X10.9010 Y84.6055
 X10.7854 Y84.2230
 X10.6790 Y83.8607
 X10.5813 Y83.5202
 X10.4923 Y83.2015
 X10.4120 Y82.9060
 X10.3401 Y82.6345
 X10.2766 Y82.3885
 X10.2213 Y82.1687
 X10.1740 Y81.9767
 X10.1347 Y81.8125
 X10.1033 Y81.6782
 X10.0795 Y81.5740
 X10.0634 Y81.5012
 X10.0547 Y81.4615
 X10.0234 Y81.2890
 X10.0046 Y81.1165
 X10.0000 Y80.9462
 X10.0117 Y80.7782
 X10.0415 Y80.6147
 X10.0914 Y80.4565
 X10.1633 Y80.3057
 X10.2592 Y80.1625
 X10.3659 Y80.0350
 X10.4781 Y79.9217
 X10.5965 Y79.8235
 X10.7218 Y79.7395
 X10.8549 Y79.6712
 X10.9965 Y79.6195
 X11.1473 Y79.5827
 X11.3083 Y79.5640
 X11.3459 Y79.5467
 X11.3945 Y79.5220
 X11.4531 Y79.4882
 X11.5211 Y79.4455
 X11.5975 Y79.3922
 X11.6816 Y79.3277
 X11.7725 Y79.2505
 X11.8694 Y79.1597
 X11.9714 Y79.0555
 X12.0777 Y78.9357
 X12.1875 Y78.7999
 X12.3001 Y78.6470
 X12.4144 Y78.4761
 X12.5298 Y78.2863
 X12.6453 Y78.0767
 X12.7602 Y77.8463
 X12.8737 Y77.5941
 X12.9848 Y77.3192
 X13.0929 Y77.0207
 X13.1969 Y76.6976
 X13.2962 Y76.3490
 X13.3899 Y75.9740
 X13.4771 Y75.5717
 X13.5571 Y75.1408
 X13.6290 Y74.6808
 X13.6920 Y74.1905
 X13.7453 Y73.6691
 X13.7879 Y73.1156
 X13.8192 Y72.5291
 X13.8383 Y71.9086
 X13.8442 Y71.2531
 X13.8364 Y70.5618
 X13.8247 Y69.8504
 X13.8200 Y69.1528
 X13.8222 Y68.4689
 X13.8309 Y67.7988
 X13.8459 Y67.1425
 X13.8669 Y66.4997
 X13.8937 Y65.8707
 X13.9260 Y65.2554
 X13.9636 Y64.6536
 X14.0062 Y64.0655
 X14.0536 Y63.4908
 X14.1054 Y62.9297
 X14.1615 Y62.3821
 X14.2216 Y61.8480
 X14.2855 Y61.3273
 X14.3528 Y60.8198
 X14.4234 Y60.3260
 X14.4969 Y59.8454
 X14.5732 Y59.3781
 X14.6519 Y58.9241
 X14.7327 Y58.4833
 X14.8156 Y58.0558
 X14.9002 Y57.6416
 X14.9862 Y57.2403
 X15.0734 Y56.8523
 X15.1615 Y56.4775
 X15.2503 Y56.1156
 X15.3396 Y55.7669
 X15.4290 Y55.4310
 X15.5182 Y55.1083
 X15.6072 Y54.7985
 X15.6956 Y54.5016
 X15.8021 Y54.1868
 X15.9277 Y53.8826
 X16.0714 Y53.5900
 X16.2329 Y53.3093
 X16.4113 Y53.0414
 X16.6060 Y52.7867
 X16.8165 Y52.5458
 X17.0420 Y52.3194
 X17.2820 Y52.1081
 X17.5357 Y51.9125
 X17.8025 Y51.7331
 X18.0818 Y51.5706
 X18.3730 Y51.4256
 X18.6752 Y51.2986
 X18.9881 Y51.1904
 X19.3109 Y51.1014
 X19.9034 Y50.9951
 X20.4932 Y50.9599
 X20.9799 Y50.9841
 X21.4580 Y51.0560
 X21.9245 Y51.1750
 X22.3763 Y51.3398
 X22.8107 Y51.5500
 X23.2242 Y51.8045
 X23.6141 Y52.1024
 X23.9773 Y52.4429
 X24.1491 Y52.6278
 X24.3667 Y51.6636
 X24.6113 Y50.7120
 X24.8820 Y49.7735
 X25.1776 Y48.8485
 X25.4974 Y47.9379
 X25.8404 Y47.0418
 X26.2055 Y46.1610
 X26.5918 Y45.2960
 X26.9984 Y44.4473
 X27.4243 Y43.6155
 X27.8684 Y42.8011
 X28.3301 Y42.0047
 X28.8081 Y41.2266
 X29.3017 Y40.4677
 X29.8097 Y39.7283
 X30.3313 Y39.0089
 X30.8654 Y38.3103
 X31.4111 Y37.6328
 X31.9676 Y36.9770
 X32.5339 Y36.3435
 X33.1088 Y35.7327
 X33.6914 Y35.1453
 X34.2811 Y34.5818
 X34.8764 Y34.0426
 X35.4769 Y33.5284
 X36.0812 Y33.0397
 X36.6886 Y32.5769
 X37.2980 Y32.1408
 X37.9083 Y31.7318
 X38.5190 Y31.3504
 X39.1286 Y30.9971
 X39.7367 Y30.6727
 X40.0331 Y30.1088
 X40.3706 Y29.5587
 X40.7486 Y29.0236
 X41.1669 Y28.5044
 X41.6246 Y28.0024
 X42.1211 Y27.5184
 X42.6562 Y27.0535
 X43.2289 Y26.6089
 X43.8538 Y26.1789
 X44.5074 Y25.7790
 X44.6441 Y25.4061
 X44.7938 Y25.0286
 X44.9566 Y24.6472
 X45.1325 Y24.2623
 X45.3218 Y23.8748
 X45.5243 Y23.4854
 X45.7400 Y23.0945
 X45.9692 Y22.7030
 X46.2118 Y22.3115
 X46.4677 Y21.9206
 X46.7373 Y21.5309
 X47.0204 Y21.1433
 X47.3171 Y20.7582
 X47.6274 Y20.3765
 X47.9515 Y19.9985
 X48.2892 Y19.6253
 X48.6409 Y19.2572
 X49.0063 Y18.8951
 X49.3856 Y18.5394
 X49.7790 Y18.1911
 X50.1863 Y17.8506
 X50.6076 Y17.5186
 X51.0431 Y17.1958
 X51.4926 Y16.8830
 X51.9563 Y16.5805
 X52.4344 Y16.2893
 X52.9267 Y16.0099
 X53.4333 Y15.7430
 X53.9544 Y15.4892
 X54.4898 Y15.2492
 X55.0398 Y15.0237
 X55.6043 Y14.8133
 X55.9529 Y14.2839
 X56.3333 Y13.7783
 X56.7437 Y13.2980
 X57.1830 Y12.8442
 X57.6498 Y12.4187
 X58.1425 Y12.0227
 X58.6598 Y11.6576
 X59.2002 Y11.3249
 X59.7624 Y11.0260
 X60.3448 Y10.7624
 X60.9463 Y10.5353
 X61.5650 Y10.3464
 X62.1999 Y10.1970
 X62.8495 Y10.0885
 X63.5122 Y10.0224
 X64.1869 Y10.0000
 X64.8614 Y10.0224
 X65.5242 Y10.0885
 X66.1738 Y10.1970
 X66.8087 Y10.3464
 X67.4276 Y10.5353
 X68.0291 Y10.7624
 X68.6116 Y11.0260
 X69.1739 Y11.3249
 X69.7143 Y11.6576
 X70.2317 Y12.0227
 X70.7245 Y12.4187
 X71.1913 Y12.8442
 X71.6306 Y13.2980
 X72.0412 Y13.7783
 X72.4215 Y14.2839
 X72.7703 Y14.8133
 X73.3349 Y15.0236
 X73.8849 Y15.2487
 X74.4204 Y15.4882
 X74.9414 Y15.7412
 X75.4478 Y16.0073
 X75.9398 Y16.2856
 X76.4175 Y16.5757
 X76.8809 Y16.8768
 X77.3300 Y17.1885
 X77.7650 Y17.5099
 X78.1859 Y17.8406
 X78.5926 Y18.1796
 X78.9854 Y18.5267
 X79.3643 Y18.8811
 X79.7293 Y19.2422
 X80.0804 Y19.6091
 X80.4179 Y19.9814
 X80.7415 Y20.3586
 X81.0516 Y20.7398
 X81.3480 Y21.1244
 X81.6310 Y21.5120
 X81.9005 Y21.9017
 X82.1566 Y22.2930
 X82.3994 Y22.6852
 X82.6289 Y23.0777
 X82.8451 Y23.4698
 X83.0481 Y23.8610
 X83.2382 Y24.2505
 X83.4151 Y24.6379
 X83.5791 Y25.0223
 X83.7302 Y25.4033
 X83.8685 Y25.7801
 X84.5205 Y26.1791
 X85.1462 Y26.6089
 X85.7184 Y27.0535
 X86.2532 Y27.5184
 X86.7504 Y28.0024
 X87.2079 Y28.5044
 X87.6264 Y29.0236
 X88.0044 Y29.5587
 X88.3419 Y30.1088
 X88.6382 Y30.6727
 X89.2457 Y30.9971
 X89.8554 Y31.3504
 X90.4659 Y31.7318
 X91.0764 Y32.1408
 X91.6854 Y32.5769
 X92.2929 Y33.0397
 X92.8974 Y33.5284
 X93.4974 Y34.0426
 X94.0929 Y34.5818
 X94.6824 Y35.1453
 X95.2652 Y35.7327
 X95.8404 Y36.3435
 X96.4059 Y36.9770
 X96.9624 Y37.6328
 X97.5084 Y38.3103
 X98.0424 Y39.0089
 X98.5644 Y39.7283
 X99.0722 Y40.4677
 X99.5657 Y41.2266
 X100.0434 Y42.0047
 X100.5054 Y42.8011
 X100.9494 Y43.6155
 X101.3754 Y44.4473
 X101.7819 Y45.2960
 X102.1689 Y46.1610
 X102.5334 Y47.0418
 X102.8769 Y47.9379
 X103.1964 Y48.8485
 X103.4927 Y49.7735
 X103.7634 Y50.7120
 X104.0079 Y51.6636
 X104.2254 Y52.6278
 X104.3964 Y52.4429
 X104.7594 Y52.1024
 X105.1494 Y51.8045
 X105.5634 Y51.5500
 X105.9977 Y51.3398
 X106.4492 Y51.1750
 X106.9157 Y51.0560
 X107.3934 Y50.9841
 X107.8802 Y50.9599
 X108.4704 Y50.9951
 X109.0637 Y51.1014
 X109.3862 Y51.1904
 X109.6989 Y51.2986
 X110.0012 Y51.4256
 X110.2922 Y51.5706
 X110.5712 Y51.7331
 X110.8382 Y51.9125
 X111.0917 Y52.1081
 X111.3317 Y52.3194
 X111.5567 Y52.5458
 X111.7674 Y52.7867
 X111.9624 Y53.0414
 X112.1409 Y53.3093
 X112.3022 Y53.5900
 X112.4454 Y53.8826
 X112.5714 Y54.1868
 X112.6779 Y54.5016
 X112.7664 Y54.7985
 X112.8549 Y55.1083
 X112.9442 Y55.4310
 X113.0342 Y55.7669
 X113.1234 Y56.1156
 X113.2119 Y56.4775
 X113.2997 Y56.8523
 X113.3874 Y57.2403
 X113.4729 Y57.6416
 X113.5577 Y58.0558
 X113.6409 Y58.4833
 X113.7219 Y58.9241
 X113.8007 Y59.3781
 X113.8764 Y59.8454
 X113.9499 Y60.3260
 X114.0204 Y60.8198
 X114.0879 Y61.3273
 X114.1517 Y61.8480
 X114.2124 Y62.3821
 X114.2679 Y62.9297
 X114.3197 Y63.4908
 X114.3677 Y64.0655
 X114.4104 Y64.6536
 X114.4479 Y65.2554
 X114.4802 Y65.8707
 X114.5072 Y66.4997
 X114.5282 Y67.1425
 X114.5424 Y67.7988
 X114.5507 Y68.4689
 X114.5544 Y69.1528
 X114.5492 Y69.8504
 X114.5372 Y70.5618
 X114.5289 Y71.2531
 X114.5357 Y71.9086
 X114.5544 Y72.5291
 X114.5852 Y73.1156
 X114.6279 Y73.6691
 X114.6812 Y74.1905
 X114.7449 Y74.6808
 X114.8169 Y75.1408
 X114.8964 Y75.5717
 X114.9834 Y75.9740
 X115.0772 Y76.3490
 X115.1769 Y76.6976
 X115.2804 Y77.0207
 X115.3884 Y77.3192
 X115.5002 Y77.5941
 X115.6134 Y77.8463
 X115.7282 Y78.0767
 X115.8437 Y78.2863
 X115.9592 Y78.4761
 X116.0739 Y78.6470
 X116.1864 Y78.7999
 X116.2959 Y78.9357
 X116.4017 Y79.0555
 X116.5044 Y79.1597
 X116.6012 Y79.2505
 X116.6919 Y79.3277
 X116.7759 Y79.3922
 X116.8517 Y79.4455
 X116.9207 Y79.4882
 X116.9792 Y79.5220
 X117.0272 Y79.5467
 X117.0654 Y79.5640
 X117.2259 Y79.5827
 X117.3767 Y79.6195
 X117.5184 Y79.6712
 X117.6519 Y79.7395
 X117.7772 Y79.8235
 X117.8957 Y79.9217
 X118.0074 Y80.0350
 X118.1147 Y80.1625
 X118.2107 Y80.3057
 X118.2812 Y80.4565
 X118.3314 Y80.6147
 X118.3614 Y80.7782
 X118.3727 Y80.9455
 X118.3689 Y81.1165
 X118.3502 Y81.2890
 X118.3179 Y81.4615
G0 Z-25.0000
G0 Z-25.0000
M2 (end program)
