$X
$H
G10 P0 L20 X0 Y0 Z0
G40 (disable tool radius compensation)
G49 (disable tool length compensation)
G80 (cancel modal motion)
G54 (select coordinate system 1)
G90 (disable incremental moves)
G21 (metric)
F300.00000
S250.00000
G61 (exact path mode)
;PYCAM_TOOLPATH_SETTINGS: START
;[Bounds]
;maxz = 0.0
;maxx = 13.7565
;maxy = 13.274
;minx = 0.00092231
;miny = 0.482964
;minz = 0.0
;
;[Tool]
;torus_radius = 0.125
;shape = CylindricalCutter
;tool_radius = 1.5875
;feedrate = 300.0
;
;[Process]
;engrave_offset = 0.0
;step_down = 3.0
;generator = EngraveCutter
;postprocessor = SimpleCutter
;overlap_percent = 0
;milling_style = ignore
;material_allowance = 0.0
;pocketing_type = none
;path_direction = x
;
;PYCAM_TOOLPATH_SETTINGS: END
G0 Z-25.0000
M3 (start spindle)
G04 P3 (wait for 3 seconds)
 X13.10250 Y8.13222
G1 Z-53.0000
 X13.07810 Y8.02903
 X12.98880 Y7.72325
 X12.84380 Y7.32465
 X12.66810 Y6.93782
 X12.46270 Y6.56407
 X12.22830 Y6.20469
 X11.96570 Y5.86106
 X11.67570 Y5.53440
 X11.44090 Y5.30024
 X11.35910 Y5.22607
 X6.84071 Y1.19520
 X2.40067 Y5.22467
 X2.31858 Y5.29893
 X2.08311 Y5.53347
 X1.79258 Y5.86046
 X1.52963 Y6.20437
 X1.29508 Y6.56392
 X1.08952 Y6.93778
 X0.91379 Y7.32465
 X0.76850 Y7.72319
 X0.67887 Y8.02903
 X0.65441 Y8.13222
 X0.63791 Y8.20210
 X0.59586 Y8.41351
 X0.55816 Y8.66118
 X0.53727 Y8.87414
 X0.52924 Y9.05117
 X0.53006 Y9.19114
 X0.53575 Y9.29286
 X0.54226 Y9.35514
 X0.54536 Y9.37614
 X0.54574 Y9.37685
 X0.54856 Y9.40294
 X0.55648 Y9.49240
 X0.59435 Y9.75956
 X0.66640 Y10.10240
 X0.76351 Y10.43030
 X0.88444 Y10.74190
 X1.02794 Y11.03590
 X1.19276 Y11.31110
 X1.37771 Y11.56630
 X1.58154 Y11.79990
 X1.80306 Y12.01090
 X2.04107 Y12.19790
 X2.29422 Y12.35970
 X2.56142 Y12.49490
 X2.84131 Y12.60230
 X3.13281 Y12.68060
 X3.43457 Y12.72860
 X3.66769 Y12.74480
 X3.80311
 X3.97613 Y12.73590
 X4.20275 Y12.70970
 X4.42458 Y12.66640
 X4.64111 Y12.60660
 X4.85167 Y12.53070
 X5.05561 Y12.43910
 X5.25233 Y12.33230
 X5.44119 Y12.21070
 X5.62164 Y12.07470
 X5.79292 Y11.92480
 X5.95454 Y11.76140
 X6.10579 Y11.58500
 X6.24615 Y11.39600
 X6.37489 Y11.19480
 X6.49143 Y10.98180
 X6.57113 Y10.81450
 X6.59517 Y10.75760
 X6.83931 Y10.17870
 X7.08306 Y10.75760
 X7.10678 Y10.81380
 X7.18599 Y10.97890
 X7.30317 Y11.18960
 X7.43381 Y11.38930
 X7.57715 Y11.57740
 X7.73247 Y11.75350
 X7.89893 Y11.91690
 X8.07585 Y12.06720
 X8.26243 Y12.20390
 X8.45790 Y12.32650
 X8.66151 Y12.43430
 X8.87250 Y12.52710
 X9.09011 Y12.60410
 X9.31358 Y12.66490
 X9.54210 Y12.70890
 X9.77501 Y12.73580
 X9.95236 Y12.74480
 X10.08930
 X10.32250 Y12.72860
 X10.62450 Y12.68060
 X10.91610 Y12.60220
 X11.19610 Y12.49450
 X11.46340 Y12.35890
 X11.71670 Y12.19660
 X11.95470 Y12.00880
 X12.17640 Y11.79680
 X12.38040 Y11.56180
 X12.56550 Y11.30510
 X12.73060 Y11.02790
 X12.87440 Y10.73150
 X12.99570 Y10.41700
 X13.09330 Y10.08590
 X13.16600 Y9.73921
 X13.20440 Y9.46881
 X13.21260 Y9.37825
 Y9.37272
 X13.21550 Y9.35607
 X13.22170 Y9.29329
 X13.22710 Y9.19119
 X13.22780 Y9.05094
 X13.21960 Y8.87375
 X13.19870 Y8.66075
 X13.16100 Y8.41319
 X13.11900 Y8.20204
 X13.10250 Y8.13222
G0 Z-25.0000
 X4.23335 Y11.66560
G1 Z-53.0000
 X4.16575
 X3.96311 Y11.65200
 X3.70057 Y11.61180
 X3.44721 Y11.54660
 X3.20421 Y11.45750
 X2.97293 Y11.34600
 X2.75478 Y11.21330
 X2.55106 Y11.06090
 X2.36313 Y10.89000
 X2.19222 Y10.70210
 X2.03982 Y10.49840
 X1.90717 Y10.28020
 X1.79568 Y10.04890
 X1.70660 Y9.80593
 X1.64133 Y9.55257
 X1.60118 Y9.29004
 X1.58751 Y9.08740
 Y8.99408
 X1.60829 Y8.91689
 X1.66504 Y8.83279
 X1.74914 Y8.77610
 X1.82633 Y8.75526
 X1.87782
 X1.95503 Y8.77610
 X2.03911 Y8.83279
 X2.09581 Y8.91689
 X2.11664 Y8.99408
 Y9.07389
 X2.12756 Y9.23600
 X2.15967 Y9.44596
 X2.21192 Y9.64865
 X2.28321 Y9.84304
 X2.37244 Y10.02810
 X2.47857 Y10.20260
 X2.60047 Y10.36560
 X2.73719 Y10.51590
 X2.88758 Y10.65270
 X3.05057 Y10.77460
 X3.22510 Y10.88070
 X3.41010 Y10.96990
 X3.60449 Y11.04120
 X3.80718 Y11.09350
 X4.01714 Y11.12560
 X4.17925 Y11.13650
 X4.25906
 X4.33626 Y11.15730
 X4.42042 Y11.21400
 X4.47711 Y11.29820
 X4.49794 Y11.37540
 Y11.42700
 X4.47711 Y11.50470
 X4.42042 Y11.58870
 X4.33626 Y11.64510
 X4.25906 Y11.66560
 X4.23335
G0 Z-25.0000
 X13.73500 Y9.46078
G1 Z-53.0000
 X13.72570 Y9.56293
 X13.68150 Y9.86789
 X13.59750 Y10.25930
 X13.48440 Y10.63360
 X13.34360 Y10.98920
 X13.17650 Y11.32470
 X12.98470 Y11.63870
 X12.76940 Y11.92970
 X12.53210 Y12.19630
 X12.27410 Y12.43700
 X11.99710 Y12.65030
 X11.70230 Y12.83480
 X11.39110 Y12.98900
 X11.06500 Y13.11150
 X10.72540 Y13.20080
 X10.37380 Y13.25550
 X10.10210 Y13.27400
 X9.95074
 X9.76844 Y13.26580
 X9.52854 Y13.24160
 X9.29243 Y13.20180
 X9.06065 Y13.14670
 X8.83388 Y13.07690
 X8.61268 Y12.99260
 X8.39763 Y12.89440
 X8.18940 Y12.78240
 X7.98856 Y12.65740
 X7.79574 Y12.51950
 X7.61149 Y12.36930
 X7.43647 Y12.20700
 X7.27126 Y12.03320
 X7.11654 Y11.84830
 X6.97276 Y11.65260
 X6.87207 Y11.49910
 X6.84071 Y11.44660
 X6.77924 Y11.55180
 X6.56922 Y11.85230
 X6.25683 Y12.21280
 X5.90744 Y12.52560
 X5.52507 Y12.78760
 X5.11372 Y12.99620
 X4.67731 Y13.14870
 X4.21989 Y13.24220
 X3.86404 Y13.27400
 X3.65489
 X3.38336 Y13.25550
 X3.03185 Y13.20080
 X2.69239 Y13.11150
 X2.36643 Y12.98900
 X2.05528 Y12.83480
 X1.76047 Y12.65030
 X1.48340 Y12.43700
 X1.22553 Y12.19630
 X0.98823 Y11.92970
 X0.77289 Y11.63870
 X0.58105 Y11.32470
 X0.41406 Y10.98920
 X0.27333 Y10.63360
 X0.16037 Y10.25930
 X0.07650 Y9.86789
 X0.03250 Y9.56293
 X0.02327 Y9.46078
 X0.02094 Y9.44689
 X0.01552 Y9.40483
 X0.00684 Y9.31093
 X0.00092 Y9.18012
 X0.00141 Y9.01357
 X0.01194 Y8.81233
 X0.03619 Y8.57747
 X0.07775 Y8.31006
 X0.12283 Y8.08550
 X0.14041 Y8.01124
 X0.16705 Y7.89828
 X0.26476 Y7.56337
 X0.42329 Y7.12711
 X0.61513 Y6.70389
 X0.83946 Y6.29503
 X1.09549 Y5.90207
 X1.38227 Y5.52626
 X1.69906 Y5.16911
 X1.95562 Y4.91308
 X2.04503 Y4.83197
 X6.83789 Y0.48296
 X11.71330 Y4.83197
 X11.80260 Y4.91303
 X12.05920 Y5.16911
 X12.37600 Y5.52626
 X12.66280 Y5.90207
 X12.91880 Y6.29503
 X13.14310 Y6.70389
 X13.33500 Y7.12711
 X13.49350 Y7.56337
 X13.59130 Y7.89828
 X13.61790 Y8.01124
 X13.63540 Y8.08550
 X13.68010 Y8.31006
 X13.72140 Y8.57747
 X13.74540 Y8.81233
 X13.75600 Y9.01357
 X13.75650 Y9.18012
 X13.75080 Y9.31093
 X13.74240 Y9.40483
 X13.73710 Y9.44689
 X13.73500 Y9.46078
G0 Z-25.0000
M5 (stop spindle)
G04 P3 (wait for 3 seconds)
G0 Z-25.0000
M2 (end program)
