$X
$H
G10 P0 L20 X0 Y0 Z0
G40 (disable tool radius compensation)
G49 (disable tool length compensation)
G80 (cancel modal motion)
G54 (select coordinate system 1)
G90 (disable incremental moves)
G21 (metric)
F300.00000
S250.00000
G61 (exact path mode)
;PYCAM_TOOLPATH_SETTINGS: START
;[Bounds]
;maxz = 0.0
;maxx = 135.464
;maxy = 134.081
;minx = 0.000813803
;miny = 1.38113
;minz = 0.0
;
;[Tool]
;torus_radius = 0.125
;shape = CylindricalCutter
;tool_radius = 1.5875
;feedrate = 300.0
;
;[Process]
;engrave_offset = 0.0
;step_down = 3.0
;generator = EngraveCutter
;postprocessor = SimpleCutter
;overlap_percent = 0
;milling_style = ignore
;material_allowance = 0.0
;pocketing_type = none
;path_direction = x
;
;PYCAM_TOOLPATH_SETTINGS: END
G0 Z-25.0000
M3 (start spindle)
G04 P3 (wait for 3 seconds)
 X69.14170 Y46.59310
G1 Z-41.5000
 X68.90560
 X68.19760 Y46.61690
 X67.26600 Y46.68780
 X66.34790 Y46.80460
 X65.44440 Y46.96580
 X64.55710 Y47.17070
 X63.68650 Y47.41790
 X62.83420 Y47.70630
 X62.00110 Y48.03470
 X61.18850 Y48.40210
 X60.39750 Y48.80720
 X59.62930 Y49.24900
 X58.88500 Y49.72610
 X58.16580 Y50.23760
 X57.47280 Y50.78220
 X56.80720 Y51.35880
 X56.17010 Y51.96630
 X55.56280 Y52.60330
 X54.98610 Y53.26890
 X54.44150 Y53.96190
 X53.93000 Y54.68110
 X53.45290 Y55.42540
 X53.01130 Y56.19360
 X52.60610 Y56.98460
 X52.23870 Y57.79720
 X51.91030 Y58.63030
 X51.62190 Y59.48260
 X51.37470 Y60.35320
 X51.16990 Y61.24060
 X51.00850 Y62.14400
 X50.89180 Y63.06190
 X50.82100 Y63.99360
 X50.79720 Y64.70170
 Y65.17360
 X50.82100 Y65.88170
 X50.89180 Y66.81320
 X51.00850 Y67.73120
 X51.16990 Y68.63470
 X51.37470 Y69.52220
 X51.62190 Y70.39260
 X51.91030 Y71.24500
 X52.23870 Y72.07820
 X52.60610 Y72.89070
 X53.01130 Y73.68170
 X53.45290 Y74.44990
 X53.93000 Y75.19420
 X54.44150 Y75.91350
 X54.98610 Y76.60640
 X55.56280 Y77.27210
 X56.17010 Y77.90920
 X56.80720 Y78.51650
 X57.47280 Y79.09310
 X58.16580 Y79.63760
 X58.88500 Y80.14920
 X59.62930 Y80.62620
 X60.39750 Y81.06790
 X61.18850 Y81.47310
 X62.00110 Y81.84040
 X62.83420 Y82.16890
 X63.68650 Y82.45740
 X64.55710 Y82.70460
 X65.44440 Y82.90930
 X66.34790 Y83.07070
 X67.26600 Y83.18740
 X68.19760 Y83.25820
 X68.90560 Y83.28190
 X69.37760
 X70.08560 Y83.25820
 X71.01720 Y83.18740
 X71.93530 Y83.07070
 X72.83860 Y82.90930
 X73.72630 Y82.70460
 X74.59670 Y82.45740
 X75.44900 Y82.16890
 X76.28210 Y81.84040
 X77.09470 Y81.47310
 X77.88570 Y81.06790
 X78.65390 Y80.62620
 X79.39820 Y80.14920
 X80.11740 Y79.63760
 X80.81040 Y79.09310
 X81.47600 Y78.51650
 X82.11310 Y77.90920
 X82.72060 Y77.27210
 X83.29710 Y76.60640
 X83.84170 Y75.91350
 X84.35320 Y75.19420
 X84.83030 Y74.44990
 X85.27190 Y73.68170
 X85.67710 Y72.89070
 X86.04440 Y72.07820
 X86.37290 Y71.24500
 X86.66120 Y70.39260
 X86.90850 Y69.52220
 X87.11330 Y68.63470
 X87.27470 Y67.73120
 X87.39140 Y66.81320
 X87.46220 Y65.88170
 X87.48610 Y65.17360
 Y64.93750
 X87.48540 Y64.70170
 X87.45970 Y63.99370
 X87.38680 Y63.06240
 X87.26830 Y62.14460
 X87.10560 Y61.24180
 X86.89940 Y60.35490
 X86.65130 Y59.48500
 X86.36210 Y58.63330
 X86.03310 Y57.80110
 X85.66530 Y56.98930
 X85.26010 Y56.19920
 X84.81830 Y55.43180
 X84.34140 Y54.68850
 X83.83030 Y53.97000
 X83.28610 Y53.27780
 X82.71010 Y52.61290
 X82.10330 Y51.97650
 X81.46690 Y51.36970
 X80.80210 Y50.79360
 X80.10990 Y50.24940
 X79.39150 Y49.73830
 X78.64810 Y49.26130
 X77.88070 Y48.81940
 X77.09060 Y48.41420
 X76.27870 Y48.04640
 X75.44650 Y47.71740
 X74.59490 Y47.42810
 X73.72500 Y47.17990
 X72.83790 Y46.97380
 X71.93500 Y46.81080
 X71.01710 Y46.69240
 X70.08560 Y46.61940
 X69.37760 Y46.59380
 X69.14170 Y46.59310
G0 Z-25.0000
 X107.10100 Y55.34240
G1 Z-41.5000
 X107.08700
 X107.04400 Y55.34670
 X106.94200 Y55.35610
 X106.83500 Y55.36560
 X106.78000 Y55.36990
 X106.76200
 X106.69700 Y55.37510
 X106.50200 Y55.37970
 X106.25200 Y55.36740
 X106.01200 Y55.33350
 X105.78200 Y55.27930
 X105.56300 Y55.20540
 X105.35500 Y55.11310
 X105.15800 Y55.00310
 X104.97400 Y54.87630
 X104.80100 Y54.73350
 X104.64200 Y54.57580
 X104.49500 Y54.40400
 X104.36200 Y54.21920
 X104.24200 Y54.02210
 X104.13600 Y53.81360
 X104.04500 Y53.59470
 X103.98600 Y53.42420
 X103.96900 Y53.36640
 X103.95200 Y53.31000
 X103.91000 Y53.13790
 X103.87000 Y52.90780
 X103.85000 Y52.67720
 X103.84800 Y52.44740
 X103.86600 Y52.21930
 X103.90100 Y51.99420
 X103.95400 Y51.77310
 X104.02500 Y51.55710
 X104.11300 Y51.34750
 X104.21800 Y51.14510
 X104.33900 Y50.95140
 X104.47600 Y50.76740
 X104.63000 Y50.59400
 X104.79800 Y50.43260
 X104.98300 Y50.28420
 X105.13000 Y50.18130
 X105.18100 Y50.14990
 X105.39100 Y50.01790
 X106.01000 Y49.60330
 X106.81100 Y49.02290
 X107.58300 Y48.40960
 X108.32700 Y47.76460
 X109.04100 Y47.08890
 X109.72400 Y46.38370
 X110.37600 Y45.65030
 X110.99600 Y44.88960
 X111.58300 Y44.10280
 X112.13500 Y43.29080
 X112.65300 Y42.45510
 X113.13500 Y41.59670
 X113.58100 Y40.71640
 X113.99000 Y39.81570
 X114.36100 Y38.89560
 X114.61500 Y38.19350
 X114.69300 Y37.95710
 X114.73700 Y37.81830
 X114.86500 Y37.39960
 X115.02200 Y36.84100
 X115.16500 Y36.28140
 X115.29200 Y35.72120
 X115.40500 Y35.16060
 X115.50400 Y34.59970
 X115.58800 Y34.03900
 X115.65700 Y33.47850
 X115.71300 Y32.91850
 X115.75400 Y32.35900
 X115.78200 Y31.80060
 X115.79500 Y31.24330
 Y30.68750
 X115.78100 Y30.13320
 X115.75300 Y29.58070
 X115.71200 Y29.03030
 X115.65800 Y28.48210
 X115.59100 Y27.93640
 X115.51100 Y27.39350
 X115.41700 Y26.85350
 X115.31100 Y26.31670
 X115.19200 Y25.78320
 X115.06000 Y25.25350
 X114.91600 Y24.72750
 X114.76000 Y24.20570
 X114.59100 Y23.68810
 X114.41000 Y23.17500
 X114.21700 Y22.66670
 X114.01200 Y22.16350
 X113.79600 Y21.66530
 X113.56700 Y21.17250
 X113.32700 Y20.68540
 X113.07600 Y20.20430
 X112.81300 Y19.72920
 X112.53900 Y19.26040
 X112.25400 Y18.79810
 X111.95800 Y18.34260
 X111.65100 Y17.89420
 X111.33300 Y17.45290
 X111.00400 Y17.01920
 X110.66500 Y16.59290
 X110.31600 Y16.17470
 X109.95600 Y15.76460
 X109.58600 Y15.36280
 X109.20600 Y14.96940
 X108.81500 Y14.58510
 X108.41500 Y14.20960
 X108.00600 Y13.84350
 X107.58600 Y13.48680
 X107.15700 Y13.13980
 X106.71900 Y12.80260
 X106.27100 Y12.47560
 X105.81400 Y12.15910
 X105.34800 Y11.85300
 X104.87300 Y11.55780
 X104.39000 Y11.27370
 X103.89700 Y11.00080
 X103.39600 Y10.73940
 X102.88600 Y10.48970
 X102.36800 Y10.25200
 X101.84200 Y10.02640
 X101.30800 Y9.81315
 X100.76500 Y9.61257
 X100.35300 Y9.47000
 X100.21500 Y9.42481
 X100.07700 Y9.37999
 X99.66010 Y9.25244
 X99.10420 Y9.09506
 X98.54740 Y8.95253
 X97.99000 Y8.82476
 X97.43220 Y8.71158
 X96.87420 Y8.61296
 X96.31630 Y8.52869
 X95.75870 Y8.45876
 X95.20150 Y8.40306
 X94.64510 Y8.36133
 X94.08970 Y8.33361
 X93.53540 Y8.31972
 X92.98250 Y8.31956
 X92.43120 Y8.33296
 X91.88180 Y8.35992
 X91.33440 Y8.40022
 X90.78930 Y8.45383
 X90.24680 Y8.52056
 X89.70680 Y8.60032
 X89.17000 Y8.69303
 X88.63630 Y8.79856
 X88.10600 Y8.91683
 X87.57920 Y9.04764
 X87.05620 Y9.19092
 X86.53750 Y9.34657
 X86.02290 Y9.51449
 X85.51290 Y9.69450
 X85.00760 Y9.88656
 X84.50740 Y10.09050
 X84.01220 Y10.30630
 X83.52250 Y10.53370
 X83.03850 Y10.77270
 X82.56010 Y11.02310
 X82.08790 Y11.28490
 X81.62210 Y11.55790
 X81.16260 Y11.84200
 X80.71010 Y12.13710
 X80.26440 Y12.44310
 X79.82580 Y12.75990
 X79.39490 Y13.08730
 X78.97140 Y13.42520
 X78.55580 Y13.77360
 X78.14830 Y14.13240
 X77.74900 Y14.50120
 X77.35830 Y14.88030
 X76.97640 Y15.26920
 X76.60350 Y15.66790
 X76.23960 Y16.07650
 X75.88530 Y16.49470
 X75.54060 Y16.92240
 X75.20570 Y17.35960
 X74.88080 Y17.80600
 X74.56640 Y18.26150
 X74.26240 Y18.72610
 X73.96930 Y19.19970
 X73.68690 Y19.68220
 X73.41600 Y20.17330
 X73.15640 Y20.67310
 X72.90830 Y21.18130
 X72.67220 Y21.69790
 X72.44820 Y22.22290
 X72.23650 Y22.75600
 X72.03740 Y23.29710
 X71.89580 Y23.70820
 X71.85100 Y23.84600
 X71.84600 Y23.85610
 X71.83460 Y23.88790
 X71.82350 Y23.92720
 X71.81220 Y23.96140
 X71.80110 Y23.98240
 X71.79600 Y23.98790
 X71.78880 Y24.00190
 X71.76990 Y24.06530
 X71.73870 Y24.18490
 X71.70790 Y24.30440
 X71.68940 Y24.36780
 X71.68260 Y24.38190
 X71.66560 Y24.43830
 X71.60490 Y24.60490
 X71.51010 Y24.81780
 X71.39960 Y25.02000
 X71.27370 Y25.21080
 X71.13370 Y25.38970
 X70.98060 Y25.55570
 X70.81490 Y25.70820
 X70.63780 Y25.84650
 X70.45010 Y25.97000
 X70.25280 Y26.07790
 X70.04670 Y26.16940
 X69.83280 Y26.24390
 X69.61190 Y26.30080
 X69.38500 Y26.33930
 X69.15310 Y26.35860
 X68.97580 Y26.36080
 X68.91690 Y26.35820
 X68.85780 Y26.35680
 X68.68080 Y26.34290
 X68.44970 Y26.30860
 X68.22420 Y26.25600
 X68.00560 Y26.18560
 X67.79440 Y26.09810
 X67.59190 Y25.99430
 X67.39870 Y25.87490
 X67.21600 Y25.74060
 X67.04440 Y25.59210
 X66.88510 Y25.43000
 X66.73890 Y25.25510
 X66.60650 Y25.06810
 X66.48920 Y24.86960
 X66.38760 Y24.66040
 X66.30260 Y24.44130
 X66.24990 Y24.27030
 X66.23540 Y24.21250
 X66.17600 Y23.97110
 X65.97650 Y23.25180
 X65.67670 Y22.30680
 X65.33680 Y21.37850
 X64.95780 Y20.46830
 X64.54010 Y19.57720
 X64.08470 Y18.70640
 X63.59250 Y17.85710
 X63.06400 Y17.03060
 X62.50010 Y16.22760
 X61.90170 Y15.44970
 X61.26940 Y14.69790
 X60.60420 Y13.97350
 X59.90650 Y13.27750
 X59.17750 Y12.61110
 X58.41760 Y11.97550
 X57.82860 Y11.51830
 X57.62810 Y11.37180
 X57.39400 Y11.20160
 X56.67460 Y10.71440
 X55.69940 Y10.11250
 X54.70470 Y9.56560
 X53.69220 Y9.07351
 X52.66400 Y8.63596
 X51.62210 Y8.25261
 X50.56830 Y7.92313
 X49.50470 Y7.64725
 X48.43330 Y7.42464
 X47.35610 Y7.25499
 X46.27510 Y7.13807
 X45.19220 Y7.07346
 X44.10940 Y7.06099
 X43.02860 Y7.10021
 X41.95190 Y7.19092
 X40.88120 Y7.33279
 X39.81870 Y7.52550
 X38.76610 Y7.76872
 X37.72540 Y8.06222
 X36.69880 Y8.40565
 X35.68810 Y8.79867
 X34.69510 Y9.24104
 X33.72220 Y9.73242
 X32.77130 Y10.27260
 X31.84400 Y10.86110
 X30.94280 Y11.49770
 X30.06920 Y12.18210
 X29.22540 Y12.91410
 X28.41350 Y13.69320
 X27.63530 Y14.51920
 X26.89290 Y15.39180
 X26.35830 Y16.07670
 X26.18810 Y16.31070
 X26.18330 Y16.31540
 X26.17080 Y16.33180
 X26.15930 Y16.35000
 X26.14810 Y16.36260
 X26.13570 Y16.36750
 X26.13170
 X25.96140 Y16.60290
 X25.47430 Y17.32640
 X24.87250 Y18.30720
 X24.32600 Y19.30790
 X23.83440 Y20.32670
 X23.39760 Y21.36140
 X23.01490 Y22.41000
 X22.68630 Y23.47040
 X22.41140 Y24.54080
 X22.18990 Y25.61920
 X22.02140 Y26.70330
 X21.90560 Y27.79140
 X21.84220 Y28.88140
 X21.83100 Y29.97120
 X21.87150 Y31.05870
 X21.96360 Y32.14240
 X22.10680 Y33.21960
 X22.30080 Y34.28880
 X22.54540 Y35.34760
 X22.84010 Y36.39430
 X23.18470 Y37.42680
 X23.57900 Y38.44320
 X24.02260 Y39.44130
 X24.51500 Y40.41900
 X25.05610 Y41.37460
 X25.64560 Y42.30580
 X26.28310 Y43.21100
 X26.96820 Y44.08760
 X27.70070 Y44.93400
 X28.48010 Y45.74820
 X29.30650 Y46.52810
 X30.17920 Y47.27150
 X30.86400 Y47.80640
 X31.09810 Y47.97670
 X29.94190 Y49.61390
 Y49.78190
 X31.46600 Y48.17390
 X31.51580 Y48.20670
 X31.65940 Y48.31360
 X31.83740 Y48.46740
 X31.99940 Y48.63390
 X32.14580 Y48.81190
 X32.27580 Y49.00060
 X32.38940 Y49.19830
 X32.48640 Y49.40420
 X32.56640 Y49.61680
 X32.62920 Y49.83500
 X32.67460 Y50.05760
 X32.70240 Y50.28350
 X32.71210 Y50.51140
 X32.70370 Y50.74010
 X32.67690 Y50.96850
 X32.63140 Y51.19510
 X32.58540 Y51.36390
 X32.56710 Y51.41920
 X32.54860 Y51.47560
 X32.48380 Y51.64170
 X32.38310 Y51.85360
 X32.26570 Y52.05400
 X32.13290 Y52.24260
 X31.98560 Y52.41850
 X31.82470 Y52.58070
 X31.65120 Y52.72890
 X31.46630 Y52.86220
 X31.27060 Y52.98010
 X31.06540 Y53.08170
 X30.85170 Y53.16640
 X30.63030 Y53.23330
 X30.40220 Y53.28210
 X30.16860 Y53.31180
 X29.93030 Y53.32170
 X29.74860 Y53.31630
 X29.68830 Y53.31110
 X29.54290 Y53.30120
 X29.10610 Y53.27890
 X28.52650 Y53.26140
 X27.94970 Y53.25870
 X27.37580 Y53.27060
 X26.80510 Y53.29670
 X26.23790 Y53.33710
 X25.67400 Y53.39140
 X25.11390 Y53.45960
 X24.55780 Y53.54140
 X24.00570 Y53.63690
 X23.45810 Y53.74570
 X22.91490 Y53.86760
 X22.37620 Y54.00260
 X21.84250 Y54.15060
 X21.31400 Y54.31110
 X20.79060 Y54.48420
 X20.27260 Y54.66960
 X19.76040 Y54.86740
 X19.25400 Y55.07710
 X18.75360 Y55.29880
 X18.25930 Y55.53210
 X17.77150 Y55.77690
 X17.29030 Y56.03320
 X16.81580 Y56.30070
 X16.34850 Y56.57920
 X15.88810 Y56.86860
 X15.43510 Y57.16870
 X14.98970 Y57.47940
 X14.55210 Y57.80060
 X14.12220 Y58.13190
 X13.70060 Y58.47330
 X13.28730 Y58.82460
 X12.88250 Y59.18570
 X12.48630 Y59.55620
 X12.09910 Y59.93630
 X11.72090 Y60.32560
 X11.35190 Y60.72390
 X10.99240 Y61.13110
 X10.64260 Y61.54710
 X10.30250 Y61.97170
 X9.97254 Y62.40470
 X9.65272 Y62.84600
 X9.34332 Y63.29530
 X9.04454 Y63.75260
 X8.75651 Y64.21760
 X8.47949 Y64.69030
 X8.21360 Y65.17030
 X7.95910 Y65.65760
 X7.71610 Y66.15210
 X7.48486 Y66.65330
 X7.26557 Y67.16150
 X7.05838 Y67.67620
 X6.86350 Y68.19740
 X6.68110 Y68.72490
 X6.51139 Y69.25850
 X6.35460 Y69.79790
 X6.21083 Y70.34320
 X6.08035 Y70.89420
 X5.96332 Y71.45060
 X5.85992 Y72.01220
 X5.77035 Y72.57900
 X5.69482 Y73.15070
 X5.63346 Y73.72720
 X5.59646 Y74.16290
 X5.58658 Y74.30830
 X5.56933 Y74.55650
 X5.53965 Y75.30260
 X5.53674 Y76.29470
 X5.57726 Y77.28350
 X5.66092 Y78.26740
 X5.78728 Y79.24490
 X5.95589 Y80.21470
 X6.16639 Y81.17560
 X6.41829 Y82.12580
 X6.71126 Y83.06430
 X7.04486 Y83.98930
 X7.41868 Y84.89970
 X7.83225 Y85.79390
 X8.28526 Y86.67070
 X8.77718 Y87.52850
 X9.30767 Y88.36580
 X9.72976 Y88.98100
 X9.87636 Y89.18150
 X10.04590 Y89.41630
 X10.57830 Y90.10320
 X11.31780 Y90.97860
 X12.09300 Y91.80760
 X12.90180 Y92.58990
 X13.74230 Y93.32510
 X14.61250 Y94.01310
 X15.51060 Y94.65330
 X16.43440 Y95.24560
 X17.38210 Y95.78940
 X18.35170 Y96.28490
 X19.34120 Y96.73120
 X20.34870 Y97.12850
 X21.37220 Y97.47630
 X22.40990 Y97.77400
 X23.45960 Y98.02180
 X24.51940 Y98.21900
 X25.58750 Y98.36560
 X26.66180 Y98.46110
 X27.74030 Y98.50510
 X28.82120 Y98.49750
 X29.90240 Y98.43780
 X30.98190 Y98.32580
 X32.05810 Y98.16120
 X33.12850 Y97.94380
 X34.19150 Y97.67290
 X35.24500 Y97.34870
 X36.28720 Y96.97060
 X37.31600 Y96.53820
 X38.32940 Y96.05140
 X39.32570 Y95.50970
 X40.30260 Y94.91290
 X41.02370 Y94.42970
 X41.25850 Y94.26080
 X41.26810 Y94.25580
 X41.29640 Y94.23890
 X41.32930 Y94.21470
 X41.36220 Y94.18530
 X41.39080 Y94.15740
 X41.40460 Y94.14360
 X41.41790 Y94.13150
 X41.44790 Y94.10500
 X41.48650 Y94.07190
 X41.53000 Y94.03540
 X41.57500 Y93.99880
 X41.61750 Y93.96540
 X41.65430 Y93.93870
 X41.67430 Y93.92540
 X41.68140 Y93.92180
 X41.73890 Y93.87750
 X41.92010 Y93.75580
 X42.16870 Y93.61750
 X42.42540 Y93.50630
 X42.68830 Y93.42210
 X42.95540 Y93.36490
 X43.22500 Y93.33400
 X43.49500 Y93.32940
 X43.76360 Y93.35100
 X44.02880 Y93.39820
 X44.28890 Y93.47100
 X44.54180 Y93.56920
 X44.78570 Y93.69240
 X45.01880 Y93.84030
 X45.23900 Y94.01280
 X45.44460 Y94.20960
 X45.58920 Y94.37310
 X45.63360 Y94.43060
 X45.69110 Y94.50380
 X45.84360 Y94.73900
 X46.00860 Y95.06920
 X46.12790 Y95.41600
 X46.20130 Y95.77430
 X46.22850 Y96.13940
 X46.20880 Y96.50600
 X46.14210 Y96.86900
 X46.06220 Y97.13740
 X46.02810 Y97.22370
 X45.93560 Y97.45490
 X45.67850 Y98.15600
 X45.37080 Y99.09920
 X45.10490 Y100.05200
 X44.88080 Y101.01400
 X44.69880 Y101.98200
 X44.55880 Y102.95600
 X44.46080 Y103.93400
 X44.40530 Y104.91500
 X44.39210 Y105.89700
 X44.42110 Y106.87900
 X44.49280 Y107.85900
 X44.60710 Y108.83700
 X44.76400 Y109.81000
 X44.96370 Y110.77800
 X45.20630 Y111.73800
 X45.41510 Y112.45300
 X45.49180 Y112.69000
 X45.53630 Y112.82800
 X45.67680 Y113.24100
 X45.87470 Y113.78500
 X46.08510 Y114.32100
 X46.30790 Y114.84800
 X46.54290 Y115.36800
 X46.78970 Y115.87900
 X47.04830 Y116.38100
 X47.31830 Y116.87500
 X47.59940 Y117.36000
 X47.89180 Y117.83600
 X48.19490 Y118.30400
 X48.50850 Y118.76200
 X48.83240 Y119.21100
 X49.16650 Y119.65100
 X49.51040 Y120.08100
 X49.86420 Y120.50200
 X50.22720 Y120.91300
 X50.59960 Y121.31400
 X50.98100 Y121.70600
 X51.37110 Y122.08700
 X51.76990 Y122.45900
 X52.17690 Y122.82000
 X52.59210 Y123.17100
 X53.01510 Y123.51100
 X53.44600 Y123.84100
 X53.88420 Y124.16000
 X54.32960 Y124.46900
 X54.78190 Y124.76600
 X55.24130 Y125.05300
 X55.70710 Y125.32800
 X56.17920 Y125.59200
 X56.65740 Y125.84500
 X57.14150 Y126.08600
 X57.63130 Y126.31600
 X58.12650 Y126.53400
 X58.62690 Y126.74000
 X59.13240 Y126.93500
 X59.64260 Y127.11700
 X60.15740 Y127.28700
 X60.67650 Y127.44500
 X61.19970 Y127.59000
 X61.72680 Y127.72300
 X62.25760 Y127.84300
 X62.79180 Y127.95100
 X63.32920 Y128.04600
 X63.86960 Y128.12700
 X64.41280 Y128.19600
 X64.95850 Y128.25200
 X65.50650 Y128.29400
 X66.05670 Y128.32200
 X66.60880 Y128.33800
 X67.16250 Y128.33900
 X67.71750 Y128.32700
 X68.27390 Y128.30100
 X68.83130 Y128.26100
 X69.38930 Y128.20700
 X69.94790 Y128.13900
 X70.50680 Y128.05600
 X71.06600 Y127.95900
 X71.62490 Y127.84700
 X72.18330 Y127.72100
 X72.74140 Y127.58000
 X73.29860 Y127.42400
 X73.71620 Y127.29700
 X73.85470 Y127.25300
 X73.85900
 X73.87190 Y127.25200
 X73.88350 Y127.24900
 X73.89490 Y127.24100
 X73.90710 Y127.22900
 X73.91120 Y127.22500
 X74.04930 Y127.18000
 X74.46150 Y127.03700
 X75.00400 Y126.83700
 X75.53850 Y126.62300
 X76.06490 Y126.39800
 X76.58310 Y126.16000
 X77.09280 Y125.91000
 X77.59420 Y125.64900
 X78.08680 Y125.37600
 X78.57080 Y125.09200
 X79.04610 Y124.79700
 X79.51240 Y124.49100
 X79.96960 Y124.17400
 X80.41760 Y123.84700
 X80.85640 Y123.51000
 X81.28580 Y123.16300
 X81.70570 Y122.80600
 X82.11580 Y122.43900
 X82.51640 Y122.06400
 X82.90690 Y121.67900
 X83.28760 Y121.28600
 X83.65820 Y120.88400
 X84.01850 Y120.47400
 X84.36850 Y120.05500
 X84.70810 Y119.62900
 X85.03710 Y119.19500
 X85.35540 Y118.75300
 X85.66290 Y118.30500
 X85.95940 Y117.84900
 X86.24500 Y117.38600
 X86.51960 Y116.91700
 X86.78280 Y116.44200
 X87.03440 Y115.96000
 X87.27490 Y115.47300
 X87.50350 Y114.98000
 X87.72060 Y114.48100
 X87.92560 Y113.97700
 X88.11870 Y113.46900
 X88.29990 Y112.95500
 X88.46890 Y112.43700
 X88.62560 Y111.91500
 X88.76960 Y111.38800
 X88.90130 Y110.85800
 X89.02030 Y110.32400
 X89.12650 Y109.78700
 X89.21990 Y109.24600
 X89.30030 Y108.70200
 X89.36750 Y108.15600
 X89.42140 Y107.60700
 X89.46210 Y107.05600
 X89.48930 Y106.50300
 X89.50280 Y105.94700
 Y105.39100
 X89.48870 Y104.83200
 X89.46080 Y104.27300
 X89.41890 Y103.71300
 X89.36290 Y103.15200
 X89.29250 Y102.59000
 X89.20780 Y102.02800
 X89.10850 Y101.46600
 X88.99460 Y100.90500
 X88.86580 Y100.34300
 X88.72240 Y99.78260
 X88.56370 Y99.22280
 X88.43540 Y98.80310
 X88.39030 Y98.66390
 X88.24810 Y98.32490
 X88.22320 Y98.25690
 X88.16260 Y98.04830
 X88.10680 Y97.77030
 X88.07960 Y97.49250
 X88.08030 Y97.21670
 X88.10780 Y96.94470
 X88.16150 Y96.67850
 X88.24030 Y96.41940
 X88.34360 Y96.16960
 X88.47030 Y95.93070
 X88.61960 Y95.70430
 X88.79070 Y95.49260
 X88.98260 Y95.29710
 X89.19440 Y95.11960
 X89.42560 Y94.96190
 X89.67500 Y94.82580
 X89.87380 Y94.73780
 X89.94170 Y94.71310
 X90.03060 Y94.68170
 X90.30470 Y94.60970
 X90.67140 Y94.55380
 X91.03750 Y94.54460
 X91.39860 Y94.58220
 X91.75040 Y94.66610
 X92.08880 Y94.79610
 X92.40930 Y94.97170
 X92.63710 Y95.13250
 X92.70750 Y95.19250
 X92.89750 Y95.35220
 X93.48140 Y95.81460
 X94.27870 Y96.39990
 X95.09790 Y96.94790
 X95.93790 Y97.45830
 X96.79740 Y97.93070
 X97.67510 Y98.36460
 X98.57000 Y98.75970
 X99.48070 Y99.11560
 X100.40600 Y99.43150
 X101.34400 Y99.70760
 X102.29500 Y99.94310
 X103.25600 Y100.13800
 X104.22700 Y100.29100
 X105.20700 Y100.40200
 X106.19300 Y100.47100
 X106.93700 Y100.49700
 X107.18500 Y100.49800
 X107.33100
 X107.76700 Y100.49100
 X108.34500 Y100.46800
 X108.91900 Y100.43200
 X109.48900 Y100.38100
 X110.05600 Y100.31600
 X110.61800 Y100.23700
 X111.17500 Y100.14400
 X111.72800 Y100.03700
 X112.27500 Y99.91690
 X112.81800 Y99.78380
 X113.35600 Y99.63740
 X113.88800 Y99.47810
 X114.41500 Y99.30610
 X114.93600 Y99.12150
 X115.45100 Y98.92460
 X115.95900 Y98.71560
 X116.46200 Y98.49430
 X116.95800 Y98.26140
 X117.44800 Y98.01680
 X117.93100 Y97.76070
 X118.40600 Y97.49330
 X118.87500 Y97.21490
 X119.33600 Y96.92560
 X119.79000 Y96.62540
 X120.23600 Y96.31460
 X120.67400 Y95.99350
 X121.10400 Y95.66220
 X121.52600 Y95.32080
 X121.93900 Y94.96960
 X122.34400 Y94.60860
 X122.74100 Y94.23830
 X123.12800 Y93.85860
 X123.50600 Y93.46970
 X123.87500 Y93.07190
 X124.23400 Y92.66530
 X124.58400 Y92.25010
 X124.92300 Y91.82650
 X125.25300 Y91.39470
 X125.57300 Y90.95490
 X125.88200 Y90.50690
 X126.18100 Y90.05150
 X126.46900 Y89.58860
 X126.74600 Y89.11820
 X127.01200 Y88.64070
 X127.26700 Y88.15630
 X127.51000 Y87.66500
 X127.74200 Y87.16710
 X127.96200 Y86.66280
 X128.17000 Y86.15210
 X128.36600 Y85.63540
 X128.55000 Y85.11290
 X128.72100 Y84.58460
 X128.87900 Y84.05070
 X129.02500 Y83.51150
 X129.15800 Y82.96710
 X129.27700 Y82.41760
 X129.38300 Y81.86350
 X129.47500 Y81.30460
 X129.55400 Y80.74130
 X129.61900 Y80.17360
 X129.67000 Y79.60180
 X129.70600 Y79.02610
 X129.72800 Y78.44670
 X129.73500 Y78.00940
 Y77.71900
 X129.72700 Y77.28470
 X129.70300 Y76.70900
 X129.66600 Y76.13710
 X129.61400 Y75.56900
 X129.54800 Y75.00500
 X129.46800 Y74.44510
 X129.37400 Y73.88960
 X129.26700 Y73.33880
 X129.14700 Y72.79260
 X129.01300 Y72.25140
 X128.86700 Y71.71530
 X128.70700 Y71.18460
 X128.53500 Y70.65920
 X128.35000 Y70.13940
 X128.15400 Y69.62570
 X127.94500 Y69.11780
 X127.72400 Y68.61610
 X127.49100 Y68.12080
 X127.24700 Y67.63210
 X126.99100 Y67.15010
 X126.72400 Y66.67500
 X126.44600 Y66.20710
 X126.15700 Y65.74630
 X125.85700 Y65.29310
 X125.54700 Y64.84750
 X125.22700 Y64.40960
 X124.89600 Y63.97970
 X124.55500 Y63.55820
 X124.20500 Y63.14490
 X123.84400 Y62.74010
 X123.47400 Y62.34400
 X123.09600 Y61.95680
 X122.70700 Y61.57870
 X122.31000 Y61.21000
 X121.90400 Y60.85060
 X121.49000 Y60.50070
 X121.06700 Y60.16080
 X120.63500 Y59.83080
 X120.19600 Y59.51100
 X119.74900 Y59.20140
 X119.29400 Y58.90250
 X118.83200 Y58.61420
 X118.36200 Y58.33670
 X117.88500 Y58.07040
 X117.40000 Y57.81530
 X116.90900 Y57.57150
 X116.41200 Y57.33940
 X115.90800 Y57.11900
 X115.39700 Y56.91070
 X114.88100 Y56.71440
 X114.35800 Y56.53060
 X113.83000 Y56.35900
 X113.29600 Y56.20030
 X112.75600 Y56.05440
 X112.21200 Y55.92170
 X111.66200 Y55.80190
 X111.10700 Y55.69570
 X110.54800 Y55.60310
 X109.98400 Y55.52420
 X109.41500 Y55.45920
 X108.84300 Y55.40850
 X108.26600 Y55.37180
 X107.68500 Y55.34990
 X107.24700 Y55.34240
 X107.10100
G0 Z-25.0000
 X69.14170 Y88.92640
G1 Z-41.5000
 X68.98690
 X68.52310 Y88.91860
 X67.90820 Y88.89530
 X67.29750 Y88.85640
 X66.69100 Y88.80250
 X66.08880 Y88.73350
 X65.49130 Y88.64970
 X64.89850 Y88.55140
 X64.31070 Y88.43860
 X63.72790 Y88.31150
 X63.15070 Y88.17040
 X62.57890 Y88.01560
 X62.01280 Y87.84690
 X61.45260 Y87.66490
 X60.89860 Y87.46940
 X60.35070 Y87.26100
 X59.80940 Y87.03960
 X59.27490 Y86.80540
 X58.74710 Y86.55880
 X58.22630 Y86.29970
 X57.71280 Y86.02860
 X57.20670 Y85.74560
 X56.70820 Y85.45070
 X56.21750 Y85.14420
 X55.73490 Y84.82630
 X55.26030 Y84.49720
 X54.79420 Y84.15710
 X54.33650 Y83.80610
 X53.88780 Y83.44460
 X53.44790 Y83.07250
 X53.01710 Y82.69030
 X52.59570 Y82.29790
 X52.18380 Y81.89560
 X51.78150 Y81.48360
 X51.38900 Y81.06220
 X51.00680 Y80.63140
 X50.63470 Y80.19150
 X50.27320 Y79.74280
 X49.92220 Y79.28510
 X49.58210 Y78.81900
 X49.25290 Y78.34440
 X48.93510 Y77.86180
 X48.62860 Y77.37110
 X48.33380 Y76.87260
 X48.05060 Y76.36650
 X47.77940 Y75.85310
 X47.52040 Y75.33240
 X47.27370 Y74.80460
 X47.03970 Y74.26990
 X46.81820 Y73.72860
 X46.60970 Y73.18080
 X46.41440 Y72.62670
 X46.23240 Y72.06650
 X46.06380 Y71.50040
 X45.90870 Y70.92860
 X45.76760 Y70.35130
 X45.64060 Y69.76860
 X45.52780 Y69.18080
 X45.42940 Y68.58790
 X45.34570 Y67.99040
 X45.27670 Y67.38820
 X45.22280 Y66.78170
 X45.18400 Y66.17100
 X45.16060 Y65.55610
 X45.15280 Y65.09220
 Y64.78290
 X45.16060 Y64.31900
 X45.18400 Y63.70430
 X45.22280 Y63.09350
 X45.27670 Y62.48690
 X45.34570 Y61.88490
 X45.42940 Y61.28720
 X45.52780 Y60.69440
 X45.64060 Y60.10670
 X45.76760 Y59.52400
 X45.90870 Y58.94670
 X46.06380 Y58.37490
 X46.23240 Y57.80880
 X46.41440 Y57.24860
 X46.60970 Y56.69460
 X46.81820 Y56.14680
 X47.03970 Y55.60540
 X47.27370 Y55.07080
 X47.52040 Y54.54310
 X47.77940 Y54.02220
 X48.05060 Y53.50870
 X48.33380 Y53.00260
 X48.62860 Y52.50420
 X48.93510 Y52.01350
 X49.25290 Y51.53080
 X49.58210 Y51.05630
 X49.92220 Y50.59010
 X50.27320 Y50.13260
 X50.63470 Y49.68380
 X51.00680 Y49.24390
 X51.38900 Y48.81310
 X51.78150 Y48.39170
 X52.18380 Y47.97970
 X52.59570 Y47.57750
 X53.01710 Y47.18500
 X53.44790 Y46.80280
 X53.88780 Y46.43080
 X54.33650 Y46.06920
 X54.79420 Y45.71820
 X55.26030 Y45.37810
 X55.73490 Y45.04900
 X56.21750 Y44.73110
 X56.70820 Y44.42460
 X57.20670 Y44.12970
 X57.71280 Y43.84670
 X58.22630 Y43.57540
 X58.74710 Y43.31650
 X59.27490 Y43.06990
 X59.80940 Y42.83570
 X60.35070 Y42.61430
 X60.89860 Y42.40570
 X61.45260 Y42.21040
 X62.01280 Y42.02830
 X62.57890 Y41.85970
 X63.15070 Y41.70470
 X63.72790 Y41.56360
 X64.31070 Y41.43650
 X64.89850 Y41.32380
 X65.49130 Y41.22540
 X66.08880 Y41.14170
 X66.69100 Y41.07260
 X67.29750 Y41.01880
 X67.90820 Y40.98000
 X68.52310 Y40.95650
 X68.98690 Y40.94860
 X69.29630
 X69.76010 Y40.95650
 X70.37500 Y40.98000
 X70.98570 Y41.01880
 X71.59220 Y41.07260
 X72.19440 Y41.14170
 X72.79190 Y41.22540
 X73.38470 Y41.32380
 X73.97260 Y41.43650
 X74.55530 Y41.56360
 X75.13260 Y41.70470
 X75.70440 Y41.85970
 X76.27060 Y42.02830
 X76.83070 Y42.21040
 X77.38470 Y42.40570
 X77.93250 Y42.61430
 X78.47390 Y42.83570
 X79.00850 Y43.06990
 X79.53620 Y43.31650
 X80.05710 Y43.57540
 X80.57060 Y43.84670
 X81.07670 Y44.12970
 X81.57510 Y44.42460
 X82.06580 Y44.73110
 X82.54850 Y45.04900
 X83.02310 Y45.37810
 X83.48920 Y45.71820
 X83.94670 Y46.06920
 X84.39560 Y46.43080
 X84.83540 Y46.80280
 X85.26620 Y47.18500
 X85.68760 Y47.57750
 X86.09960 Y47.97970
 X86.50190 Y48.39170
 X86.89430 Y48.81310
 X87.27650 Y49.24390
 X87.64860 Y49.68380
 X88.01010 Y50.13260
 X88.36110 Y50.59010
 X88.70110 Y51.05630
 X89.03030 Y51.53080
 X89.34820 Y52.01350
 X89.65460 Y52.50420
 X89.94960 Y53.00260
 X90.23260 Y53.50870
 X90.50380 Y54.02220
 X90.76280 Y54.54310
 X91.00940 Y55.07080
 X91.24360 Y55.60540
 X91.46500 Y56.14680
 X91.67350 Y56.69460
 X91.86890 Y57.24860
 X92.05100 Y57.80880
 X92.21960 Y58.37490
 X92.37440 Y58.94670
 X92.51560 Y59.52400
 X92.64260 Y60.10670
 X92.75540 Y60.69440
 X92.85380 Y61.28720
 X92.93750 Y61.88490
 X93.00650 Y62.48690
 X93.06060 Y63.09350
 X93.09930 Y63.70430
 X93.12260 Y64.31900
 X93.13060 Y64.78290
 Y64.93750
 X93.13030 Y65.09220
 X93.12140 Y65.55610
 X93.09680 Y66.17100
 X93.05690 Y66.78170
 X93.00190 Y67.38820
 X92.93210 Y67.99040
 X92.84750 Y68.58790
 X92.74830 Y69.18080
 X92.63470 Y69.76860
 X92.50690 Y70.35130
 X92.36530 Y70.92860
 X92.20990 Y71.50040
 X92.04070 Y72.06650
 X91.85820 Y72.62670
 X91.66250 Y73.18080
 X91.45360 Y73.72860
 X91.23190 Y74.26990
 X90.99760 Y74.80460
 X90.75080 Y75.33240
 X90.49170 Y75.85310
 X90.22040 Y76.36650
 X89.93720 Y76.87260
 X89.64240 Y77.37110
 X89.33600 Y77.86180
 X89.01820 Y78.34440
 X88.68920 Y78.81900
 X88.34920 Y79.28510
 X87.99850 Y79.74280
 X87.63710 Y80.19150
 X87.26540 Y80.63140
 X86.88330 Y81.06220
 X86.49130 Y81.48360
 X86.08930 Y81.89560
 X85.67760 Y82.29790
 X85.25650 Y82.69030
 X84.82610 Y83.07250
 X84.38670 Y83.44460
 X83.93820 Y83.80610
 X83.48110 Y84.15710
 X83.01540 Y84.49720
 X82.54130 Y84.82630
 X82.05900 Y85.14420
 X81.56880 Y85.45070
 X81.07070 Y85.74560
 X80.56500 Y86.02860
 X80.05190 Y86.29970
 X79.53170 Y86.55880
 X79.00420 Y86.80540
 X78.47000 Y87.03960
 X77.92900 Y87.26100
 X77.38170 Y87.46940
 X76.82790 Y87.66490
 X76.26810 Y87.84690
 X75.70240 Y88.01560
 X75.13100 Y88.17040
 X74.55390 Y88.31150
 X73.97150 Y88.43860
 X73.38390 Y88.55140
 X72.79130 Y88.64970
 X72.19390 Y88.73350
 X71.59190 Y88.80250
 X70.98560 Y88.85640
 X70.37490 Y88.89530
 X69.76010 Y88.91860
 X69.29630 Y88.92640
 X69.14170
G0 Z-25.0000
 X135.46400 Y77.97650
G1 Z-41.5000
 Y78.15890
 X135.45500 Y78.70600
 X135.42700 Y79.43080
 X135.38200 Y80.15100
 X135.31800 Y80.86610
 X135.23700 Y81.57600
 X135.13800 Y82.28060
 X135.02300 Y82.97940
 X134.89000 Y83.67250
 X134.74100 Y84.35940
 X134.57500 Y85.04010
 X134.39300 Y85.71430
 X134.19500 Y86.38170
 X133.98000 Y87.04190
 X133.75100 Y87.69510
 X133.50600 Y88.34100
 X133.24500 Y88.97920
 X132.97000 Y89.60940
 X132.68000 Y90.23170
 X132.37600 Y90.84560
 X132.05700 Y91.45080
 X131.72400 Y92.04750
 X131.37700 Y92.63510
 X131.01700 Y93.21350
 X130.64300 Y93.78250
 X130.25600 Y94.34180
 X129.85700 Y94.89140
 X129.44400 Y95.43070
 X129.01900 Y95.95970
 X128.58200 Y96.47830
 X128.13200 Y96.98610
 X127.67100 Y97.48280
 X127.19800 Y97.96830
 X126.71400 Y98.44250
 X126.21900 Y98.90500
 X125.71200 Y99.35560
 X125.19500 Y99.79420
 X124.66800 Y100.22000
 X124.13000 Y100.63400
 X123.58200 Y101.03500
 X123.02400 Y101.42300
 X122.45700 Y101.79700
 X121.88000 Y102.15900
 X121.29500 Y102.50600
 X120.70000 Y102.84000
 X120.09600 Y103.15900
 X119.48400 Y103.46500
 X118.86400 Y103.75500
 X118.23600 Y104.03100
 X117.60000 Y104.29200
 X116.95600 Y104.53800
 X116.30500 Y104.76800
 X115.64700 Y104.98300
 X114.98100 Y105.18200
 X114.30900 Y105.36400
 X113.63100 Y105.53100
 X112.94600 Y105.68000
 X112.25600 Y105.81300
 X111.55900 Y105.92900
 X110.85700 Y106.02800
 X110.15000 Y106.10900
 X109.43700 Y106.17300
 X108.72000 Y106.21800
 X107.99700 Y106.24600
 X107.45200 Y106.25500
 X107.07400
 X106.48300 Y106.24400
 X105.69700 Y106.21100
 X104.91300 Y106.15500
 X104.13100 Y106.07700
 X103.35300 Y105.97700
 X102.57800 Y105.85600
 X101.80700 Y105.71400
 X101.04000 Y105.54900
 X100.27800 Y105.36400
 X99.52100 Y105.15800
 X98.76920 Y104.93100
 X98.02330 Y104.68300
 X97.28380 Y104.41500
 X96.55080 Y104.12700
 X95.82510 Y103.81800
 X95.28530 Y103.57400
 X95.10680 Y103.49000
 X95.13110 Y103.78800
 X95.17900 Y104.68400
 X95.20040 Y105.87500
 X95.17150 Y107.06000
 X95.09330 Y108.23800
 X94.96620 Y109.40900
 X94.79130 Y110.56900
 X94.56890 Y111.71900
 X94.30000 Y112.85600
 X93.98510 Y113.97900
 X93.62510 Y115.08700
 X93.22060 Y116.17800
 X92.77240 Y117.25100
 X92.28110 Y118.30500
 X91.74750 Y119.33700
 X91.17220 Y120.34700
 X90.55610 Y121.33300
 X89.89990 Y122.29300
 X89.20400 Y123.22700
 X88.46940 Y124.13300
 X87.69690 Y125.01000
 X86.88690 Y125.85500
 X86.04040 Y126.66800
 X85.15810 Y127.44700
 X84.24040 Y128.19000
 X83.28820 Y128.89700
 X82.30240 Y129.56600
 X81.28350 Y130.19500
 X80.23210 Y130.78400
 X79.14920 Y131.33000
 X78.03530 Y131.83200
 X76.89120 Y132.28800
 X76.01320 Y132.60200
 X75.71780 Y132.69800
 X75.54500 Y132.75400
 X75.02380 Y132.91400
 X74.32850 Y133.11100
 X73.63210 Y133.28900
 X72.93470 Y133.44900
 X72.23710 Y133.59000
 X71.53900 Y133.71400
 X70.84100 Y133.81900
 X70.14330 Y133.90700
 X69.44620 Y133.97600
 X68.75000 Y134.02800
 X68.05490 Y134.06300
 X67.36120 Y134.08100
 X66.66930
 X65.97930 Y134.06400
 X65.29170 Y134.03000
 X64.60640 Y133.98000
 X63.92420 Y133.91300
 X63.24500 Y133.82900
 X62.56920 Y133.73000
 X61.89710 Y133.61300
 X61.22890 Y133.48100
 X60.56490 Y133.33300
 X59.90540 Y133.17000
 X59.25070 Y132.99000
 X58.60130 Y132.79500
 X57.95690 Y132.58500
 X57.31850 Y132.36000
 X56.68570 Y132.11900
 X56.05930 Y131.86400
 X55.43930 Y131.59400
 X54.82600 Y131.30900
 X54.21970 Y131.00900
 X53.62100 Y130.69600
 X53.02960 Y130.36800
 X52.44620 Y130.02600
 X51.87100 Y129.67000
 X51.30400 Y129.30000
 X50.74600 Y128.91600
 X50.19690 Y128.51900
 X49.65710 Y128.10900
 X49.12680 Y127.68600
 X48.60640 Y127.24900
 X48.09610 Y126.79900
 X47.59610 Y126.33700
 X47.10690 Y125.86100
 X46.62880 Y125.37400
 X46.16170 Y124.87300
 X45.70610 Y124.36100
 X45.26240 Y123.83700
 X44.83080 Y123.30000
 X44.41150 Y122.75200
 X44.00500 Y122.19200
 X43.61130 Y121.62000
 X43.23080 Y121.03700
 X42.86370 Y120.44300
 X42.51060 Y119.83700
 X42.17140 Y119.22100
 X41.84650 Y118.59300
 X41.53630 Y117.95500
 X41.24080 Y117.30700
 X40.96070 Y116.64800
 X40.69600 Y115.97800
 X40.44690 Y115.29900
 X40.26990 Y114.78200
 X40.21390 Y114.60900
 Y114.59800
 X40.20010 Y114.56600
 X40.18620 Y114.53400
 Y114.52400
 X40.12560 Y114.33600
 X39.95350 Y113.76900
 X39.74180 Y113.01000
 X39.55170 Y112.24500
 X39.38280 Y111.47600
 X39.23540 Y110.70300
 X39.10960 Y109.92600
 X39.00540 Y109.14700
 X38.92310 Y108.36500
 X38.86250 Y107.58100
 X38.82390 Y106.79500
 X38.80710 Y106.00900
 X38.81250 Y105.22200
 X38.84000 Y104.43500
 X38.88990 Y103.64800
 X38.96180 Y102.86300
 X39.03000 Y102.27400
 X39.05640 Y102.07900
 X38.77440 Y102.19700
 X37.91870 Y102.52600
 X36.77180 Y102.92100
 X35.61680 Y103.26500
 X34.45540 Y103.55700
 X33.28920 Y103.79800
 X32.11930 Y103.98900
 X30.94750 Y104.12900
 X29.77510 Y104.22100
 X28.60390 Y104.26200
 X27.43500 Y104.25500
 X26.27010 Y104.20000
 X25.11070 Y104.09600
 X23.95820 Y103.94500
 X22.81400 Y103.74700
 X21.68000 Y103.50200
 X20.55720 Y103.21100
 X19.44740 Y102.87400
 X18.35190 Y102.49100
 X17.27240 Y102.06400
 X16.21010 Y101.59100
 X15.16670 Y101.07500
 X14.14360 Y100.51500
 X13.14240 Y99.91100
 X12.16450 Y99.26430
 X11.21140 Y98.57510
 X10.28460 Y97.84390
 X9.38553 Y97.07080
 X8.51574 Y96.25670
 X7.67671 Y95.40150
 X6.86990 Y94.50580
 X6.09685 Y93.57030
 X5.53819 Y92.84260
 X5.35906 Y92.59500
 X5.25250 Y92.44760
 X4.94043 Y92.00000
 X4.53928 Y91.39780
 X4.15543 Y90.78880
 X3.78890 Y90.17320
 X3.43961 Y89.55140
 X3.10758 Y88.92360
 X2.79264 Y88.29040
 X2.49479 Y87.65170
 X2.21403 Y87.00810
 X1.95025 Y86.35990
 X1.70344 Y85.70710
 X1.47353 Y85.05040
 X1.26052 Y84.39000
 X1.06424 Y83.72630
 X0.88477 Y83.05920
 X0.72201 Y82.38940
 X0.57590 Y81.71720
 X0.44640 Y81.04280
 X0.33344 Y80.36650
 X0.23698 Y79.68870
 X0.15701 Y79.00970
 X0.09348 Y78.32970
 X0.04628 Y77.64920
 X0.01541 Y76.96830
 X0.00081 Y76.28750
 X0.00244 Y75.60710
 X0.02024 Y74.92720
 X0.05414 Y74.24830
 X0.10411 Y73.57070
 X0.17008 Y72.89460
 X0.25206 Y72.22060
 X0.34999 Y71.54860
 X0.46370 Y70.87920
 X0.59332 Y70.21250
 X0.73866 Y69.54920
 X0.89979 Y68.88920
 X1.07655 Y68.23290
 X1.26893 Y67.58080
 X1.47694 Y66.93310
 X1.70047 Y66.29010
 X1.93946 Y65.65210
 X2.19385 Y65.01940
 X2.46365 Y64.39250
 X2.74881 Y63.77140
 X3.04926 Y63.15670
 X3.36490 Y62.54850
 X3.69575 Y61.94720
 X4.04172 Y61.35310
 X4.40283 Y60.76650
 X4.77892 Y60.18780
 X5.17003 Y59.61740
 X5.57607 Y59.05510
 X5.99701 Y58.50180
 X6.43278 Y57.95760
 X6.88336 Y57.42280
 X7.34868 Y56.89760
 X7.82867 Y56.38260
 X8.32335 Y55.87780
 X8.83257 Y55.38370
 X9.35639 Y54.90060
 X9.89469 Y54.42880
 X10.44740 Y53.96850
 X11.01460 Y53.52010
 X11.44940 Y53.19110
 X11.59610 Y53.08390
 X11.75610 Y52.96760
 X12.24250 Y52.62760
 X12.90030 Y52.19000
 X13.56910 Y51.77140
 X14.24830 Y51.37180
 X14.93760 Y50.99150
 X15.63650 Y50.63100
 X16.34460 Y50.29000
 X17.06140 Y49.96900
 X17.78640 Y49.66820
 X18.51920 Y49.38790
 X19.25930 Y49.12810
 X20.00640 Y48.88900
 X20.75990 Y48.67100
 X21.51940 Y48.47420
 X22.28460 Y48.29880
 X22.86170 Y48.18070
 X23.05470 Y48.14500
 X22.85580 Y47.91250
 X22.27890 Y47.19810
 X21.54960 Y46.22630
 X20.86680 Y45.23100
 X20.23080 Y44.21390
 X19.64150 Y43.17640
 X19.09900 Y42.12010
 X18.60330 Y41.04670
 X18.15440 Y39.95740
 X17.75260 Y38.85370
 X17.39780 Y37.73760
 X17.09010 Y36.61010
 X16.82960 Y35.47320
 X16.61630 Y34.32810
 X16.45010 Y33.17640
 X16.33140 Y32.01960
 X16.26010 Y30.85940
 X16.23630 Y29.69720
 X16.25990 Y28.53440
 X16.33110 Y27.37280
 X16.45000 Y26.21380
 X16.61670 Y25.05900
 X16.83100 Y23.90970
 X17.09320 Y22.76760
 X17.40330 Y21.63440
 X17.76140 Y20.51140
 X18.16740 Y19.40000
 X18.62150 Y18.30210
 X19.12390 Y17.21900
 X19.67440 Y16.15220
 X20.27320 Y15.10350
 X20.92030 Y14.07400
 X21.43650 Y13.31380
 X21.61580 Y13.06550
 X21.71810 Y12.92280
 X22.03240 Y12.49990
 X22.46190 Y11.94650
 X22.90430 Y11.40520
 X23.35900 Y10.87640
 X23.82580 Y10.36000
 X24.30460 Y9.85644
 X24.79490 Y9.36567
 X25.29640 Y8.88797
 X25.80900 Y8.42344
 X26.33250 Y7.97228
 X26.86630 Y7.53461
 X27.41040 Y7.11063
 X27.96460 Y6.70042
 X28.52830 Y6.30425
 X29.10140 Y5.92225
 X29.68360 Y5.55453
 X30.27490 Y5.20128
 X30.87440 Y4.86263
 X31.48240 Y4.53879
 X32.09850 Y4.22993
 X32.72220 Y3.93614
 X33.35350 Y3.65767
 X33.99190 Y3.39458
 X34.63720 Y3.14708
 X35.28930 Y2.91536
 X35.94780 Y2.69954
 X36.61220 Y2.49978
 X37.28260 Y2.31629
 X37.95860 Y2.14914
 X38.63970 Y1.99858
 X39.32600 Y1.86469
 X39.84390 Y1.77479
 X40.01690 Y1.74767
 X40.29260 Y1.70529
 X41.12240 Y1.59517
 X42.23570 Y1.47976
 X43.35440 Y1.40668
 X44.19570 Y1.38113
 X44.47610
 X44.71750 Y1.38184
 X45.44180 Y1.40033
 X46.40190 Y1.45215
 X47.35570 Y1.53629
 X48.30240 Y1.65224
 X49.24150 Y1.79964
 X50.17220 Y1.97808
 X51.09390 Y2.18722
 X52.00580 Y2.42654
 X52.90740 Y2.69575
 X53.79780 Y2.99442
 X54.67640 Y3.32206
 X55.54260 Y3.67839
 X56.39560 Y4.06293
 X57.23490 Y4.47532
 X58.05960 Y4.91510
 X58.86900 Y5.38194
 X59.66260 Y5.87538
 X60.43970 Y6.39501
 X61.19960 Y6.94054
 X61.94150 Y7.51139
 X62.66490 Y8.10732
 X63.36890 Y8.72781
 X64.05290 Y9.37256
 X64.71620 Y10.04110
 X65.35830 Y10.73300
 X65.97850 Y11.44790
 X66.57570 Y12.18540
 X67.14970 Y12.94520
 X67.69960 Y13.72660
 X68.22470 Y14.52960
 X68.72440 Y15.35350
 X69.08330 Y15.98470
 X69.19810 Y16.19780
 X69.35610 Y15.93690
 X69.85280 Y15.16820
 X70.54610 Y14.17490
 X71.27650 Y13.21850
 X72.04260 Y12.29970
 X72.84280 Y11.41910
 X73.67580 Y10.57700
 X74.54000 Y9.77403
 X75.43390 Y9.01085
 X76.35620 Y8.28792
 X77.30530 Y7.60585
 X78.27990 Y6.96506
 X79.27830 Y6.36626
 X80.29930 Y5.80985
 X81.34120 Y5.29650
 X82.40260 Y4.82667
 X83.48220 Y4.40093
 X84.57830 Y4.01986
 X85.68970 Y3.68397
 X86.81470 Y3.39382
 X87.95190 Y3.15001
 X89.10000 Y2.95301
 X90.25740 Y2.80339
 X91.42250 Y2.70171
 X92.59400 Y2.64849
 X93.77040 Y2.64432
 X94.95030 Y2.68972
 X96.13220 Y2.78526
 X97.31460 Y2.93147
 X98.49600 Y3.12890
 X99.67510 Y3.37815
 X100.85000 Y3.67964
 X101.73000 Y3.93918
 X102.02000 Y4.03401
 X102.19300 Y4.09039
 X102.70800 Y4.26833
 X103.38700 Y4.51872
 X104.05500 Y4.78489
 X104.71300 Y5.06651
 X105.36100 Y5.36333
 X105.99900 Y5.67507
 X106.62600 Y6.00146
 X107.24200 Y6.34224
 X107.84700 Y6.69706
 X108.44100 Y7.06569
 X109.02300 Y7.44781
 X109.59500 Y7.84321
 X110.15500 Y8.25151
 X110.70300 Y8.67253
 X111.24000 Y9.10590
 X111.76500 Y9.55137
 X112.27700 Y10.00870
 X112.77800 Y10.47750
 X113.26600 Y10.95770
 X113.74100 Y11.44880
 X114.20400 Y11.95060
 X114.65400 Y12.46280
 X115.09200 Y12.98510
 X115.51600 Y13.51730
 X115.92700 Y14.05900
 X116.32400 Y14.61010
 X116.70800 Y15.17010
 X117.07900 Y15.73900
 X117.43600 Y16.31630
 X117.77800 Y16.90170
 X118.10700 Y17.49490
 X118.42100 Y18.09580
 X118.72100 Y18.70400
 X119.00700 Y19.31920
 X119.27800 Y19.94130
 X119.53400 Y20.56970
 X119.77500 Y21.20430
 X120.00100 Y21.84490
 X120.21200 Y22.49110
 X120.40700 Y23.14260
 X120.58700 Y23.79920
 X120.75200 Y24.46060
 X120.90000 Y25.12650
 X121.03200 Y25.79670
 X121.14900 Y26.47060
 X121.24900 Y27.14830
 X121.33300 Y27.82930
 X121.40000 Y28.51360
 X121.45100 Y29.20060
 X121.48400 Y29.89000
 X121.50100 Y30.58180
 Y31.27560
 X121.48300 Y31.97080
 X121.44900 Y32.66760
 X121.39600 Y33.36560
 X121.32600 Y34.06430
 X121.23800 Y34.76360
 X121.13200 Y35.46330
 X121.00800 Y36.16290
 X120.86600 Y36.86210
 X120.70500 Y37.56080
 X120.52600 Y38.25870
 X120.32800 Y38.95560
 X120.16800 Y39.47780
 X120.11100 Y39.65080
 X120.05000 Y39.83860
 X119.85700 Y40.39850
 X119.58300 Y41.13830
 X119.28700 Y41.87000
 X118.97100 Y42.59280
 X118.63600 Y43.30640
 X118.28000 Y44.01030
 X117.90500 Y44.70390
 X117.51100 Y45.38670
 X117.09800 Y46.05830
 X116.66700 Y46.71820
 X116.21700 Y47.36600
 X115.74900 Y48.00100
 X115.26400 Y48.62260
 X114.76100 Y49.23070
 X114.24100 Y49.82440
 X113.84100 Y50.26070
 X113.70500 Y50.40350
 X114.00300 Y50.47530
 X114.89200 Y50.71600
 X116.05600 Y51.07610
 X117.19600 Y51.48260
 X118.31000 Y51.93430
 X119.39900 Y52.42990
 X120.46000 Y52.96810
 X121.49400 Y53.54790
 X122.49800 Y54.16790
 X123.47300 Y54.82690
 X124.41700 Y55.52400
 X125.32900 Y56.25750
 X126.20800 Y57.02650
 X127.05400 Y57.82990
 X127.86500 Y58.66610
 X128.64000 Y59.53420
 X129.37900 Y60.43280
 X130.08000 Y61.36070
 X130.74300 Y62.31670
 X131.36700 Y63.29970
 X131.95000 Y64.30850
 X132.49200 Y65.34170
 X132.99200 Y66.39820
 X133.44900 Y67.47680
 X133.86200 Y68.57630
 X134.23000 Y69.69530
 X134.55100 Y70.83280
 X134.82600 Y71.98750
 X135.05300 Y73.15820
 X135.23200 Y74.34360
 X135.36000 Y75.54260
 X135.43800 Y76.75400
 X135.46400 Y77.67100
 Y77.97650
G0 Z-25.0000
M5 (stop spindle)
G04 P3 (wait for 3 seconds)
G0 Z-25.0000
M2 (end program)
