;PYCAM-META-DATA: Filename: /media/martoio/MARTOIO/ME43/std_lib/svg/009-turtle.svg
;PYCAM-META-DATA: Timestamp: 2017-12-06 01:54:11.674765
;PYCAM-META-DATA: Version: 0.5.1
;Estimated machine time: 11 minutes
G40 (disable tool radius compensation)
G49 (disable tool length compensation)
G80 (cancel modal motion)
G54 (select coordinate system 1)
G90 (disable incremental moves)
G21 (metric)
G61 (exact path mode)
F400.00000
S1.00000
;PYCAM_TOOLPATH_SETTINGS: START
;[Bounds]
;maxz = 0.0
;maxx = 163.4467
;maxy = 106.41104
;minx = -8.9497
;miny = -3.76464
;minz = 0.0
;
;[Tool]
;torus_radius = 0.25
;speed = 1.0
;shape = CylindricalCutter
;tool_radius = 0.5
;feedrate = 400.0
;
;[Process]
;engrave_offset = 0.0
;step_down = 1.0
;generator = EngraveCutter
;postprocessor = SimpleCutter
;overlap_percent = 0
;milling_style = conventional
;material_allowance = 0.0
;pocketing_type = none
;path_direction = x
;
;PYCAM_TOOLPATH_SETTINGS: END
T1 M6
G0 Z5.0000
 X20.7000 Y64.5796
G1 Z0.0000
 X20.6519 Y64.9178
 X20.5779 Y65.2479
 X20.4792 Y65.5687
 X20.3567 Y65.8792
 X20.2112 Y66.1782
 X20.0439 Y66.4644
 X19.8558 Y66.7369
 X19.6479 Y66.9944
 X19.4211 Y67.2358
 X19.1764 Y67.4601
 X18.9147 Y67.6658
 X18.6373 Y67.8521
 X18.3449 Y68.0176
 X18.0387 Y68.1615
 X17.7196 Y68.2822
 X17.3885 Y68.3790
 X13.3566 Y69.3862
 X13.1570 Y69.4453
 X12.9659 Y69.5198
 X12.7839 Y69.6092
 X12.6117 Y69.7125
 X12.4499 Y69.8290
 X12.2990 Y69.9579
 X12.1598 Y70.0983
 X12.0329 Y70.2494
 X11.9188 Y70.4107
 X11.8183 Y70.5808
 X11.7318 Y70.7594
 X11.6602 Y70.9454
 X11.6039 Y71.1382
 X11.5635 Y71.3368
 X11.5398 Y71.5404
 X11.5334 Y71.7483
 X11.5458 Y72.9679
 X12.3686 Y73.0198
 X13.2044 Y73.0810
 X14.0489 Y73.1521
 X14.8980 Y73.2339
 X15.7474 Y73.3271
 X16.5928 Y73.4323
 X17.4301 Y73.5504
 X18.2549 Y73.6819
 X19.0632 Y73.8276
 X19.8506 Y73.9882
 X20.6128 Y74.1644
 X21.3457 Y74.3569
 X22.0451 Y74.5664
 X22.7068 Y74.7935
 X23.3264 Y75.0390
 X23.8997 Y75.3036
 X24.0885 Y75.4104
 X24.2621 Y75.5332
 X24.4203 Y75.6705
 X24.5624 Y75.8212
 X24.6879 Y75.9837
 X24.7967 Y76.1565
 X24.8879 Y76.3385
 X24.9611 Y76.5278
 X25.0161 Y76.7233
 X25.0522 Y76.9235
 X25.0689 Y77.1269
 X25.0660 Y77.3323
 X25.0426 Y77.5380
 X24.9986 Y77.7428
 X24.9335 Y77.9451
 X24.8465 Y78.1435
 X24.7401 Y78.3323
 X24.6175 Y78.5060
 X24.4801 Y78.6642
 X24.3296 Y78.8064
 X24.1672 Y78.9321
 X23.9944 Y79.0408
 X23.8126 Y79.1324
 X23.6233 Y79.2054
 X23.4278 Y79.2604
 X23.2275 Y79.2964
 X23.0240 Y79.3134
 X22.8185 Y79.3104
 X22.6126 Y79.2874
 X22.4076 Y79.2434
 X22.2051 Y79.1774
 X22.0064 Y79.0904
 X21.5854 Y78.8983
 X21.1072 Y78.7140
 X20.5736 Y78.5378
 X19.9861 Y78.3698
 X19.3465 Y78.2105
 X18.6567 Y78.0600
 X17.9183 Y77.9186
 X17.1330 Y77.7867
 X16.3026 Y77.6644
 X15.4288 Y77.5522
 X14.5132 Y77.4501
 X13.5578 Y77.3586
 X12.5641 Y77.2779
 X11.5340 Y77.2083
 X10.4691 Y77.1498
 X9.3712 Y77.1032
 X9.3558 Y77.1033
 X9.3338 Y77.1065
 X9.3073 Y77.1167
 X9.2789 Y77.1378
 X9.2525 Y77.1715
 X9.2390 Y77.2039
 X9.2341 Y77.2311
 X9.2333 Y77.2493
 Y85.2364
 X9.2408 Y85.5564
 X9.2629 Y85.8734
 X9.2994 Y86.1864
 X9.3499 Y86.4954
 X9.4142 Y86.8004
 X9.4919 Y87.1014
 X9.5826 Y87.3964
 X9.6862 Y87.6864
 X9.8022 Y87.9704
 X9.9304 Y88.2494
 X10.0704 Y88.5214
 X10.2219 Y88.7864
 X10.3847 Y89.0444
 X10.5583 Y89.2944
 X10.7425 Y89.5374
 X10.9369 Y89.7714
 X11.1413 Y89.9964
 X11.3553 Y90.2134
 X11.5786 Y90.4204
 X11.8109 Y90.6184
 X12.0519 Y90.8054
 X12.3013 Y90.9824
 X12.5587 Y91.1494
 X12.8238 Y91.3044
 X13.0963 Y91.4474
 X13.3759 Y91.5794
 X13.6623 Y91.6984
 X13.9552 Y91.8054
 X14.2542 Y91.8994
 X14.5591 Y91.9794
 X14.8695 Y92.0464
 X15.1851 Y92.0994
 X23.5953 Y93.2994
 X24.2122 Y93.3704
 X24.8289 Y93.4084
 X25.4437 Y93.4134
 X26.0558 Y93.3854
 X26.6639 Y93.3244
 X27.2665 Y93.2314
 X27.8625 Y93.1064
 X28.4506 Y92.9504
 X29.0296 Y92.7624
 X29.5982 Y92.5444
 X30.1551 Y92.2964
 X30.6993 Y92.0184
 X31.2293 Y91.7104
 X31.7439 Y91.3734
 X32.2418 Y91.0074
 X32.7219 Y90.6134
 X33.1800 Y90.1944
 X33.6125 Y89.7524
 X34.0188 Y89.2914
 X34.3983 Y88.8104
 X34.7506 Y88.3104
 X35.0749 Y87.7944
 X35.3710 Y87.2624
 X35.6382 Y86.7154
 X35.8760 Y86.1554
 X36.0838 Y85.5834
 X36.2610 Y85.0004
 X36.4072 Y84.4064
 X36.5219 Y83.8044
 X36.6046 Y83.1954
 X36.6546 Y82.5794
 X36.6714 Y81.9584
 Y61.4117
 X36.6742 Y61.3619
 Y61.3235
 X36.6771 Y61.2603
 X36.6833 Y61.1554
 X36.6936 Y61.0100
 X36.7089 Y60.8251
 X36.7301 Y60.6023
 X36.7583 Y60.3426
 X36.7942 Y60.0472
 X36.8386 Y59.7173
 X36.8926 Y59.3543
 X36.9572 Y58.9593
 X37.0331 Y58.5335
 X37.1212 Y58.0780
 X37.2225 Y57.5943
 X37.3379 Y57.0835
 X37.4683 Y56.5468
 X37.6147 Y55.9853
 X37.7778 Y55.4004
 X37.9586 Y54.7932
 X38.1582 Y54.1650
 X38.3771 Y53.5171
 X38.6165 Y52.8504
 X38.8774 Y52.1664
 X39.1604 Y51.4664
 X39.4665 Y50.7512
 X39.7969 Y50.0225
 X40.1521 Y49.2812
 X40.5332 Y48.5287
 X40.9411 Y47.7661
 X41.3767 Y46.9947
 X41.8408 Y46.2155
 X42.3346 Y45.4301
 X42.8588 Y44.6394
 X42.2897 Y44.4494
 X41.6778 Y44.2203
 X41.0900 Y43.9494
 X40.5275 Y43.6389
 X39.9921 Y43.2907
 X39.4853 Y42.9069
 X39.0086 Y42.4893
 X38.5636 Y42.0398
 X38.1519 Y41.5605
 X37.7751 Y41.0535
 X37.4349 Y40.5204
 X37.1325 Y39.9635
 X36.8697 Y39.3844
 X36.6481 Y38.7855
 X36.4690 Y38.1685
 X36.3343 Y37.5353
 X36.2456 Y36.8879
 X35.6600 Y31.0300
 X35.0678 Y31.6769
 X34.4913 Y32.3310
 X33.9300 Y32.9915
 X33.3839 Y33.6583
 X32.8526 Y34.3307
 X32.3361 Y35.0079
 X31.8340 Y35.6897
 X31.3464 Y36.3755
 X30.8728 Y37.0647
 X30.4131 Y37.7566
 X29.9671 Y38.4511
 X29.5346 Y39.1473
 X29.1154 Y39.8448
 X28.7093 Y40.5430
 X28.3163 Y41.2415
 X27.9358 Y41.9396
 X27.5678 Y42.6369
 X27.2122 Y43.3326
 X26.8688 Y44.0267
 X26.5371 Y44.7180
 X26.2172 Y45.4065
 X25.9088 Y46.0914
 X25.6117 Y46.7722
 X25.3257 Y47.4485
 X25.0507 Y48.1196
 X24.7862 Y48.7850
 X24.5325 Y49.4441
 X24.2889 Y50.0966
 X24.0556 Y50.7418
 X23.8319 Y51.3792
 X23.6182 Y52.0082
 X23.4139 Y52.6283
 X23.2189 Y53.2390
 X23.0331 Y53.8397
 X22.8560 Y54.4300
 X22.6878 Y55.0092
 X22.5281 Y55.5769
 X22.3765 Y56.1325
 X22.2332 Y56.6754
 X22.0978 Y57.2051
 X21.9700 Y57.7212
 X21.8499 Y58.2232
 X21.7369 Y58.7101
 X21.6311 Y59.1819
 X21.5322 Y59.6379
 X21.4400 Y60.0773
 X21.3544 Y60.5001
 X21.2750 Y60.9053
 X21.2018 Y61.2925
 X21.1344 Y61.6612
 X21.0728 Y62.0108
 X21.0167 Y62.3410
 X20.9658 Y62.6510
 X20.9201 Y62.9403
 X20.8793 Y63.2083
 X20.8432 Y63.4547
 X20.8117 Y63.6789
 X20.7843 Y63.8803
 X20.7611 Y64.0582
 X20.7419 Y64.2123
 X20.7264 Y64.3421
 X20.7143 Y64.4469
 X20.7056 Y64.5262
 X20.7000 Y64.5796
G0 Z5.0000
 X47.5761 Y27.9072
G1 Z0.0000
 X44.5913 Y12.9872
 X44.4925 Y12.5868
 X44.3607 Y12.2017
 X44.1974 Y11.8333
 X44.0044 Y11.4833
 X43.7835 Y11.1530
 X43.5364 Y10.8439
 X43.2649 Y10.5573
 X42.9706 Y10.2948
 X42.6554 Y10.0578
 X42.3212 Y9.8478
 X41.9694 Y9.6660
 X41.6022 Y9.5142
 X41.2210 Y9.3935
 X40.8276 Y9.3055
 X40.4240 Y9.2516
 X40.0118 Y9.2333
 X28.2710
 X29.9288 Y13.3760
 X30.0736 Y13.7028
 X30.2408 Y14.0142
 X30.4288 Y14.3090
 X30.6365 Y14.5871
 X30.8631 Y14.8471
 X31.1071 Y15.0886
 X31.3675 Y15.3108
 X31.6432 Y15.5129
 X31.9331 Y15.6940
 X32.2360 Y15.8535
 X32.5508 Y15.9905
 X32.8764 Y16.1044
 X33.2117 Y16.1943
 X33.5554 Y16.2594
 X33.9065 Y16.2992
 X34.2640 Y16.3125
 X36.5267
 X36.7283 Y16.3221
 X36.9249 Y16.3500
 X37.1156 Y16.3957
 X37.2993 Y16.4582
 X37.4751 Y16.5366
 X37.6424 Y16.6303
 X37.7999 Y16.7383
 X37.9469 Y16.8597
 X38.0824 Y16.9939
 X38.2056 Y17.1398
 X38.3153 Y17.2969
 X38.4110 Y17.4642
 X38.4914 Y17.6407
 X38.5556 Y17.8258
 X38.6029 Y18.0186
 X38.6325 Y18.2182
 X40.4583 Y36.4678
 X40.5047 Y36.8071
 X40.5751 Y37.1389
 X40.6689 Y37.4623
 X40.7851 Y37.7765
 X40.9229 Y38.0800
 X41.0814 Y38.3721
 X41.2599 Y38.6518
 X41.4575 Y38.9178
 X41.6735 Y39.1692
 X41.9068 Y39.4050
 X42.1568 Y39.6241
 X42.4226 Y39.8255
 X42.7036 Y40.0082
 X42.9985 Y40.1712
 X43.3069 Y40.3133
 X43.6278 Y40.4337
 X45.5861 Y41.0855
 X46.2806 Y40.3005
 X47.0101 Y39.5179
 X47.7756 Y38.7392
 X48.5776 Y37.9653
 X49.4175 Y37.1975
 X50.2961 Y36.4369
 X51.2143 Y35.6847
 X52.1731 Y34.9419
 X53.2325 Y34.1687
 X54.3219 Y33.4216
 X55.4413 Y32.7008
 X56.5897 Y32.0060
 X57.7674 Y31.3371
 X58.9735 Y30.6940
 X60.2081 Y30.0768
 X61.4706 Y29.4853
 X60.8589 Y29.1146
 X60.2292 Y28.7783
 X59.5851 Y28.4751
 X58.9306 Y28.2032
 X58.2694 Y27.9608
 X57.6057 Y27.7465
 X56.9429 Y27.5583
 X56.2853 Y27.3948
 X55.6364 Y27.2543
 X55.0001 Y27.1350
 X54.3804 Y27.0353
 X53.7810 Y26.9536
 X53.2058 Y26.8882
 X52.6589 Y26.8375
 X52.1438 Y26.7996
 X51.6644 Y26.7730
 X51.7264 Y27.0764
 X51.7581 Y27.2908
 X51.7679 Y27.5032
 X51.7565 Y27.7123
 X51.7247 Y27.9171
 X51.6736 Y28.1160
 X51.6039 Y28.3079
 X51.5164 Y28.4916
 X51.4119 Y28.6658
 X51.2914 Y28.8293
 X51.1556 Y28.9808
 X51.0053 Y29.1190
 X50.8413 Y29.2428
 X50.6646 Y29.3507
 X50.4758 Y29.4418
 X50.2761 Y29.5146
 X50.0660 Y29.5678
 X49.8513 Y29.5997
 X49.6388 Y29.6096
 X49.4294 Y29.5982
 X49.2247 Y29.5667
 X49.0258 Y29.5155
 X48.8339 Y29.4458
 X48.6503 Y29.3582
 X48.4763 Y29.2537
 X48.3129 Y29.1330
 X48.1617 Y28.9972
 X48.0236 Y28.8468
 X47.9000 Y28.6828
 X47.7924 Y28.5060
 X47.7015 Y28.3172
 X47.6290 Y28.1173
 X47.5761 Y27.9072
G0 Z5.0000
 X50.4561 Y20.7250
G1 Z0.0000
 X50.8128 Y22.5079
 X51.1190 Y22.5130
 X51.4482 Y22.5219
 X51.7993 Y22.5355
 X52.1708 Y22.5543
 X52.5619 Y22.5787
 X52.9710 Y22.6096
 X53.3971 Y22.6476
 X53.8389 Y22.6930
 X54.2951 Y22.7468
 X54.7646 Y22.8094
 X55.2463 Y22.8815
 X55.7386 Y22.9636
 X56.2407 Y23.0565
 X56.7510 Y23.1605
 X57.2686 Y23.2765
 X57.7921 Y23.4051
 X58.3204 Y23.5466
 X58.8522 Y23.7021
 X59.3863 Y23.8718
 X59.9214 Y24.0565
 X60.4564 Y24.2568
 X60.9901 Y24.4732
 X61.5211 Y24.7064
 X62.0485 Y24.9571
 X62.5707 Y25.2257
 X63.0867 Y25.5130
 X63.5953 Y25.8194
 X64.0951 Y26.1458
 X64.5851 Y26.4928
 X65.0640 Y26.8607
 X65.5306 Y27.2503
 X65.9836 Y27.6621
 X67.0025 Y27.3087
 X68.0365 Y26.9697
 X69.0854 Y26.6448
 X70.1494 Y26.3343
 X71.2285 Y26.0382
 X72.3222 Y25.7564
 X73.4308 Y25.4889
 X74.5543 Y25.2358
 X75.6925 Y24.9973
 X76.8453 Y24.7732
 X78.0128 Y24.5637
 X79.1949 Y24.3686
 X80.3914 Y24.1882
 X81.6025 Y24.0223
 X82.8279 Y23.8711
 X84.0678 Y23.7346
 X85.4522 Y23.6014
 X86.8547 Y23.4858
 X88.2750 Y23.3880
 X89.7132 Y23.3080
 X91.1690 Y23.2458
 X92.6425 Y23.2012
 X94.1335 Y23.1746
 X95.6421 Y23.1655
 X96.9899 Y23.1726
 X98.3517 Y23.1939
 X99.7269 Y23.2292
 X101.1160 Y23.2783
 X102.5182 Y23.3414
 X103.9338 Y23.4183
 X105.3620 Y23.5089
 X106.8040 Y23.6132
 Y20.5417
 X106.2550 Y20.5069
 X105.7130 Y20.4389
 X105.1800 Y20.3383
 X104.6561 Y20.2061
 X104.1435 Y20.0430
 X103.6432 Y19.8500
 X103.1564 Y19.6278
 X102.6844 Y19.3771
 X102.2286 Y19.0990
 X101.7901 Y18.7942
 X101.3703 Y18.4633
 X100.9704 Y18.1076
 X100.5918 Y17.7276
 X100.2356 Y17.3241
 X99.9031 Y16.8982
 X99.5956 Y16.4504
 X97.1797 Y16.1967
 X94.8253 Y15.9823
 X92.5318 Y15.8064
 X90.2990 Y15.6672
 X88.1261 Y15.5632
 X86.0129 Y15.4929
 X83.9589 Y15.4550
 X81.9635 Y15.4480
 X80.0261 Y15.4704
 X78.1467 Y15.5207
 X76.3244 Y15.5973
 X74.5589 Y15.6991
 X72.8497 Y15.8244
 X71.1965 Y15.9718
 X69.5986 Y16.1397
 X68.0557 Y16.3268
 X66.5671 Y16.5315
 X65.1326 Y16.7525
 X63.7515 Y16.9880
 X62.4236 Y17.2371
 X61.1483 Y17.4978
 X59.9250 Y17.7689
 X58.7535 Y18.0487
 X57.6329 Y18.3361
 X56.5632 Y18.6293
 X55.5439 Y18.9271
 X54.5742 Y19.2278
 X53.6538 Y19.5300
 X52.7822 Y19.8323
 X51.9590 Y20.1333
 X51.1839 Y20.4314
 X50.4561 Y20.7250
G0 Z5.0000
 X94.2860 Y78.2967
G1 Z0.0000
 X95.0744 Y78.1660
 X95.8976 Y78.0151
 X96.7540 Y77.8430
 X97.6426 Y77.6489
 X95.4571 Y65.2632
 X78.0113 Y59.1528
 X70.2833 Y76.5010
 X71.8096 Y76.9323
 X73.3326 Y77.3212
 X74.8525 Y77.6676
 X76.3690 Y77.9716
 X77.8824 Y78.2332
 X79.3922 Y78.4522
 X80.8986 Y78.6287
 X82.4013 Y78.7626
 X83.9004 Y78.8539
 X85.3958 Y78.9025
 X86.8874 Y78.9085
 X88.3751 Y78.8717
 X89.8589 Y78.7922
 X91.3386 Y78.6698
 X92.8143 Y78.5047
 X94.2860 Y78.2967
G0 Z5.0000
 X101.7450 Y76.5355
G1 Z0.0000
 X102.9274 Y76.1508
 X104.1425 Y75.7254
 X105.3890 Y75.2573
 X106.6660 Y74.7447
 X107.9710 Y74.1855
 X109.3040 Y73.5779
 X110.6620 Y72.9197
 X112.0440 Y72.2090
 X113.4490 Y71.4437
 X114.8750 Y70.6222
 X116.3200 Y69.7422
 X117.7840 Y68.8017
 X119.2650 Y67.7989
 X120.7610 Y66.7318
 X122.2710 Y65.5983
 X123.7940 Y64.3965
 X123.0440 Y63.8712
 X122.8730 Y63.7383
 X122.7190 Y63.5916
 X122.5830 Y63.4326
 X122.4640 Y63.2629
 X122.3640 Y63.0839
 X122.2820 Y62.8969
 X122.2180 Y62.7036
 X122.1730 Y62.5055
 X122.1480 Y62.3040
 X122.1410 Y62.1007
 X122.1540 Y61.8969
 X122.1870 Y61.6941
 X122.2410 Y61.4940
 X122.3140 Y61.2979
 X122.4080 Y61.1073
 X122.5230 Y60.9237
 X122.6890 Y60.7161
 X122.8750 Y60.5344
 X123.0780 Y60.3796
 X123.2960 Y60.2518
 X123.5260 Y60.1515
 X123.7650 Y60.0793
 X124.0100 Y60.0357
 X124.2600 Y60.0210
 X124.5740 Y60.0444
 X124.8840 Y60.1154
 X125.1850 Y60.2350
 X125.4720 Y60.4040
 X127.1180 Y61.5562
 X128.1140 Y60.6455
 X129.1130 Y59.7033
 X130.1140 Y58.7294
 X131.1180 Y57.7230
 X132.1230 Y56.6837
 X133.1300 Y55.6110
 X134.1370 Y54.5043
 X135.1440 Y53.3632
 X136.1520 Y52.1869
 X137.1600 Y50.9753
 X138.1660 Y49.7275
 X139.1720 Y48.4430
 X140.1760 Y47.1217
 X141.1780 Y45.7625
 X142.1780 Y44.3653
 X143.1750 Y42.9293
 X141.4900 Y42.5026
 X139.8190 Y42.0900
 X138.1610 Y41.6912
 X136.5160 Y41.3064
 X134.8840 Y40.9355
 X133.2660 Y40.5786
 X131.6610 Y40.2357
 X130.0700 Y39.9068
 X128.4920 Y39.5918
 X126.9280 Y39.2910
 X125.3770 Y39.0039
 X123.8400 Y38.7310
 X122.3170 Y38.4721
 X120.8080 Y38.2272
 X119.3120 Y37.9962
 X117.8310 Y37.7794
 X114.6730 Y52.8444
 X118.5280 Y55.5439
 X118.6990 Y55.6768
 X118.8530 Y55.8235
 X118.9890 Y55.9825
 X119.1080 Y56.1523
 X119.2080 Y56.3314
 X119.2910 Y56.5183
 X119.3540 Y56.7115
 X119.3990 Y56.9097
 X119.4250 Y57.1111
 X119.4310 Y57.3146
 X119.4180 Y57.5183
 X119.3850 Y57.7211
 X119.3320 Y57.9211
 X119.2580 Y58.1173
 X119.1640 Y58.3078
 X119.0490 Y58.4914
 X118.9160 Y58.6623
 X118.7700 Y58.8162
 X118.6110 Y58.9525
 X118.4410 Y59.0710
 X118.2620 Y59.1714
 X118.0750 Y59.2536
 X117.8820 Y59.3172
 X117.6830 Y59.3619
 X117.4820 Y59.3876
 X117.2780 Y59.3940
 X117.0750 Y59.3807
 X116.8720 Y59.3475
 X116.6720 Y59.2943
 X116.4760 Y59.2205
 X116.2850 Y59.1262
 X116.1020 Y59.0110
 X112.2790 Y56.3362
 X99.6521 Y64.6748
 X101.7450 Y76.5355
G0 Z5.0000
 X113.6200 Y37.2311
G1 Z0.0000
 X112.2300 Y37.0735
 X110.8540 Y36.9290
 X109.4920 Y36.7980
 X108.1430 Y36.6804
 X106.8080 Y36.5761
 X105.4870 Y36.4851
 X104.1790 Y36.4075
 X102.8854 Y36.3435
 X101.6058 Y36.2926
 X100.3403 Y36.2554
 X99.0888 Y36.2315
 X97.8513 Y36.2212
 X96.6281 Y36.2243
 X95.4192 Y36.2410
 X94.2244 Y36.2711
 X93.0442 Y36.3147
 X91.4381 Y36.3973
 X89.8589 Y36.5057
 X88.3067 Y36.6397
 X86.7818 Y36.7991
 X85.2840 Y36.9843
 X83.8139 Y37.1948
 X82.3713 Y37.4308
 X80.9565 Y37.6922
 X79.5694 Y37.9790
 X78.2106 Y38.2911
 X76.8797 Y38.6283
 X75.5771 Y38.9907
 X74.3031 Y39.3783
 X73.0575 Y39.7910
 X71.8407 Y40.2286
 X70.6526 Y40.6912
 X78.3393 Y54.7818
 X97.0351 Y61.3301
 X110.4200 Y52.4903
 X113.6200 Y37.2311
G0 Z5.0000
 X118.1150 Y11.6410
G1 Z0.0000
 X118.1020 Y11.3953
 X118.0660 Y11.1565
 X118.0070 Y10.9260
 X117.9250 Y10.7050
 X117.8240 Y10.4946
 X117.7030 Y10.2960
 X117.5640 Y10.1107
 X117.4090 Y9.9394
 X117.2380 Y9.7840
 X117.0520 Y9.6453
 X116.8540 Y9.5244
 X116.6430 Y9.4229
 X116.4220 Y9.3418
 X116.1920 Y9.2823
 X115.9530 Y9.2458
 X115.7070 Y9.2333
 X100.8825
 X102.8285 Y13.5576
 X102.9800 Y13.8643
 X103.1522 Y14.1564
 X103.3436 Y14.4330
 X103.5533 Y14.6939
 X103.7801 Y14.9379
 X104.0231 Y15.1644
 X104.2808 Y15.3729
 X104.5524 Y15.5625
 X104.8367 Y15.7323
 X105.1330 Y15.8819
 X105.4390 Y16.0105
 X105.7540 Y16.1173
 X106.0780 Y16.2017
 X106.4090 Y16.2628
 X106.7460 Y16.3000
 X107.0880 Y16.3125
 X108.9210
 X109.1370 Y16.3235
 X109.3470 Y16.3554
 X109.5500 Y16.4076
 X109.7440 Y16.4787
 X109.9290 Y16.5678
 X110.1040 Y16.6737
 X110.2670 Y16.7955
 X110.4170 Y16.9321
 X110.5540 Y17.0823
 X110.6760 Y17.2453
 X110.7820 Y17.4197
 X110.8710 Y17.6048
 X110.9420 Y17.7994
 X110.9940 Y18.0022
 X111.0260 Y18.2126
 X111.0370 Y18.4291
 Y23.9921
 X112.7800 Y24.1769
 X114.5410 Y24.3803
 X116.3190 Y24.6025
 X118.1150 Y24.8437
 Y11.6410
G0 Z5.0000
 X125.8440 Y22.4529
G1 Z0.0000
 X125.7760 Y22.4087
 X125.6930 Y22.3575
 X125.5930 Y22.2990
 X125.4760 Y22.2337
 X125.3410 Y22.1615
 X125.1860 Y22.0828
 X125.0110 Y21.9975
 X124.8150 Y21.9057
 X124.5960 Y21.8075
 X124.3530 Y21.7033
 X124.0860 Y21.5930
 X123.7940 Y21.4768
 X123.4750 Y21.3547
 X123.1280 Y21.2271
 X122.7530 Y21.0937
 X122.3480 Y20.9551
 Y25.4792
 X124.3360 Y25.8058
 X126.3420 Y26.1536
 X128.3690 Y26.5228
 X130.4150 Y26.9139
 X129.8520 Y26.2105
 X129.2850 Y25.5469
 X128.7150 Y24.9242
 X128.1430 Y24.3429
 X127.5690 Y23.8043
 X126.9940 Y23.3092
 X126.4190 Y22.8585
 X125.8440 Y22.4529
G0 Z5.0000
 X144.9320 Y36.5972
G1 Z0.0000
 X144.8150 Y36.3269
 X144.6850 Y36.0667
 X144.5400 Y35.8168
 X144.3820 Y35.5778
 X144.2110 Y35.3500
 X144.0260 Y35.1336
 X143.8300 Y34.9293
 X143.6210 Y34.7375
 X143.4010 Y34.5583
 X143.1700 Y34.3923
 X142.9280 Y34.2398
 X142.6770 Y34.1015
 X142.4150 Y33.9773
 X142.1450 Y33.8679
 X141.8660 Y33.7737
 X141.5790 Y33.6950
 X139.4980 Y33.1979
 X137.4360 Y32.7212
 X135.3920 Y32.2650
 X133.3670 Y31.8290
 X131.3600 Y31.4135
 X129.3720 Y31.0183
 X127.4030 Y30.6436
 X125.4540 Y30.2893
 X123.5230 Y29.9554
 X121.6110 Y29.6419
 X119.7190 Y29.3489
 X117.8460 Y29.0762
 X115.9930 Y28.8241
 X114.1590 Y28.5925
 X112.3450 Y28.3814
 X110.5500 Y28.1907
 X108.7760 Y28.0205
 X107.0210 Y27.8710
 X105.2870 Y27.7418
 X103.5724 Y27.6332
 X101.8782 Y27.5451
 X100.2044 Y27.4776
 X98.5512 Y27.4307
 X96.9185 Y27.4043
 X95.3064 Y27.3985
 X93.7150 Y27.4132
 X92.1444 Y27.4486
 X90.5949 Y27.5046
 X89.0664 Y27.5812
 X87.5589 Y27.6785
 X86.0726 Y27.7964
 X84.6079 Y27.9348
 X83.4608 Y28.0594
 X82.3272 Y28.1971
 X81.2072 Y28.3476
 X80.1006 Y28.5111
 X79.0076 Y28.6873
 X77.9282 Y28.8765
 X76.8626 Y29.0786
 X75.8106 Y29.2935
 X74.7724 Y29.5211
 X73.7481 Y29.7615
 X72.7376 Y30.0147
 X71.7411 Y30.2807
 X70.7585 Y30.5596
 X69.7900 Y30.8510
 X68.8356 Y31.1551
 X67.8953 Y31.4719
 X66.9692 Y31.8015
 X66.0574 Y32.1437
 X65.1597 Y32.4986
 X64.2765 Y32.8661
 X63.4076 Y33.2461
 X62.5532 Y33.6387
 X61.7133 Y34.0439
 X60.8879 Y34.4617
 X60.0771 Y34.8919
 X59.2810 Y35.3348
 X58.4996 Y35.7901
 X57.7329 Y36.2579
 X56.9810 Y36.7382
 X56.2440 Y37.2310
 X55.5218 Y37.7360
 X54.8147 Y38.2535
 X53.8081 Y39.0328
 X52.8510 Y39.8246
 X51.9424 Y40.6271
 X51.0808 Y41.4385
 X50.2653 Y42.2569
 X49.4943 Y43.0807
 X48.7667 Y43.9080
 X48.0811 Y44.7371
 X47.4364 Y45.5660
 X46.8314 Y46.3930
 X46.2647 Y47.2164
 X45.7353 Y48.0343
 X45.2415 Y48.8450
 X44.7825 Y49.6466
 X44.3569 Y50.4375
 X43.9633 Y51.2155
 X43.6007 Y51.9793
 X43.2676 Y52.7268
 X42.9631 Y53.4562
 X42.6856 Y54.1660
 X42.4339 Y54.8540
 X42.2068 Y55.5186
 X42.0032 Y56.1580
 X41.8217 Y56.7705
 X41.6611 Y57.3541
 X41.5201 Y57.9072
 X41.3975 Y58.4279
 X41.2921 Y58.9144
 X41.2024 Y59.3648
 X41.1275 Y59.7778
 X41.0660 Y60.1510
 X41.0165 Y60.4828
 X43.2396 Y62.2010
 X45.4604 Y63.8355
 X45.5533 Y63.3768
 X45.6553 Y62.9068
 X45.7667 Y62.4261
 X45.8876 Y61.9353
 X46.0188 Y61.4347
 X46.1606 Y60.9248
 X46.3132 Y60.4064
 X46.4772 Y59.8796
 X46.6529 Y59.3450
 X46.8408 Y58.8032
 X47.0412 Y58.2546
 X47.2547 Y57.6996
 X47.4814 Y57.1389
 X47.7218 Y56.5726
 X47.9764 Y56.0016
 X48.2456 Y55.4264
 X48.5297 Y54.8471
 X48.8290 Y54.2644
 X49.1442 Y53.6789
 X49.4754 Y53.0908
 X49.8233 Y52.5010
 X50.1881 Y51.9094
 X50.5701 Y51.3171
 X50.9700 Y50.7241
 X51.3879 Y50.1314
 X51.8243 Y49.5390
 X52.2797 Y48.9475
 X52.7544 Y48.3575
 X53.2489 Y47.7694
 X53.7633 Y47.1837
 X54.2985 Y46.6011
 X54.8546 Y46.0216
 X55.0161 Y45.8733
 X55.1885 Y45.7447
 X55.3703 Y45.6357
 X55.5599 Y45.5465
 X55.7557 Y45.4771
 X55.9564 Y45.4275
 X56.1604 Y45.3978
 X56.3663 Y45.3878
 X56.5665 Y45.3972
 X56.7654 Y45.4255
 X56.9614 Y45.4728
 X57.1531 Y45.5390
 X57.3390 Y45.6241
 X57.5176 Y45.7285
 X57.6878 Y45.8518
 X57.8479 Y45.9941
 X57.9949 Y46.1533
 X58.1224 Y46.3232
 X58.2307 Y46.5022
 X58.3197 Y46.6891
 X58.3894 Y46.8822
 X58.4397 Y47.0801
 X58.4707 Y47.2811
 X58.4824 Y47.4839
 X58.4746 Y47.6869
 X58.4475 Y47.8886
 X58.4010 Y48.0876
 X58.3350 Y48.2821
 X58.2496 Y48.4710
 X58.1447 Y48.6523
 X58.0206 Y48.8248
 X57.8768 Y48.9871
 X57.3129 Y49.5766
 X56.7736 Y50.1698
 X56.2582 Y50.7664
 X55.7664 Y51.3653
 X55.2974 Y51.9661
 X54.8508 Y52.5680
 X54.4261 Y53.1705
 X54.0226 Y53.7729
 X53.6399 Y54.3746
 X53.2774 Y54.9748
 X52.9344 Y55.5729
 X52.6107 Y56.1683
 X52.3056 Y56.7603
 X52.0183 Y57.3482
 X51.7487 Y57.9314
 X51.4961 Y58.5092
 X51.2597 Y59.0808
 X51.0392 Y59.6460
 X50.8340 Y60.2037
 X50.6438 Y60.7535
 X50.4675 Y61.2946
 X50.3050 Y61.8262
 X50.1557 Y62.3480
 X50.0190 Y62.8592
 X49.8943 Y63.3590
 X49.7811 Y63.8469
 X49.6789 Y64.3222
 X49.5872 Y64.7843
 X49.5053 Y65.2323
 X49.4328 Y65.6660
 X49.3690 Y66.0843
 X49.3135 Y66.4866
 X51.4457 Y67.8465
 X53.5738 Y69.1279
 X55.6974 Y70.3308
 X57.8165 Y71.4551
 X59.9310 Y72.5007
 X62.0404 Y73.4675
 X64.1449 Y74.3554
 X66.2440 Y75.1643
 X74.5110 Y56.6050
 X66.7996 Y42.4664
 X65.5203 Y43.1610
 X64.2832 Y43.8926
 X64.0935 Y43.9975
 X63.8981 Y44.0810
 X63.6982 Y44.1435
 X63.4954 Y44.1854
 X63.2913 Y44.2071
 X63.0871 Y44.2090
 X62.8846 Y44.1912
 X62.6850 Y44.1543
 X62.4897 Y44.0986
 X62.3004 Y44.0243
 X62.1185 Y43.9318
 X61.9453 Y43.8215
 X61.7824 Y43.6937
 X61.6312 Y43.5489
 X61.4933 Y43.3872
 X61.3700 Y43.2090
 X61.2650 Y43.0193
 X61.1813 Y42.8239
 X61.1186 Y42.6239
 X61.0764 Y42.4211
 X61.0546 Y42.2168
 X61.0525 Y42.0126
 X61.0701 Y41.8098
 X61.1069 Y41.6101
 X61.1626 Y41.4147
 X61.2368 Y41.2253
 X61.3293 Y41.0432
 X61.4396 Y40.8700
 X61.5674 Y40.7069
 X61.7124 Y40.5557
 X61.8740 Y40.4176
 X62.0524 Y40.2943
 X62.8999 Y39.7821
 X63.7644 Y39.2858
 X64.6460 Y38.8061
 X65.5444 Y38.3425
 X66.4599 Y37.8951
 X67.3922 Y37.4640
 X68.3414 Y37.0493
 X69.3075 Y36.6508
 X70.2904 Y36.2685
 X71.2903 Y35.9025
 X72.3069 Y35.5528
 X73.3403 Y35.2193
 X74.3904 Y34.9021
 X75.4574 Y34.6011
 X76.5411 Y34.3164
 X77.6415 Y34.0480
 X78.7587 Y33.7958
 X79.8925 Y33.5600
 X81.0429 Y33.3403
 X82.2101 Y33.1369
 X83.3939 Y32.9498
 X84.5943 Y32.7790
 X85.8113 Y32.6246
 X87.0449 Y32.4862
 X88.2949 Y32.3642
 X89.5615 Y32.2585
 X90.8447 Y32.1690
 X92.1444 Y32.0958
 X93.4606 Y32.0389
 X94.7932 Y31.9982
 X96.1424 Y31.9737
 X97.5079 Y31.9655
 X98.7842 Y31.9726
 X100.0744 Y31.9935
 X101.3788 Y32.0283
 X102.6972 Y32.0771
 X104.0294 Y32.1397
 X105.3760 Y32.2164
 X106.7360 Y32.3069
 X108.1100 Y32.4114
 X109.4980 Y32.5297
 X110.9000 Y32.6619
 X112.3160 Y32.8082
 X113.7450 Y32.9683
 X115.1890 Y33.1422
 X116.6460 Y33.3301
 X118.1170 Y33.5319
 X119.6020 Y33.7476
 X121.1000 Y33.9772
 X122.6130 Y34.2207
 X124.1390 Y34.4780
 X125.6780 Y34.7493
 X127.2320 Y35.0344
 X128.7990 Y35.3333
 X130.3790 Y35.6462
 X131.9740 Y35.9730
 X133.5810 Y36.3136
 X135.2030 Y36.6682
 X136.8380 Y37.0365
 X138.4860 Y37.4186
 X140.1480 Y37.8147
 X141.8240 Y38.2247
 X143.5130 Y38.6485
 X145.2150 Y39.0861
 X145.2710 Y38.4646
 X145.2420 Y37.8380
 X145.1290 Y37.2135
 X144.9320 Y36.5972
G0 Z5.0000
 X20.6904 Y88.4144
G1 Z0.0000
 X20.4740 Y88.4034
 X20.2639 Y88.3714
 X20.0611 Y88.3194
 X19.8667 Y88.2474
 X19.6817 Y88.1584
 X19.5072 Y88.0524
 X19.3442 Y87.9304
 X19.1939 Y87.7944
 X19.0572 Y87.6434
 X18.9354 Y87.4804
 X18.8293 Y87.3064
 X18.7402 Y87.1214
 X18.6690 Y86.9274
 X18.6168 Y86.7244
 X18.5847 Y86.5144
 X18.5738 Y86.2974
 Y84.0354
 X18.5847 Y83.8184
 X18.6168 Y83.6084
 X18.6690 Y83.4054
 X18.7402 Y83.2114
 X18.8293 Y83.0264
 X18.9354 Y82.8514
 X19.0572 Y82.6884
 X19.1939 Y82.5384
 X19.3442 Y82.4014
 X19.5072 Y82.2794
 X19.6817 Y82.1734
 X19.8667 Y82.0844
 X20.0611 Y82.0134
 X20.2639 Y81.9614
 X20.4740 Y81.9294
 X20.6904 Y81.9184
 X20.9069 Y81.9294
 X21.1174 Y81.9614
 X21.3201 Y82.0134
 X21.5147 Y82.0844
 X21.6997 Y82.1734
 X21.8743 Y82.2794
 X22.0372 Y82.4014
 X22.1875 Y82.5384
 X22.3240 Y82.6884
 X22.4458 Y82.8514
 X22.5518 Y83.0264
 X22.6410 Y83.2114
 X22.7121 Y83.4054
 X22.7642 Y83.6084
 X22.7962 Y83.8184
 X22.8072 Y84.0354
 Y86.2974
 X22.7962 Y86.5144
 X22.7642 Y86.7244
 X22.7121 Y86.9274
 X22.6410 Y87.1214
 X22.5518 Y87.3064
 X22.4458 Y87.4804
 X22.3240 Y87.6434
 X22.1875 Y87.7944
 X22.0372 Y87.9304
 X21.8743 Y88.0524
 X21.6997 Y88.1584
 X21.5147 Y88.2474
 X21.3201 Y88.3194
 X21.1174 Y88.3714
 X20.9069 Y88.4034
 X20.6904 Y88.4144
G0 Z5.0000
 X148.0110 Y43.3233
G1 Z0.0000
 X147.6330 Y43.8948
 X147.2390 Y44.4821
 X146.8310 Y45.0841
 X146.4060 Y45.7004
 X145.9650 Y46.3303
 X145.5110 Y46.9729
 X145.0420 Y47.6276
 X144.5570 Y48.2937
 X144.0570 Y48.9707
 X143.5420 Y49.6575
 X143.0120 Y50.3537
 X142.4670 Y51.0585
 X141.9080 Y51.7711
 X141.3340 Y52.4911
 X140.7450 Y53.2175
 X140.1420 Y53.9497
 X139.5240 Y54.6871
 X138.8910 Y55.4289
 X138.2440 Y56.1743
 X137.5830 Y56.9228
 X136.9070 Y57.6736
 X136.2180 Y58.4260
 X135.5130 Y59.1793
 X134.7950 Y59.9328
 X134.0630 Y60.6858
 X133.3160 Y61.4376
 X132.5550 Y62.1876
 X131.7810 Y62.9350
 X130.9920 Y63.6790
 X130.1900 Y64.4192
 X129.3740 Y65.1546
 X128.5440 Y65.8844
 X126.5550 Y67.5630
 X124.5500 Y69.1569
 X122.5270 Y70.6664
 X120.4890 Y72.0908
 X118.4350 Y73.4301
 X116.3660 Y74.6840
 X114.2820 Y75.8525
 X112.1830 Y76.9350
 X110.0710 Y77.9315
 X107.9460 Y78.8418
 X105.8080 Y79.6654
 X103.6568 Y80.4024
 X101.4942 Y81.0524
 X99.3200 Y81.6154
 X97.1347 Y82.0914
 X94.9389 Y82.4784
 X93.2979 Y82.7104
 X91.6531 Y82.8934
 X90.0043 Y83.0264
 X88.3519 Y83.1114
 X86.6958 Y83.1474
 X85.0362 Y83.1344
 X83.3732 Y83.0724
 X81.7067 Y82.9624
 X80.0369 Y82.8024
 X78.3639 Y82.5944
 X76.6878 Y82.3374
 X75.0085 Y82.0324
 X73.3264 Y81.6784
 X71.6411 Y81.2754
 X69.9532 Y80.8244
 X68.2626 Y80.3244
 X66.5692 Y79.7754
 X64.8733 Y79.1784
 X63.1749 Y78.5333
 X61.4742 Y77.8394
 X59.7710 Y77.0971
 X58.0656 Y76.3064
 X56.3581 Y75.4673
 X54.6483 Y74.5798
 X52.9368 Y73.6442
 X51.2232 Y72.6603
 X49.5078 Y71.6280
 X47.7907 Y70.5476
 X46.0718 Y69.4189
 X44.3514 Y68.2421
 X42.6294 Y67.0171
 X40.9061 Y65.7440
 Y81.9584
 X40.8831 Y82.8084
 X40.8146 Y83.6524
 X40.7014 Y84.4864
 X40.5442 Y85.3114
 X40.3438 Y86.1234
 X40.1008 Y86.9224
 X39.8160 Y87.7064
 X39.4903 Y88.4734
 X39.1242 Y89.2224
 X38.7186 Y89.9514
 X38.2742 Y90.6584
 X37.7917 Y91.3414
 X37.2718 Y92.0004
 X36.7154 Y92.6334
 X36.1232 Y93.2374
 X35.4958 Y93.8114
 X34.8383 Y94.3514
 X34.1564 Y94.8524
 X33.4517 Y95.3144
 X32.7260 Y95.7354
 X31.9808 Y96.1164
 X31.2181 Y96.4564
 X30.4393 Y96.7544
 X29.6464 Y97.0114
 X28.8408 Y97.2254
 X28.0246 Y97.3964
 X27.1992 Y97.5234
 X26.3665 Y97.6074
 X25.5281 Y97.6464
 X24.6857 Y97.6404
 X23.8410 Y97.5884
 X22.9958 Y97.4914
 X14.5871 Y96.2894
 X14.0787 Y96.2054
 X13.5787 Y96.0974
 X13.0877 Y95.9674
 X12.6060 Y95.8164
 X12.1342 Y95.6444
 X11.6729 Y95.4524
 X11.2224 Y95.2404
 X10.7834 Y95.0094
 X10.3564 Y94.7594
 X9.9418 Y94.4914
 X9.5401 Y94.2064
 X9.1519 Y93.9044
 X8.7777 Y93.5864
 X8.4180 Y93.2524
 X8.0733 Y92.9034
 X7.7440 Y92.5404
 X7.4308 Y92.1624
 X7.1342 Y91.7724
 X6.8545 Y91.3694
 X6.5923 Y90.9534
 X6.3483 Y90.5264
 X6.1228 Y90.0884
 X5.9163 Y89.6404
 X5.7294 Y89.1824
 X5.5626 Y88.7154
 X5.4164 Y88.2394
 X5.2913 Y87.7554
 X5.1878 Y87.2644
 X5.1064 Y86.7664
 X5.0476 Y86.2614
 X5.0120 Y85.7514
 X5.0000 Y85.2364
 Y77.2493
 X5.0227 Y76.8065
 X5.0897 Y76.3705
 X5.1997 Y75.9447
 X5.3511 Y75.5323
 X5.5424 Y75.1373
 X5.7721 Y74.7628
 X6.0388 Y74.4123
 X6.3409 Y74.0894
 X6.5683 Y73.8858
 X6.8072 Y73.7005
 X7.0565 Y73.5332
 X7.3149 Y73.3839
 X7.2987 Y71.7911
 X7.3171 Y71.2178
 X7.3829 Y70.6561
 X7.4946 Y70.1086
 X7.6503 Y69.5772
 X7.8483 Y69.0644
 X8.0869 Y68.5723
 X8.3645 Y68.1030
 X8.6792 Y67.6590
 X9.0293 Y67.2423
 X9.4132 Y66.8553
 X9.8290 Y66.5001
 X10.2752 Y66.1790
 X10.7499 Y65.8942
 X11.2515 Y65.6479
 X11.7782 Y65.4423
 X12.3282 Y65.2798
 X16.3619 Y64.2708
 X16.4089 Y64.2523
 X16.4481 Y64.2239
 X16.4759 Y64.1890
 X16.4886 Y64.1510
 X16.5731 Y63.4033
 X16.6808 Y62.5972
 X16.8121 Y61.7361
 X16.9675 Y60.8236
 X17.1474 Y59.8632
 X17.3523 Y58.8586
 X17.5826 Y57.8132
 X17.8389 Y56.7305
 X18.1215 Y55.6143
 X18.4310 Y54.4680
 X18.7678 Y53.2951
 X19.1325 Y52.0993
 X19.5253 Y50.8840
 X19.9468 Y49.6528
 X20.3975 Y48.4093
 X20.8778 Y47.1569
 X21.5414 Y45.5322
 X22.2361 Y43.9433
 X22.9618 Y42.3905
 X23.7182 Y40.8740
 X24.5050 Y39.3942
 X25.3222 Y37.9511
 X26.1694 Y36.5451
 X27.0467 Y35.1765
 X27.9535 Y33.8455
 X28.8899 Y32.5523
 X29.8556 Y31.2973
 X30.8504 Y30.0808
 X31.8742 Y28.9028
 X32.9267 Y27.7637
 X34.0076 Y26.6637
 X35.1169 Y25.6032
 X34.6114 Y20.5458
 X34.2640
 X33.5826 Y20.5204
 X32.9133 Y20.4448
 X32.2579 Y20.3207
 X31.6189 Y20.1494
 X30.9981 Y19.9326
 X30.3979 Y19.6715
 X29.8203 Y19.3676
 X29.2676 Y19.0223
 X28.7418 Y18.6373
 X28.2451 Y18.2139
 X27.7797 Y17.7535
 X27.3478 Y17.2576
 X26.9514 Y16.7278
 X26.5928 Y16.1653
 X26.2740 Y15.5717
 X25.9974 Y14.9483
 X23.1790 Y7.9023
 X23.0972 Y7.6543
 X23.0471 Y7.4010
 X23.0282 Y7.1453
 X23.0403 Y6.8900
 X23.0829 Y6.6380
 X23.1558 Y6.3921
 X23.2588 Y6.1553
 X23.3914 Y5.9303
 X23.5511 Y5.7235
 X23.7328 Y5.5397
 X23.9342 Y5.3804
 X24.1525 Y5.2471
 X24.3851 Y5.1411
 X24.6297 Y5.0636
 X24.8838 Y5.0161
 X25.1443 Y5.0000
 X40.0118
 X40.4065 Y5.0087
 X40.7976 Y5.0348
 X41.1846 Y5.0779
 X41.5671 Y5.1375
 X41.9447 Y5.2133
 X42.3168 Y5.3051
 X42.6833 Y5.4125
 X43.0435 Y5.5351
 X43.3971 Y5.6726
 X43.7438 Y5.8247
 X44.0829 Y5.9910
 X44.4142 Y6.1711
 X44.7372 Y6.3647
 X45.0515 Y6.5716
 X45.3567 Y6.7912
 X45.6522 Y7.0235
 X45.9379 Y7.2678
 X46.2132 Y7.5239
 X46.4776 Y7.7915
 X46.7310 Y8.0703
 X46.9726 Y8.3597
 X47.2022 Y8.6597
 X47.4193 Y8.9697
 X47.6236 Y9.2896
 X47.8144 Y9.6187
 X47.9917 Y9.9571
 X48.1547 Y10.3040
 X48.3032 Y10.6594
 X48.4367 Y11.0228
 X48.5547 Y11.3939
 X48.6569 Y11.7723
 X48.7431 Y12.1579
 X49.6126 Y16.5026
 X50.2057 Y16.2732
 X50.8253 Y16.0418
 X51.4715 Y15.8093
 X52.1444 Y15.5761
 X52.8443 Y15.3428
 X53.5714 Y15.1101
 X54.3258 Y14.8787
 X55.1076 Y14.6489
 X55.9171 Y14.4215
 X56.7544 Y14.1971
 X57.6197 Y13.9762
 X58.5132 Y13.7594
 X59.4349 Y13.5475
 X60.3851 Y13.3408
 X61.3642 Y13.1401
 X62.3718 Y12.9461
 X63.4086 Y12.7590
 X64.4744 Y12.5797
 X65.5697 Y12.4087
 X66.6946 Y12.2468
 X67.8490 Y12.0943
 X69.0333 Y11.9519
 X70.2478 Y11.8203
 X71.4924 Y11.7000
 X72.7672 Y11.5915
 X74.0726 Y11.4957
 X75.4088 Y11.4129
 X76.7758 Y11.3439
 X78.1739 Y11.2891
 X79.6032 Y11.2493
 X81.0639 Y11.2250
 X82.5561 Y11.2166
 X84.2763 Y11.2276
 X86.0376 Y11.2610
 X87.8403 Y11.3175
 X89.6843 Y11.3980
 X91.5696 Y11.5030
 X93.4961 Y11.6335
 X95.4640 Y11.7898
 X97.4733 Y11.9730
 X95.6790 Y7.9848
 X95.5849 Y7.7350
 X95.5236 Y7.4783
 X95.4950 Y7.2178
 X95.4986 Y6.9566
 X95.5344 Y6.6980
 X95.6021 Y6.4450
 X95.7014 Y6.2004
 X95.8321 Y5.9676
 X95.9910 Y5.7532
 X96.1732 Y5.5625
 X96.3762 Y5.3968
 X96.5972 Y5.2580
 X96.8336 Y5.1473
 X97.0828 Y5.0665
 X97.3419 Y5.0169
 X97.6083 Y5.0000
 X115.7070
 X116.0480 Y5.0087
 X116.3850 Y5.0344
 X116.7170 Y5.0766
 X117.0440 Y5.1351
 X117.3650 Y5.2094
 X117.6800 Y5.2991
 X117.9880 Y5.4037
 X118.2900 Y5.5228
 X118.5840 Y5.6560
 X118.8700 Y5.8029
 X119.1480 Y5.9629
 X119.4180 Y6.1358
 X119.6780 Y6.3212
 X119.9290 Y6.5186
 X120.1700 Y6.7275
 X120.4010 Y6.9475
 X120.6210 Y7.1783
 X120.8300 Y7.4193
 X121.0270 Y7.6703
 X121.2120 Y7.9307
 X121.3850 Y8.2001
 X121.5460 Y8.4783
 X121.6920 Y8.7646
 X121.8260 Y9.0587
 X121.9450 Y9.3601
 X122.0490 Y9.6685
 X122.1390 Y9.9835
 X122.2130 Y10.3044
 X122.2720 Y10.6311
 X122.3140 Y10.9630
 X122.3400 Y11.2998
 X122.3480 Y11.6410
 Y16.5094
 X123.3320 Y16.8207
 X124.2450 Y17.1300
 X125.0860 Y17.4371
 X125.8550 Y17.7416
 X126.5510 Y18.0435
 X127.1720 Y18.3422
 X127.7200 Y18.6376
 X128.1930 Y18.9294
 X128.7350 Y19.3058
 X129.2740 Y19.7094
 X129.8090 Y20.1401
 X130.3400 Y20.5978
 X130.8670 Y21.0822
 X131.3900 Y21.5935
 X131.9100 Y22.1314
 X132.4250 Y22.6957
 X132.9350 Y23.2864
 X133.4420 Y23.9033
 X133.9430 Y24.5465
 X134.4400 Y25.2157
 X134.9330 Y25.9107
 X135.4200 Y26.6315
 X135.9030 Y27.3780
 X136.3810 Y28.1500
 X139.4590 Y28.8430
 X142.5760 Y29.5815
 X143.1150 Y29.7287
 X143.6380 Y29.9054
 X144.1440 Y30.1107
 X144.6350 Y30.3439
 X145.1070 Y30.6042
 X145.5600 Y30.8908
 X145.9930 Y31.2032
 X146.4070 Y31.5405
 X146.7990 Y31.9019
 X147.1680 Y32.2866
 X147.5140 Y32.6942
 X147.8370 Y33.1236
 X148.1350 Y33.5741
 X148.4070 Y34.0451
 X148.6530 Y34.5358
 X148.8710 Y35.0454
 X149.0570 Y35.5612
 X149.2100 Y36.0843
 X149.3290 Y36.6128
 X149.4170 Y37.1454
 X149.4740 Y37.6808
 X149.4970 Y38.2172
 X149.4890 Y38.7535
 X149.4500 Y39.2878
 X149.3790 Y39.8190
 X149.2760 Y40.3455
 X149.1430 Y40.8658
 X148.9780 Y41.3785
 X148.7820 Y41.8819
 X148.5560 Y42.3750
 X148.2990 Y42.8560
 X148.0110 Y43.3233
G0 Z5.0000
G0 Z5.0000
M2 (end program)
