$X
$H
G10 P0 L20 X0 Y0 Z0
G40 (disable tool radius compensation)
G49 (disable tool length compensation)
G80 (cancel modal motion)
G54 (select coordinate system 1)
G90 (disable incremental moves)
G21 (metric)
F300.00000
S250.00000
G61 (exact path mode)
;PYCAM_TOOLPATH_SETTINGS: START
;[Bounds]
;maxz = 0.0
;maxx = 135.467
;maxy = 135.467
;minx = -0.000108507
;miny = 0.000325521
;minz = 0.0
;
;[Tool]
;torus_radius = 0.125
;shape = CylindricalCutter
;tool_radius = 1.5875
;feedrate = 300.0
;
;[Process]
;engrave_offset = 0.0
;step_down = 3.0
;generator = EngraveCutter
;postprocessor = SimpleCutter
;overlap_percent = 0
;milling_style = ignore
;material_allowance = 0.0
;pocketing_type = none
;path_direction = x
;
;PYCAM_TOOLPATH_SETTINGS: END
G0 Z-25.0000
M3 (start spindle)
G04 P3 (wait for 3 seconds)
 X33.57320 Y18.97740
G1 Z-41.5000
 X33.52080 Y18.82430
 X33.32970 Y18.37650
 X33.01640 Y17.78720
 X32.63610 Y17.20930
 X32.19180 Y16.64320
 X31.68680 Y16.08880
 X31.12390 Y15.54650
 X30.50620 Y15.01640
 X29.83690 Y14.49850
 X29.11890 Y13.99290
 X28.35510 Y13.50010
 X27.54890 Y13.02000
 X26.70320 Y12.55270
 X25.82080 Y12.09850
 X24.90500 Y11.65750
 X23.95890 Y11.22980
 X22.98530 Y10.81570
 X21.98740 Y10.41520
 X20.96820 Y10.02840
 X19.93070 Y9.65560
 X18.87810 Y9.29693
 X17.81330 Y8.95247
 X16.73940 Y8.62240
 X15.65940 Y8.30686
 X14.57650 Y8.00603
 X13.49360 Y7.72006
 X12.41370 Y7.44906
 X11.34000 Y7.19325
 X10.27530 Y6.95269
 X9.22293 Y6.72760
 X8.18576 Y6.51807
 X7.16689 Y6.32433
 X6.41900 Y6.18946
 X6.16938 Y6.14643
 X6.21338 Y6.39963
 X6.35129 Y7.15826
 X6.54872 Y8.18918
 X6.76144 Y9.23633
 X6.98936 Y10.29680
 X7.23236 Y11.36760
 X7.49024 Y12.44590
 X7.76292 Y13.52860
 X8.05024 Y14.61290
 X8.35206 Y15.69580
 X8.66824 Y16.77460
 X8.99858 Y17.84600
 X9.34310 Y18.90720
 X9.70150 Y19.95540
 X10.07370 Y20.98750
 X10.45960 Y22.00070
 X10.85910 Y22.99190
 X11.27190 Y23.95850
 X11.69790 Y24.89710
 X12.13710 Y25.80510
 X12.58930 Y26.67960
 X13.05430 Y27.51740
 X13.53200 Y28.31570
 X14.02220 Y29.07170
 X14.52490 Y29.78220
 X15.03990 Y30.44460
 X15.56690 Y31.05570
 X16.10610 Y31.61260
 X16.65710 Y32.11250
 X17.21990 Y32.55240
 X17.79420 Y32.92930
 X18.37990 Y33.24030
 X18.82490 Y33.43030
 X18.97690 Y33.48250
 X19.07920 Y33.51720
 X19.39170 Y33.60420
 X19.81430 Y33.69070
 X20.24460 Y33.74240
 X20.57240 Y33.75940
 X20.79640
 X21.14100 Y33.74100
 X21.60930 Y33.68570
 X22.08620 Y33.59350
 X22.57180 Y33.46430
 X23.06580 Y33.29830
 X23.56850 Y33.09560
 X24.07940 Y32.85600
 X24.59860 Y32.57960
 X25.12610 Y32.26650
 X25.66170 Y31.91670
 X26.20510 Y31.53000
 X26.75670 Y31.10670
 X27.31610 Y30.64670
 X27.88330 Y30.15000
 X28.45820 Y29.61670
 X28.89680 Y29.19100
 X29.04070 Y29.04670
 X29.07630 Y29.01110
 X29.26400 Y28.84690
 X29.46280 Y28.70000
 X29.50390 Y28.67310
 X29.66970 Y28.50180
 X30.15680 Y27.97740
 X30.75690 Y27.29290
 X31.30400 Y26.62010
 X31.79810 Y25.95900
 X32.23890 Y25.30970
 X32.62670 Y24.67220
 X32.96120 Y24.04680
 X33.24260 Y23.43350
 X33.47070 Y22.83240
 X33.64560 Y22.24380
 X33.76710 Y21.66750
 X33.83530 Y21.10390
 X33.85000 Y20.55290
 X33.81110 Y20.01470
 X33.71890 Y19.48960
 X33.61610 Y19.10320
 X33.57320 Y18.97740
G0 Z-25.0000
 X90.31110 Y79.02260
G1 Z-41.5000
 X90.16600
 X89.73100 Y79.03740
 X89.15830 Y79.08100
 X88.59390 Y79.15290
 X88.03850 Y79.25220
 X87.49280 Y79.37850
 X86.95740 Y79.53080
 X86.43310 Y79.70860
 X85.92070 Y79.91100
 X85.42070 Y80.13720
 X84.93400 Y80.38680
 X84.46130 Y80.65890
 X84.00320 Y80.95280
 X83.56060 Y81.26780
 X83.13400 Y81.60320
 X82.72420 Y81.95820
 X82.33190 Y82.33220
 X81.95790 Y82.72440
 X81.60290 Y83.13420
 X81.26750 Y83.56080
 X80.95250 Y84.00350
 X80.65860 Y84.46150
 X80.38650 Y84.93430
 X80.13690 Y85.42100
 X79.91060 Y85.92100
 X79.70820 Y86.43330
 X79.53060 Y86.95760
 X79.37820 Y87.49310
 X79.25190 Y88.03890
 X79.15250 Y88.59430
 X79.08060 Y89.15880
 X79.03690 Y89.73140
 X79.02220 Y90.16640
 Y90.45650
 X79.03690 Y90.89170
 X79.08060 Y91.46430
 X79.15250 Y92.02860
 X79.25190 Y92.58400
 X79.37820 Y93.12990
 X79.53060 Y93.66510
 X79.70820 Y94.18940
 X79.91060 Y94.70180
 X80.13690 Y95.20180
 X80.38650 Y95.68850
 X80.65860 Y96.16120
 X80.95250 Y96.61930
 X81.26750 Y97.06190
 X81.60290 Y97.48860
 X81.95790 Y97.89830
 X82.33190 Y98.29070
 X82.72420 Y98.66470
 X83.13400 Y99.01970
 X83.56060 Y99.35510
 X84.00320 Y99.67010
 X84.46130 Y99.96400
 X84.93400 Y100.23600
 X85.42070 Y100.48600
 X85.92070 Y100.71200
 X86.43310 Y100.91400
 X86.95740 Y101.09200
 X87.49280 Y101.24400
 X88.03850 Y101.37100
 X88.59390 Y101.47000
 X89.15830 Y101.54200
 X89.73100 Y101.58600
 X90.16600 Y101.60000
 X90.45610
 X90.89120 Y101.58600
 X91.46390 Y101.54200
 X92.02820 Y101.47000
 X92.58360 Y101.37100
 X93.12940 Y101.24400
 X93.66470 Y101.09200
 X94.18900 Y100.91400
 X94.70150 Y100.71200
 X95.20140 Y100.48600
 X95.68810 Y100.23600
 X96.16080 Y99.96400
 X96.61890 Y99.67010
 X97.06150 Y99.35510
 X97.48820 Y99.01970
 X97.89790 Y98.66470
 X98.29010 Y98.29070
 X98.66420 Y97.89830
 X99.01930 Y97.48860
 X99.35470 Y97.06190
 X99.66960 Y96.61930
 X99.96360 Y96.16120
 X100.23600 Y95.68850
 X100.48500 Y95.20180
 X100.71200 Y94.70180
 X100.91400 Y94.18940
 X101.09200 Y93.66510
 X101.24400 Y93.12990
 X101.37000 Y92.58400
 X101.47000 Y92.02860
 X101.54200 Y91.46430
 X101.58500 Y90.89170
 X101.60000 Y90.45650
 Y90.16640
 X101.58500 Y89.73140
 X101.54200 Y89.15880
 X101.47000 Y88.59430
 X101.37000 Y88.03890
 X101.24400 Y87.49310
 X101.09200 Y86.95760
 X100.91400 Y86.43330
 X100.71200 Y85.92100
 X100.48500 Y85.42100
 X100.23600 Y84.93430
 X99.96360 Y84.46150
 X99.66960 Y84.00350
 X99.35470 Y83.56080
 X99.01930 Y83.13420
 X98.66420 Y82.72440
 X98.29010 Y82.33220
 X97.89790 Y81.95820
 X97.48820 Y81.60320
 X97.06150 Y81.26780
 X96.61890 Y80.95280
 X96.16080 Y80.65890
 X95.68810 Y80.38680
 X95.20140 Y80.13720
 X94.70150 Y79.91100
 X94.18900 Y79.70860
 X93.66470 Y79.53080
 X93.12940 Y79.37850
 X92.58360 Y79.25220
 X92.02820 Y79.15290
 X91.46390 Y79.08100
 X90.89120 Y79.03740
 X90.45610 Y79.02260
 X90.31110
G0 Z-25.0000
 X51.18460 Y29.01210
G1 Z-41.5000
 X29.01320 Y51.18350
 X29.06060 Y51.25540
 X29.20320 Y51.47110
 X29.40650 Y51.77750
 X29.62330 Y52.10250
 X29.85310 Y52.44570
 X30.09600 Y52.80670
 X30.35180 Y53.18510
 X30.62060 Y53.58080
 X30.90210 Y53.99350
 X31.19640 Y54.42260
 X31.50320 Y54.86810
 X31.82250 Y55.32930
 X32.15430 Y55.80610
 X32.49830 Y56.29820
 X32.85460 Y56.80530
 X33.22290 Y57.32690
 X33.60350 Y57.86280
 X33.99580 Y58.41260
 X34.40000 Y58.97610
 X34.81600 Y59.55280
 X35.24360 Y60.14250
 X35.68280 Y60.74490
 X36.13350 Y61.35960
 X36.59560 Y61.98610
 X37.06890 Y62.62440
 X37.55330 Y63.27420
 X38.04900 Y63.93470
 X38.55560 Y64.60610
 X39.07310 Y65.28780
 X39.60140 Y65.97940
 X40.14040 Y66.68100
 X40.69010 Y67.39170
 X41.25030 Y68.11150
 X41.82100 Y68.84010
 X42.40180 Y69.57710
 X42.99310 Y70.32220
 X43.59440 Y71.07490
 X44.20580 Y71.83510
 X44.82720 Y72.60250
 X45.45850 Y73.37650
 X46.09940 Y74.15690
 X46.75030 Y74.94360
 X47.41060 Y75.73610
 X48.08030 Y76.53390
 X48.75940 Y77.33690
 X49.44810 Y78.14470
 X50.14570 Y78.95710
 X50.85260 Y79.77360
 X51.56850 Y80.59390
 X52.29320 Y81.41760
 X53.02680 Y82.24460
 X53.76920 Y83.07440
 X54.52030 Y83.90680
 X55.27970 Y84.74140
 X56.04790 Y85.57790
 X56.82420 Y86.41580
 X57.60890 Y87.25510
 X58.40180 Y88.09530
 X59.20260 Y88.93580
 X60.01170 Y89.77680
 X60.82830 Y90.61760
 X61.65310 Y91.45810
 X62.48540 Y92.29780
 X63.32530 Y93.13640
 X64.17280 Y93.97370
 X65.02760 Y94.80930
 X65.88990 Y95.64280
 X66.75930 Y96.47390
 X67.63600 Y97.30240
 X68.51960 Y98.12780
 X69.41030 Y98.94990
 X70.30760 Y99.76830
 X71.21190 Y100.58300
 X72.12280 Y101.39300
 X73.04030 Y102.19800
 X73.96430 Y102.99900
 X74.89460 Y103.79400
 X75.83140 Y104.58400
 X76.77420 Y105.36700
 X77.72320 Y106.14400
 X78.67820 Y106.91500
 X79.63920 Y107.67900
 X80.60580 Y108.43500
 X81.57830 Y109.18400
 X82.55640 Y109.92600
 X83.54010 Y110.65800
 X84.52920 Y111.38300
 X85.52360 Y112.09800
 X86.52330 Y112.80400
 X87.52830 Y113.50100
 X88.53830 Y114.18700
 X89.55320 Y114.86400
 X90.57310 Y115.53000
 X91.59780 Y116.18500
 X92.62710 Y116.82900
 X93.66100 Y117.46200
 X94.69940 Y118.08200
 X95.74240 Y118.69100
 X96.78960 Y119.28700
 X97.84100 Y119.87000
 X98.89650 Y120.44000
 X99.95610 Y120.99700
 X101.02000 Y121.54000
 X102.08700 Y122.06900
 X103.15800 Y122.58300
 X104.23300 Y123.08300
 X105.31100 Y123.56700
 X106.39300 Y124.03600
 X107.47900 Y124.49000
 X108.56700 Y124.92700
 X109.65900 Y125.34800
 X110.75400 Y125.75200
 X111.85200 Y126.13900
 X112.95200 Y126.50900
 X114.05600 Y126.86100
 X115.16200 Y127.19500
 X116.27100 Y127.51100
 X117.38300 Y127.80800
 X118.49600 Y128.08600
 X119.61300 Y128.34500
 X120.73100 Y128.58400
 X121.85200 Y128.80300
 X122.97500 Y129.00200
 X124.09900 Y129.18000
 X125.22600 Y129.33700
 X126.35400 Y129.47300
 X127.48400 Y129.58700
 X128.61600 Y129.67900
 X129.46600 Y129.73500
 X129.74900 Y129.75000
 X129.73400 Y129.46600
 X129.67900 Y128.61700
 X129.58700 Y127.48600
 X129.47300 Y126.35700
 X129.33700 Y125.22900
 X129.18000 Y124.10300
 X129.00200 Y122.97900
 X128.80300 Y121.85700
 X128.58400 Y120.73700
 X128.34500 Y119.61900
 X128.08700 Y118.50400
 X127.80900 Y117.39000
 X127.51200 Y116.27900
 X127.19600 Y115.17100
 X126.86200 Y114.06500
 X126.51000 Y112.96200
 X126.14100 Y111.86200
 X125.75400 Y110.76400
 X125.35000 Y109.67000
 X124.92900 Y108.57900
 X124.49200 Y107.49100
 X124.03900 Y106.40600
 X123.57000 Y105.32400
 X123.08500 Y104.24600
 X122.58600 Y103.17200
 X122.07200 Y102.10100
 X121.54300 Y101.03400
 X121.00000 Y99.97060
 X120.44400 Y98.91120
 X119.87300 Y97.85600
 X119.29000 Y96.80470
 X118.69400 Y95.75780
 X118.08600 Y94.71510
 X117.46600 Y93.67690
 X116.83300 Y92.64320
 X116.18900 Y91.61400
 X115.53400 Y90.58960
 X114.86800 Y89.56990
 X114.19200 Y88.55500
 X113.50500 Y87.54510
 X112.80900 Y86.54040
 X112.10300 Y85.54070
 X111.38700 Y84.54640
 X110.66300 Y83.55740
 X109.93100 Y82.57380
 X109.19000 Y81.59570
 X108.44100 Y80.62320
 X107.68400 Y79.65650
 X106.92100 Y78.69560
 X106.15000 Y77.74060
 X105.37300 Y76.79170
 X104.58900 Y75.84870
 X103.80000 Y74.91190
 X103.00500 Y73.98170
 X102.20400 Y73.05750
 X101.39900 Y72.14000
 X100.58900 Y71.22900
 X99.77460 Y70.32470
 X98.95630 Y69.42710
 X98.13420 Y68.53650
 X97.30880 Y67.65260
 X96.48040 Y66.77600
 X95.64930 Y65.90640
 X94.81580 Y65.04400
 X93.98040 Y64.18900
 X93.14320 Y63.34140
 X92.30460 Y62.50120
 X91.46490 Y61.66870
 X90.62460 Y60.84400
 X89.78380 Y60.02710
 X88.94280 Y59.21790
 X88.10210 Y58.41680
 X87.26210 Y57.62380
 X86.42290 Y56.83870
 X85.58490 Y56.06220
 X84.74850 Y55.29400
 X83.91390 Y54.53420
 X83.08150 Y53.78290
 X82.25170 Y53.04030
 X81.42470 Y52.30650
 X80.60080 Y51.58140
 X79.78060 Y50.86530
 X78.96400 Y50.15820
 X78.15180 Y49.46030
 X77.34390 Y48.77150
 X76.54080 Y48.09210
 X75.74290 Y47.42190
 X74.95060 Y46.76140
 X74.16390 Y46.11040
 X73.38330 Y45.46900
 X72.60920 Y44.83750
 X71.84180 Y44.21580
 X71.08150 Y43.60420
 X70.32870 Y43.00250
 X69.58360 Y42.41100
 X68.84650 Y41.82970
 X68.11790 Y41.25870
 X67.39790 Y40.69830
 X66.68710 Y40.14830
 X65.98560 Y39.60900
 X65.29370 Y39.08040
 X64.61190 Y38.56250
 X63.94060 Y38.05560
 X63.27970 Y37.55970
 X62.63000 Y37.07490
 X61.99150 Y36.60130
 X61.36490 Y36.13890
 X60.75000 Y35.68790
 X60.14760 Y35.24850
 X59.55780 Y34.82060
 X58.98080 Y34.40430
 X58.41720 Y33.99970
 X57.86720 Y33.60690
 X57.33110 Y33.22630
 X56.80930 Y32.85760
 X56.30210 Y32.50100
 X55.80990 Y32.15670
 X55.33280 Y31.82460
 X54.87130 Y31.50500
 X54.42570 Y31.19790
 X53.99640 Y30.90330
 X53.58360 Y30.62150
 X53.18760 Y30.35250
 X52.80890 Y30.09640
 X52.44760 Y29.85320
 X52.10420 Y29.62310
 X51.77900 Y29.40610
 X51.47240 Y29.20250
 X51.25650 Y29.05960
 X51.18460 Y29.01210
G0 Z-25.0000
 X90.31110 Y107.24500
G1 Z-41.5000
 X90.09360
 X89.44130 Y107.22300
 X88.58260 Y107.15700
 X87.73620 Y107.04900
 X86.90330 Y106.90000
 X86.08490 Y106.71100
 X85.28190 Y106.48200
 X84.49570 Y106.21600
 X83.72710 Y105.91200
 X82.97720 Y105.57200
 X82.24720 Y105.19800
 X81.53820 Y104.79000
 X80.85100 Y104.34900
 X80.18690 Y103.87600
 X79.54710 Y103.37300
 X78.93240 Y102.84000
 X78.34390 Y102.27900
 X77.78280 Y101.69100
 X77.25000 Y101.07600
 X76.74680 Y100.43600
 X76.27420 Y99.77210
 X75.83320 Y99.08510
 X75.42500 Y98.37600
 X75.05040 Y97.64600
 X74.71080 Y96.89610
 X74.40720 Y96.12750
 X74.14060 Y95.34110
 X73.91190 Y94.53820
 X73.72250 Y93.71960
 X73.57320 Y92.88670
 X73.46530 Y92.04030
 X73.39990 Y91.18150
 X73.37780 Y90.52900
 Y90.09400
 X73.39990 Y89.44150
 X73.46530 Y88.58280
 X73.57320 Y87.73640
 X73.72250 Y86.90330
 X73.91190 Y86.08490
 X74.14060 Y85.28190
 X74.40720 Y84.49560
 X74.71080 Y83.72690
 X75.05040 Y82.97710
 X75.42500 Y82.24710
 X75.83320 Y81.53790
 X76.27420 Y80.85080
 X76.74680 Y80.18680
 X77.25000 Y79.54690
 X77.78280 Y78.93220
 X78.34390 Y78.34380
 X78.93240 Y77.78260
 X79.54710 Y77.25000
 X80.18690 Y76.74680
 X80.85100 Y76.27430
 X81.53820 Y75.83330
 X82.24720 Y75.42510
 X82.97720 Y75.05070
 X83.72710 Y74.71110
 X84.49570 Y74.40750
 X85.28190 Y74.14080
 X86.08490 Y73.91220
 X86.90330 Y73.72280
 X87.73620 Y73.57360
 X88.58260 Y73.46580
 X89.44130 Y73.40030
 X90.09360 Y73.37820
 X90.52850
 X91.18100 Y73.40030
 X92.03990 Y73.46580
 X92.88610 Y73.57360
 X93.71920 Y73.72280
 X94.53760 Y73.91220
 X95.34070 Y74.14080
 X96.12710 Y74.40750
 X96.89560 Y74.71110
 X97.64560 Y75.05070
 X98.37560 Y75.42510
 X99.08460 Y75.83330
 X99.77180 Y76.27430
 X100.43600 Y76.74680
 X101.07600 Y77.25000
 X101.69000 Y77.78260
 X102.27900 Y78.34380
 X102.84000 Y78.93220
 X103.37200 Y79.54690
 X103.87600 Y80.18680
 X104.34800 Y80.85080
 X104.78900 Y81.53790
 X105.19800 Y82.24710
 X105.57200 Y82.97710
 X105.91200 Y83.72690
 X106.21500 Y84.49560
 X106.48200 Y85.28190
 X106.71000 Y86.08490
 X106.90000 Y86.90330
 X107.04900 Y87.73640
 X107.15700 Y88.58280
 X107.22200 Y89.44150
 X107.24400 Y90.09400
 Y90.52900
 X107.22200 Y91.18150
 X107.15700 Y92.04030
 X107.04900 Y92.88670
 X106.90000 Y93.71960
 X106.71000 Y94.53820
 X106.48200 Y95.34110
 X106.21500 Y96.12750
 X105.91200 Y96.89610
 X105.57200 Y97.64600
 X105.19800 Y98.37600
 X104.78900 Y99.08510
 X104.34800 Y99.77210
 X103.87600 Y100.43600
 X103.37200 Y101.07600
 X102.84000 Y101.69100
 X102.27900 Y102.27900
 X101.69000 Y102.84000
 X101.07600 Y103.37300
 X100.43600 Y103.87600
 X99.77180 Y104.34900
 X99.08460 Y104.79000
 X98.37560 Y105.19800
 X97.64560 Y105.57200
 X96.89560 Y105.91200
 X96.12710 Y106.21600
 X95.34070 Y106.48200
 X94.53760 Y106.71100
 X93.71920 Y106.90000
 X92.88610 Y107.04900
 X92.03990 Y107.15700
 X91.18100 Y107.22300
 X90.52850 Y107.24500
 X90.31110
G0 Z-25.0000
 X132.64400 Y135.46700
G1 Z-41.5000
 X132.30900
 X131.30300 Y135.45300
 X129.96500 Y135.40900
 X128.63000 Y135.33700
 X127.29700 Y135.23800
 X125.96800 Y135.11100
 X124.64100 Y134.95700
 X123.31800 Y134.77700
 X121.99900 Y134.57000
 X120.68200 Y134.33800
 X119.37000 Y134.08100
 X118.06100 Y133.79900
 X116.75600 Y133.49200
 X115.45500 Y133.16200
 X114.15800 Y132.80800
 X112.86600 Y132.43200
 X111.57700 Y132.03200
 X110.29400 Y131.61100
 X109.01400 Y131.16800
 X107.74000 Y130.70400
 X106.47000 Y130.22000
 X105.20500 Y129.71500
 X103.94500 Y129.19000
 X102.69000 Y128.64500
 X101.44100 Y128.08200
 X100.19700 Y127.50100
 X98.95830 Y126.90100
 X97.72540 Y126.28300
 X96.49820 Y125.64900
 X95.27690 Y124.99800
 X94.06150 Y124.33000
 X92.85240 Y123.64700
 X91.64930 Y122.94800
 X90.45260 Y122.23500
 X89.26240 Y121.50700
 X88.07870 Y120.76500
 X86.90180 Y120.00900
 X85.73170 Y119.24100
 X84.56830 Y118.45900
 X83.41220 Y117.66500
 X82.26320 Y116.86000
 X81.12130 Y116.04300
 X79.98690 Y115.21500
 X78.86010 Y114.37700
 X77.74080 Y113.52900
 X76.62930 Y112.67100
 X75.52570 Y111.80500
 X74.43000 Y110.92900
 X73.34240 Y110.04500
 X72.26310 Y109.15400
 X71.19210 Y108.25500
 X70.12940 Y107.34900
 X69.07560 Y106.43700
 X68.03010 Y105.51900
 X66.99370 Y104.59500
 X65.96610 Y103.66700
 X64.94760 Y102.73300
 X63.93820 Y101.79600
 X62.93810 Y100.85400
 X61.94740 Y99.90990
 X60.96610 Y98.96240
 X59.99460 Y98.01240
 X59.03280 Y97.06060
 X58.08080 Y96.10720
 X57.13890 Y95.15280
 X56.20690 Y94.19780
 X55.28530 Y93.24250
 X54.37400 Y92.28750
 X53.47310 Y91.33330
 X52.58280 Y90.38030
 X51.70320 Y89.42880
 X50.83430 Y88.47930
 X49.97640 Y87.53250
 X49.12960 Y86.58850
 X48.29390 Y85.64790
 X47.46940 Y84.71130
 X46.65650 Y83.77870
 X45.85500 Y82.85110
 X45.06510 Y81.92860
 X44.28710 Y81.01180
 X43.52080 Y80.10100
 X42.76650 Y79.19670
 X42.02430 Y78.29940
 X41.29440 Y77.40960
 X40.57680 Y76.52760
 X39.87170 Y75.65390
 X39.17900 Y74.78900
 X38.49920 Y73.93330
 X37.83210 Y73.08720
 X37.17780 Y72.25120
 X36.53670 Y71.42580
 X35.90870 Y70.61140
 X35.29420 Y69.80850
 X34.69280 Y69.01740
 X34.10500 Y68.23860
 X33.53100 Y67.47260
 X32.97060 Y66.71990
 X32.42400 Y65.98080
 X31.89140 Y65.25580
 X31.37310 Y64.54560
 X30.86880 Y63.85010
 X30.37890 Y63.17030
 X29.90350 Y62.50630
 X29.44260 Y61.85860
 X28.99650 Y61.22780
 X28.56510 Y60.61420
 X28.14870 Y60.01830
 X27.74740 Y59.44040
 X27.36110 Y58.88140
 X26.99010 Y58.34120
 X26.63470 Y57.82060
 X26.29460 Y57.31990
 X25.97030 Y56.83960
 X25.66150 Y56.38000
 X25.36880 Y55.94170
 X25.09210 Y55.52530
 X24.83140 Y55.13080
 X24.58690 Y54.75900
 X24.35870 Y54.41040
 X24.14710 Y54.08510
 X23.95210 Y53.78400
 X23.77360 Y53.50710
 X23.61210 Y53.25510
 X23.46740 Y53.02830
 X23.33970 Y52.82740
 X23.22930 Y52.65260
 X23.13610 Y52.50440
 X23.06040 Y52.38330
 X23.01670 Y52.31320
 X23.00220 Y52.28970
 X22.97010 Y52.23790
 X22.88290 Y52.07670
 X22.78360 Y51.85710
 X22.70390 Y51.63240
 X22.64390 Y51.40360
 X22.60330 Y51.17220
 X22.58210 Y50.93930
 X22.57990 Y50.70630
 X22.59690 Y50.47420
 X22.63280 Y50.24430
 X22.68740 Y50.01810
 X22.76070 Y49.79640
 X22.85240 Y49.58070
 X22.96250 Y49.37220
 X23.09100 Y49.17210
 X23.23740 Y48.98180
 X23.35890 Y48.84530
 X23.40180 Y48.80220
 X48.80180 Y23.40220
 X48.85260 Y23.35210
 X49.01540 Y23.21140
 X49.24320 Y23.04500
 X49.48330 Y22.90350
 X49.73390 Y22.78720
 X49.99280 Y22.69610
 X50.25810 Y22.63070
 X50.52780 Y22.59140
 X50.73190 Y22.57820
 X50.89640
 X51.18560 Y22.60440
 X51.56670 Y22.68360
 X51.93750 Y22.81580
 X52.20640 Y22.94880
 X52.29110 Y23.00110
 X52.31440 Y23.01570
 X52.38460 Y23.05960
 X52.50540 Y23.13540
 X52.65350 Y23.22870
 X52.82820 Y23.33930
 X53.02900 Y23.46710
 X53.25560 Y23.61180
 X53.50740 Y23.77360
 X53.78420 Y23.95210
 X54.08530 Y24.14740
 X54.41030 Y24.35920
 X54.75890 Y24.58740
 X55.13060 Y24.83190
 X55.52470 Y25.09280
 X55.94130 Y25.36960
 X56.37930 Y25.66250
 X56.83870 Y25.97130
 X57.31900 Y26.29570
 X57.81960 Y26.63580
 X58.34010 Y26.99140
 X58.88030 Y27.36240
 X59.43930 Y27.74880
 X60.01690 Y28.15010
 X60.61280 Y28.56670
 X61.22640 Y28.99810
 X61.85710 Y29.44430
 X62.50470 Y29.90530
 X63.16860 Y30.38070
 X63.84850 Y30.87060
 X64.54370 Y31.37490
 X65.25400 Y31.89330
 X65.97900 Y32.42600
 X66.71810 Y32.97250
 X67.47070 Y33.53310
 X68.23670 Y34.10710
 X69.01540 Y34.69500
 X69.80640 Y35.29630
 X70.60940 Y35.91100
 X71.42370 Y36.53890
 X72.24920 Y37.18010
 X73.08510 Y37.83430
 X73.93110 Y38.50140
 X74.78680 Y39.18130
 X75.65170 Y39.87390
 X76.52540 Y40.57920
 X77.40740 Y41.29680
 X78.29720 Y42.02670
 X79.19440 Y42.76890
 X80.09870 Y43.52320
 X81.00940 Y44.28940
 X81.92640 Y45.06750
 X82.84890 Y45.85740
 X83.77650 Y46.65890
 X84.70890 Y47.47190
 X85.64560 Y48.29630
 X86.58630 Y49.13190
 X87.53010 Y49.97870
 X88.47710 Y50.83670
 X89.42650 Y51.70540
 X90.37810 Y52.58510
 X91.33110 Y53.47540
 X92.28530 Y54.37630
 X93.24030 Y55.28750
 X94.19560 Y56.20920
 X95.15070 Y57.14100
 X96.10510 Y58.08310
 X97.05850 Y59.03500
 X98.01040 Y59.99680
 X98.96030 Y60.96820
 X99.90780 Y61.94940
 X100.85200 Y62.94010
 X101.79400 Y63.94030
 X102.73100 Y64.94960
 X103.66500 Y65.96810
 X104.59300 Y66.99560
 X105.51700 Y68.03210
 X106.43500 Y69.07740
 X107.34800 Y70.13130
 X108.25300 Y71.19390
 X109.15200 Y72.26490
 X110.04400 Y73.34420
 X110.92700 Y74.43170
 X111.80300 Y75.52720
 X112.67000 Y76.63100
 X113.52800 Y77.74240
 X114.37600 Y78.86170
 X115.21400 Y79.98850
 X116.04200 Y81.12280
 X116.85800 Y82.26460
 X117.66400 Y83.41360
 X118.45800 Y84.56970
 X119.23900 Y85.73290
 X120.00800 Y86.90310
 X120.76400 Y88.08000
 X121.50600 Y89.26360
 X122.23400 Y90.45390
 X122.94700 Y91.65060
 X123.64600 Y92.85350
 X124.32900 Y94.06260
 X124.99700 Y95.27790
 X125.64800 Y96.49930
 X126.28200 Y97.72640
 X126.90000 Y98.95920
 X127.50000 Y100.19800
 X128.08100 Y101.44200
 X128.64500 Y102.69100
 X129.18900 Y103.94600
 X129.71400 Y105.20600
 X130.21900 Y106.47100
 X130.70400 Y107.74000
 X131.16800 Y109.01500
 X131.61100 Y110.29400
 X132.03200 Y111.57800
 X132.43100 Y112.86600
 X132.80800 Y114.15900
 X133.16100 Y115.45600
 X133.49200 Y116.75700
 X133.79800 Y118.06200
 X134.08000 Y119.37100
 X134.33800 Y120.68300
 X134.57000 Y121.99900
 X134.77600 Y123.31900
 X134.95700 Y124.64200
 X135.11100 Y125.96800
 X135.23800 Y127.29800
 X135.33700 Y128.63000
 X135.40900 Y129.96600
 X135.45200 Y131.30400
 X135.46700 Y132.31000
 Y132.71700
 X135.45200 Y132.93300
 X135.40900 Y133.21300
 X135.34000 Y133.48300
 X135.24500 Y133.74300
 X135.12600 Y133.98900
 X134.98500 Y134.22200
 X134.82200 Y134.43900
 X134.64000 Y134.64000
 X134.44000 Y134.82200
 X134.22200 Y134.98500
 X133.99000 Y135.12600
 X133.74300 Y135.24500
 X133.48400 Y135.34000
 X133.21300 Y135.41000
 X132.93300 Y135.45300
 X132.71700 Y135.46700
 X132.64400
G0 Z-25.0000
 X47.97780 Y84.66690
G1 Z-41.5000
 X47.71780
 X46.93780 Y84.65940
 X45.91260 Y84.63680
 X44.90280 Y84.59930
 X43.90750 Y84.54740
 X42.92710 Y84.48100
 X41.96140 Y84.40060
 X41.01010 Y84.30620
 X40.07330 Y84.19830
 X39.15080 Y84.07690
 X38.24250 Y83.94250
 X37.34820 Y83.79510
 X36.46790 Y83.63510
 X35.60150 Y83.46260
 X34.74890 Y83.27810
 X33.90990 Y83.08140
 X33.08440 Y82.87320
 X32.27240 Y82.65330
 X31.47380 Y82.42240
 X30.68820 Y82.18030
 X29.91580 Y81.92740
 X29.15640 Y81.66400
 X28.40990 Y81.39040
 X27.67610 Y81.10680
 X26.95500 Y80.81320
 X26.24650 Y80.51010
 X25.55040 Y80.19760
 X24.86670 Y79.87620
 X24.19510 Y79.54580
 X23.53580 Y79.20670
 X22.88830 Y78.85930
 X22.25290 Y78.50380
 X21.62920 Y78.14030
 X21.01720 Y77.76900
 X20.41670 Y77.39040
 X19.82780 Y77.00460
 X19.25010 Y76.61180
 X18.68370 Y76.21240
 X18.12850 Y75.80620
 X17.58420 Y75.39400
 X17.05080 Y74.97570
 X16.52830 Y74.55170
 X16.01650 Y74.12210
 X15.51530 Y73.68720
 X15.02460 Y73.24720
 X14.54420 Y72.80240
 X14.07390 Y72.35310
 X13.61400 Y71.89930
 X13.16400 Y71.44150
 X12.72400 Y70.97970
 X12.29380 Y70.51430
 X11.87330 Y70.04560
 X11.46240 Y69.57360
 X11.06100 Y69.09870
 X10.66900 Y68.62130
 X10.28620 Y68.14120
 X9.91265 Y67.65900
 X9.54813 Y67.17470
 X9.19254 Y66.68870
 X8.84581 Y66.20140
 X8.50776 Y65.71260
 X8.17839 Y65.22290
 X7.85747 Y64.73240
 X7.54497 Y64.24140
 X7.24078 Y63.75000
 X6.94476 Y63.25850
 X6.65679 Y62.76720
 X6.37679 Y62.27630
 X6.10465 Y61.78600
 X5.84022 Y61.29670
 X5.58344 Y60.80830
 X5.33421 Y60.32140
 X5.09233 Y59.83610
 X4.85781 Y59.35250
 X4.63049 Y58.87100
 X4.41021 Y58.39180
 X4.19694 Y57.91530
 X3.99056 Y57.44140
 X3.79090 Y56.97060
 X3.59787 Y56.50290
 X3.41140 Y56.03890
 X3.23133 Y55.57850
 X3.05761 Y55.12210
 X2.89014 Y54.66990
 X2.72874 Y54.22210
 X2.57329 Y53.77900
 X2.42378 Y53.34080
 X2.28000 Y52.90780
 X2.14187 Y52.48010
 X2.00933 Y52.05810
 X1.88222 Y51.64190
 X1.76047 Y51.23180
 X1.64393 Y50.82820
 X1.53250 Y50.43100
 X1.42606 Y50.04070
 X1.32454 Y49.65740
 X1.22781 Y49.28140
 X1.13574 Y48.91290
 X1.04823 Y48.55220
 X0.96522 Y48.19940
 X0.88656 Y47.85500
 X0.81212 Y47.51900
 X0.74181 Y47.19170
 X0.67551 Y46.87350
 X0.61317 Y46.56430
 X0.55458 Y46.26460
 X0.49973 Y45.97460
 X0.44841 Y45.69440
 X0.40061 Y45.42440
 X0.35617 Y45.16470
 X0.31494 Y44.91580
 X0.27691 Y44.67760
 X0.24192 Y44.45060
 X0.20980 Y44.23490
 X0.18056 Y44.03070
 X0.15402 Y43.83830
 X0.13005 Y43.65790
 X0.10862 Y43.48990
 X0.08952 Y43.33430
 X0.07270 Y43.19150
 X0.05805 Y43.06180
 X0.04546 Y42.94510
 X0.03483 Y42.84210
 X0.02599 Y42.75280
 X0.01893 Y42.67720
 X0.01345 Y42.61600
 X0.00949 Y42.56920
 X0.00689 Y42.53690
 X0.00591 Y42.52390
 X0.00564 Y42.51960
 X-0.00011 Y42.43070
 X0.00483 Y42.16240
 X0.04791 Y41.81240
 X0.13336 Y41.47330
 X0.25960 Y41.14870
 X0.42502 Y40.84250
 X0.62809 Y40.55820
 X0.86724 Y40.29930
 X1.06912 Y40.12250
 X1.14090 Y40.06960
 X1.18663 Y40.03540
 X1.32970 Y39.94040
 X1.52724 Y39.82780
 X1.73221 Y39.73190
 X1.94331 Y39.65310
 X2.15913 Y39.59140
 X2.37847 Y39.54710
 X2.59993 Y39.52040
 X2.76660 Y39.51140
 X2.88525
 X3.07454 Y39.52240
 X3.32368 Y39.55580
 X3.57042 Y39.61370
 X3.75549 Y39.67360
 X3.81565 Y39.69740
 X26.39350 Y48.16400
 X26.46110 Y48.18940
 X26.65900 Y48.27900
 X26.90680 Y48.41740
 X27.13600 Y48.57750
 X27.34570 Y48.75740
 X27.53530 Y48.95510
 X27.70360 Y49.16920
 X27.85000 Y49.39760
 X27.97380 Y49.63860
 X28.07360 Y49.89030
 X28.14920 Y50.15080
 X28.19940 Y50.41850
 X28.22350 Y50.69150
 X28.22060 Y50.96780
 X28.18990 Y51.24580
 X28.13040 Y51.52360
 X28.06720 Y51.73180
 X28.04170 Y51.79940
 X28.01630 Y51.86680
 X27.92650 Y52.06390
 X27.78760 Y52.31040
 X27.62690 Y52.53830
 X27.44630 Y52.74680
 X27.24720 Y52.93510
 X27.03220 Y53.10240
 X26.80280 Y53.24780
 X26.56100 Y53.37070
 X26.30860 Y53.47030
 X26.04760 Y53.54570
 X25.78000 Y53.59620
 X25.50740 Y53.62100
 X25.23180 Y53.61930
 X24.95530 Y53.59040
 X24.67960 Y53.53350
 X24.47350 Y53.47250
 X24.40650 Y53.44760
 X6.31011 Y46.65670
 X6.33458 Y46.77470
 X6.41064 Y47.12850
 X6.52056 Y47.61810
 X6.64014 Y48.12440
 X6.76986 Y48.64710
 X6.91004 Y49.18470
 X7.06119 Y49.73710
 X7.22358 Y50.30290
 X7.39768 Y50.88180
 X7.58382 Y51.47260
 X7.78244 Y52.07470
 X7.99397 Y52.68720
 X8.21875 Y53.30940
 X8.45719 Y53.94040
 X8.70969 Y54.57960
 X8.97661 Y55.22600
 X9.25840 Y55.87860
 X9.55544 Y56.53690
 X9.86811 Y57.20030
 X10.19680 Y57.86750
 X10.54190 Y58.53790
 X10.90380 Y59.21080
 X11.28290 Y59.88510
 X11.67970 Y60.56060
 X12.09450 Y61.23580
 X12.52760 Y61.91030
 X12.97950 Y62.58310
 X13.45060 Y63.25360
 X13.94140 Y63.92080
 X14.45210 Y64.58400
 X14.98310 Y65.24250
 X15.53490 Y65.89530
 X16.10790 Y66.54170
 X16.70240 Y67.18080
 X17.31890 Y67.81190
 X17.95780 Y68.43420
 X18.61930 Y69.04680
 X19.30400 Y69.64900
 X20.01220 Y70.23990
 X20.74430 Y70.81880
 X21.50080 Y71.38490
 X22.28190 Y71.93720
 X23.08830 Y72.47500
 X23.92010 Y72.99780
 X24.77780 Y73.50420
 X25.66170 Y73.99390
 X26.57240 Y74.46600
 X27.51010 Y74.91940
 X28.47540 Y75.35360
 X29.46850 Y75.76790
 X30.48990 Y76.16110
 X31.53990 Y76.53260
 X32.61890 Y76.88170
 X33.72750 Y77.20740
 X34.86580 Y77.50900
 X36.03440 Y77.78570
 X37.23360 Y78.03680
 X38.46390 Y78.26130
 X39.72560 Y78.45850
 X41.01920 Y78.62750
 X42.34490 Y78.76760
 X43.70320 Y78.87790
 X45.09440 Y78.95780
 X46.51920 Y79.00630
 X47.61310 Y79.02260
 X48.04990
 X48.26620 Y79.03720
 X48.54650 Y79.07990
 X48.81690 Y79.14940
 X49.07630 Y79.24440
 X49.32290 Y79.36320
 X49.55570 Y79.50460
 X49.77290 Y79.66710
 X49.97330 Y79.84920
 X50.15560 Y80.04970
 X50.31790 Y80.26690
 X50.45930 Y80.49960
 X50.57820 Y80.74630
 X50.67310 Y81.00560
 X50.74260 Y81.27610
 X50.78540 Y81.55620
 X50.80000 Y81.77260
 Y81.91690
 X50.78540 Y82.13320
 X50.74260 Y82.41320
 X50.67310 Y82.68350
 X50.57820 Y82.94280
 X50.45930 Y83.18940
 X50.31790 Y83.42210
 X50.15560 Y83.63940
 X49.97330 Y83.83990
 X49.77290 Y84.02210
 X49.55570 Y84.18460
 X49.32290 Y84.32610
 X49.07630 Y84.44500
 X48.81690 Y84.54000
 X48.54650 Y84.60960
 X48.26620 Y84.65250
 X48.04990 Y84.66690
 X47.97780
G0 Z-25.0000
 X81.84440 Y50.80040
G1 Z-41.5000
 X81.77240
 X81.55610 Y50.78580
 X81.27610 Y50.74290
 X81.00570 Y50.67330
 X80.74650 Y50.57830
 X80.49990 Y50.45940
 X80.26710 Y50.31790
 X80.04990 Y50.15540
 X79.84940 Y49.97320
 X79.66720 Y49.77280
 X79.50460 Y49.55540
 X79.36310 Y49.32260
 X79.24420 Y49.07610
 X79.14930 Y48.81680
 X79.07960 Y48.54650
 X79.03680 Y48.26640
 X79.02220 Y48.05030
 Y47.61490
 X79.00600 Y46.52500
 X78.95750 Y45.10540
 X78.87760 Y43.71890
 X78.76740 Y42.36510
 X78.62740 Y41.04370
 X78.45850 Y39.75430
 X78.26150 Y38.49650
 X78.03720 Y37.26990
 X77.78640 Y36.07420
 X77.50990 Y34.90870
 X77.20850 Y33.77330
 X76.88290 Y32.66760
 X76.53420 Y31.59110
 X76.16280 Y30.54350
 X75.76990 Y29.52430
 X75.35600 Y28.53320
 X74.92210 Y27.56970
 X74.46890 Y26.63360
 X73.99720 Y25.72430
 X73.50790 Y24.84170
 X73.00170 Y23.98500
 X72.47940 Y23.15420
 X71.94180 Y22.34860
 X71.38990 Y21.56810
 X70.82420 Y20.81190
 X70.24570 Y20.08010
 X69.65500 Y19.37210
 X69.05330 Y18.68740
 X68.44100 Y18.02570
 X67.81920 Y17.38650
 X67.18830 Y16.76970
 X66.54960 Y16.17460
 X65.90350 Y15.60100
 X65.25110 Y15.04850
 X64.59310 Y14.51650
 X63.93010 Y14.00490
 X63.26320 Y13.51310
 X62.59310 Y13.04080
 X61.92040 Y12.58760
 X61.24630 Y12.15320
 X60.57120 Y11.73700
 X59.89640 Y11.33870
 X59.22210 Y10.95800
 X58.54940 Y10.59440
 X57.87920 Y10.24760
 X57.21220 Y9.91710
 X56.54920 Y9.60260
 X55.89100 Y9.30371
 X55.23850 Y9.01997
 X54.59220 Y8.75103
 X53.95330 Y8.49653
 X53.32240 Y8.25603
 X52.70010 Y8.02914
 X52.08780 Y7.81554
 X51.48560 Y7.61475
 X50.89490 Y7.42643
 X50.31600 Y7.25017
 X49.75000 Y7.08561
 X49.19760 Y6.93229
 X48.65970 Y6.78988
 X48.13710 Y6.65799
 X47.63040 Y6.53624
 X47.14070 Y6.42421
 X46.78670 Y6.34651
 X46.66860 Y6.32146
 X53.44720 Y24.40650
 X53.47290 Y24.47420
 X53.53610 Y24.68240
 X53.59540 Y24.96010
 X53.62610 Y25.23810
 X53.62900 Y25.51440
 X53.60490 Y25.78720
 X53.55470 Y26.05490
 X53.47920 Y26.31530
 X53.37920 Y26.56690
 X53.25560 Y26.80780
 X53.10920 Y27.03620
 X52.94080 Y27.25030
 X52.75140 Y27.44820
 X52.54170 Y27.62810
 X52.31240 Y27.78820
 X52.06460 Y27.92680
 X51.86670 Y28.01670
 X51.79900 Y28.04190
 X51.73150 Y28.06690
 X51.52420 Y28.12880
 X51.24710 Y28.18650
 X50.96970 Y28.21620
 X50.69360 Y28.21850
 X50.42080 Y28.19420
 X50.15330 Y28.14400
 X49.89260 Y28.06870
 X49.64080 Y27.96930
 X49.39960 Y27.84630
 X49.17080 Y27.70070
 X48.95650 Y27.53310
 X48.75820 Y27.34430
 X48.57810 Y27.13530
 X48.41760 Y26.90670
 X48.27890 Y26.65920
 X48.18900 Y26.46140
 X48.16380 Y26.39370
 X39.69710 Y3.81597
 X39.66570 Y3.73232
 X39.59250 Y3.47342
 X39.53190 Y3.12511
 X39.51500 Y2.77507
 X39.54110 Y2.42736
 X39.61010 Y2.08599
 X39.72170 Y1.75493
 X39.87530 Y1.43821
 X40.01720 Y1.21099
 X40.07070 Y1.13981
 X40.11990 Y1.07281
 X40.28370 Y0.88357
 X40.52330 Y0.65717
 X40.78600 Y0.46197
 X41.06860 Y0.29932
 X41.36780 Y0.17052
 X41.68060 Y0.07682
 X42.00350 Y0.01969
 X42.25080 Y0.00033
 X42.35600
 X42.42360 Y0.00103
 X42.49850 Y0.00434
 X42.51390 Y0.00564
 X42.51830 Y0.00597
 X42.53140 Y0.00694
 X42.56380 Y0.00955
 X42.61070 Y0.01351
 X42.67220 Y0.01899
 X42.74780 Y0.02610
 X42.83740 Y0.03488
 X42.94060 Y0.04557
 X43.05720 Y0.05816
 X43.18720 Y0.07286
 X43.33010 Y0.08968
 X43.48580 Y0.10878
 X43.65390 Y0.13026
 X43.83430 Y0.15424
 X44.02680 Y0.18077
 X44.23110 Y0.21007
 X44.44710 Y0.24219
 X44.67420 Y0.27724
 X44.91250 Y0.31532
 X45.16150 Y0.35650
 X45.42140 Y0.40099
 X45.69140 Y0.44884
 X45.97170 Y0.50016
 X46.26180 Y0.55507
 X46.56150 Y0.61372
 X46.87080 Y0.67611
 X47.18930 Y0.74240
 X47.51670 Y0.81277
 X47.85260 Y0.88726
 X48.19720 Y0.96598
 X48.55000 Y1.04905
 X48.91080 Y1.13656
 X49.27930 Y1.22868
 X49.65540 Y1.32541
 X50.03880 Y1.42703
 X50.42920 Y1.53347
 X50.82640 Y1.64497
 X51.23010 Y1.76156
 X51.64030 Y1.88336
 X52.05650 Y2.01047
 X52.47860 Y2.14307
 X52.90630 Y2.28125
 X53.33940 Y2.42503
 X53.77760 Y2.57465
 X54.22080 Y2.73008
 X54.66860 Y2.89154
 X55.12100 Y3.05914
 X55.57740 Y3.23286
 X56.03780 Y3.41297
 X56.50190 Y3.59950
 X56.96960 Y3.79254
 X57.44040 Y3.99224
 X57.91440 Y4.19868
 X58.39110 Y4.41200
 X58.87030 Y4.63232
 X59.35170 Y4.85969
 X59.83530 Y5.09429
 X60.32070 Y5.33615
 X60.80760 Y5.58544
 X61.29600 Y5.84229
 X61.78540 Y6.10672
 X62.27570 Y6.37890
 X62.76670 Y6.65890
 X63.25790 Y6.94694
 X63.74940 Y7.24300
 X64.24080 Y7.54725
 X64.73190 Y7.85975
 X65.22250 Y8.18072
 X65.71220 Y8.51014
 X66.20100 Y8.84819
 X66.68850 Y9.19493
 X67.17430 Y9.55057
 X67.65860 Y9.91515
 X68.14080 Y10.28870
 X68.62080 Y10.67150
 X69.09850 Y11.06350
 X69.57330 Y11.46500
 X70.04530 Y11.87590
 X70.51400 Y12.29640
 X70.97940 Y12.72660
 X71.44130 Y13.16670
 X71.89900 Y13.61660
 X72.35280 Y14.07670
 X72.80210 Y14.54680
 X73.24690 Y15.02720
 X73.68690 Y15.51790
 X74.12180 Y16.01920
 X74.55140 Y16.53100
 X74.97540 Y17.05360
 X75.39380 Y17.58680
 X75.80610 Y18.13110
 X76.21210 Y18.68640
 X76.61150 Y19.25280
 X77.00430 Y19.83040
 X77.39010 Y20.41930
 X77.76880 Y21.01990
 X78.14000 Y21.63180
 X78.50350 Y22.25540
 X78.85900 Y22.89100
 X79.20640 Y23.53830
 X79.54540 Y24.19760
 X79.87580 Y24.86920
 X80.19740 Y25.55280
 X80.50990 Y26.24890
 X80.81290 Y26.95740
 X81.10640 Y27.67850
 X81.39010 Y28.41210
 X81.66380 Y29.15860
 X81.92710 Y29.91790
 X82.17990 Y30.69030
 X82.42190 Y31.47570
 X82.65310 Y32.27430
 X82.87280 Y33.08620
 X83.08110 Y33.91170
 X83.27780 Y34.75070
 X83.46240 Y35.60320
 X83.63490 Y36.46960
 X83.79490 Y37.34970
 X83.94220 Y38.24390
 X84.07670 Y39.15220
 X84.19790 Y40.07460
 X84.30580 Y41.01140
 X84.40010 Y41.96250
 X84.48060 Y42.92820
 X84.54690 Y43.90850
 X84.59900 Y44.90350
 X84.63640 Y45.91350
 X84.65900 Y46.93820
 X84.66670 Y47.71820
 Y48.05030
 X84.65210 Y48.26640
 X84.60930 Y48.54650
 X84.53970 Y48.81680
 X84.44490 Y49.07610
 X84.32600 Y49.32260
 X84.18460 Y49.55540
 X84.02210 Y49.77280
 X83.84000 Y49.97320
 X83.63960 Y50.15540
 X83.42240 Y50.31790
 X83.18960 Y50.45940
 X82.94290 Y50.57830
 X82.68360 Y50.67330
 X82.41320 Y50.74290
 X82.13290 Y50.78580
 X81.91650 Y50.80040
 X81.84440
G0 Z-25.0000
 X33.13360 Y33.04290
G1 Z-41.5000
 X33.09940 Y33.07670
 X32.91440 Y33.23390
 X32.71280 Y33.37690
 X32.67040 Y33.40380
 X32.42180 Y33.64610
 X31.65650 Y34.35280
 X30.64710 Y35.22060
 X29.64240 Y36.00710
 X28.64260 Y36.71220
 X27.64830 Y37.33600
 X26.65960 Y37.87850
 X25.67670 Y38.33960
 X24.70010 Y38.71920
 X23.73000 Y39.01740
 X22.76680 Y39.23420
 X21.81070 Y39.36940
 X20.86210 Y39.42320
 X19.92120 Y39.39540
 X18.98830 Y39.28600
 X18.06390 Y39.09510
 X17.37380 Y38.90010
 X17.14820 Y38.82250
 X16.99760 Y38.77080
 X16.55220 Y38.59880
 X15.96930 Y38.34140
 X15.39930 Y38.05170
 X14.84210 Y37.73070
 X14.29750 Y37.37940
 X13.76540 Y36.99900
 X13.24580 Y36.59080
 X12.73830 Y36.15560
 X12.24310 Y35.69460
 X11.75980 Y35.20900
 X11.28850 Y34.69990
 X10.82880 Y34.16830
 X10.38090 Y33.61540
 X9.94444 Y33.04240
 X9.51938 Y32.45030
 X9.10558 Y31.84000
 X8.70290 Y31.21310
 X8.31125 Y30.57030
 X7.93050 Y29.91280
 X7.56049 Y29.24180
 X7.20111 Y28.55850
 X6.85226 Y27.86360
 X6.51378 Y27.15880
 X6.18554 Y26.44470
 X5.86740 Y25.72260
 X5.55935 Y24.99380
 X5.26112 Y24.25900
 X4.97265 Y23.51970
 X4.69379 Y22.77680
 X4.42449 Y22.03150
 X4.16456 Y21.28500
 X3.91385 Y20.53810
 X3.67225 Y19.79220
 X3.43967 Y19.04820
 X3.21593 Y18.30740
 X3.00097 Y17.57070
 X2.79465 Y16.83960
 X2.59679 Y16.11470
 X2.40733 Y15.39750
 X2.22607 Y14.68890
 X2.05300 Y13.99010
 X1.88786 Y13.30220
 X1.73063 Y12.62630
 X1.58111 Y11.96350
 X1.43924 Y11.31500
 X1.30480 Y10.68180
 X1.17779 Y10.06500
 X1.05800 Y9.46582
 X0.94531 Y8.88525
 X0.83963 Y8.32449
 X0.74078 Y7.78461
 X0.64871 Y7.26676
 X0.56321 Y6.77197
 X0.48421 Y6.30143
 X0.41157 Y5.85622
 X0.34516 Y5.43750
 X0.28488 Y5.04628
 X0.23052 Y4.68371
 X0.18207 Y4.35092
 X0.13938 Y4.04904
 X0.10221 Y3.77914
 X0.07058 Y3.54237
 X0.04433 Y3.33979
 X0.02843 Y3.21436
 X0.02327 Y3.17253
 X0.01383 Y3.09831
 X0.01080 Y2.87240
 X0.04590 Y2.57503
 X0.12272 Y2.28250
 X0.23530 Y1.99690
 X0.37788 Y1.72026
 X0.54438 Y1.45464
 X0.72911 Y1.20215
 X0.87516 Y1.02279
 X0.92605 Y0.96484
 X0.97743 Y0.90755
 X1.14882 Y0.75109
 X1.40619 Y0.56293
 X1.69086 Y0.40137
 X1.99556 Y0.26720
 X2.31299 Y0.16135
 X2.63585 Y0.08469
 X2.95688 Y0.03803
 X3.19081 Y0.02224
 X3.26882
 X3.31065 Y0.02751
 X3.43631 Y0.04362
 X3.63911 Y0.07020
 X3.87614 Y0.10211
 X4.14621 Y0.13949
 X4.44829 Y0.18245
 X4.78125 Y0.23117
 X5.14393 Y0.28570
 X5.53532 Y0.34619
 X5.95421 Y0.41276
 X6.39953 Y0.48557
 X6.87017 Y0.56473
 X7.36501 Y0.65034
 X7.88297 Y0.74257
 X8.42290 Y0.84152
 X8.98372 Y0.94737
 X9.56429 Y1.06011
 X10.16350 Y1.18001
 X10.78030 Y1.30713
 X11.41350 Y1.44162
 X12.06210 Y1.58361
 X12.72480 Y1.73318
 X13.40070 Y1.89046
 X14.08850 Y2.05561
 X14.78720 Y2.22879
 X15.49580 Y2.41004
 X16.21290 Y2.59956
 X16.93760 Y2.79747
 X17.66880 Y3.00379
 X18.40530 Y3.21881
 X19.14600 Y3.44254
 X19.88990 Y3.67513
 X20.63570 Y3.91678
 X21.38240 Y4.16749
 X22.12880 Y4.42746
 X22.87400 Y4.69683
 X23.61670 Y4.97569
 X24.35580 Y5.26417
 X25.09030 Y5.56239
 X25.81900 Y5.87056
 X26.54100 Y6.18864
 X27.25470 Y6.51693
 X27.95940 Y6.85547
 X28.65400 Y7.20438
 X29.33720 Y7.56381
 X30.00790 Y7.93386
 X30.66510 Y8.31467
 X31.30780 Y8.70638
 X31.93460 Y9.10910
 X32.54460 Y9.52300
 X33.13640 Y9.94814
 X33.70930 Y10.38470
 X34.26190 Y10.83270
 X34.79320 Y11.29250
 X35.30210 Y11.76390
 X35.78750 Y12.24730
 X36.24820 Y12.74280
 X36.68310 Y13.25030
 X37.09110 Y13.77020
 X37.47120 Y14.30250
 X37.82220 Y14.84720
 X38.14310 Y15.40470
 X38.43250 Y15.97490
 X38.68960 Y16.55810
 X38.86170 Y17.00380
 X38.91320 Y17.15420
 X38.99280 Y17.38600
 X39.19190 Y18.09490
 X39.38490 Y19.04350
 X39.49220 Y19.99990
 X39.51390 Y20.96380
 X39.45030 Y21.93510
 X39.30110 Y22.91350
 X39.06670 Y23.89870
 X38.74710 Y24.89070
 X38.34240 Y25.88930
 X37.85260 Y26.89400
 X37.27790 Y27.90490
 X36.61830 Y28.92170
 X35.87400 Y29.94390
 X35.04510 Y30.97180
 X34.13150 Y32.00490
 X33.38810 Y32.78850
 X33.13360 Y33.04290
G0 Z-25.0000
M5 (stop spindle)
G04 P3 (wait for 3 seconds)
G0 Z-25.0000
M2 (end program)
