$X
$H
G10 P0 L20 X0 Y0 Z0
G40 (disable tool radius compensation)
G49 (disable tool length compensation)
G80 (cancel modal motion)
G54 (select coordinate system 1)
G90 (disable incremental moves)
G21 (metric)
F300.00000
S250.00000
G61 (exact path mode)
;PYCAM_TOOLPATH_SETTINGS: START
;[Bounds]
;maxz = 0.0
;maxx = 109.608
;maxy = 114.332
;minx = 4.72618
;miny = 0.0
;minz = 0.0
;
;[Tool]
;torus_radius = 0.125
;shape = CylindricalCutter
;tool_radius = 1.5875
;feedrate = 300.0
;
;[Process]
;engrave_offset = 0.0
;step_down = 3.0
;generator = EngraveCutter
;postprocessor = SimpleCutter
;overlap_percent = 0
;milling_style = ignore
;material_allowance = 0.0
;pocketing_type = none
;path_direction = x
;
;PYCAM_TOOLPATH_SETTINGS: END
G0 Z-25.0000
M3 (start spindle)
G04 P3 (wait for 3 seconds)
 X72.47250 Y74.78070
G1 Z-53.0000
 Y74.74030
 X72.48070 Y74.61850
 X72.50470 Y74.46080
 X72.54390 Y74.30880
 X72.59720 Y74.16290
 X72.66420 Y74.02420
 X72.74360 Y73.89320
 X72.83510 Y73.77110
 X72.93750 Y73.65830
 X73.05030 Y73.55580
 X73.17250 Y73.46440
 X73.30330 Y73.38490
 X73.44210 Y73.31810
 X73.58810 Y73.26460
 X73.74010 Y73.22560
 X73.89780 Y73.20150
 X74.01940 Y73.19320
 X74.10070
 X74.22250 Y73.20150
 X74.38030 Y73.22560
 X74.53250 Y73.26460
 X74.67830 Y73.31810
 X74.81720 Y73.38490
 X74.94810 Y73.46440
 X75.07030 Y73.55580
 X75.18290 Y73.65830
 X75.28530 Y73.77110
 X75.37670 Y73.89320
 X75.45610 Y74.02420
 X75.52290 Y74.16290
 X75.57630 Y74.30880
 X75.61530 Y74.46080
 X75.63940 Y74.61850
 X75.64760 Y74.74030
 Y74.86400
 X75.63920 Y75.11390
 X75.61400 Y75.44260
 X75.57260 Y75.76670
 X75.51570 Y76.08560
 X75.44310 Y76.39890
 X75.35570 Y76.70630
 X75.25350 Y77.00740
 X75.13740 Y77.30150
 X75.00740 Y77.58860
 X74.86400 Y77.86810
 X74.70780 Y78.13960
 X74.53890 Y78.40250
 X74.35810 Y78.65680
 X74.16540 Y78.90180
 X73.96150 Y79.13710
 X73.74680 Y79.36240
 X73.52150 Y79.57710
 X73.28620 Y79.78100
 X73.04130 Y79.97360
 X72.78690 Y80.15460
 X72.52400 Y80.32330
 X72.25250 Y80.47960
 X71.97310 Y80.62290
 X71.68600 Y80.75290
 X71.39180 Y80.86900
 X71.09070 Y80.97130
 X70.78330 Y81.05860
 X70.47000 Y81.13130
 X70.15110 Y81.18820
 X69.82710 Y81.22960
 X69.49830 Y81.25470
 X69.24850 Y81.26310
 X69.08190
 X68.83220 Y81.25470
 X68.50360 Y81.22960
 X68.17960 Y81.18820
 X67.86080 Y81.13130
 X67.54750 Y81.05860
 X67.24010 Y80.97130
 X66.93920 Y80.86900
 X66.64490 Y80.75290
 X66.35790 Y80.62290
 X66.07830 Y80.47960
 X65.80690 Y80.32330
 X65.54390 Y80.15460
 X65.28970 Y79.97360
 X65.04470 Y79.78100
 X64.80940 Y79.57710
 X64.58400 Y79.36240
 X64.36930 Y79.13710
 X64.16540 Y78.90180
 X63.97280 Y78.65680
 X63.79180 Y78.40250
 X63.62310 Y78.13960
 X63.46670 Y77.86810
 X63.32330 Y77.58860
 X63.19330 Y77.30150
 X63.07710 Y77.00740
 X62.97500 Y76.70630
 X62.88750 Y76.39890
 X62.81500 Y76.08560
 X62.75780 Y75.76670
 X62.71650 Y75.44260
 X62.69140 Y75.11390
 X62.68310 Y74.86400
 Y74.74030
 X62.69130 Y74.61850
 X62.71530 Y74.46080
 X62.75430 Y74.30880
 X62.80780 Y74.16290
 X62.87460 Y74.02420
 X62.95420 Y73.89320
 X63.04560 Y73.77110
 X63.14790 Y73.65830
 X63.26070 Y73.55580
 X63.38290 Y73.46440
 X63.51380 Y73.38490
 X63.65250 Y73.31810
 X63.79830 Y73.26460
 X63.95060 Y73.22560
 X64.10820 Y73.20150
 X64.22990 Y73.19320
 X64.31100
 X64.43290 Y73.20150
 X64.59070 Y73.22560
 X64.74280 Y73.26460
 X64.88880 Y73.31810
 X65.02750 Y73.38490
 X65.15850 Y73.46440
 X65.28070 Y73.55580
 X65.39330 Y73.65830
 X65.49570 Y73.77110
 X65.58710 Y73.89320
 X65.66650 Y74.02420
 X65.73330 Y74.16290
 X65.78670 Y74.30880
 X65.82570 Y74.46080
 X65.84970 Y74.61850
 X65.85790 Y74.74030
 Y74.86530
 X65.87500 Y75.11860
 X65.92530 Y75.44670
 X66.00690 Y75.76330
 X66.11830 Y76.06720
 X66.25780 Y76.35610
 X66.42360 Y76.62890
 X66.61430 Y76.88360
 X66.82790 Y77.11850
 X67.06290 Y77.33210
 X67.31760 Y77.52260
 X67.59030 Y77.68850
 X67.87930 Y77.82790
 X68.18310 Y77.93920
 X68.49970 Y78.02080
 X68.82760 Y78.07100
 X69.08080 Y78.08810
 X69.24970
 X69.50290 Y78.07100
 X69.83110 Y78.02080
 X70.14780 Y77.93920
 X70.45170 Y77.82790
 X70.74060 Y77.68850
 X71.01330 Y77.52260
 X71.26810 Y77.33210
 X71.50290 Y77.11850
 X71.71650 Y76.88360
 X71.90710 Y76.62890
 X72.07290 Y76.35610
 X72.21240 Y76.06720
 X72.32360 Y75.76330
 X72.40530 Y75.44670
 X72.45540 Y75.11860
 X72.47250 Y74.86530
 Y74.78070
G0 Z-25.0000
 X91.39140 Y81.26310
G1 Z-53.0000
 X91.30810
 X91.05820 Y81.25470
 X90.72940 Y81.22960
 X90.40540 Y81.18820
 X90.08650 Y81.13130
 X89.77320 Y81.05860
 X89.46580 Y80.97130
 X89.16490 Y80.86900
 X88.87060 Y80.75290
 X88.58350 Y80.62290
 X88.30400 Y80.47960
 X88.03260 Y80.32330
 X87.76960 Y80.15460
 X87.51540 Y79.97360
 X87.27040 Y79.78100
 X87.03510 Y79.57710
 X86.81000 Y79.36240
 X86.59510 Y79.13710
 X86.39120 Y78.90180
 X86.19880 Y78.65680
 X86.01790 Y78.40250
 X85.84900 Y78.13960
 X85.69280 Y77.86810
 X85.54940 Y77.58860
 X85.41960 Y77.30150
 X85.30330 Y77.00740
 X85.20130 Y76.70630
 X85.11370 Y76.39890
 X85.04130 Y76.08560
 X84.98420 Y75.76670
 X84.94290 Y75.44260
 X84.91780 Y75.11390
 X84.90940 Y74.86400
 Y74.74030
 X84.91760 Y74.61850
 X84.94170 Y74.46080
 X84.98070 Y74.30880
 X85.03420 Y74.16290
 X85.10100 Y74.02420
 X85.18060 Y73.89320
 X85.27190 Y73.77110
 X85.37430 Y73.65830
 X85.48710 Y73.55580
 X85.60930 Y73.46440
 X85.74030 Y73.38490
 X85.87900 Y73.31810
 X86.02490 Y73.26460
 X86.17690 Y73.22560
 X86.33460 Y73.20150
 X86.45640 Y73.19320
 X86.53750
 X86.65920 Y73.20150
 X86.81670 Y73.22560
 X86.96880 Y73.26460
 X87.11460 Y73.31810
 X87.25330 Y73.38490
 X87.38420 Y73.46440
 X87.50640 Y73.55580
 X87.61920 Y73.65830
 X87.72170 Y73.77110
 X87.81310 Y73.89320
 X87.89260 Y74.02420
 X87.95960 Y74.16290
 X88.01290 Y74.30880
 X88.05210 Y74.46080
 X88.07610 Y74.61850
 X88.08430 Y74.74030
 Y74.86530
 X88.10140 Y75.11860
 X88.15170 Y75.44670
 X88.23330 Y75.76330
 X88.34470 Y76.06720
 X88.48420 Y76.35610
 X88.65000 Y76.62890
 X88.84070 Y76.88360
 X89.05430 Y77.11850
 X89.28920 Y77.33210
 X89.54390 Y77.52260
 X89.81650 Y77.68850
 X90.10560 Y77.82790
 X90.40920 Y77.93920
 X90.72580 Y78.02080
 X91.05380 Y78.07100
 X91.30690 Y78.08810
 X91.47570
 X91.72920 Y78.07100
 X92.05740 Y78.02080
 X92.37400 Y77.93920
 X92.67790 Y77.82790
 X92.96690 Y77.68850
 X93.23960 Y77.52260
 X93.49430 Y77.33210
 X93.72930 Y77.11850
 X93.94290 Y76.88360
 X94.13350 Y76.62890
 X94.29930 Y76.35610
 X94.43870 Y76.06720
 X94.55000 Y75.76330
 X94.63170 Y75.44670
 X94.68180 Y75.11860
 X94.69890 Y74.86530
 Y74.74030
 X94.70710 Y74.61850
 X94.73120 Y74.46080
 X94.77030 Y74.30880
 X94.82360 Y74.16290
 X94.89060 Y74.02420
 X94.97000 Y73.89320
 X95.06150 Y73.77110
 X95.16390 Y73.65830
 X95.27670 Y73.55580
 X95.39890 Y73.46440
 X95.52970 Y73.38490
 X95.66860 Y73.31810
 X95.81440 Y73.26460
 X95.96650 Y73.22560
 X96.12420 Y73.20150
 X96.24580 Y73.19320
 X96.32690
 X96.44860 Y73.20150
 X96.60620 Y73.22560
 X96.75830 Y73.26460
 X96.90420 Y73.31810
 X97.04290 Y73.38490
 X97.17390 Y73.46440
 X97.29610 Y73.55580
 X97.40880 Y73.65830
 X97.51130 Y73.77110
 X97.60260 Y73.89320
 X97.68220 Y74.02420
 X97.74920 Y74.16290
 X97.80250 Y74.30880
 X97.84170 Y74.46080
 X97.86570 Y74.61850
 X97.87400 Y74.74030
 Y74.86400
 X97.86560 Y75.11390
 X97.84040 Y75.44260
 X97.79920 Y75.76670
 X97.74210 Y76.08560
 X97.66940 Y76.39890
 X97.58210 Y76.70630
 X97.48000 Y77.00740
 X97.36370 Y77.30150
 X97.23380 Y77.58860
 X97.09040 Y77.86810
 X96.93420 Y78.13960
 X96.76540 Y78.40250
 X96.58440 Y78.65680
 X96.39180 Y78.90180
 X96.18790 Y79.13710
 X95.97320 Y79.36240
 X95.74790 Y79.57710
 X95.51250 Y79.78100
 X95.26760 Y79.97360
 X95.01330 Y80.15460
 X94.75030 Y80.32330
 X94.47890 Y80.47960
 X94.19940 Y80.62290
 X93.91220 Y80.75290
 X93.61810 Y80.86900
 X93.31690 Y80.97130
 X93.00960 Y81.05860
 X92.69620 Y81.13130
 X92.37720 Y81.18820
 X92.05320 Y81.22960
 X91.72440 Y81.25470
 X91.47460 Y81.26310
 X91.39140
G0 Z-25.0000
 X93.90370 Y66.04250
G1 Z-53.0000
 X93.86320
 X93.74130 Y66.03430
 X93.58350 Y66.01030
 X93.43120 Y65.97110
 X93.28530 Y65.91760
 X93.14650 Y65.85080
 X93.01570 Y65.77120
 X92.89350 Y65.67990
 X92.78070 Y65.57740
 X92.67830 Y65.46460
 X92.58710 Y65.34240
 X92.50760 Y65.21150
 X92.44080 Y65.07280
 X92.38750 Y64.92690
 X92.34850 Y64.77490
 X92.32440 Y64.61720
 X92.31630 Y64.49560
 Y64.33860
 X92.29260 Y63.98960
 X92.22350 Y63.53750
 X92.11100 Y63.10100
 X91.95750 Y62.68240
 X91.76530 Y62.28390
 X91.53670 Y61.90810
 X91.27400 Y61.55710
 X90.97960 Y61.23320
 X90.65570 Y60.93870
 X90.30460 Y60.67600
 X89.92880 Y60.44740
 X89.53040 Y60.25530
 X89.11180 Y60.10170
 X88.67530 Y59.98920
 X88.22310 Y59.92000
 X87.87400 Y59.89640
 X87.64140
 X87.29220 Y59.92000
 X86.84010 Y59.98920
 X86.40360 Y60.10170
 X85.98500 Y60.25530
 X85.58650 Y60.44740
 X85.21070 Y60.67600
 X84.85970 Y60.93870
 X84.53580 Y61.23320
 X84.24140 Y61.55710
 X83.97860 Y61.90810
 X83.75010 Y62.28390
 X83.55790 Y62.68240
 X83.40430 Y63.10100
 X83.29190 Y63.53750
 X83.22260 Y63.98960
 X83.19920 Y64.33860
 Y64.49560
 X83.19080 Y64.61720
 X83.16680 Y64.77490
 X83.12760 Y64.92690
 X83.07430 Y65.07280
 X83.00740 Y65.21150
 X82.92780 Y65.34240
 X82.83640 Y65.46460
 X82.73390 Y65.57740
 X82.62130 Y65.67990
 X82.49900 Y65.77120
 X82.36810 Y65.85080
 X82.22930 Y65.91760
 X82.08350 Y65.97110
 X81.93140 Y66.01030
 X81.77380 Y66.03430
 X81.65210 Y66.04250
 X81.57100
 X81.44920 Y66.03430
 X81.29140 Y66.01030
 X81.13920 Y65.97110
 X80.99320 Y65.91760
 X80.85440 Y65.85080
 X80.72360 Y65.77120
 X80.60140 Y65.67990
 X80.48860 Y65.57740
 X80.38630 Y65.46460
 X80.29490 Y65.34240
 X80.21560 Y65.21150
 X80.14880 Y65.07280
 X80.09540 Y64.92690
 X80.05620 Y64.77490
 X80.03220 Y64.61720
 X80.02400 Y64.49560
 Y64.33860
 X80.00060 Y63.98960
 X79.93120 Y63.53750
 X79.81880 Y63.10100
 X79.66530 Y62.68240
 X79.47310 Y62.28390
 X79.24440 Y61.90810
 X78.98180 Y61.55710
 X78.68740 Y61.23320
 X78.36350 Y60.93870
 X78.01240 Y60.67600
 X77.63650 Y60.44740
 X77.23820 Y60.25530
 X76.81960 Y60.10170
 X76.38310 Y59.98920
 X75.93080 Y59.92000
 X75.58180 Y59.89640
 X75.34920
 X75.00000 Y59.92000
 X74.54790 Y59.98920
 X74.11140 Y60.10170
 X73.69280 Y60.25530
 X73.29440 Y60.44740
 X72.91850 Y60.67600
 X72.56750 Y60.93870
 X72.24360 Y61.23320
 X71.94920 Y61.55710
 X71.68650 Y61.90810
 X71.45790 Y62.28390
 X71.26570 Y62.68240
 X71.11220 Y63.10100
 X70.99970 Y63.53750
 X70.93040 Y63.98960
 X70.90690 Y64.33860
 Y64.49560
 X70.89860 Y64.61720
 X70.87460 Y64.77490
 X70.83540 Y64.92690
 X70.78210 Y65.07280
 X70.71510 Y65.21150
 X70.63570 Y65.34240
 X70.54420 Y65.46460
 X70.44180 Y65.57740
 X70.32900 Y65.67990
 X70.20680 Y65.77120
 X70.07580 Y65.85080
 X69.93720 Y65.91760
 X69.79140 Y65.97110
 X69.63920 Y66.01030
 X69.48170 Y66.03430
 X69.36000 Y66.04250
 X69.27890
 X69.15720 Y66.03430
 X68.99960 Y66.01030
 X68.84750 Y65.97110
 X68.70170 Y65.91760
 X68.56290 Y65.85080
 X68.43210 Y65.77120
 X68.30970 Y65.67990
 X68.19710 Y65.57740
 X68.09460 Y65.46460
 X68.00320 Y65.34240
 X67.92360 Y65.21150
 X67.85670 Y65.07280
 X67.80330 Y64.92690
 X67.76420 Y64.77490
 X67.74010 Y64.61720
 X67.73190 Y64.49560
 Y64.35570
 X67.74190 Y64.05750
 X67.77190 Y63.66530
 X67.82120 Y63.27860
 X67.88930 Y62.89820
 X67.97570 Y62.52430
 X68.08010 Y62.15750
 X68.20190 Y61.79830
 X68.34060 Y61.44720
 X68.49560 Y61.10490
 X68.66650 Y60.77140
 X68.85290 Y60.44750
 X69.05430 Y60.13370
 X69.27010 Y59.83040
 X69.49990 Y59.53820
 X69.74310 Y59.25750
 X69.99930 Y58.98870
 X70.26810 Y58.73260
 X70.54870 Y58.48930
 X70.84100 Y58.25960
 X71.14420 Y58.04370
 X71.45810 Y57.84240
 X71.78180 Y57.65600
 X72.11530 Y57.48500
 X72.45780 Y57.33000
 X72.80880 Y57.19140
 X73.16790 Y57.06960
 X73.53470 Y56.96530
 X73.90860 Y56.87880
 X74.28920 Y56.81070
 X74.67570 Y56.76140
 X75.06810 Y56.73140
 X75.36610 Y56.72140
 X75.58190
 X75.93140 Y56.73530
 X76.39000 Y56.77620
 X76.84070 Y56.84390
 X77.28250 Y56.93690
 X77.71490 Y57.05500
 X78.13670 Y57.19690
 X78.54750 Y57.36220
 X78.94620 Y57.55000
 X79.33240 Y57.75940
 X79.70490 Y57.98970
 X80.06310 Y58.24010
 X80.40610 Y58.50970
 X80.73330 Y58.79790
 X81.04370 Y59.10380
 X81.33680 Y59.42650
 X81.54530 Y59.67890
 X81.61170 Y59.76560
 X81.67780 Y59.67900
 X81.88610 Y59.42650
 X82.17900 Y59.10380
 X82.48930 Y58.79790
 X82.81650 Y58.50970
 X83.15960 Y58.24010
 X83.51780 Y57.98970
 X83.89030 Y57.75940
 X84.27640 Y57.55000
 X84.67530 Y57.36220
 X85.08610 Y57.19690
 X85.50810 Y57.05500
 X85.94040 Y56.93690
 X86.38240 Y56.84390
 X86.83310 Y56.77620
 X87.29180 Y56.73530
 X87.64120 Y56.72140
 X87.85690
 X88.15500 Y56.73140
 X88.54710 Y56.76140
 X88.93380 Y56.81070
 X89.31420 Y56.87880
 X89.68790 Y56.96530
 X90.05460 Y57.06960
 X90.41380 Y57.19140
 X90.76490 Y57.33000
 X91.10720 Y57.48500
 X91.44070 Y57.65600
 X91.76460 Y57.84240
 X92.07830 Y58.04370
 X92.38170 Y58.25960
 X92.67390 Y58.48930
 X92.95460 Y58.73260
 X93.22330 Y58.98870
 X93.47960 Y59.25750
 X93.72290 Y59.53820
 X93.95260 Y59.83040
 X94.16860 Y60.13370
 X94.37000 Y60.44750
 X94.55640 Y60.77140
 X94.72740 Y61.10490
 X94.88250 Y61.44720
 X95.02110 Y61.79830
 X95.14290 Y62.15750
 X95.24740 Y62.52430
 X95.33390 Y62.89820
 X95.40190 Y63.27860
 X95.45130 Y63.66530
 X95.48120 Y64.05750
 X95.49140 Y64.35570
 Y64.49560
 X95.48310 Y64.61720
 X95.45900 Y64.77490
 X95.41990 Y64.92690
 X95.36650 Y65.07280
 X95.29960 Y65.21150
 X95.22000 Y65.34240
 X95.12860 Y65.46460
 X95.02610 Y65.57740
 X94.91350 Y65.67990
 X94.79110 Y65.77120
 X94.66030 Y65.85080
 X94.52150 Y65.91760
 X94.37570 Y65.97110
 X94.22360 Y66.01030
 X94.06600 Y66.03430
 X93.94430 Y66.04250
 X93.90370
G0 Z-25.0000
 X107.62800 Y59.22680
G1 Z-53.0000
 X107.67200 Y59.34970
 X107.80300 Y59.71940
 X107.97500 Y60.22610
 X108.14400 Y60.74580
 X108.30700 Y61.27850
 X108.46500 Y61.82310
 X108.61600 Y62.37920
 X108.76000 Y62.94640
 X108.89600 Y63.52390
 X109.02200 Y64.11140
 X109.13900 Y64.70790
 X109.24400 Y65.31330
 X109.33800 Y65.92680
 X109.42000 Y66.54780
 X109.48800 Y67.17570
 X109.54100 Y67.81010
 X109.58000 Y68.45030
 X109.60300 Y69.09570
 X109.60800 Y69.74580
 X109.59700 Y70.40010
 X109.56600 Y71.05790
 X109.51600 Y71.71880
 X109.44600 Y72.38180
 X109.35500 Y73.04680
 X109.24200 Y73.71310
 X109.10600 Y74.38000
 X108.94600 Y75.04710
 X108.76200 Y75.71360
 X108.55200 Y76.37920
 X108.31700 Y77.04310
 X108.05300 Y77.70490
 X107.76200 Y78.36370
 X107.52600 Y78.85710
 X107.44300 Y79.01940
 X107.31500 Y79.26890
 X106.96500 Y80.03400
 X106.54900 Y81.08750
 X106.19500 Y82.17600
 X105.90500 Y83.29560
 X105.68000 Y84.44220
 X105.52000 Y85.61210
 X105.42600 Y86.80120
 X105.39800 Y87.70460
 X105.39900 Y88.00570
 X105.40200 Y88.39930
 X105.40900 Y89.58000
 X105.42100 Y91.15760
 X105.43500 Y92.73400
 X105.44900 Y94.30440
 X105.46500 Y95.86400
 X105.48200 Y97.40820
 X105.50000 Y98.93210
 X105.51800 Y100.43100
 X105.53800 Y101.90000
 X105.55700 Y103.33500
 X105.57700 Y104.73100
 X105.59700 Y106.08300
 X105.61700 Y107.38600
 X105.63700 Y108.63600
 X105.65600 Y109.82800
 X105.67000 Y110.67400
 X105.67500 Y110.95700
 X105.67600 Y111.02000
 X105.67000 Y111.21100
 X105.64600 Y111.46200
 X105.60300 Y111.70700
 X105.54400 Y111.94700
 X105.46700 Y112.17900
 X105.37300 Y112.40500
 X105.26300 Y112.62200
 X105.13700 Y112.83100
 X104.99700 Y113.02900
 X104.84200 Y113.21700
 X104.67300 Y113.39300
 X104.49000 Y113.55700
 X104.29500 Y113.70800
 X104.08700 Y113.84500
 X103.86800 Y113.96700
 X103.69500 Y114.04900
 X103.63700 Y114.07400
 X103.57800 Y114.09800
 X103.39800 Y114.16300
 X103.15700 Y114.23300
 X102.91300 Y114.28500
 X102.66800 Y114.31800
 X102.42300 Y114.33200
 X102.17900 Y114.32800
 X101.93600 Y114.30700
 X101.69600 Y114.26700
 X101.45900 Y114.21000
 X101.22700 Y114.13500
 X101.00100 Y114.04300
 X100.78100 Y113.93400
 X100.56800 Y113.80800
 X100.36400 Y113.66600
 X100.16800 Y113.50700
 X100.02800 Y113.37700
 X99.98360 Y113.33100
 X86.85210 Y99.90920
 X86.78580 Y99.92580
 X86.58680 Y99.97440
 X86.29240 Y100.04300
 X85.96960 Y100.11400
 X85.61890 Y100.18500
 X85.24110 Y100.25700
 X84.83680 Y100.32800
 X84.40650 Y100.39700
 X83.95110 Y100.46300
 X83.47100 Y100.52500
 X82.96710 Y100.58100
 X82.43970 Y100.63200
 X81.88970 Y100.67600
 X81.31780 Y100.71100
 X80.72440 Y100.73800
 X80.11040 Y100.75400
 X79.47640 Y100.75900
 X78.82280 Y100.75200
 X78.15060 Y100.73100
 X77.46010 Y100.69700
 X76.75220 Y100.64700
 X76.02740 Y100.58000
 X75.28650 Y100.49700
 X74.53000 Y100.39500
 X73.75850 Y100.27300
 X72.97290 Y100.13200
 X72.17360 Y99.96830
 X71.36140 Y99.78260
 X70.53680 Y99.57350
 X69.70060 Y99.33990
 X68.85330 Y99.08060
 X67.99570 Y98.79490
 X67.34420 Y98.56250
 X67.12830 Y98.48140
 X67.03930 Y98.56780
 X66.77150 Y98.82570
 X66.39680 Y99.18380
 X66.00560 Y99.55460
 X65.59870 Y99.93740
 X65.17740 Y100.33100
 X64.74290 Y100.73500
 X64.29610 Y101.14700
 X63.83850 Y101.56800
 X63.37100 Y101.99600
 X62.89460 Y102.43000
 X62.41070 Y102.87000
 X61.92040 Y103.31300
 X61.42460 Y103.76100
 X60.92470 Y104.21000
 X60.42180 Y104.66100
 X59.91690 Y105.11300
 X59.41120 Y105.56400
 X58.90580 Y106.01400
 X58.40190 Y106.46200
 X57.90070 Y106.90700
 X57.40320 Y107.34700
 X56.91040 Y107.78200
 X56.42390 Y108.21100
 X55.94430 Y108.63300
 X55.47320 Y109.04800
 X55.01140 Y109.45300
 X54.56000 Y109.84900
 X54.12060 Y110.23400
 X53.69370 Y110.60700
 X53.28100 Y110.96800
 X52.88320 Y111.31500
 X52.59720 Y111.56400
 X52.50180 Y111.64700
 X52.40820 Y111.72900
 X52.10400 Y111.94700
 X51.67810 Y112.18000
 X51.23000 Y112.34500
 X50.76640 Y112.44300
 X50.29350 Y112.47100
 X49.81760 Y112.43000
 X49.34540 Y112.31800
 X48.99470 Y112.18800
 X48.88310 Y112.13400
 X48.82720 Y112.10700
 X48.66380 Y112.01800
 X48.45580 Y111.88700
 X48.25970 Y111.74300
 X48.07600 Y111.58600
 X47.90500 Y111.41700
 X47.74720 Y111.23600
 X47.60330 Y111.04600
 X47.47380 Y110.84500
 X47.35890 Y110.63600
 X47.25920 Y110.41900
 X47.17530 Y110.19400
 X47.10760 Y109.96400
 X47.05670 Y109.72700
 X47.02290 Y109.48600
 X47.00690 Y109.24100
 X47.00620 Y109.05500
 X47.00900 Y108.99300
 X47.94890 Y88.08290
 X47.96890 Y87.63440
 X48.00260 Y86.28760
 X48.00290 Y84.49740
 X47.94990 Y82.71360
 X47.84330 Y80.93790
 X47.68380 Y79.17190
 X47.47100 Y77.41690
 X47.20510 Y75.67490
 X46.97260 Y74.37750
 X46.88630 Y73.94680
 X46.83810 Y73.70640
 X46.69810 Y72.98360
 X46.51080 Y71.96970
 X46.32650 Y70.90830
 X46.14760 Y69.80310
 X45.97630 Y68.65720
 X45.81440 Y67.47430
 X45.66470 Y66.25760
 X45.52920 Y65.01080
 X45.41000 Y63.73710
 X45.30940 Y62.44000
 X45.22960 Y61.12310
 X45.17290 Y59.78940
 X45.14140 Y58.44280
 X45.13740 Y57.08620
 X45.16290 Y55.72360
 X45.20190 Y54.69930
 X45.22040 Y54.35820
 X45.13240 Y54.35070
 X44.86810 Y54.32580
 X44.49080 Y54.28630
 X44.08930 Y54.23830
 X43.66460 Y54.18150
 X43.21720 Y54.11510
 X42.74820 Y54.03850
 X42.25810 Y53.95070
 X41.74760 Y53.85110
 X41.21780 Y53.73890
 X40.66930 Y53.61350
 X40.10290 Y53.47400
 X39.51940 Y53.31990
 X38.91970 Y53.15030
 X38.30430 Y52.96440
 X37.67420 Y52.76170
 X37.03010 Y52.54120
 X36.37280 Y52.30250
 X35.70310 Y52.04460
 X35.02170 Y51.76680
 X34.32940 Y51.46850
 X33.62720 Y51.14870
 X32.91560 Y50.80710
 X32.19540 Y50.44250
 X31.46750 Y50.05460
 X30.73260 Y49.64240
 X29.99150 Y49.20510
 X29.24510 Y48.74220
 X28.49400 Y48.25290
 X27.73920 Y47.73640
 X26.98130 Y47.19210
 X26.22100 Y46.61900
 X25.64790 Y46.16940
 X25.45930 Y46.01670
 X25.20650 Y45.81190
 X24.46060 Y45.18280
 X23.48400 Y44.31670
 X22.53000 Y43.41860
 X21.59830 Y42.48860
 X20.68900 Y41.52670
 X19.80220 Y40.53290
 X18.93790 Y39.50750
 X18.09610 Y38.45030
 X17.27680 Y37.36170
 X16.48010 Y36.24140
 X15.70610 Y35.08970
 X14.95490 Y33.90670
 X14.22630 Y32.69220
 X13.52030 Y31.44670
 X12.83710 Y30.17000
 X12.17690 Y28.86220
 X11.53940 Y27.52330
 X10.92480 Y26.15360
 X10.33310 Y24.75290
 X9.76437 Y23.32150
 X9.21869 Y21.85940
 X8.69596 Y20.36670
 X8.19635 Y18.84320
 X7.71978 Y17.28940
 X7.26633 Y15.70510
 X6.83610 Y14.09060
 X6.42904 Y12.44550
 X6.04525 Y10.77040
 X5.68468 Y9.06511
 X5.34750 Y7.32975
 X5.03358 Y5.56440
 X4.81228 Y4.21847
 X4.74311 Y3.76910
 X4.73693 Y3.72900
 X4.72640 Y3.60742
 X4.72618 Y3.44792
 X4.74164 Y3.29161
 X4.77214 Y3.13932
 X4.81706 Y2.99197
 X4.87565 Y2.85047
 X4.94738 Y2.71582
 X5.03147 Y2.58882
 X5.12728 Y2.47038
 X5.23410 Y2.36143
 X5.35140 Y2.26297
 X5.47835 Y2.17572
 X5.61442 Y2.10081
 X5.75885 Y2.03896
 X5.91103 Y1.99115
 X6.03011 Y1.96446
 X6.07026 Y1.95828
 X6.11040 Y1.95210
 X6.23215 Y1.94162
 X6.39182 Y1.94135
 X6.54829 Y1.95682
 X6.70063 Y1.98731
 X6.84799 Y2.03217
 X6.98942 Y2.09082
 X7.12408 Y2.16243
 X7.25103 Y2.24653
 X7.36942 Y2.34229
 X7.47825 Y2.44911
 X7.57667 Y2.56635
 X7.66379 Y2.69331
 X7.73867 Y2.82932
 X7.80046 Y2.97374
 X7.84819 Y3.12588
 X7.87489 Y3.24496
 X7.88108 Y3.28504
 X7.94738 Y3.71565
 X8.15918 Y5.00549
 X8.45915 Y6.69678
 X8.78093 Y8.35883
 X9.12451 Y9.99164
 X9.48986 Y11.59520
 X9.87696 Y13.16920
 X10.28570 Y14.71390
 X10.71620 Y16.22890
 X11.16830 Y17.71440
 X11.64190 Y19.17030
 X12.13720 Y20.59630
 X12.65390 Y21.99250
 X13.19220 Y23.35890
 X13.75190 Y24.69530
 X14.33310 Y26.00170
 X14.93560 Y27.27810
 X15.55940 Y28.52420
 X16.20460 Y29.74000
 X16.87110 Y30.92560
 X17.55890 Y32.08080
 X18.26780 Y33.20570
 X18.99810 Y34.30000
 X19.74930 Y35.36370
 X20.52170 Y36.39680
 X21.31530 Y37.39920
 X22.12970 Y38.37080
 X22.96540 Y39.31150
 X23.82190 Y40.22140
 X24.69940 Y41.10010
 X25.59790 Y41.94790
 X26.51720 Y42.76460
 X27.21940 Y43.35740
 X27.45740 Y43.55010
 X27.66720 Y43.72000
 X28.30610 Y44.21810
 X29.15150 Y44.84650
 X29.99250 Y45.43640
 X30.82810 Y45.98900
 X31.65650 Y46.50580
 X32.47710 Y46.98780
 X33.28820 Y47.43610
 X34.08870 Y47.85190
 X34.87750 Y48.23680
 X35.65310 Y48.59150
 X36.41440 Y48.91760
 X37.16040 Y49.21610
 X37.88960 Y49.48830
 X38.60070 Y49.73530
 X39.29260 Y49.95830
 X39.96400 Y50.15870
 X40.61390 Y50.33760
 X41.24060 Y50.49630
 X41.84330 Y50.63570
 X42.42060 Y50.75740
 X42.97120 Y50.86240
 X43.49390 Y50.95180
 X43.98760 Y51.02710
 X44.45080 Y51.08920
 X44.88260 Y51.13940
 X45.28150 Y51.17920
 X45.64630 Y51.20940
 X45.97600 Y51.23150
 X46.26890 Y51.24650
 X46.52420 Y51.25580
 X46.74060 Y51.26060
 X46.87250 Y51.26180
 X46.95810
 X47.08240 Y51.27060
 X47.24500 Y51.29610
 X47.40320 Y51.33830
 X47.55600 Y51.39640
 X47.70180 Y51.46960
 X47.83970 Y51.55760
 X47.96850 Y51.66000
 X48.05880 Y51.74540
 X48.08680 Y51.77580
 X48.11470 Y51.80630
 X48.19220 Y51.90380
 X48.28320 Y52.04070
 X48.35920 Y52.18570
 X48.41970 Y52.33720
 X48.46440 Y52.49430
 X48.49280 Y52.65560
 X48.50440 Y52.81960
 X48.50240 Y52.94420
 X48.49870 Y52.98540
 X48.46890 Y53.33460
 X48.39900 Y54.38360
 X48.33750 Y55.78430
 X48.31150 Y57.18320
 X48.31830 Y58.57630
 X48.35530 Y59.95930
 X48.41990 Y61.32820
 X48.50940 Y62.67880
 X48.62110 Y64.00670
 X48.75250 Y65.30820
 X48.90080 Y66.57870
 X49.06350 Y67.81440
 X49.23790 Y69.01100
 X49.42130 Y70.16420
 X49.61110 Y71.27000
 X49.80460 Y72.32430
 X49.94920 Y73.07350
 X49.99920 Y73.32280
 X50.09040 Y73.77690
 X50.33560 Y75.14510
 X50.61610 Y76.98240
 X50.84070 Y78.83280
 X51.00920 Y80.69490
 X51.12150 Y82.56680
 X51.17780 Y84.44720
 X51.17760 Y86.33420
 X51.14220 Y87.75350
 X51.12100 Y88.22630
 X50.18130 Y109.13600
 X50.18060 Y109.14400
 X50.18040 Y109.16800
 X50.18820 Y109.20400
 X50.21280 Y109.24000
 X50.24930 Y109.26800
 X50.26260 Y109.27400
 X50.27540 Y109.28100
 X50.31740 Y109.29200
 X50.35940 Y109.28900
 X50.39170 Y109.27400
 X50.41080 Y109.25900
 X50.41690 Y109.25300
 X50.51850 Y109.16500
 X50.82320 Y108.89900
 X51.24810 Y108.52800
 X51.68970 Y108.14200
 X52.14690 Y107.74200
 X52.61850 Y107.32900
 X53.59850 Y106.46900
 X54.10400 Y106.02400
 X54.61830 Y105.57100
 X55.13990 Y105.11000
 X55.66720 Y104.64400
 X56.19900 Y104.17200
 X56.73390 Y103.69700
 X57.27040 Y103.22000
 X57.80720 Y102.74100
 X58.34280 Y102.26100
 X58.87600 Y101.78300
 X59.40510 Y101.30700
 X59.92900 Y100.83400
 X60.44640 Y100.36500
 X60.95560 Y99.90220
 X61.45510 Y99.44580
 X61.94390 Y98.99720
 X62.42060 Y98.55780
 X62.88350 Y98.12850
 X63.33140 Y97.71040
 X63.76280 Y97.30500
 X64.17640 Y96.91310
 X64.57070 Y96.53600
 X64.94460 Y96.17490
 X65.29640 Y95.83080
 X65.54290 Y95.58680
 X65.62470 Y95.50500
 X65.66650 Y95.46330
 X65.80430 Y95.35040
 X66.00150 Y95.22610
 X66.21260 Y95.13290
 X66.43390 Y95.07140
 X66.66170 Y95.04250
 X66.89240 Y95.04670
 X67.12210 Y95.08490
 X67.29260 Y95.13530
 X67.34740 Y95.15750
 X67.59320 Y95.25790
 X68.33690 Y95.54330
 X69.31440 Y95.88880
 X70.27850 Y96.19580
 X71.22820 Y96.46620
 X72.16190 Y96.70210
 X73.07860 Y96.90490
 X73.97690 Y97.07670
 X74.85580 Y97.21900
 X75.71380 Y97.33420
 X76.54960 Y97.42360
 X77.36210 Y97.48930
 X78.15010 Y97.53310
 X78.91220 Y97.55680
 X79.64720 Y97.56220
 X80.35390 Y97.55110
 X81.03100 Y97.52560
 X81.67720 Y97.48710
 X82.29130 Y97.43760
 X82.87210 Y97.37920
 X83.41820 Y97.31330
 X83.92850 Y97.24210
 X84.40170 Y97.16720
 X84.83640 Y97.09060
 X85.23170 Y97.01390
 X85.58600 Y96.93900
 X85.89810 Y96.86790
 X86.16690 Y96.80240
 X86.39110 Y96.74400
 X86.56940 Y96.69500
 X86.70060 Y96.65690
 X86.78330 Y96.63180
 X86.80820 Y96.62400
 X86.81650 Y96.62130
 X86.86990 Y96.60310
 X87.03540 Y96.56360
 X87.25690 Y96.53810
 X87.47810 Y96.54360
 X87.69540 Y96.57990
 X87.90570 Y96.64580
 X88.10570 Y96.74060
 X88.29220 Y96.86360
 X88.42240 Y96.97350
 X88.46180 Y97.01390
 X102.25300 Y111.11100
 X102.25900 Y111.11700
 X102.27800 Y111.13400
 X102.31000 Y111.15300
 X102.35400 Y111.15900
 X102.39900 Y111.15000
 X102.41300 Y111.14400
 X102.42700 Y111.13900
 X102.46400 Y111.11400
 X102.49000 Y111.08000
 X102.49900 Y111.04400
 X102.50000 Y111.01900
 Y111.01100
 X102.49500 Y110.72800
 X102.48100 Y109.88000
 X102.46200 Y108.68700
 X102.44200 Y107.43500
 X102.42200 Y106.13000
 X102.40200 Y104.77600
 X102.38200 Y103.37800
 X102.36200 Y101.94100
 X102.34300 Y100.47000
 X102.32400 Y98.96830
 X102.30600 Y97.44190
 X102.28900 Y95.89540
 X102.27300 Y94.33330
 X102.25800 Y92.76030
 X102.24500 Y91.18120
 X102.23300 Y89.60080
 X102.22500 Y88.41810
 X102.22300 Y88.02380
 X102.22200 Y87.84900
 X102.22900 Y87.32470
 X102.25500 Y86.62930
 X102.30000 Y85.93780
 X102.36500 Y85.25080
 X102.44900 Y84.56920
 X102.55200 Y83.89310
 X102.67500 Y83.22330
 X102.81700 Y82.56060
 X102.97700 Y81.90500
 X103.15600 Y81.25760
 X103.35300 Y80.61870
 X103.56900 Y79.98890
 X103.80400 Y79.36890
 X104.05600 Y78.75920
 X104.32700 Y78.16030
 X104.54100 Y77.71830
 X104.61500 Y77.57260
 X104.68600 Y77.43400
 X104.88800 Y77.01220
 X105.13600 Y76.44760
 X105.36000 Y75.87990
 X105.56000 Y75.30920
 X105.73700 Y74.73610
 X105.89300 Y74.16120
 X106.02700 Y73.58510
 X106.14000 Y73.00820
 X106.23400 Y72.43110
 X106.30900 Y71.85430
 X106.36500 Y71.27830
 X106.40400 Y70.70370
 X106.42600 Y70.13100
 X106.43200 Y69.56070
 X106.42200 Y68.99330
 X106.39800 Y68.42960
 X106.36100 Y67.86970
 X106.31000 Y67.31430
 X106.24600 Y66.76420
 X106.17200 Y66.21940
 X106.08600 Y65.68080
 X105.99000 Y65.14900
 X105.88500 Y64.62430
 X105.77200 Y64.10740
 X105.65000 Y63.59860
 X105.52200 Y63.09870
 X105.38700 Y62.60810
 X105.24600 Y62.12720
 X105.10100 Y61.65670
 X104.95100 Y61.19710
 X104.79800 Y60.74890
 X104.68200 Y60.42150
 X104.64300 Y60.31260
 X104.57000 Y60.11180
 X104.36500 Y59.50350
 X104.11900 Y58.68670
 X103.90300 Y57.86280
 X103.71900 Y57.03280
 X103.56600 Y56.19740
 X103.44300 Y55.35720
 X103.35300 Y54.51310
 X103.29300 Y53.66560
 X103.26500 Y52.81570
 X103.26700 Y51.96400
 X103.30200 Y51.11110
 X103.36700 Y50.25810
 X103.46400 Y49.40540
 X103.59300 Y48.55400
 X103.75300 Y47.70430
 X103.89200 Y47.06820
 X103.94400 Y46.85740
 X103.97100 Y46.74680
 X104.05100 Y46.41470
 X104.15800 Y45.95920
 X104.26400 Y45.49130
 X104.37000 Y45.01100
 X104.47500 Y44.51880
 X104.57800 Y44.01460
 X104.68000 Y43.49900
 X104.77900 Y42.97190
 X104.87700 Y42.43380
 X104.97200 Y41.88470
 X105.06500 Y41.32500
 X105.15400 Y40.75470
 X105.24100 Y40.17430
 X105.32300 Y39.58400
 X105.40200 Y38.98390
 X105.47700 Y38.37420
 X105.54700 Y37.75530
 X105.61300 Y37.12720
 X105.67300 Y36.49030
 X105.72800 Y35.84470
 X105.77800 Y35.19080
 X105.82200 Y34.52890
 X105.86000 Y33.85890
 X105.89200 Y33.18130
 X105.91600 Y32.49600
 X105.93400 Y31.80360
 X105.94500 Y31.10430
 X105.94800 Y30.39810
 X105.94300 Y29.68530
 X105.93100 Y28.96630
 X105.91000 Y28.24110
 X105.88000 Y27.51000
 X105.84100 Y26.77330
 X105.79300 Y26.03130
 X105.73600 Y25.28400
 X105.66900 Y24.53180
 X105.59200 Y23.77490
 X105.50400 Y23.01330
 X105.40600 Y22.24750
 X105.29700 Y21.47780
 X105.17700 Y20.70420
 X105.04500 Y19.92710
 X104.90100 Y19.14650
 X104.74600 Y18.36290
 X104.57800 Y17.57640
 X104.39800 Y16.78710
 X104.20500 Y15.99540
 X103.99800 Y15.20170
 X103.77800 Y14.40570
 X103.54500 Y13.60810
 X103.29700 Y12.80900
 X103.03600 Y12.00860
 X102.75900 Y11.20710
 X102.46800 Y10.40470
 X102.16200 Y9.60178
 X101.84000 Y8.79844
 X101.50200 Y7.99496
 X101.14900 Y7.19157
 X100.77900 Y6.38846
 X100.39300 Y5.58589
 X99.99010 Y4.78407
 X99.57000 Y3.98324
 X99.13240 Y3.18365
 X98.79280 Y2.58399
 X98.67720 Y2.38547
 X98.65680 Y2.35047
 X98.60260 Y2.24126
 X98.54420 Y2.09304
 X98.50140 Y1.94200
 X98.47420 Y1.78911
 X98.46210 Y1.63558
 X98.46490 Y1.48242
 X98.48240 Y1.33084
 X98.51420 Y1.18180
 X98.56000 Y1.03646
 X98.61970 Y0.89594
 X98.69280 Y0.76128
 X98.77900 Y0.63368
 X98.87820 Y0.51411
 X98.99010 Y0.40370
 X99.11430 Y0.30360
 X99.21540 Y0.23524
 X99.25060 Y0.21484
 X99.29670 Y0.18793
 X99.44280 Y0.11968
 X99.64150 Y0.05268
 X99.84390 Y0.01308
 X99.99630 Y0.00000
 X100.09800
 X100.25100 Y0.01313
 X100.45100 Y0.05208
 X100.64400 Y0.11610
 X100.82800 Y0.20448
 X101.00100 Y0.31662
 X101.15900 Y0.45171
 X101.29900 Y0.60910
 X101.39400 Y0.74154
 X101.42100 Y0.78809
 X101.54300 Y0.99789
 X101.90200 Y1.63146
 X102.36400 Y2.47624
 X102.80800 Y3.32210
 X103.23400 Y4.16889
 X103.64200 Y5.01633
 X104.03300 Y5.86421
 X104.40700 Y6.71224
 X104.76400 Y7.56022
 X105.10400 Y8.40793
 X105.42800 Y9.25515
 X105.73600 Y10.10160
 X106.02800 Y10.94690
 X106.30600 Y11.79110
 X106.56700 Y12.63380
 X106.81500 Y13.47470
 X107.04800 Y14.31370
 X107.26600 Y15.15060
 X107.47100 Y15.98490
 X107.66200 Y16.81670
 X107.84000 Y17.64540
 X108.00500 Y18.47100
 X108.15700 Y19.29330
 X108.29700 Y20.11180
 X108.42400 Y20.92670
 X108.54000 Y21.73740
 X108.64500 Y22.54360
 X108.73800 Y23.34540
 X108.82000 Y24.14220
 X108.89200 Y24.93420
 X108.95300 Y25.72070
 X109.00500 Y26.50180
 X109.04600 Y27.27710
 X109.07900 Y28.04620
 X109.10200 Y28.80930
 X109.11600 Y29.56580
 X109.12200 Y30.31570
 X109.11900 Y31.05850
 X109.10900 Y31.79420
 X109.09100 Y32.52240
 X109.06600 Y33.24290
 X109.03300 Y33.95560
 X108.99400 Y34.66000
 X108.94800 Y35.35610
 X108.89700 Y36.04350
 X108.83900 Y36.72210
 X108.77600 Y37.39170
 X108.70800 Y38.05180
 X108.63400 Y38.70240
 X108.55600 Y39.34310
 X108.47400 Y39.97380
 X108.38700 Y40.59420
 X108.29700 Y41.20400
 X108.20300 Y41.80310
 X108.10700 Y42.39110
 X108.00700 Y42.96810
 X107.90400 Y43.53330
 X107.80000 Y44.08690
 X107.69300 Y44.62860
 X107.58500 Y45.15810
 X107.47500 Y45.67510
 X107.36400 Y46.17940
 X107.25300 Y46.67080
 X107.14100 Y47.14920
 X107.05700 Y47.49790
 X107.02800 Y47.61400
 X106.98400 Y47.79610
 X106.86300 Y48.34580
 X106.72400 Y49.07990
 X106.61300 Y49.81530
 X106.52900 Y50.55170
 X106.47300 Y51.28850
 X106.44300 Y52.02470
 X106.44000 Y52.76010
 X106.46400 Y53.49380
 X106.51600 Y54.22510
 X106.59400 Y54.95360
 X106.69900 Y55.67850
 X106.83100 Y56.39900
 X106.99000 Y57.11490
 X107.17600 Y57.82530
 X107.38800 Y58.52940
 X107.56400 Y59.05360
 X107.62800 Y59.22680
G0 Z-25.0000
M5 (stop spindle)
G04 P3 (wait for 3 seconds)
G0 Z-25.0000
M2 (end program)
