;PYCAM-META-DATA: Filename: /media/martoio/MARTOIO/ME43/std_lib/svg/011-ice-cream.svg
;PYCAM-META-DATA: Timestamp: 2017-12-06 01:56:12.662407
;PYCAM-META-DATA: Version: 0.5.1
;Estimated machine time: 14 minutes
G40 (disable tool radius compensation)
G49 (disable tool length compensation)
G80 (cancel modal motion)
G54 (select coordinate system 1)
G90 (disable incremental moves)
G21 (metric)
G61 (exact path mode)
F400.00000
S1.00000
;PYCAM_TOOLPATH_SETTINGS: START
;[Bounds]
;maxz = 0.0
;maxx = 140.209574703
;maxy = 214.123832944
;minx = -1.38268860938
;miny = -8.10216663129
;minz = 0.0
;
;[Tool]
;torus_radius = 0.25
;speed = 1.0
;shape = CylindricalCutter
;tool_radius = 0.5
;feedrate = 400.0
;
;[Process]
;engrave_offset = 0.0
;step_down = 1.0
;generator = EngraveCutter
;postprocessor = SimpleCutter
;overlap_percent = 0
;milling_style = conventional
;material_allowance = 0.0
;pocketing_type = none
;path_direction = x
;
;PYCAM_TOOLPATH_SETTINGS: END
T1 M6
G0 Z5.0000
 X26.6557 Y134.1956
G1 Z0.0000
 X27.8652 Y135.0716
 X28.5574 Y135.7812
 X28.9992 Y136.6412
 X29.1678 Y137.5923
 X29.0424 Y138.5753
 X28.4534 Y139.7805
 X27.5630 Y140.7225
 X26.4820 Y141.4845
 X25.3216 Y142.1520
 X24.8636 Y142.4049
 X25.2523 Y143.4255
 X25.9457 Y144.6158
 X27.0117 Y145.9735
 X28.5177 Y147.4953
 X30.5310 Y149.1834
 X33.1199 Y151.0321
 X36.3512 Y153.0426
 X40.2939 Y155.2113
 X41.2240 Y155.9392
 X41.8161 Y156.9165
 X42.0280 Y158.0385
 X41.8173 Y159.1969
 X41.1832 Y160.2847
 X40.2767 Y161.0912
 X39.1791 Y161.7120
 X37.9715 Y162.2428
 X38.4710 Y163.2474
 X39.2040 Y164.2464
 X40.1629 Y165.2317
 X41.3390 Y166.1965
 X42.7250 Y167.1328
 X44.3121 Y168.0315
 X46.0919 Y168.8858
 X48.0565 Y169.6877
 X50.1972 Y170.4281
 X52.5071 Y171.1001
 X54.9766 Y171.6947
 X57.5987 Y172.2061
 X60.3647 Y172.6253
 X63.2662 Y172.9431
 X66.2950 Y173.1527
 X69.4435 Y173.2450
 X71.4575 Y173.3771
 X73.1921 Y173.7029
 X74.6685 Y174.1881
 X75.9082 Y174.8009
 X76.9310 Y175.5083
 X77.7578 Y176.2749
 X78.4111 Y177.0722
 X78.9104 Y177.8639
 X79.5154 Y179.2535
 X79.8694 Y180.7161
 X80.0042 Y182.2219
 X79.9511 Y183.7483
 X79.7409 Y185.2689
 X79.4054 Y186.7577
 X78.9759 Y188.1906
 X78.4847 Y189.5404
 X82.0336 Y189.0438
 X85.2836 Y188.0437
 X88.2301 Y186.5412
 X90.8688 Y184.5331
 X92.5739 Y182.7869
 X94.0673 Y180.8767
 X95.3624 Y178.8378
 X96.4741 Y176.7100
 X97.4172 Y174.5333
 X98.2032 Y172.3417
 X98.8490 Y170.1752
 X99.3673 Y168.0725
 X99.7705 Y166.0700
 X100.0747 Y164.2077
 X100.2945 Y162.5230
 X100.4414 Y161.0513
 X100.5326 Y159.8348
 X100.5804 Y158.9099
 X100.5986 Y158.3141
 X100.6009 Y158.0841
 X100.7205 Y157.2036
 X101.0645 Y156.4005
 X101.6078 Y155.7228
 X102.3289 Y155.2113
 X105.0205 Y153.6827
 X107.3818 Y152.0709
 X109.4025 Y150.3863
 X111.0757 Y148.6389
 X112.3925 Y146.8404
 X113.3436 Y145.0008
 X113.9211 Y143.1316
 X114.1159 Y141.2430
 X113.7252 Y138.5753
 X113.5976 Y137.5900
 X113.7662 Y136.6355
 X114.2082 Y135.7744
 X114.9030 Y135.0716
 X116.2061 Y134.0532
 X117.5149 Y132.8960
 X118.7735 Y131.6065
 X119.9285 Y130.1930
 X120.9218 Y128.6598
 X121.6998 Y127.0173
 X122.2078 Y125.2699
 X122.3889 Y123.4260
 X122.2067 Y121.5789
 X121.6610 Y119.7355
 X120.7532 Y117.9007
 X119.4843 Y116.0802
 X19.3426
 X18.0634 Y117.9007
 X17.1506 Y119.7355
 X16.6030 Y121.5789
 X16.4208 Y123.4260
 X16.6834 Y124.6879
 X17.4126 Y126.0274
 X18.5206 Y127.4193
 X19.9198 Y128.8352
 X21.5203 Y130.2476
 X23.2352 Y131.6293
 X24.9767 Y132.9552
 X26.6557 Y134.1956
G0 Z5.0000
 X116.5182 Y97.8250
G1 Z0.0000
 X116.4703 Y97.2262
 X116.3223 Y95.8456
 X115.8997 Y94.5577
 X115.2322 Y93.3904
 X114.3483 Y92.3726
 X113.2764 Y91.5322
 X112.0485 Y90.8968
 X110.6919 Y90.4952
 X109.2373 Y90.3548
 X29.4645
 X28.0086 Y90.4952
 X26.6521 Y90.8968
 X25.4229 Y91.5322
 X24.3507 Y92.3726
 X23.4658 Y93.3904
 X22.7971 Y94.5577
 X22.3744 Y95.8456
 X22.2273 Y97.2262
 X22.1835 Y97.8250
 X19.9370 Y109.6433
 X118.7644
 X116.5182 Y97.8250
G0 Z5.0000
 X93.4613 Y24.1926
G1 Z0.0000
 X85.7056 Y16.4208
 X78.7219
 X70.9663 Y24.1926
 X63.1988 Y16.4208
 X56.2107
 X48.4593 Y24.1926
 X42.4922 Y18.2253
 X42.3030 Y18.8241
 X41.5355 Y25.2252
 X42.9624 Y23.7989
 X47.5151 Y28.3355
 X41.0819 Y34.7687
 X40.4671 Y34.1580
 X37.4087 Y59.6344
 X37.8790 Y59.1641
 X38.8195 Y60.1046
 X42.9624 Y55.9456
 X47.5151 Y60.4822
 X38.8195 Y69.1939
 X36.5285 Y66.9037
 X34.4875 Y83.9334
 X47.1251
 X39.7638 Y76.5560
 X44.2966 Y72.0193
 X48.4593 Y76.1784
 X52.6185 Y72.0193
 X57.1549 Y76.5560
 X49.7936 Y83.9334
 X69.6320
 X62.2546 Y76.5560
 X66.8072 Y72.0193
 X70.9663 Y76.1784
 X75.1093 Y72.0193
 X79.6619 Y76.5560
 X72.2844 Y83.9334
 X92.1274
 X84.7652 Y76.5560
 X89.3018 Y72.0193
 X93.4613 Y76.1784
 X97.6200 Y72.0193
 X102.1728 Y76.5560
 X94.7951 Y83.9334
 X104.2140
 X101.6864 Y62.8534
 X100.8390 Y63.7013
 X97.6200 Y60.4822
 X100.9950 Y57.1229
 X99.7535 Y46.8236
 X93.4772 Y53.1209
 X84.7652 Y44.4091
 X89.3178 Y39.8720
 X93.4772 Y44.0310
 X97.6200 Y39.8720
 X99.1110 Y41.3471
 X96.6643 Y20.9902
 X93.4613 Y24.1926
G0 Z5.0000
 X96.6962 Y135.3723
G1 Z0.0000
 X99.8947
 X101.1465 Y135.6229
 X102.1694 Y136.3097
 X102.8597 Y137.3303
 X103.1126 Y138.5867
 X102.8597 Y139.8374
 X102.1694 Y140.8546
 X101.1465 Y141.5392
 X99.8947 Y141.7898
 X96.6962
 X95.4432 Y141.5392
 X94.4204 Y140.8546
 X93.7301 Y139.8374
 X93.4772 Y138.5867
 X93.7301 Y137.3303
 X94.4204 Y136.3097
 X95.4432 Y135.6229
 X96.6962 Y135.3723
G0 Z5.0000
 X83.8208 Y154.6612
G1 Z0.0000
 X90.2423
 X91.4930 Y154.9118
 X92.5159 Y155.5975
 X93.2073 Y156.6158
 X93.4613 Y157.8631
 X93.2073 Y159.1229
 X92.5159 Y160.1446
 X91.4930 Y160.8315
 X90.2423 Y161.0821
 X83.8208
 X82.5707 Y160.8315
 X81.5486 Y160.1446
 X80.8588 Y159.1229
 X80.6062 Y157.8631
 X80.8588 Y156.6158
 X81.5486 Y155.5975
 X82.5707 Y154.9118
 X83.8208 Y154.6612
G0 Z5.0000
 X76.0213 Y135.3723
G1 Z0.0000
 X81.9243
 X83.1738 Y135.6229
 X84.1959 Y136.3097
 X84.8856 Y137.3303
 X85.1391 Y138.5867
 X84.8856 Y139.8374
 X84.1959 Y140.8546
 X83.1738 Y141.5392
 X81.9243 Y141.7898
 X76.0213
 X74.7730 Y141.5392
 X73.7552 Y140.8546
 X73.0699 Y139.8374
 X72.8190 Y138.5867
 X73.0699 Y137.3303
 X73.7552 Y136.3097
 X74.7730 Y135.6229
 X76.0213 Y135.3723
G0 Z5.0000
 X61.2979 Y141.7898
G1 Z0.0000
 X58.0955
 X56.8472 Y141.5392
 X55.8294 Y140.8546
 X55.1433 Y139.8374
 X54.8926 Y138.5867
 X55.1433 Y137.3303
 X55.8294 Y136.3097
 X56.8472 Y135.6229
 X58.0955 Y135.3723
 X61.2979
 X62.5480 Y135.6229
 X63.5722 Y136.3097
 X64.2630 Y137.3303
 X64.5169 Y138.5867
 X64.2630 Y139.8374
 X63.5722 Y140.8546
 X62.5480 Y141.5392
 X61.2979 Y141.7898
G0 Z5.0000
 X51.6741 Y154.6612
G1 Z0.0000
 X61.3140
 X62.5642 Y154.9118
 X63.5881 Y155.5975
 X64.2792 Y156.6158
 X64.5331 Y157.8631
 X64.2792 Y159.1229
 X63.5881 Y160.1446
 X62.5642 Y160.8315
 X61.3140 Y161.0821
 X51.6741
 X50.4238 Y160.8315
 X49.4017 Y160.1446
 X48.7121 Y159.1229
 X48.4593 Y157.8631
 X48.7121 Y156.6158
 X49.4017 Y155.5975
 X50.4238 Y154.9118
 X51.6741 Y154.6612
G0 Z5.0000
 X42.0219 Y135.3723
G1 Z0.0000
 X45.2410
 X46.4911 Y135.6229
 X47.5145 Y136.3097
 X48.2054 Y137.3303
 X48.4593 Y138.5867
 X48.2054 Y139.8374
 X47.5145 Y140.8546
 X46.4911 Y141.5392
 X45.2410 Y141.7898
 X42.0219
 X40.7735 Y141.5392
 X39.7557 Y140.8546
 X39.0704 Y139.8374
 X38.8195 Y138.5867
 X39.0704 Y137.3303
 X39.7557 Y136.3097
 X40.7735 Y135.6229
 X42.0219 Y135.3723
G0 Z5.0000
 X61.3140 Y60.1046
G1 Z0.0000
 X65.4729 Y55.9456
 X70.0257 Y60.4822
 X61.3140 Y69.1939
 X52.6185 Y60.4822
 X57.1549 Y55.9456
 X61.3140 Y60.1046
G0 Z5.0000
 X57.1549 Y44.4091
G1 Z0.0000
 X48.4593 Y53.1209
 X39.7638 Y44.4091
 X44.2966 Y39.8720
 X48.4593 Y44.0310
 X52.6185 Y39.8720
 X57.1549 Y44.4091
G0 Z5.0000
 X52.6185 Y28.3355
G1 Z0.0000
 X57.1549 Y23.7989
 X61.3140 Y27.9579
 X65.4729 Y23.7989
 X70.0257 Y28.3355
 X61.3140 Y37.0472
 X52.6185 Y28.3355
G0 Z5.0000
 X75.1093
G1 Z0.0000
 X79.6619 Y23.7989
 X83.8208 Y27.9579
 X87.9841 Y23.7989
 X92.5170 Y28.3355
 X83.8208 Y37.0472
 X75.1093 Y28.3355
G0 Z5.0000
 X79.6619 Y44.4091
G1 Z0.0000
 X70.9663 Y53.1209
 X62.2546 Y44.4091
 X66.8072 Y39.8720
 X70.9663 Y44.0310
 X75.1093 Y39.8720
 X79.6619 Y44.4091
G0 Z5.0000
 X83.8208 Y60.1046
G1 Z0.0000
 X87.9841 Y55.9456
 X92.5170 Y60.4822
 X83.8208 Y69.1939
 X75.1093 Y60.4822
 X79.6619 Y55.9456
 X83.8208 Y60.1046
G0 Z5.0000
 X128.8269 Y123.4260
G1 Z0.0000
 X128.6902 Y125.5046
 X128.2858 Y127.5538
 X127.6149 Y129.5710
 X126.6809 Y131.5485
 X125.4872 Y133.4803
 X124.0371 Y135.3620
 X122.3331 Y137.1868
 X120.3796 Y138.9489
 X120.5527 Y141.2430
 X120.3295 Y143.8891
 X119.6654 Y146.4736
 X118.5708 Y148.9852
 X117.0547 Y151.4103
 X115.1274 Y153.7374
 X112.7991 Y155.9540
 X110.0779 Y158.0453
 X106.9751 Y160.0011
 X106.9011 Y161.1162
 X106.7849 Y162.4341
 X106.6152 Y163.9320
 X106.3851 Y165.5871
 X106.0821 Y167.3754
 X105.6982 Y169.2742
 X105.2232 Y171.2619
 X104.6457 Y173.3122
 X103.9589 Y175.4046
 X103.1490 Y177.5153
 X102.2104 Y179.6226
 X101.1317 Y181.7002
 X99.9027 Y183.7278
 X98.5130 Y185.6824
 X96.9548 Y187.5391
 X95.2166 Y189.2750
 X92.9840 Y191.0975
 X90.5920 Y192.6352
 X88.0441 Y193.8848
 X85.3429 Y194.8496
 X82.4916 Y195.5273
 X79.4914 Y195.9180
 X76.3452 Y196.0217
 X73.0557 Y195.8371
 X72.2597 Y195.6515
 X71.5453 Y195.2767
 X70.9458 Y194.7402
 X70.4958 Y194.0602
 X70.1665 Y192.4746
 X70.6369 Y190.9392
 X71.3066 Y189.7477
 X71.9530 Y188.4161
 X72.5378 Y187.0060
 X73.0260 Y185.5822
 X73.3795 Y184.2016
 X73.5630 Y182.9293
 X73.5395 Y181.8267
 X73.2725 Y180.9530
 X72.5816 Y180.3015
 X71.5521 Y179.9187
 X70.4100 Y179.7365
 X69.3830 Y179.6830
 X65.3711 Y179.5497
 X61.5019 Y179.2399
 X57.7896 Y178.7592
 X54.2518 Y178.1179
 X50.9042 Y177.3205
 X47.7629 Y176.3797
 X44.8441 Y175.3010
 X42.1639 Y174.0924
 X39.7383 Y172.7631
 X37.5841 Y171.3188
 X35.7166 Y169.7697
 X34.1531 Y168.1226
 X32.9086 Y166.3867
 X31.9994 Y164.5687
 X31.4421 Y162.6779
 X31.2530 Y160.7210
 X31.5539 Y159.2584
 X32.3375 Y158.1490
 X29.7128 Y156.5121
 X27.1706 Y154.7352
 X24.7920 Y152.8193
 X22.6599 Y150.7679
 X20.8579 Y148.5820
 X19.4681 Y146.2651
 X18.5737 Y143.8173
 X18.2574 Y141.2430
 X18.4348 Y140.0732
 X18.9149 Y139.0890
 X19.6151 Y138.2678
 X20.4556 Y137.5832
 X18.4829 Y136.0614
 X16.5839 Y134.4815
 X14.8158 Y132.8367
 X13.2382 Y131.1224
 X11.9094 Y129.3307
 X10.8873 Y127.4547
 X10.2311 Y125.4886
 X10.0000 Y123.4260
 X10.1902 Y120.9547
 X10.7606 Y118.5311
 X11.7080 Y116.1568
 X13.0292 Y113.8343
 X12.8674 Y113.0614
 X12.9051 Y112.2672
 X15.8101 Y96.8968
 X16.1074 Y94.4551
 X16.8410 Y92.1724
 X17.9682 Y90.0879
 X19.4451 Y88.2432
 X21.2292 Y86.6791
 X23.2767 Y85.4362
 X25.5447 Y84.5545
 X27.9900 Y84.0743
 X35.9304 Y18.0523
 X36.2889 Y16.3868
 X36.9315 Y14.8555
 X37.8270 Y13.4848
 X38.9449 Y12.3026
 X40.2544 Y11.3361
 X41.7233 Y10.6118
 X43.3221 Y10.1576
 X45.0197 Y10.0000
 X93.6948
 X95.0298 Y10.0983
 X96.3078 Y10.3831
 X97.5118 Y10.8411
 X98.6303 Y11.4591
 X99.6475 Y12.2235
 X100.5497 Y13.1208
 X101.3219 Y14.1374
 X101.9518 Y15.2596
 X102.1728 Y15.4809
 X102.0771 Y15.5729
 X102.5123 Y16.7786
 X102.7834 Y18.0523
 X110.7112 Y84.0743
 X113.1625 Y84.5545
 X115.4338 Y85.4362
 X117.4830 Y86.6791
 X119.2679 Y88.2432
 X120.7441 Y90.0879
 X121.8684 Y92.1724
 X122.5996 Y94.4551
 X122.8912 Y96.8968
 X125.7970 Y112.2672
 X125.8460 Y113.0025
 X125.7321 Y113.7257
 X127.0830 Y116.0728
 X128.0500 Y118.4747
 X128.6321 Y120.9282
 X128.8269 Y123.4260
G0 Z5.0000
G0 Z5.0000
M2 (end program)
