$X
$H
G10 P0 L20 X0 Y0 Z0
G40 (disable tool radius compensation)
G49 (disable tool length compensation)
G80 (cancel modal motion)
G54 (select coordinate system 1)
G90 (disable incremental moves)
G21 (metric)
F300.00000
S250.00000
G61 (exact path mode)
;PYCAM_TOOLPATH_SETTINGS: START
;[Bounds]
;maxz = 0.0
;maxx = 113.641
;maxy = 118.718
;minx = 5.07611
;miny = -0.000379775
;minz = 0.0
;
;[Tool]
;torus_radius = 0.125
;shape = CylindricalCutter
;tool_radius = 1.5875
;feedrate = 300.0
;
;[Process]
;engrave_offset = 0.0
;step_down = 3.0
;generator = EngraveCutter
;postprocessor = SimpleCutter
;overlap_percent = 0
;milling_style = ignore
;material_allowance = 0.0
;pocketing_type = none
;path_direction = x
;
;PYCAM_TOOLPATH_SETTINGS: END
G0 Z-25.0000
M3 (start spindle)
G04 P3 (wait for 3 seconds)
 X96.70810 Y4.23296
G1 Z-41.5000
 X96.60000
 X96.27570 Y4.25489
 X95.85580 Y4.31917
 X95.45040 Y4.42361
 X95.06150 Y4.56619
 X94.69150 Y4.74468
 X94.34220 Y4.95697
 X94.01610 Y5.20090
 X93.71530 Y5.47428
 X93.44170 Y5.77507
 X93.19760 Y6.10107
 X92.98530 Y6.45008
 X92.80670 Y6.82010
 X92.66400 Y7.20882
 X92.55960 Y7.61426
 X92.49510 Y8.03412
 X92.47330 Y8.35829
 Y46.56630
 X100.94100
 Y8.35835
 X100.91900 Y8.03435
 X100.85500 Y7.61464
 X100.75100 Y7.20936
 X100.60800 Y6.82069
 X100.42900 Y6.45074
 X100.21700 Y6.10167
 X99.97290 Y5.77567
 X99.69940 Y5.47483
 X99.39860 Y5.20133
 X99.07260 Y4.95731
 X98.72360 Y4.74496
 X98.35360 Y4.56640
 X97.96500 Y4.42378
 X97.55970 Y4.31922
 X97.14000 Y4.25489
 X96.81600 Y4.23296
 X96.70810
G0 Z-25.0000
 X71.88810 Y36.65000
G1 Z-41.5000
 X71.85310 Y36.58430
 X71.74440 Y36.38890
 X71.59100 Y36.12780
 X71.42850 Y35.86900
 X71.25780 Y35.61510
 X71.07960 Y35.36810
 X70.89460 Y35.13040
 X70.70360 Y34.90440
 X70.50750 Y34.69250
 X70.30680 Y34.49670
 X70.10260 Y34.31960
 X69.89540 Y34.16330
 X69.68610 Y34.03030
 X69.47540 Y33.92290
 X69.26420 Y33.84320
 X69.05310 Y33.79370
 X68.89530 Y33.77670
 X68.77740
 X68.58100 Y33.79650
 X68.30380 Y33.85310
 X68.01930 Y33.94250
 X67.80560 Y34.02820
 X67.73610 Y34.06070
 X67.72720 Y34.06600
 X67.70100 Y34.08210
 X67.65780 Y34.10990
 X67.60540 Y34.14510
 X67.54330 Y34.18860
 X67.47070 Y34.24140
 X67.38670 Y34.30420
 X67.29060 Y34.37790
 X67.18140 Y34.46330
 X67.05850 Y34.56170
 X66.92100 Y34.67330
 X66.76820 Y34.79960
 X66.59930 Y34.94130
 X66.41350 Y35.09900
 X66.20970 Y35.27400
 X65.98760 Y35.46680
 X65.80640 Y35.62560
 X65.74610 Y35.67860
 X62.56970 Y38.47320
 X59.77400 Y35.29960
 X56.86070 Y31.99650
 X55.15860 Y30.06150
 X55.08380 Y29.97030
 X54.86710 Y29.69000
 X54.59440 Y29.30970
 X54.34030 Y28.92140
 X54.10490 Y28.52540
 X53.88810 Y28.12280
 X53.69000 Y27.71360
 X53.51040 Y27.29860
 X53.34970 Y26.87850
 X53.20760 Y26.45380
 X53.08420 Y26.02490
 X52.97930 Y25.59250
 X52.89330 Y25.15720
 X52.82580 Y24.71960
 X52.77710 Y24.28030
 X52.74710 Y23.83960
 X52.73570 Y23.39820
 X52.74310 Y22.95680
 X52.76920 Y22.51600
 X52.81390 Y22.07610
 X52.87740 Y21.63790
 X52.95940 Y21.20190
 X53.06030 Y20.76860
 X53.17990 Y20.33880
 X53.31820 Y19.91260
 X53.47510 Y19.49130
 X53.65080 Y19.07470
 X53.84530 Y18.66390
 X54.05830 Y18.25920
 X54.29030 Y17.86140
 X54.54080 Y17.47080
 X54.81010 Y17.08810
 X55.02430 Y16.80580
 X55.09820 Y16.71390
 X55.27720 Y16.49180
 X55.80810 Y15.82010
 X56.48960 Y14.93690
 X57.14180 Y14.06690
 X57.76420 Y13.21240
 X58.35580 Y12.37570
 X58.91580 Y11.55920
 X59.44350 Y10.76530
 X59.93790 Y9.99636
 X60.39830 Y9.25483
 X60.82390 Y8.54303
 X61.21380 Y7.86328
 X61.56720 Y7.21804
 X61.88330 Y6.60969
 X62.16140 Y6.04058
 X62.40060 Y5.51307
 X62.55260 Y5.15142
 X62.60000 Y5.02957
 X62.01430 Y5.16661
 X60.25000 Y5.54769
 X57.92940 Y5.99533
 X55.63440 Y6.37283
 X53.36170 Y6.68078
 X51.10750 Y6.91949
 X48.86830 Y7.08946
 X46.64070 Y7.19114
 X44.97600 Y7.22487
 X43.86810
 X42.20930 Y7.19119
 X39.98830 Y7.08974
 X37.75420 Y6.92008
 X35.50360 Y6.68181
 X33.23310 Y6.37451
 X30.93900 Y5.99767
 X28.61810 Y5.55094
 X26.85280 Y5.17057
 X26.26680 Y5.03381
 X26.32040 Y5.16297
 X26.48870 Y5.54736
 X26.74430 Y6.09901
 X27.03320 Y6.68679
 X27.35500 Y7.30875
 X27.70970 Y7.96289
 X28.09690 Y8.64714
 X28.51640 Y9.35954
 X28.96790 Y10.09810
 X29.45130 Y10.86080
 X29.96610 Y11.64570
 X30.51240 Y12.45080
 X31.08960 Y13.27400
 X31.69750 Y14.11350
 X32.33610 Y14.96710
 X33.00500 Y15.83280
 X33.52750 Y16.49110
 X33.70400 Y16.70860
 X33.77860 Y16.80110
 X33.99440 Y17.08510
 X34.26610 Y17.46990
 X34.51890 Y17.86260
 X34.75280 Y18.26250
 X34.96780 Y18.66920
 X35.16400 Y19.08190
 X35.34130 Y19.50030
 X35.49970 Y19.92380
 X35.63930 Y20.35170
 X35.75990 Y20.78350
 X35.86150 Y21.21880
 X35.94430 Y21.65670
 X36.00810 Y22.09690
 X36.05280 Y22.53900
 X36.07860 Y22.98210
 X36.08560 Y23.42580
 X36.07350 Y23.86960
 X36.04220 Y24.31280
 X35.99210 Y24.75500
 X35.92290 Y25.19540
 X35.83460 Y25.63380
 X35.72720 Y26.06940
 X35.60100 Y26.50170
 X35.45540 Y26.93000
 X35.29080 Y27.35400
 X35.10720 Y27.77310
 X34.90440 Y28.18640
 X34.68250 Y28.59380
 X34.44150 Y28.99460
 X34.18140 Y29.38810
 X33.90210 Y29.77370
 X33.68000 Y30.05850
 X33.60350 Y30.15120
 X33.29510 Y30.50620
 X32.39070 Y31.58930
 X31.22390 Y33.05810
 X30.10420 Y34.55650
 X29.03220 Y36.08310
 X28.00920 Y37.63650
 X27.03580 Y39.21560
 X26.11290 Y40.81870
 X25.45310 Y42.03510
 X25.24150 Y42.44490
 X23.93530 Y44.97600
 X21.09790 Y44.71850
 X20.72750 Y44.68490
 X19.61740 Y44.57060
 X18.13500 Y44.39540
 X16.65170 Y44.19350
 X15.16880 Y43.96490
 X13.68740 Y43.70960
 X12.20880 Y43.42810
 X10.73420 Y43.12030
 X9.63124 Y42.87310
 X9.26465 Y42.78630
 X9.25896 Y42.89860
 X9.25738 Y43.23610
 X9.27794 Y43.73470
 X9.32542 Y44.27920
 X9.39882 Y44.86630
 X9.49729 Y45.49310
 X9.61985 Y46.15650
 X9.76563 Y46.85350
 X9.93365 Y47.58110
 X10.12300 Y48.33610
 X10.33280 Y49.11560
 X10.56210 Y49.91640
 X10.81000 Y50.73560
 X11.07550 Y51.57000
 X11.35780 Y52.41680
 X11.65580 Y53.27280
 X11.96870 Y54.13490
 X12.29560 Y55.00000
 X12.63550 Y55.86530
 X12.98750 Y56.72760
 X13.35060 Y57.58390
 X13.72400 Y58.43110
 X14.10680 Y59.26610
 X14.49790 Y60.08600
 X14.89650 Y60.88760
 X15.30170 Y61.66790
 X15.71250 Y62.42400
 X16.12810 Y63.15280
 X16.54740 Y63.85110
 X16.96940 Y64.51580
 X17.39360 Y65.14430
 X17.81870 Y65.73310
 X18.13490 Y66.14490
 X18.24390 Y66.27920
 X19.14640 Y67.39150
 X19.18790 Y68.82170
 X19.19990 Y69.23030
 X19.26060 Y70.45540
 X19.38220 Y72.08100
 X19.55260 Y73.69820
 X19.77130 Y75.30610
 X20.03820 Y76.90440
 X20.35280 Y78.49250
 X20.71490 Y80.07000
 X21.12420 Y81.63610
 X21.58040 Y83.19040
 X22.08320 Y84.73250
 X22.63220 Y86.26150
 X23.22740 Y87.77720
 X23.86810 Y89.27890
 X24.55430 Y90.76610
 X25.28560 Y92.23810
 X26.06150 Y93.69460
 X26.88210 Y95.13500
 X27.74680 Y96.55850
 X28.65540 Y97.96500
 X29.60760 Y99.35360
 X30.60320 Y100.72400
 X31.64170 Y102.07500
 X32.72280 Y103.40700
 X33.84640 Y104.71900
 X35.01190 Y106.01100
 X36.21940 Y107.28200
 X37.46830 Y108.53100
 X38.75850 Y109.75800
 X40.08940 Y110.96200
 X41.46100 Y112.14300
 X42.87290 Y113.30000
 X43.95850 Y114.15400
 X44.32470 Y114.43300
 X44.70430 Y114.14400
 X45.82900 Y113.25800
 X47.29000 Y112.05900
 X48.70760 Y110.83500
 X50.08150 Y109.58700
 X51.41130 Y108.31600
 X52.69670 Y107.02300
 X53.93740 Y105.70700
 X55.13320 Y104.37000
 X56.28360 Y103.01100
 X57.38860 Y101.63300
 X58.44760 Y100.23400
 X59.46040 Y98.81670
 X60.42680 Y97.38030
 X61.34650 Y95.92560
 X62.21900 Y94.45350
 X63.04420 Y92.96430
 X63.82170 Y91.45860
 X64.55110 Y89.93690
 X65.23240 Y88.40010
 X65.86500 Y86.84830
 X66.44880 Y85.28250
 X66.98330 Y83.70280
 X67.46850 Y82.11010
 X67.90370 Y80.50490
 X68.28900 Y78.88760
 X68.62380 Y77.25890
 X68.90810 Y75.61930
 X69.14110 Y73.96940
 X69.32290 Y72.30990
 X69.45330 Y70.64110
 X69.53170 Y68.96380
 X69.55790 Y67.69970
 Y66.74400
 X69.51290 Y65.14110
 X69.37850 Y62.99960
 X69.15460 Y60.85540
 X68.84180 Y58.71060
 X68.44030 Y56.56670
 X67.95040 Y54.42580
 X67.37250 Y52.28990
 X66.88330 Y50.68940
 X66.70680 Y50.16040
 X65.60710 Y46.86400
 X68.62620 Y45.14290
 X71.73810 Y43.36940
 X71.87140 Y43.29220
 X72.01070 Y43.22630
 X72.06970 Y43.19810
 X72.24210 Y43.10320
 X72.43380 Y42.97540
 X72.59040 Y42.84390
 X72.71650 Y42.70960
 X72.81670 Y42.57350
 X72.89540 Y42.43610
 X72.95740 Y42.29890
 X72.99560 Y42.19670
 X73.00690 Y42.16220
 X73.02720 Y42.10080
 X73.07600 Y41.91260
 X73.12510 Y41.64360
 X73.15470 Y41.35650
 X73.16500 Y41.05310
 X73.15630 Y40.73460
 X73.12860 Y40.40250
 X73.08260 Y40.05830
 X73.01860 Y39.70330
 X72.93670 Y39.33900
 X72.83710 Y38.96690
 X72.72040 Y38.58830
 X72.58670 Y38.20490
 X72.43630 Y37.81790
 X72.26940 Y37.42890
 X72.08670 Y37.03900
 X71.93930 Y36.74650
 X71.88810 Y36.65000
G0 Z-25.0000
 X92.47330 Y50.79960
G1 Z-41.5000
 Y112.51100
 X92.68850 Y112.40700
 X93.32420 Y112.07700
 X94.20280 Y111.57800
 X95.10350 Y111.01400
 X96.02010 Y110.38800
 X96.94720 Y109.69800
 X97.87860 Y108.94500
 X98.80850 Y108.13000
 X99.50510 Y107.47700
 X99.73140 Y107.25300
 X99.81850 Y107.16600
 X100.07700 Y106.90500
 X100.43500 Y106.53300
 X100.80500 Y106.13600
 X101.18400 Y105.71500
 X101.57200 Y105.26900
 X101.96600 Y104.80000
 X102.36500 Y104.30500
 X102.76700 Y103.78700
 X103.17200 Y103.24400
 X103.57600 Y102.67600
 X103.98000 Y102.08500
 X104.38000 Y101.46900
 X104.77700 Y100.82900
 X105.16700 Y100.16500
 X105.55000 Y99.47670
 X105.92400 Y98.76420
 X106.28700 Y98.02760
 X106.63800 Y97.26710
 X106.97600 Y96.48250
 X107.29800 Y95.67390
 X107.60300 Y94.84110
 X107.89000 Y93.98460
 X108.15700 Y93.10400
 X108.40300 Y92.19960
 X108.62500 Y91.27120
 X108.82300 Y90.31920
 X108.99500 Y89.34320
 X109.13900 Y88.34330
 X109.25400 Y87.31990
 X109.33800 Y86.27250
 X109.38900 Y85.20150
 X109.40700 Y84.38060
 Y84.10680
 X109.40800 Y50.79960
 X92.47330
G0 Z-25.0000
 X113.64100 Y46.56630
G1 Z-41.5000
 X113.64000 Y84.10680
 Y84.37100
 X113.62500 Y85.16330
 X113.58200 Y86.20580
 X113.51100 Y87.23400
 X113.41300 Y88.24790
 X113.28800 Y89.24720
 X113.13700 Y90.23190
 X112.96200 Y91.20190
 X112.76300 Y92.15710
 X112.54000 Y93.09710
 X112.29400 Y94.02190
 X112.02700 Y94.93150
 X111.73900 Y95.82570
 X111.43000 Y96.70430
 X111.10200 Y97.56720
 X110.75500 Y98.41420
 X110.39000 Y99.24530
 X110.00700 Y100.06000
 X109.60800 Y100.85900
 X109.19300 Y101.64100
 X108.76300 Y102.40700
 X108.31900 Y103.15600
 X107.86200 Y103.88900
 X107.39100 Y104.60400
 X106.90900 Y105.30300
 X106.41500 Y105.98400
 X105.91100 Y106.64800
 X105.39800 Y107.29500
 X104.87500 Y107.92300
 X104.34400 Y108.53500
 X103.80600 Y109.12800
 X103.26000 Y109.70300
 X102.84900 Y110.12300
 X102.70900 Y110.26100
 X102.47600 Y110.49200
 X101.75800 Y111.17000
 X100.79500 Y112.02500
 X99.82420 Y112.82500
 X98.85000 Y113.57100
 X97.87580 Y114.26100
 X96.90560 Y114.89400
 X95.94290 Y115.47000
 X94.99170 Y115.98800
 X94.05540 Y116.44800
 X93.13820 Y116.84900
 X92.24350 Y117.19000
 X91.37510 Y117.47000
 X90.53710 Y117.68900
 X89.73290 Y117.84700
 X88.96640 Y117.94200
 X88.42260 Y117.97300
 X88.24140
 Y8.35742
 X88.25240 Y8.03065
 X88.28500 Y7.60069
 X88.33890 Y7.17703
 X88.41330 Y6.76010
 X88.50780 Y6.35047
 X88.62190 Y5.94874
 X88.75500 Y5.55533
 X88.90650 Y5.17085
 X89.07600 Y4.79579
 X89.26290 Y4.43072
 X89.46680 Y4.07617
 X89.68690 Y3.73264
 X89.92290 Y3.40072
 X90.17430 Y3.08083
 X90.44030 Y2.77365
 X90.72060 Y2.47960
 X91.01460 Y2.19922
 X91.32170 Y1.93311
 X91.64150 Y1.68175
 X91.97330 Y1.44569
 X92.31680 Y1.22548
 X92.67140 Y1.02159
 X93.03640 Y0.83458
 X93.41140 Y0.66504
 X93.79570 Y0.51346
 X94.18920 Y0.38032
 X94.59080 Y0.26622
 X95.00040 Y0.17166
 X95.41740 Y0.09722
 X95.84100 Y0.04335
 X96.27080 Y0.01069
 X96.59760 Y-0.00038
 X96.81540
 X97.14220 Y0.01069
 X97.57220 Y0.04335
 X97.99580 Y0.09722
 X98.41280 Y0.17166
 X98.82250 Y0.26622
 X99.22420 Y0.38032
 X99.61760 Y0.51346
 X100.00200 Y0.66504
 X100.37700 Y0.83458
 X100.74200 Y1.02159
 X101.09700 Y1.22548
 X101.44000 Y1.44569
 X101.77200 Y1.68175
 X102.09200 Y1.93311
 X102.39900 Y2.19922
 X102.69300 Y2.47960
 X102.97400 Y2.77365
 X103.24000 Y3.08083
 X103.49100 Y3.40072
 X103.72700 Y3.73264
 X103.94800 Y4.07617
 X104.15100 Y4.43072
 X104.33800 Y4.79579
 X104.50800 Y5.17085
 X104.65900 Y5.55533
 X104.79300 Y5.94874
 X104.90700 Y6.35047
 X105.00100 Y6.76010
 X105.07600 Y7.17703
 X105.13000 Y7.60069
 X105.16200 Y8.03065
 X105.17300 Y8.35742
 Y46.56630
 X113.64100
G0 Z-25.0000
 X41.67330 Y97.36640
G1 Z-41.5000
 X41.56500
 X41.24030 Y97.34440
 X40.82000 Y97.28040
 X40.41420 Y97.17610
 X40.02530 Y97.03380
 X39.65510 Y96.85560
 X39.30610 Y96.64350
 X38.98030 Y96.39990
 X38.67960 Y96.12670
 X38.40640 Y95.82600
 X38.16280 Y95.50010
 X37.95070 Y95.15110
 X37.77250 Y94.78100
 X37.63030 Y94.39210
 X37.52580 Y93.98640
 X37.46180 Y93.56600
 X37.44000 Y93.24130
 Y93.02470
 X37.46180 Y92.70010
 X37.52580 Y92.27970
 X37.63030 Y91.87390
 X37.77250 Y91.48500
 X37.95070 Y91.11490
 X38.16280 Y90.76580
 X38.40640 Y90.44000
 X38.67960 Y90.13940
 X38.98030 Y89.86610
 X39.30610 Y89.62250
 X39.65510 Y89.41040
 X40.02530 Y89.23220
 X40.41420 Y89.09000
 X40.82000 Y88.98560
 X41.24030 Y88.92150
 X41.56500 Y88.89960
 X41.78150
 X42.10610 Y88.92150
 X42.52650 Y88.98560
 X42.93240 Y89.09000
 X43.32120 Y89.23220
 X43.69140 Y89.41040
 X44.04040 Y89.62250
 X44.36630 Y89.86610
 X44.66690 Y90.13940
 X44.94010 Y90.44000
 X45.18380 Y90.76580
 X45.39580 Y91.11490
 X45.57400 Y91.48500
 X45.71630 Y91.87390
 X45.82070 Y92.27970
 X45.88470 Y92.70010
 X45.90670 Y93.02470
 Y93.24130
 X45.88470 Y93.56600
 X45.82070 Y93.98640
 X45.71630 Y94.39240
 X45.57400 Y94.78140
 X45.39580 Y95.15170
 X45.18380 Y95.50080
 X44.94010 Y95.82690
 X44.66690 Y96.12760
 X44.36630 Y96.40100
 X44.04040 Y96.64470
 X43.69140 Y96.85680
 X43.32120 Y97.03500
 X42.93240 Y97.17710
 X42.52650 Y97.28130
 X42.10610 Y97.34500
 X41.78150 Y97.36650
 X41.67330 Y97.36640
G0 Z-25.0000
 X73.83530 Y47.04750
G1 Z-41.5000
 X70.72390 Y48.82100
 X70.81570 Y49.09620
 X71.08110 Y49.92540
 X71.41820 Y51.03690
 X71.73460 Y52.15540
 X72.02990 Y53.28070
 X72.30380 Y54.41260
 X72.55580 Y55.55140
 X72.78570 Y56.69640
 X72.99290 Y57.84790
 X73.17740 Y59.00580
 X73.33830 Y60.16990
 X73.47540 Y61.34000
 X73.58860 Y62.51610
 X73.67740 Y63.69810
 X73.74110 Y64.88580
 X73.77970 Y66.07930
 X73.79260 Y66.97860
 Y67.74650
 X73.76220 Y69.15150
 X73.67130 Y71.01210
 X73.52060 Y72.85960
 X73.31130 Y74.69330
 X73.04360 Y76.51260
 X72.71880 Y78.31690
 X72.33740 Y80.10570
 X71.90030 Y81.87820
 X71.40820 Y83.63370
 X70.86180 Y85.37190
 X70.26220 Y87.09190
 X69.60990 Y88.79320
 X68.90570 Y90.47510
 X68.15040 Y92.13720
 X67.34500 Y93.77860
 X66.48990 Y95.39880
 X65.58610 Y96.99720
 X64.63440 Y98.57320
 X63.63570 Y100.12600
 X62.59060 Y101.65500
 X61.49970 Y103.16000
 X60.36420 Y104.64000
 X59.18460 Y106.09500
 X57.96170 Y107.52300
 X56.69620 Y108.92500
 X55.38930 Y110.29900
 X54.04140 Y111.64600
 X52.65330 Y112.96300
 X51.22600 Y114.25200
 X49.76000 Y115.51000
 X48.25620 Y116.73800
 X47.10430 Y117.64100
 X46.71560 Y117.93500
 X46.65120 Y117.98400
 X46.44990 Y118.11800
 X46.17080 Y118.27700
 X45.88040 Y118.41200
 X45.58040 Y118.52200
 X45.27280 Y118.60800
 X44.95940 Y118.66900
 X44.64240 Y118.70600
 X44.40310 Y118.71800
 X44.24380
 X44.00530 Y118.70600
 X43.68930 Y118.66900
 X43.37720 Y118.60800
 X43.07100 Y118.52300
 X42.77220 Y118.41400
 X42.48310 Y118.28000
 X42.20530 Y118.12200
 X42.00470 Y117.98800
 X41.94070 Y117.93900
 X41.56250 Y117.65300
 X40.44170 Y116.77600
 X38.97820 Y115.58300
 X37.55080 Y114.36200
 X36.16040 Y113.11200
 X34.80740 Y111.83400
 X33.49250 Y110.52900
 X32.21670 Y109.19800
 X30.98030 Y107.84100
 X29.78420 Y106.45800
 X28.62900 Y105.05000
 X27.51540 Y103.61800
 X26.44420 Y102.16200
 X25.41600 Y100.68300
 X24.43140 Y99.18120
 X23.49130 Y97.65760
 X22.59600 Y96.11260
 X21.74650 Y94.54670
 X20.94350 Y92.96060
 X20.18750 Y91.35460
 X19.47940 Y89.72960
 X18.81970 Y88.08600
 X18.20920 Y86.42440
 X17.64830 Y84.74540
 X17.13820 Y83.04960
 X16.67920 Y81.33750
 X16.27210 Y79.60970
 X15.91740 Y77.86680
 X15.61610 Y76.10940
 X15.36880 Y74.33810
 X15.17600 Y72.55330
 X15.03850 Y70.75570
 X14.97030 Y69.39850
 X14.95710 Y68.94580
 X14.88720 Y68.85990
 X14.68240 Y68.59810
 X14.40360 Y68.22740
 X14.12120 Y67.83460
 X13.83590 Y67.42080
 X13.54790 Y66.98670
 X13.25770 Y66.53320
 X12.96580 Y66.06150
 X12.67260 Y65.57220
 X12.37860 Y65.06630
 X12.08420 Y64.54470
 X11.78990 Y64.00850
 X11.49620 Y63.45830
 X11.20340 Y62.89510
 X10.91220 Y62.32000
 X10.62280 Y61.73380
 X10.33570 Y61.13720
 X10.05150 Y60.53150
 X9.77061 Y59.91740
 X9.49338 Y59.29570
 X9.22032 Y58.66740
 X8.95193 Y58.03350
 X8.68858 Y57.39490
 X8.43083 Y56.75220
 X8.17904 Y56.10680
 X7.93371 Y55.45930
 X7.69526 Y54.81080
 X7.46419 Y54.16190
 X7.24094 Y53.51390
 X7.02599 Y52.86740
 X6.81972 Y52.22350
 X6.62261 Y51.58280
 X6.43511 Y50.94670
 X6.25776 Y50.31570
 X6.09088 Y49.69100
 X5.93506 Y49.07320
 X5.79064 Y48.46350
 X5.65815 Y47.86260
 X5.53797 Y47.27150
 X5.43067 Y46.69110
 X5.33658 Y46.12240
 X5.25624 Y45.56630
 X5.19006 Y45.02350
 X5.13846 Y44.49500
 X5.10200 Y43.98180
 X5.08106 Y43.48490
 X5.07611 Y43.00490
 X5.08762 Y42.54290
 X5.11600 Y42.09990
 X5.16174 Y41.67670
 X5.22532 Y41.27420
 X5.30707 Y40.89320
 X5.40761 Y40.53490
 X5.52735 Y40.19990
 X5.66667 Y39.88930
 X5.82607 Y39.60400
 X6.00597 Y39.34490
 X6.20692 Y39.11280
 X6.42925 Y38.90870
 X6.67350 Y38.73350
 X6.94011 Y38.58820
 X7.22954 Y38.47350
 X7.54221 Y38.39060
 X7.87858 Y38.34000
 X8.14899 Y38.32290
 X8.31282
 X8.53396 Y38.33330
 X8.84386 Y38.36460
 X9.16868 Y38.41720
 X9.42399 Y38.47060
 X9.50840 Y38.49130
 X9.87213 Y38.58080
 X10.96660 Y38.83610
 X12.43590 Y39.15530
 X13.91610 Y39.44830
 X15.40740 Y39.71470
 X16.90940 Y39.95370
 X18.42250 Y40.16530
 X19.94640 Y40.34850
 X21.09690 Y40.46820
 X21.48100 Y40.50310
 X21.70670 Y40.06610
 X22.41000 Y38.76860
 X23.39330 Y37.05900
 X24.43060 Y35.37530
 X25.52130 Y33.71820
 X26.66500 Y32.08860
 X27.86110 Y30.48760
 X29.10930 Y28.91600
 X30.07860 Y27.75500
 X30.40900 Y27.37440
 X30.49960 Y27.26490
 X30.75250 Y26.92040
 X31.04990 Y26.44830
 X31.30080 Y25.96100
 X31.50600 Y25.46070
 X31.66500 Y24.95010
 X31.77820 Y24.43180
 X31.84570 Y23.90810
 X31.86750 Y23.38140
 X31.84360 Y22.85440
 X31.77430 Y22.32960
 X31.65970 Y21.80930
 X31.49970 Y21.29620
 X31.29460 Y20.79290
 X31.04440 Y20.30150
 X30.74920 Y19.82490
 X30.49860 Y19.47670
 X30.40900 Y19.36540
 X30.34280 Y19.28380
 X30.14510 Y19.03790
 X29.87900 Y18.70320
 X29.61100 Y18.36150
 X29.34140 Y18.01360
 X29.07060 Y17.65960
 X28.79890 Y17.29990
 X28.52680 Y16.93500
 X28.25460 Y16.56540
 X27.98260 Y16.19130
 X27.71120 Y15.81310
 X27.44080 Y15.43130
 X27.17180 Y15.04620
 X26.90440 Y14.65830
 X26.63920 Y14.26790
 X26.37640 Y13.87550
 X26.11640 Y13.48140
 X25.85960 Y13.08600
 X25.60630 Y12.68980
 X25.35680 Y12.29300
 X25.11170 Y11.89620
 X24.87100 Y11.49970
 X24.63540 Y11.10390
 X24.40510 Y10.70920
 X24.18070 Y10.31600
 X23.96220 Y9.92475
 X23.75010 Y9.53575
 X23.54490 Y9.14942
 X23.34680 Y8.76617
 X23.15630 Y8.38639
 X22.97360 Y8.01053
 X22.79920 Y7.63889
 X22.63350 Y7.27192
 X22.47650 Y6.91004
 X22.32920 Y6.55360
 X22.19140 Y6.20301
 X22.06360 Y5.85861
 X21.94640 Y5.52094
 X21.83990 Y5.19026
 X21.74460 Y4.86703
 X21.66070 Y4.55165
 X21.58880 Y4.24447
 X21.52920 Y3.94590
 X21.48210 Y3.65636
 X21.44810 Y3.37619
 X21.42740 Y3.10590
 X21.42030 Y2.84576
 X21.42740 Y2.59625
 X21.44880 Y2.35775
 X21.48500 Y2.13058
 X21.53640 Y1.91525
 X21.60330 Y1.71208
 X21.68610 Y1.52149
 X21.78510 Y1.34386
 X21.90080 Y1.17963
 X22.03350 Y1.02913
 X22.18350 Y0.89285
 X22.35110 Y0.77105
 X22.53680 Y0.66422
 X22.74110 Y0.57281
 X22.96400 Y0.49707
 X23.20610 Y0.43750
 X23.46780 Y0.39442
 X23.74930 Y0.36833
 X23.97560 Y0.35948
 X24.16620
 X24.51210 Y0.37744
 X25.01560 Y0.43197
 X25.56240 Y0.52398
 X26.00680 Y0.61849
 X26.15390 Y0.65441
 X26.42710 Y0.72152
 X27.24880 Y0.91634
 X28.34920 Y1.16547
 X29.45540 Y1.40121
 X30.56760 Y1.62294
 X31.68570 Y1.83024
 X32.81000 Y2.02240
 X33.94060 Y2.19894
 X35.07750 Y2.35932
 X36.22110 Y2.50293
 X37.37130 Y2.62918
 X38.52830 Y2.73757
 X39.69250 Y2.82753
 X40.86360 Y2.89844
 X42.04190 Y2.94982
 X43.22780 Y2.98101
 X44.12280 Y2.99154
 X45.01420
 X46.79370 Y2.94997
 X49.14030 Y2.82813
 X51.46110 Y2.63032
 X53.75620 Y2.36089
 X56.02620 Y2.02425
 X58.27140 Y1.62472
 X60.49190 Y1.16667
 X62.14080 Y0.78922
 X62.68820 Y0.65441
 X62.77370 Y0.63270
 X63.20360 Y0.55767
 X63.59030 Y0.52599
 X63.81960
 X64.12130 Y0.54525
 X64.51670 Y0.60216
 X64.90220 Y0.69580
 X65.27500 Y0.82509
 X65.63190 Y0.98899
 X65.97010 Y1.18652
 X66.28680 Y1.41661
 X66.50930 Y1.60921
 X66.57870 Y1.67817
 X66.61390 Y1.71349
 X66.71210 Y1.82656
 X66.82900 Y1.98665
 X66.92970 Y2.15826
 X67.01470 Y2.34088
 X67.08430 Y2.53418
 X67.13900 Y2.73779
 X67.17920 Y2.95133
 X67.20510 Y3.17443
 X67.21720 Y3.40674
 X67.21610 Y3.64779
 X67.20210 Y3.89735
 X67.17540 Y4.15494
 X67.13650 Y4.42019
 X67.08600 Y4.69276
 X67.02400 Y4.97228
 X66.95110 Y5.25836
 X66.86760 Y5.55062
 X66.77400 Y5.84868
 X66.67070 Y6.15224
 X66.55790 Y6.46083
 X66.43630 Y6.77408
 X66.30600 Y7.09169
 X66.16750 Y7.41319
 X66.02140 Y7.73828
 X65.86780 Y8.06663
 X65.70740 Y8.39774
 X65.54010 Y8.73128
 X65.36690 Y9.06689
 X65.18790 Y9.40419
 X65.00360 Y9.74283
 X64.81430 Y10.08240
 X64.62030 Y10.42260
 X64.42220 Y10.76300
 X64.22040 Y11.10310
 X64.01530 Y11.44280
 X63.80710 Y11.78150
 X63.59640 Y12.11890
 X63.38350 Y12.45460
 X63.16870 Y12.78830
 X62.95260 Y13.11950
 X62.73570 Y13.44800
 X62.51810 Y13.77330
 X62.30040 Y14.09500
 X62.08280 Y14.41290
 X61.86600 Y14.72640
 X61.65000 Y15.03530
 X61.43560 Y15.33900
 X61.22290 Y15.63750
 X61.01260 Y15.93000
 X60.80490 Y16.21650
 X60.60010 Y16.49640
 X60.39870 Y16.76940
 X60.20130 Y17.03510
 X60.00810 Y17.29320
 X59.81940 Y17.54320
 X59.63580 Y17.78470
 X59.45760 Y18.01750
 X59.28530 Y18.24110
 X59.11900 Y18.45530
 X58.95960 Y18.65940
 X58.80710 Y18.85350
 X58.66190 Y19.03670
 X58.52470 Y19.20890
 X58.42790 Y19.32960
 X58.39570 Y19.36960
 X58.30610 Y19.48100
 X58.05580 Y19.82960
 X57.76170 Y20.30630
 X57.51320 Y20.79710
 X57.31030 Y21.29990
 X57.15320 Y21.81190
 X57.04170 Y22.33110
 X56.97580 Y22.85490
 X56.95560 Y23.38080
 X56.98080 Y23.90650
 X57.05180 Y24.42970
 X57.16820 Y24.94780
 X57.33010 Y25.45850
 X57.53760 Y25.95930
 X57.79070 Y26.44790
 X58.08900 Y26.92190
 X58.34250 Y27.26830
 X58.43310 Y27.37880
 X58.45010 Y27.39830
 X58.50190 Y27.45720
 X58.61170 Y27.58180
 X58.75970 Y27.74990
 X58.94350 Y27.95810
 X59.16000 Y28.20360
 X59.40680 Y28.48330
 X59.68110 Y28.79440
 X59.98040 Y29.13360
 X60.30190 Y29.49790
 X60.64310 Y29.88440
 X61.00100 Y30.29010
 X61.37310 Y30.71210
 X62.14920 Y31.59220
 X62.54790 Y32.04440
 X62.84940 Y32.38670
 X62.95000 Y32.50070
 X63.04920 Y32.41350
 X63.34790 Y32.15310
 X63.74780 Y31.80960
 X64.14320 Y31.47820
 X64.52820 Y31.16680
 X64.89640 Y30.88350
 X65.24170 Y30.63570
 X65.55780 Y30.43180
 X65.76650 Y30.31350
 X65.83860 Y30.27930
 X65.93710 Y30.23240
 X66.23740 Y30.10100
 X66.62960 Y29.94860
 X67.01530 Y29.82180
 X67.39430 Y29.71970
 X67.76670 Y29.64140
 X68.13220 Y29.58650
 X68.49100 Y29.55400
 X68.75490 Y29.54330
 X68.98510
 X69.41190 Y29.57170
 X69.96210 Y29.65460
 X70.49330 Y29.78850
 X71.00560 Y29.97030
 X71.49860 Y30.19640
 X71.97220 Y30.46370
 X72.42650 Y30.76860
 X72.86140 Y31.10810
 X73.27650 Y31.47860
 X73.67210 Y31.87670
 X74.04780 Y32.29920
 X74.40350 Y32.74280
 X74.73930 Y33.20390
 X75.05490 Y33.67940
 X75.35030 Y34.16600
 X75.55880 Y34.53530
 X75.62530 Y34.66000
 X75.68180 Y34.76620
 X75.84530 Y35.08790
 X76.05310 Y35.52140
 X76.24810 Y35.95970
 X76.42990 Y36.40220
 X76.59780 Y36.84780
 X76.75140 Y37.29580
 X76.88990 Y37.74540
 X77.01290 Y38.19570
 X77.11990 Y38.64580
 X77.21010 Y39.09500
 X77.28310 Y39.54250
 X77.33830 Y39.98720
 X77.37510 Y40.42860
 X77.39310 Y40.86560
 X77.39150 Y41.29750
 X77.36990 Y41.72350
 X77.32760 Y42.14260
 X77.26420 Y42.55420
 X77.17900 Y42.95720
 X77.07150 Y43.35100
 X76.94130 Y43.73460
 X76.78740 Y44.10740
 X76.60940 Y44.46820
 X76.40710 Y44.81640
 X76.17960 Y45.15120
 X75.92620 Y45.47170
 X75.64680 Y45.77710
 X75.34040 Y46.06640
 X75.00670 Y46.33900
 X74.64490 Y46.59390
 X74.25470 Y46.83040
 X73.94180 Y46.99680
 X73.83530 Y47.04750
G0 Z-25.0000
M5 (stop spindle)
G04 P3 (wait for 3 seconds)
G0 Z-25.0000
M2 (end program)
