$X
$H
G10 P0 L20 X0 Y0 Z0
G40 (disable tool radius compensation)
G49 (disable tool length compensation)
G80 (cancel modal motion)
G54 (select coordinate system 1)
G90 (disable incremental moves)
G21 (metric)
F300.00000
S250.00000
G61 (exact path mode)
;PYCAM_TOOLPATH_SETTINGS: START
;[Bounds]
;maxz = 0.0
;maxx = 128.451
;maxy = 127.556
;minx = 0.000108507
;miny = 0.895019
;minz = 0.0
;
;[Tool]
;torus_radius = 0.125
;shape = CylindricalCutter
;tool_radius = 1.5875
;feedrate = 300.0
;
;[Process]
;engrave_offset = 0.0
;step_down = 3.0
;generator = EngraveCutter
;postprocessor = SimpleCutter
;overlap_percent = 0
;milling_style = ignore
;material_allowance = 0.0
;pocketing_type = none
;path_direction = x
;
;PYCAM_TOOLPATH_SETTINGS: END
G0 Z-25.0000
M3 (start spindle)
G04 P3 (wait for 3 seconds)
 X9.44635 Y45.25680
G1 Z-53.0000
 Y45.48860
 X9.45757 Y46.18390
 X9.49138 Y47.10720
 X9.54747 Y48.02650
 X9.62582 Y48.94130
 X9.72624 Y49.85140
 X9.84858 Y50.75640
 X9.99283 Y51.65610
 X10.15870 Y52.55010
 X10.34620 Y53.43820
 X10.55510 Y54.32000
 X10.78530 Y55.19510
 X11.03670 Y56.06330
 X11.30920 Y56.92430
 X11.60260 Y57.77780
 X11.91670 Y58.62330
 X12.25160 Y59.46060
 X12.60690 Y60.28940
 X12.98260 Y61.10960
 X13.37870 Y61.92040
 X13.79480 Y62.72190
 X14.23100 Y63.51360
 X14.68690 Y64.29510
 X15.16280 Y65.06650
 X15.65820 Y65.82690
 X16.17310 Y66.57640
 X16.70740 Y67.31460
 X17.26100 Y68.04110
 X17.83350 Y68.75570
 X18.42500 Y69.45810
 X19.03540 Y70.14760
 X19.66440 Y70.82440
 X20.14830 Y71.32420
 X20.31220 Y71.48790
 X20.47610 Y71.65190
 X20.97580 Y72.13570
 X21.65260 Y72.76470
 X22.34250 Y73.37510
 X23.04470 Y73.96670
 X23.75940 Y74.53930
 X24.48600 Y75.09280
 X25.22420 Y75.62690
 X25.97370 Y76.14180
 X26.73420 Y76.63740
 X27.50540 Y77.11310
 X28.28710 Y77.56920
 X29.07890 Y78.00530
 X29.88030 Y78.42140
 X30.69130 Y78.81740
 X31.51130 Y79.19320
 X32.34010 Y79.54850
 X33.17750 Y79.88330
 X34.02310 Y80.19740
 X34.87650 Y80.49080
 X35.73750 Y80.76320
 X36.60570 Y81.01460
 X37.48080 Y81.24490
 X38.36260 Y81.45370
 X39.25070 Y81.64110
 X40.14490 Y81.80710
 X41.04460 Y81.95130
 X41.94970 Y82.07360
 X42.85990 Y82.17400
 X43.77490 Y82.25240
 X44.69420 Y82.30850
 X45.61760 Y82.34220
 X46.31310 Y82.35350
 X46.84330
 X47.73920 Y82.33880
 X48.92650 Y82.29500
 X50.10620 Y82.22220
 X51.27810 Y82.12100
 X52.44170 Y81.99170
 X53.59670 Y81.83460
 X54.74280 Y81.65000
 X55.87960 Y81.43830
 X57.00680 Y81.19990
 X58.12400 Y80.93510
 X59.23080 Y80.64430
 X60.32690 Y80.32780
 X61.41210 Y79.98580
 X62.48570 Y79.61890
 X63.54760 Y79.22740
 X64.59750 Y78.81150
 X65.63500 Y78.37170
 X66.65960 Y77.90820
 X67.67110 Y77.42150
 X68.66900 Y76.91190
 X69.65310 Y76.37970
 X70.62310 Y75.82530
 X71.57830 Y75.24900
 X72.51880 Y74.65110
 X73.44390 Y74.03220
 X74.35350 Y73.39240
 X75.24710 Y72.73210
 X76.12440 Y72.05150
 X76.98510 Y71.35140
 X77.82860 Y70.63170
 X78.65500 Y69.89290
 X79.46350 Y69.13540
 X80.25400 Y68.35960
 X81.02600 Y67.56570
 X81.77930 Y66.75400
 X82.51330 Y65.92510
 X83.22810 Y65.07920
 X83.92290 Y64.21650
 X84.59760 Y63.33750
 X85.25180 Y62.44260
 X85.88500 Y61.53210
 X86.49710 Y60.60640
 X87.08750 Y59.66570
 X87.65610 Y58.71040
 X88.20240 Y57.74100
 X88.72600 Y56.75760
 X89.22650 Y55.76070
 X89.70390 Y54.75070
 X90.15750 Y53.72780
 X90.58710 Y52.69250
 X90.99220 Y51.64500
 X91.37260 Y50.58580
 X91.72790 Y49.51510
 X92.05790 Y48.43330
 X92.36190 Y47.34080
 X92.63990 Y46.23790
 X92.89140 Y45.12490
 X93.11600 Y44.00220
 X93.31350 Y42.87030
 X93.48320 Y41.72930
 X93.62530 Y40.57960
 X93.73890 Y39.42170
 X93.82400 Y38.25580
 X93.86990 Y37.37570
 X93.88010 Y37.08220
 X63.84180 Y28.04930
 X63.97860 Y28.36360
 X64.35740 Y29.31990
 X64.81010 Y30.62080
 X65.19830 Y31.95030
 X65.52010 Y33.30650
 X65.77360 Y34.68750
 X65.95690 Y36.09140
 X66.06850 Y37.51640
 X66.10600 Y38.59940
 Y39.10470
 X66.09860 Y39.53760
 X66.07670 Y40.11110
 X66.04060 Y40.68110
 X65.99010 Y41.24690
 X65.92570 Y41.80880
 X65.84750 Y42.36640
 X65.75560 Y42.91960
 X65.65010 Y43.46820
 X65.53150 Y44.01190
 X65.39970 Y44.55070
 X65.25500 Y45.08430
 X65.09750 Y45.61260
 X64.92740 Y46.13540
 X64.74490 Y46.65260
 X64.55010 Y47.16390
 X64.34320 Y47.66920
 X64.12460 Y48.16820
 X63.89420 Y48.66100
 X63.65240 Y49.14710
 X63.39900 Y49.62640
 X63.13470 Y50.09890
 X62.85920 Y50.56420
 X62.57290 Y51.02220
 X62.27610 Y51.47290
 X61.96880 Y51.91600
 X61.65110 Y52.35110
 X61.32350 Y52.77830
 X60.98570 Y53.19740
 X60.63830 Y53.60820
 X60.28130 Y54.01030
 X59.91500 Y54.40390
 X59.53930 Y54.78850
 X59.15470 Y55.16420
 X58.76110 Y55.53060
 X58.35890 Y55.88750
 X57.94820 Y56.23490
 X57.52920 Y56.57260
 X57.10190 Y56.90030
 X56.66670 Y57.21790
 X56.22380 Y57.52530
 X55.77310 Y57.82220
 X55.31500 Y58.10830
 X54.84960 Y58.38390
 X54.37720 Y58.64830
 X53.89780 Y58.90150
 X53.41170 Y59.14330
 X52.91900 Y59.37380
 X52.42000 Y59.59250
 X51.91470 Y59.79930
 X51.40350 Y59.99400
 X50.88630 Y60.17650
 X50.36350 Y60.34670
 X49.83510 Y60.50420
 X49.30150 Y60.64890
 X48.76260 Y60.78070
 X48.21890 Y60.89930
 X47.67040 Y61.00470
 X47.11720 Y61.09670
 X46.55960 Y61.17490
 X45.99780 Y61.23930
 X45.43180 Y61.28970
 X44.86190 Y61.32580
 X44.28830 Y61.34780
 X43.85560 Y61.35510
 X43.48220
 X42.79510 Y61.33280
 X41.88710 Y61.26620
 X40.98850 Y61.15600
 X40.10040 Y61.00250
 X39.22440 Y60.80620
 X38.36140 Y60.56790
 X37.51280 Y60.28780
 X36.67990 Y59.96650
 X35.86360 Y59.60470
 X35.06560 Y59.20260
 X34.28670 Y58.76110
 X33.52850 Y58.28030
 X32.79220 Y57.76100
 X32.07870 Y57.20360
 X31.38970 Y56.60860
 X30.88820 Y56.13860
 X30.56430 Y55.81470
 X30.09400 Y55.31290
 X29.49870 Y54.62360
 X28.94130 Y53.91010
 X28.42170 Y53.17360
 X27.94080 Y52.41510
 X27.49900 Y51.63630
 X27.09690 Y50.83810
 X26.73500 Y50.02180
 X26.41380 Y49.18880
 X26.13360 Y48.34000
 X25.89510 Y47.47690
 X25.69890 Y46.60080
 X25.54540 Y45.71280
 X25.43510 Y44.81420
 X25.36860 Y43.90610
 X25.34640 Y43.21890
 Y42.79540
 X25.36610 Y42.21180
 X25.42460 Y41.44390
 X25.52110 Y40.68690
 X25.65460 Y39.94190
 X25.82390 Y39.21010
 X26.02820 Y38.49210
 X26.26670 Y37.78890
 X26.53810 Y37.10150
 X26.84180 Y36.43100
 X27.17650 Y35.77820
 X27.54150 Y35.14400
 X27.93580 Y34.52960
 X28.35830 Y33.93580
 X28.80830 Y33.36360
 X29.28440 Y32.81400
 X29.78630 Y32.28780
 X30.31240 Y31.78610
 X30.86210 Y31.30990
 X31.43430 Y30.86000
 X32.02810 Y30.43740
 X32.64250 Y30.04320
 X33.27650 Y29.67820
 X33.92930 Y29.34330
 X34.59990 Y29.03970
 X35.28720 Y28.76820
 X35.99040 Y28.52990
 X36.70850 Y28.32540
 X37.44040 Y28.15610
 X38.18530 Y28.02280
 X38.94220 Y27.92620
 X39.71030 Y27.86760
 X40.29370 Y27.84790
 X40.64960
 X41.13370 Y27.86430
 X41.77080 Y27.91290
 X42.39890 Y27.99310
 X43.01690 Y28.10360
 X43.62430 Y28.24420
 X44.22000 Y28.41380
 X44.80350 Y28.61170
 X45.37370 Y28.83680
 X45.93000 Y29.08870
 X46.47170 Y29.36670
 X46.99780 Y29.66940
 X47.50760 Y29.99670
 X48.00030 Y30.34720
 X48.47500 Y30.72060
 X48.93110 Y31.11580
 X49.36760 Y31.53210
 X49.78400 Y31.96860
 X50.17920 Y32.42470
 X50.55250 Y32.89960
 X50.90310 Y33.39220
 X51.23010 Y33.90210
 X51.53310 Y34.42810
 X51.81080 Y34.96970
 X52.06280 Y35.52610
 X52.28810 Y36.09650
 X52.48600 Y36.67990
 X52.65560 Y37.27570
 X52.79600 Y37.88290
 X52.90670 Y38.50100
 X52.98680 Y39.12900
 X53.03540 Y39.76620
 X53.05180 Y40.25040
 Y40.54670
 X53.03810 Y40.95140
 X52.99740 Y41.48390
 X52.93060 Y42.00890
 X52.83810 Y42.52540
 X52.72060 Y43.03310
 X52.57890 Y43.53100
 X52.41350 Y44.01860
 X52.22530 Y44.49530
 X52.01470 Y44.96030
 X51.78250 Y45.41310
 X51.52940 Y45.85280
 X51.25600 Y46.27880
 X50.96310 Y46.69060
 X50.65100 Y47.08740
 X50.32070 Y47.46850
 X49.97280 Y47.83350
 X49.60790 Y48.18130
 X49.22670 Y48.51170
 X48.82990 Y48.82360
 X48.41820 Y49.11650
 X47.99210 Y49.39000
 X47.55240 Y49.64310
 X47.09960 Y49.87530
 X46.63460 Y50.08580
 X46.15790 Y50.27400
 X45.67030 Y50.43930
 X45.17240 Y50.58110
 X44.66470 Y50.69850
 X44.14810 Y50.79100
 X43.62320 Y50.85790
 X43.09060 Y50.89850
 X42.68580 Y50.91220
 X42.44070
 X42.10960 Y50.90140
 X41.67210 Y50.86930
 X41.23920 Y50.81630
 X40.81120 Y50.74220
 X40.38920 Y50.64780
 X39.97320 Y50.53280
 X39.56430 Y50.39790
 X39.16280 Y50.24310
 X38.76930 Y50.06870
 X38.38470 Y49.87500
 X38.00940 Y49.66220
 X37.64390 Y49.43060
 X37.28900 Y49.18030
 X36.94510 Y48.91170
 X36.61310 Y48.62490
 X36.37140 Y48.39830
 X36.29350 Y48.32030
 X36.21530 Y48.24240
 X35.98890 Y48.00060
 X35.70210 Y47.66850
 X35.43350 Y47.32460
 X35.18320 Y46.96960
 X34.95150 Y46.60420
 X34.73860 Y46.22890
 X34.54490 Y45.84420
 X34.37060 Y45.45080
 X34.21570 Y45.04930
 X34.08070 Y44.64040
 X33.96580 Y44.22440
 X33.87120 Y43.80220
 X33.79720 Y43.37430
 X33.74400 Y42.94140
 X33.71190 Y42.50390
 X33.70130 Y42.17280
 Y41.96570
 X33.71100 Y41.67560
 X33.74010 Y41.29360
 X33.78810 Y40.91720
 X33.85440 Y40.54680
 X33.93860 Y40.18280
 X34.04030 Y39.82570
 X34.15870 Y39.47600
 X34.29390 Y39.13420
 X34.44470 Y38.80070
 X34.61130 Y38.47600
 X34.79280 Y38.16070
 X34.98890 Y37.85510
 X35.19890 Y37.55970
 X35.42260 Y37.27510
 X35.65940 Y37.00180
 X35.90900 Y36.74010
 X36.17070 Y36.49060
 X36.44390 Y36.25380
 X36.72850 Y36.02990
 X37.02370 Y35.81970
 X37.32930 Y35.62360
 X37.64460 Y35.44210
 X37.96930 Y35.27560
 X38.30260 Y35.12440
 X38.64440 Y34.98940
 X38.99420 Y34.87080
 X39.35130 Y34.76920
 X39.71530 Y34.68500
 X40.08570 Y34.61860
 X40.46210 Y34.57070
 X40.84400 Y34.54140
 X41.13420 Y34.53170
 X41.28830
 X41.46080 Y34.54330
 X41.68400 Y34.57740
 X41.89960 Y34.63280
 X42.10610 Y34.70850
 X42.30280 Y34.80320
 X42.48820 Y34.91580
 X42.66130 Y35.04530
 X42.82100 Y35.19040
 X42.96630 Y35.35010
 X43.09570 Y35.52330
 X43.20830 Y35.70880
 X43.30310 Y35.90540
 X43.37880 Y36.11190
 X43.43420 Y36.32750
 X43.46820 Y36.55070
 X43.47990 Y36.72320
 Y36.83810
 X43.46820 Y37.01040
 X43.43420 Y37.23360
 X43.37880 Y37.44920
 X43.30310 Y37.65570
 X43.20830 Y37.85240
 X43.09570 Y38.03780
 X42.96630 Y38.21100
 X42.82100 Y38.37070
 X42.66130 Y38.51580
 X42.48820 Y38.64530
 X42.30280 Y38.75810
 X42.10610 Y38.85280
 X41.89960 Y38.92850
 X41.68400 Y38.98390
 X41.46080 Y39.01790
 X41.28830 Y39.02960
 X41.15350
 X40.92140 Y39.04530
 X40.62070 Y39.09130
 X40.33040 Y39.16610
 X40.05210 Y39.26820
 X39.78710 Y39.39610
 X39.53710 Y39.54810
 X39.30360 Y39.72280
 X39.08820 Y39.91860
 X38.89240 Y40.13420
 X38.71760 Y40.36760
 X38.56560 Y40.61780
 X38.43780 Y40.88280
 X38.33570 Y41.16140
 X38.26080 Y41.45180
 X38.21470 Y41.75260
 X38.19920 Y41.98500
 Y42.17040
 X38.22010 Y42.49440
 X38.28250 Y42.91760
 X38.38540 Y43.32970
 X38.52790 Y43.72820
 X38.70890 Y44.11080
 X38.92760 Y44.47510
 X39.18290 Y44.81890
 X39.39760 Y45.06320
 X39.47400 Y45.13970
 X39.55040 Y45.21610
 X39.79440 Y45.43030
 X40.13790 Y45.68530
 X40.50220 Y45.90390
 X40.88490 Y46.08500
 X41.28350 Y46.22750
 X41.69570 Y46.33060
 X42.11890 Y46.39320
 X42.44290 Y46.41430
 X42.62810
 X42.85940 Y46.40650
 X43.16390 Y46.38320
 X43.46400 Y46.34500
 X43.75930 Y46.29220
 X44.04940 Y46.22500
 X44.33400 Y46.14400
 X44.61290 Y46.04960
 X44.88540 Y45.94190
 X45.15120 Y45.82150
 X45.41000 Y45.68880
 X45.66140 Y45.54420
 X45.90500 Y45.38790
 X46.14040 Y45.22030
 X46.36720 Y45.04190
 X46.58510 Y44.85320
 X46.79370 Y44.65430
 X46.99250 Y44.44570
 X47.18140 Y44.22790
 X47.35970 Y44.00100
 X47.52720 Y43.76570
 X47.68360 Y43.52210
 X47.82830 Y43.27070
 X47.96100 Y43.01190
 X48.08140 Y42.74610
 X48.18900 Y42.47360
 X48.28350 Y42.19490
 X48.36460 Y41.91030
 X48.43170 Y41.62000
 X48.48460 Y41.32470
 X48.52280 Y41.02460
 X48.54600 Y40.72030
 X48.55390 Y40.48890
 Y40.30810
 X48.54330 Y39.99720
 X48.51210 Y39.58810
 X48.46070 Y39.18490
 X48.38960 Y38.78790
 X48.29940 Y38.39810
 X48.19060 Y38.01560
 X48.06360 Y37.64080
 X47.91890 Y37.27470
 X47.75720 Y36.91750
 X47.57890 Y36.56990
 X47.38440 Y36.23210
 X47.17430 Y35.90470
 X46.94920 Y35.58850
 X46.70960 Y35.28370
 X46.45580 Y34.99080
 X46.18860 Y34.71060
 X45.90830 Y34.44350
 X45.61560 Y34.18970
 X45.31070 Y33.95010
 X44.99440 Y33.72500
 X44.66710 Y33.51500
 X44.32930 Y33.32070
 X43.98170 Y33.14240
 X43.62440 Y32.98070
 X43.25830 Y32.83600
 X42.88390 Y32.70900
 X42.50140 Y32.60010
 X42.11150 Y32.51000
 X41.71470 Y32.43900
 X41.31170 Y32.38760
 X40.90260 Y32.35640
 X40.59180 Y32.34580
 X40.35150
 X39.94140 Y32.35970
 X39.40150 Y32.40100
 X38.86940 Y32.46880
 X38.34580 Y32.56250
 X37.83130 Y32.68150
 X37.32650 Y32.82530
 X36.83220 Y32.99280
 X36.34900 Y33.18370
 X35.87780 Y33.39710
 X35.41890 Y33.63250
 X34.97320 Y33.88920
 X34.54120 Y34.16620
 X34.12370 Y34.46330
 X33.72150 Y34.77960
 X33.33510 Y35.11440
 X32.96530 Y35.46710
 X32.61260 Y35.83690
 X32.27790 Y36.22330
 X31.96150 Y36.62560
 X31.66460 Y37.04290
 X31.38740 Y37.47490
 X31.13080 Y37.92070
 X30.89540 Y38.37940
 X30.68210 Y38.85080
 X30.49130 Y39.33400
 X30.32360 Y39.82830
 X30.18000 Y40.33310
 X30.06080 Y40.84750
 X29.96710 Y41.37110
 X29.89930 Y41.90320
 X29.85820 Y42.44290
 X29.84430 Y42.85320
 Y43.16280
 X29.86110 Y43.68170
 X29.91140 Y44.36740
 X29.99470 Y45.04580
 X30.11060 Y45.71640
 X30.25870 Y46.37790
 X30.43890 Y47.02970
 X30.65040 Y47.67060
 X30.89290 Y48.29960
 X31.16610 Y48.91600
 X31.46970 Y49.51880
 X31.80320 Y50.10690
 X32.16610 Y50.67960
 X32.55820 Y51.23570
 X32.97890 Y51.77440
 X33.42810 Y52.29490
 X33.78290 Y52.67380
 X34.02740 Y52.91830
 X34.40630 Y53.27310
 X34.92670 Y53.72220
 X35.46540 Y54.14310
 X36.02150 Y54.53530
 X36.59430 Y54.89820
 X37.18240 Y55.23170
 X37.78510 Y55.53530
 X38.40150 Y55.80850
 X39.03060 Y56.05110
 X39.67140 Y56.26260
 X40.32320 Y56.44260
 X40.98470 Y56.59080
 X41.65530 Y56.70680
 X42.33390 Y56.79010
 X43.01940 Y56.84040
 X43.53830 Y56.85720
 X43.94110
 X44.63080 Y56.83390
 X45.53850 Y56.76460
 X46.43310 Y56.65070
 X47.31350 Y56.49310
 X48.17860 Y56.29280
 X49.02720 Y56.05120
 X49.85830 Y55.76940
 X50.67080 Y55.44860
 X51.46330 Y55.08970
 X52.23490 Y54.69400
 X52.98430 Y54.26260
 X53.71060 Y53.79650
 X54.41240 Y53.29710
 X55.08870 Y52.76540
 X55.73830 Y52.20240
 X56.36030 Y51.60940
 X56.95320 Y50.98750
 X57.51610 Y50.33790
 X58.04790 Y49.66150
 X58.54740 Y48.95970
 X59.01330 Y48.23360
 X59.44490 Y47.48420
 X59.84060 Y46.71250
 X60.19940 Y45.92000
 X60.52030 Y45.10760
 X60.80210 Y44.27650
 X61.04360 Y43.42780
 X61.24370 Y42.56280
 X61.40150 Y41.68240
 X61.51540 Y40.78760
 X61.58470 Y39.88000
 X61.60810 Y39.19040
 Y38.81280
 X61.60060 Y38.36960
 X61.57820 Y37.78220
 X61.54110 Y37.19860
 X61.48940 Y36.61920
 X61.42350 Y36.04390
 X61.34330 Y35.47280
 X61.24930 Y34.90640
 X61.14140 Y34.34470
 X61.01990 Y33.78790
 X60.88490 Y33.23610
 X60.73670 Y32.68970
 X60.57540 Y32.14860
 X60.40110 Y31.61330
 X60.21430 Y31.08380
 X60.01490 Y30.56010
 X59.80310 Y30.04280
 X59.57920 Y29.53170
 X59.34320 Y29.02720
 X59.09560 Y28.52940
 X58.83620 Y28.03850
 X58.56540 Y27.55470
 X58.28350 Y27.07820
 X57.99030 Y26.60900
 X57.68630 Y26.14760
 X57.37150 Y25.69390
 X57.04630 Y25.24830
 X56.71070 Y24.81080
 X56.36490 Y24.38170
 X56.00920 Y23.96100
 X55.64360 Y23.54920
 X55.26830 Y23.14610
 X54.88370 Y22.75220
 X54.48990 Y22.36750
 X54.08680 Y21.99240
 X53.67500 Y21.62680
 X53.25440 Y21.27100
 X52.82530 Y20.92510
 X52.38780 Y20.58960
 X51.94210 Y20.26430
 X51.48850 Y19.94960
 X51.02690 Y19.64560
 X50.55780 Y19.35240
 X50.08140 Y19.07030
 X49.59750 Y18.79960
 X49.10670 Y18.54010
 X48.60880 Y18.29240
 X48.10430 Y18.05650
 X47.59320 Y17.83260
 X47.07580 Y17.62080
 X46.55220 Y17.42140
 X46.02250 Y17.23440
 X45.48710 Y17.06030
 X44.94610 Y16.89890
 X44.39960 Y16.75070
 X43.84780 Y16.61570
 X43.29100 Y16.49420
 X42.72920 Y16.38630
 X42.16260 Y16.29220
 X41.59170 Y16.21210
 X41.01620 Y16.14610
 X40.43670 Y16.09440
 X39.85320 Y16.05740
 X39.26570 Y16.03500
 X38.82240 Y16.02740
 X38.48640
 X37.92140 Y16.03690
 X37.17290 Y16.06560
 X36.42920 Y16.11280
 X35.69060 Y16.17860
 X34.95720 Y16.26260
 X34.22940 Y16.36490
 X33.50750 Y16.48470
 X32.79170 Y16.62220
 X32.08190 Y16.77720
 X31.37880 Y16.94920
 X30.68220 Y17.13820
 X29.99280 Y17.34380
 X29.31040 Y17.56570
 X28.63540 Y17.80390
 X27.96810 Y18.05810
 X27.30860 Y18.32810
 X26.65740 Y18.61350
 X26.01430 Y18.91420
 X25.37990 Y19.22990
 X24.75420 Y19.56040
 X24.13760 Y19.90560
 X23.53030 Y20.26500
 X22.93240 Y20.63860
 X22.34430 Y21.02610
 X21.76610 Y21.42720
 X21.19810 Y21.84180
 X20.64040 Y22.26960
 X20.09350 Y22.71030
 X19.55750 Y23.16380
 X19.03250 Y23.62970
 X18.51890 Y24.10790
 X18.01680 Y24.59810
 X17.52670 Y25.10010
 X17.04850 Y25.61370
 X16.58250 Y26.13880
 X16.12900 Y26.67490
 X15.68830 Y27.22180
 X15.26070 Y27.77940
 X14.84610 Y28.34750
 X14.44500 Y28.92560
 X14.05750 Y29.51380
 X13.68390 Y30.11170
 X13.32440 Y30.71900
 X12.97930 Y31.33570
 X12.64870 Y31.96140
 X12.33300 Y32.59580
 X12.03230 Y33.23890
 X11.74690 Y33.89010
 X11.47700 Y34.54970
 X11.22280 Y35.21710
 X10.98460 Y35.89190
 X10.76260 Y36.57440
 X10.55700 Y37.26390
 X10.36810 Y37.96040
 X10.19610 Y38.66380
 X10.04120 Y39.37350
 X9.90365 Y40.08940
 X9.78369 Y40.81140
 X9.68158 Y41.53920
 X9.59750 Y42.27250
 X9.53168 Y43.01110
 X9.48443 Y43.75500
 X9.45589 Y44.50350
 X9.44635 Y45.06850
 Y45.25680
G0 Z-25.0000
 X115.20000 Y12.31900
G1 Z-53.0000
 X114.98600 Y12.10390
 X114.31800 Y11.48390
 X113.38800 Y10.70200
 X112.40900 Y9.97347
 X111.38200 Y9.29829
 X110.30700 Y8.67654
 X109.18400 Y8.10846
 X108.01400 Y7.59403
 X106.79600 Y7.13331
 X105.53200 Y6.72651
 X104.22200 Y6.37358
 X102.86500 Y6.07476
 X101.46200 Y5.83008
 X100.01300 Y5.63960
 X98.51860 Y5.50342
 X96.97920 Y5.42160
 X95.79070 Y5.39432
 X9.32781
 X22.95390 Y15.02260
 X22.98040 Y15.04120
 X23.10630 Y15.14170
 X23.22390 Y15.24970
 X23.24620 Y15.27210
 X23.46330 Y15.16000
 X24.12080 Y14.83610
 X25.00940 Y14.42490
 X25.91180 Y14.03890
 X26.82720 Y13.67870
 X27.75540 Y13.34470
 X28.69580 Y13.03730
 X29.64810 Y12.75700
 X30.61170 Y12.50430
 X31.58610 Y12.27960
 X32.57110 Y12.08330
 X33.56600 Y11.91600
 X34.57040 Y11.77810
 X35.58400 Y11.67000
 X36.60620 Y11.59220
 X37.63650 Y11.54530
 X38.41510 Y11.52950
 X38.88250
 X39.50580 Y11.54190
 X40.33080 Y11.57890
 X41.14960 Y11.64020
 X41.96150 Y11.72530
 X42.76620 Y11.83400
 X43.56350 Y11.96580
 X44.35310 Y12.12060
 X45.13430 Y12.29770
 X45.90690 Y12.49700
 X46.67080 Y12.71800
 X47.42540 Y12.96040
 X48.17040 Y13.22400
 X48.90560 Y13.50820
 X49.63010 Y13.81280
 X50.34430 Y14.13740
 X51.04740 Y14.48150
 X51.73890 Y14.84500
 X52.41890 Y15.22750
 X53.08680 Y15.62850
 X53.74210 Y16.04780
 X54.38470 Y16.48490
 X55.01430 Y16.93940
 X55.63030 Y17.41120
 X56.23240 Y17.90000
 X56.82040 Y18.40500
 X57.39380 Y18.92620
 X57.95220 Y19.46320
 X58.49540 Y20.01560
 X59.02290 Y20.58290
 X59.53460 Y21.16500
 X60.02990 Y21.76140
 X60.39100 Y22.21750
 X60.50850 Y22.37180
 X60.53360 Y22.37600
 X60.78620 Y22.43310
 X60.81150 Y22.44060
 X96.80580 Y33.26510
 X96.85000 Y33.27850
 X96.98040 Y33.32560
 X97.14750 Y33.39900
 X97.30650 Y33.48490
 X97.45710 Y33.58260
 X97.59850 Y33.69140
 X97.73010 Y33.81060
 X97.85180 Y33.93930
 X97.96290 Y34.07710
 X98.06280 Y34.22320
 X98.15100 Y34.37680
 X98.22710 Y34.53740
 X98.29040 Y34.70400
 X98.34070 Y34.87630
 X98.37720 Y35.05330
 X98.39940 Y35.23440
 X98.40690 Y35.37280
 Y79.13540
 X98.42240 Y79.58820
 X98.46780 Y80.18400
 X98.54260 Y80.77120
 X98.64610 Y81.34920
 X98.77750 Y81.91710
 X98.93600 Y82.47420
 X99.12100 Y83.01970
 X99.33170 Y83.55290
 X99.56720 Y84.07320
 X99.82690 Y84.57960
 X100.11000 Y85.07170
 X100.41600 Y85.54830
 X100.74400 Y86.00890
 X101.09300 Y86.45290
 X101.46200 Y86.87930
 X101.85200 Y87.28750
 X102.26000 Y87.67680
 X102.68600 Y88.04630
 X103.13000 Y88.39530
 X103.59100 Y88.72310
 X104.06800 Y89.02900
 X104.56000 Y89.31220
 X105.06600 Y89.57190
 X105.58600 Y89.80750
 X106.12000 Y90.01810
 X106.66500 Y90.20310
 X107.22200 Y90.36150
 X107.79000 Y90.49290
 X108.36800 Y90.59640
 X108.95500 Y90.67130
 X109.55100 Y90.71670
 X110.00400 Y90.73190
 X110.30600
 X110.75800 Y90.71670
 X111.35400 Y90.67130
 X111.94200 Y90.59640
 X112.52000 Y90.49290
 X113.08700 Y90.36150
 X113.64500 Y90.20310
 X114.19000 Y90.01810
 X114.72400 Y89.80750
 X115.24400 Y89.57190
 X115.75000 Y89.31220
 X116.24200 Y89.02900
 X116.71900 Y88.72310
 X117.18000 Y88.39530
 X117.62400 Y88.04630
 X118.05000 Y87.67680
 X118.45900 Y87.28750
 X118.84800 Y86.87930
 X119.21800 Y86.45290
 X119.56700 Y86.00890
 X119.89500 Y85.54830
 X120.20100 Y85.07170
 X120.48400 Y84.57960
 X120.74400 Y84.07320
 X120.97900 Y83.55290
 X121.19000 Y83.01970
 X121.37500 Y82.47420
 X121.53300 Y81.91710
 X121.66500 Y81.34920
 X121.76800 Y80.77120
 X121.84300 Y80.18400
 X121.88900 Y79.58820
 X121.90400 Y79.13540
 Y28.54120
 X121.90200 Y28.45280
 X121.89800 Y28.31390
 X121.89000 Y28.12680
 X121.87700 Y27.89360
 X121.85700 Y27.61680
 X121.83100 Y27.29830
 X121.79500 Y26.94060
 X121.75000 Y26.54570
 X121.69300 Y26.11600
 X121.62500 Y25.65350
 X121.54300 Y25.16060
 X121.44600 Y24.63940
 X121.33300 Y24.09220
 X121.20300 Y23.52110
 X121.05500 Y22.92860
 X120.88700 Y22.31650
 X120.69800 Y21.68740
 X120.48800 Y21.04330
 X120.25400 Y20.38650
 X119.99600 Y19.71920
 X119.71200 Y19.04350
 X119.40200 Y18.36180
 X119.06300 Y17.67620
 X118.69500 Y16.98900
 X118.29700 Y16.30250
 X117.86700 Y15.61860
 X117.40400 Y14.93990
 X116.90700 Y14.26820
 X116.37500 Y13.60610
 X115.80600 Y12.95560
 X115.35500 Y12.47480
 X115.20000 Y12.31900
G0 Z-25.0000
 X117.47800 Y119.82000
G1 Z-53.0000
 Y119.90300
 X117.49500 Y120.15100
 X117.54400 Y120.47200
 X117.62400 Y120.78200
 X117.73300 Y121.07900
 X117.86900 Y121.36200
 X118.03200 Y121.62900
 X118.21800 Y121.87900
 X118.42700 Y122.10900
 X118.65700 Y122.31800
 X118.90600 Y122.50400
 X119.17300 Y122.66700
 X119.45600 Y122.80300
 X119.75300 Y122.91200
 X120.06300 Y122.99200
 X120.38400 Y123.04100
 X120.63200 Y123.05800
 X120.79700
 X121.04600 Y123.04100
 X121.36700 Y122.99200
 X121.67700 Y122.91200
 X121.97400 Y122.80300
 X122.25700 Y122.66700
 X122.52400 Y122.50400
 X122.77400 Y122.31800
 X123.00400 Y122.10900
 X123.21300 Y121.87900
 X123.39900 Y121.62900
 X123.56200 Y121.36200
 X123.69800 Y121.07900
 X123.80700 Y120.78200
 X123.88700 Y120.47200
 X123.93600 Y120.15100
 X123.95300 Y119.90300
 Y119.73700
 X123.93600 Y119.48900
 X123.88700 Y119.16800
 X123.80700 Y118.85800
 X123.69800 Y118.56000
 X123.56200 Y118.27700
 X123.39900 Y118.01000
 X123.21300 Y117.76100
 X123.00400 Y117.53100
 X122.77400 Y117.32200
 X122.52400 Y117.13500
 X122.25700 Y116.97300
 X121.97400 Y116.83600
 X121.67700 Y116.72700
 X121.36700 Y116.64700
 X121.04600 Y116.59800
 X120.79700 Y116.58100
 X120.63200
 X120.38400 Y116.59800
 X120.06300 Y116.64700
 X119.75300 Y116.72700
 X119.45600 Y116.83600
 X119.17300 Y116.97300
 X118.90600 Y117.13500
 X118.65700 Y117.32200
 X118.42700 Y117.53100
 X118.21800 Y117.76100
 X118.03200 Y118.01000
 X117.86900 Y118.27700
 X117.73300 Y118.56000
 X117.62400 Y118.85800
 X117.54400 Y119.16800
 X117.49500 Y119.48900
 X117.47800 Y119.73700
 Y119.82000
G0 Z-25.0000
 X96.62510
G1 Z-53.0000
 Y119.90300
 X96.64180 Y120.15100
 X96.69100 Y120.47200
 X96.77100 Y120.78200
 X96.88000 Y121.07900
 X97.01650 Y121.36200
 X97.17890 Y121.62900
 X97.36560 Y121.87900
 X97.57470 Y122.10900
 X97.80470 Y122.31800
 X98.05420 Y122.50400
 X98.32120 Y122.66700
 X98.60420 Y122.80300
 X98.90150 Y122.91200
 X99.21170 Y122.99200
 X99.53290 Y123.04100
 X99.78100 Y123.05800
 X99.94620
 X100.19400 Y123.04100
 X100.51600 Y122.99200
 X100.82600 Y122.91200
 X101.12300 Y122.80300
 X101.40600 Y122.66700
 X101.67300 Y122.50400
 X101.92200 Y122.31800
 X102.15300 Y122.10900
 X102.36200 Y121.87900
 X102.54800 Y121.62900
 X102.71100 Y121.36200
 X102.84700 Y121.07900
 X102.95600 Y120.78200
 X103.03600 Y120.47200
 X103.08500 Y120.15100
 X103.10200 Y119.90300
 Y119.73700
 X103.08500 Y119.48900
 X103.03600 Y119.16800
 X102.95600 Y118.85800
 X102.84700 Y118.56000
 X102.71100 Y118.27700
 X102.54800 Y118.01000
 X102.36200 Y117.76100
 X102.15300 Y117.53100
 X101.92200 Y117.32200
 X101.67300 Y117.13500
 X101.40600 Y116.97300
 X101.12300 Y116.83600
 X100.82600 Y116.72700
 X100.51600 Y116.64700
 X100.19400 Y116.59800
 X99.94620 Y116.58100
 X99.78100
 X99.53290 Y116.59800
 X99.21170 Y116.64700
 X98.90150 Y116.72700
 X98.60420 Y116.83600
 X98.32120 Y116.97300
 X98.05420 Y117.13500
 X97.80470 Y117.32200
 X97.57470 Y117.53100
 X97.36560 Y117.76100
 X97.17890 Y118.01000
 X97.01650 Y118.27700
 X96.88000 Y118.56000
 X96.77100 Y118.85800
 X96.69100 Y119.16800
 X96.64180 Y119.48900
 X96.62510 Y119.73700
 Y119.82000
G0 Z-25.0000
 X126.40200 Y78.98440
G1 Z-53.0000
 Y79.15970
 X126.38700 Y79.68560
 X126.34300 Y80.37900
 X126.26900 Y81.06430
 X126.16700 Y81.74080
 X126.03800 Y82.40820
 X125.88100 Y83.06540
 X125.69800 Y83.71220
 X125.48900 Y84.34780
 X125.25500 Y84.97170
 X124.99700 Y85.58330
 X124.71400 Y86.18180
 X124.40800 Y86.76690
 X124.08000 Y87.33790
 X123.72900 Y87.89420
 X123.35700 Y88.43500
 X123.06500 Y88.83080
 X122.96400 Y88.96000
 Y112.41800
 X123.11200 Y112.46300
 X123.54800 Y112.62200
 X124.11000 Y112.87000
 X124.64800 Y113.16100
 X125.15900 Y113.49200
 X125.64200 Y113.86100
 X126.09400 Y114.26600
 X126.51300 Y114.70400
 X126.89700 Y115.17400
 X127.24400 Y115.67400
 X127.55100 Y116.20100
 X127.81700 Y116.75400
 X128.04000 Y117.32900
 X128.21600 Y117.92600
 X128.34500 Y118.54100
 X128.42400 Y119.17300
 X128.45100 Y119.65800
 Y119.91900
 X128.44100 Y120.21800
 X128.41100 Y120.61000
 X128.36200 Y120.99700
 X128.29400 Y121.37700
 X128.20700 Y121.75100
 X128.10300 Y122.11800
 X127.98100 Y122.47700
 X127.84200 Y122.82800
 X127.68700 Y123.17100
 X127.51600 Y123.50500
 X127.33000 Y123.82900
 X127.12800 Y124.14200
 X126.91200 Y124.44600
 X126.68200 Y124.73800
 X126.43900 Y125.01900
 X126.18300 Y125.28800
 X125.91400 Y125.54400
 X125.63300 Y125.78800
 X125.34100 Y126.01700
 X125.03700 Y126.23300
 X124.72300 Y126.43500
 X124.40000 Y126.62100
 X124.06600 Y126.79200
 X123.72300 Y126.94700
 X123.37200 Y127.08600
 X123.01300 Y127.20800
 X122.64600 Y127.31200
 X122.27200 Y127.39900
 X121.89200 Y127.46700
 X121.50500 Y127.51600
 X121.11200 Y127.54600
 X120.81400 Y127.55600
 X120.61600
 X120.31800 Y127.54600
 X119.92500 Y127.51600
 X119.53800 Y127.46700
 X119.15800 Y127.39900
 X118.78400 Y127.31200
 X118.41700 Y127.20800
 X118.05800 Y127.08600
 X117.70700 Y126.94700
 X117.36400 Y126.79200
 X117.03100 Y126.62100
 X116.70700 Y126.43500
 X116.39300 Y126.23300
 X116.09000 Y126.01700
 X115.79700 Y125.78800
 X115.51700 Y125.54400
 X115.24800 Y125.28800
 X114.99200 Y125.01900
 X114.74800 Y124.73800
 X114.51900 Y124.44600
 X114.30300 Y124.14200
 X114.10100 Y123.82900
 X113.91500 Y123.50500
 X113.74400 Y123.17100
 X113.58900 Y122.82800
 X113.45000 Y122.47700
 X113.32800 Y122.11800
 X113.22400 Y121.75100
 X113.13700 Y121.37700
 X113.06900 Y120.99700
 X113.02000 Y120.61000
 X112.99000 Y120.21800
 X112.98000 Y119.91900
 Y119.65800
 X113.00700 Y119.17300
 X113.08600 Y118.54100
 X113.21400 Y117.92600
 X113.39100 Y117.33000
 X113.61400 Y116.75400
 X113.88000 Y116.20200
 X114.18700 Y115.67500
 X114.53400 Y115.17500
 X114.91800 Y114.70500
 X115.33700 Y114.26600
 X115.78800 Y113.86100
 X116.27100 Y113.49200
 X116.78200 Y113.16200
 X117.32000 Y112.87100
 X117.88200 Y112.62200
 X118.31800 Y112.46300
 X118.46600 Y112.41800
 Y92.93680
 X118.35200 Y93.00510
 X118.00500 Y93.20240
 X117.53500 Y93.45320
 X117.05600 Y93.68890
 X116.56800 Y93.90900
 X116.07200 Y94.11350
 X115.56800 Y94.30180
 X115.05600 Y94.47390
 X114.53700 Y94.62900
 X114.01000 Y94.76720
 X113.47700 Y94.88810
 X112.93800 Y94.99110
 X112.39200 Y95.07630
 X111.84100 Y95.14310
 X111.28400 Y95.19110
 X110.72200 Y95.22010
 X110.29700 Y95.22990
 X109.88300
 X109.06700 Y95.19380
 X107.99800 Y95.08680
 X106.95100 Y94.91140
 X105.92700 Y94.67010
 X104.92900 Y94.36500
 X103.95900 Y93.99860
 X103.02000 Y93.57330
 X102.33500 Y93.21890
 X102.11300 Y93.09140
 Y112.41800
 X102.26000 Y112.46300
 X102.69700 Y112.62200
 X103.25900 Y112.87000
 X103.79700 Y113.16100
 X104.30800 Y113.49200
 X104.79100 Y113.86100
 X105.24300 Y114.26600
 X105.66200 Y114.70400
 X106.04600 Y115.17400
 X106.39300 Y115.67400
 X106.70000 Y116.20100
 X106.96600 Y116.75400
 X107.18900 Y117.32900
 X107.36500 Y117.92600
 X107.49400 Y118.54100
 X107.57300 Y119.17300
 X107.60000 Y119.65800
 Y119.91900
 X107.59000 Y120.21800
 X107.56000 Y120.61000
 X107.51100 Y120.99700
 X107.44300 Y121.37700
 X107.35600 Y121.75100
 X107.25200 Y122.11800
 X107.13000 Y122.47700
 X106.99100 Y122.82800
 X106.83600 Y123.17100
 X106.66500 Y123.50500
 X106.47800 Y123.82900
 X106.27700 Y124.14200
 X106.06100 Y124.44600
 X105.83100 Y124.73800
 X105.58800 Y125.01900
 X105.33200 Y125.28800
 X105.06300 Y125.54400
 X104.78200 Y125.78800
 X104.49000 Y126.01700
 X104.18600 Y126.23300
 X103.87200 Y126.43500
 X103.54800 Y126.62100
 X103.21500 Y126.79200
 X102.87200 Y126.94700
 X102.52100 Y127.08600
 X102.16200 Y127.20800
 X101.79500 Y127.31200
 X101.42100 Y127.39900
 X101.04000 Y127.46700
 X100.65300 Y127.51600
 X100.26100 Y127.54600
 X99.96290 Y127.55600
 X99.76420
 X99.46610 Y127.54600
 X99.07360 Y127.51600
 X98.68680 Y127.46700
 X98.30620 Y127.39900
 X97.93220 Y127.31200
 X97.56530 Y127.20800
 X97.20610 Y127.08600
 X96.85490 Y126.94700
 X96.51220 Y126.79200
 X96.17880 Y126.62100
 X95.85470 Y126.43500
 X95.54080 Y126.23300
 X95.23740 Y126.01700
 X94.94510 Y125.78800
 X94.66430 Y125.54400
 X94.39540 Y125.28800
 X94.13920 Y125.01900
 X93.89580 Y124.73800
 X93.66600 Y124.44600
 X93.45010 Y124.14200
 X93.24860 Y123.82900
 X93.06220 Y123.50500
 X92.89110 Y123.17100
 X92.73610 Y122.82800
 X92.59740 Y122.47700
 X92.47560 Y122.11800
 X92.37110 Y121.75100
 X92.28460 Y121.37700
 X92.21650 Y120.99700
 X92.16720 Y120.61000
 X92.13720 Y120.21800
 X92.12720 Y119.91900
 Y119.65800
 X92.15400 Y119.17300
 X92.23290 Y118.54100
 X92.36180 Y117.92600
 X92.53850 Y117.33000
 X92.76100 Y116.75400
 X93.02710 Y116.20200
 X93.33460 Y115.67500
 X93.68140 Y115.17500
 X94.06530 Y114.70500
 X94.48440 Y114.26600
 X94.93630 Y113.86100
 X95.41900 Y113.49200
 X95.93030 Y113.16200
 X96.46810 Y112.87100
 X97.03030 Y112.62200
 X97.46680 Y112.46300
 X97.61470 Y112.41800
 Y89.30180
 X97.50630 Y89.17030
 X97.19180 Y88.76640
 X96.79130 Y88.21320
 X96.41360 Y87.64280
 X96.05960 Y87.05610
 X95.73000 Y86.45360
 X95.42560 Y85.83600
 X95.14670 Y85.20420
 X94.89430 Y84.55850
 X94.66900 Y83.90000
 X94.47150 Y83.22920
 X94.30250 Y82.54680
 X94.16260 Y81.85350
 X94.05280 Y81.14990
 X93.97330 Y80.43670
 X93.92530 Y79.71470
 X93.90900 Y79.16710
 Y56.35690
 X93.78860 Y56.62310
 X93.41470 Y57.41600
 X92.89580 Y58.46400
 X92.35240 Y59.50080
 X91.78440 Y60.52610
 X91.19220 Y61.53940
 X90.57580 Y62.54040
 X89.93560 Y63.52870
 X89.27150 Y64.50420
 X88.58360 Y65.46610
 X87.87220 Y66.41440
 X87.13750 Y67.34870
 X86.37940 Y68.26850
 X85.59830 Y69.17360
 X84.79420 Y70.06350
 X83.96720 Y70.93810
 X83.33240 Y71.58440
 X83.11760 Y71.79670
 X82.88780 Y72.02370
 X82.18720 Y72.69390
 X81.23890 Y73.56560
 X80.27280 Y74.41120
 X79.28940 Y75.23080
 X78.28940 Y76.02400
 X77.27310 Y76.79100
 X76.24070 Y77.53110
 X75.19280 Y78.24460
 X74.13000 Y78.93100
 X73.05250 Y79.59010
 X71.96100 Y80.22190
 X70.85570 Y80.82640
 X69.73710 Y81.40290
 X68.60560 Y81.95170
 X67.46180 Y82.47220
 X66.30600 Y82.96460
 X65.13860 Y83.42850
 X63.96010 Y83.86370
 X62.77110 Y84.27030
 X61.57180 Y84.64780
 X60.36280 Y84.99610
 X59.14430 Y85.31510
 X57.91710 Y85.60460
 X56.68130 Y85.86430
 X55.43750 Y86.09420
 X54.18620 Y86.29400
 X52.92760 Y86.46360
 X51.66250 Y86.60260
 X50.39100 Y86.71130
 X49.11370 Y86.78900
 X47.83100 Y86.83580
 X46.86530 Y86.85140
 X46.28350
 X45.50380 Y86.83880
 X44.46850 Y86.80080
 X43.43780 Y86.73810
 X42.41210 Y86.65010
 X41.39150 Y86.53750
 X40.37680 Y86.40030
 X39.36790 Y86.23860
 X38.36560 Y86.05260
 X37.36990 Y85.84240
 X36.38120 Y85.60820
 X35.39990 Y85.35000
 X34.42650 Y85.06810
 X33.46110 Y84.76260
 X32.50420 Y84.43360
 X31.55630 Y84.08140
 X30.61740 Y83.70600
 X29.68810 Y83.30750
 X28.76860 Y82.88630
 X27.85940 Y82.44220
 X26.96080 Y81.97560
 X26.07310 Y81.48650
 X25.19670 Y80.97510
 X24.33190 Y80.44170
 X23.47920 Y79.88630
 X22.63890 Y79.30900
 X21.81110 Y78.71000
 X20.99650 Y78.08930
 X20.19530 Y77.44740
 X19.40790 Y76.78420
 X18.63460 Y76.09970
 X17.87570 Y75.39440
 X17.31540 Y74.85210
 X17.13170 Y74.66820
 X16.94780 Y74.48440
 X16.40540 Y73.92430
 X15.70010 Y73.16540
 X15.01580 Y72.39210
 X14.35250 Y71.60470
 X13.71060 Y70.80350
 X13.09000 Y69.98890
 X12.49100 Y69.16110
 X11.91370 Y68.32070
 X11.35820 Y67.46810
 X10.82480 Y66.60330
 X10.31340 Y65.72690
 X9.82437 Y64.83930
 X9.35781 Y63.94070
 X8.91374 Y63.03150
 X8.49240 Y62.11190
 X8.09397 Y61.18260
 X7.71853 Y60.24370
 X7.36626 Y59.29580
 X7.03733 Y58.33890
 X6.73182 Y57.37350
 X6.44993 Y56.40010
 X6.19174 Y55.41890
 X5.95747 Y54.43030
 X5.74724 Y53.43460
 X5.56119 Y52.43210
 X5.39953 Y51.42330
 X5.26226 Y50.40850
 X5.14963 Y49.38810
 X5.06179 Y48.36240
 X4.99892 Y47.33170
 X4.96104 Y46.29640
 X4.94840 Y45.51670
 Y44.99280
 X4.96468 Y44.20080
 X5.01324 Y43.15290
 X5.09364 Y42.11350
 X5.20535 Y41.08310
 X5.34787 Y40.06190
 X5.52078 Y39.05070
 X5.72353 Y38.04990
 X5.95568 Y37.06000
 X6.21679 Y36.08140
 X6.50635 Y35.11460
 X6.82379 Y34.16010
 X7.16878 Y33.21850
 X7.54075 Y32.29000
 X7.93924 Y31.37530
 X8.36376 Y30.47490
 X8.81386 Y29.58900
 X9.28901 Y28.71850
 X9.78879 Y27.86360
 X10.31270 Y27.02470
 X10.86020 Y26.20250
 X11.43090 Y25.39750
 X12.02420 Y24.60990
 X12.63980 Y23.84040
 X13.27710 Y23.08940
 X13.93560 Y22.35750
 X14.61490 Y21.64510
 X15.31440 Y20.95260
 X16.03390 Y20.28060
 X16.77250 Y19.62940
 X17.53000 Y18.99970
 X18.30600 Y18.39190
 X18.89920 Y17.94990
 X19.09970 Y17.80650
 X0.95074 Y4.98085
 X0.87706 Y4.92882
 X0.67280 Y4.74886
 X0.43978 Y4.48063
 X0.25385 Y4.18246
 X0.11713 Y3.86068
 X0.03185 Y3.52154
 X0.00011 Y3.17133
 X0.02420 Y2.81646
 X0.07872 Y2.54926
 X0.10617 Y2.46311
 X0.11990 Y2.41976
 X0.16829 Y2.29183
 X0.24311 Y2.12793
 X0.32997 Y1.97206
 X0.42822 Y1.82460
 X0.53711 Y1.68608
 X0.65603 Y1.55707
 X0.78434 Y1.43799
 X0.92128 Y1.32932
 X1.06624 Y1.23155
 X1.21859 Y1.14524
 X1.37755 Y1.07086
 X1.54254 Y1.00890
 X1.71278 Y0.95980
 X1.88775 Y0.92415
 X2.06668 Y0.90240
 X2.20340 Y0.89502
 X95.62360
 X96.31080 Y0.90321
 X97.21470 Y0.92773
 X98.10620 Y0.96859
 X98.98560 Y1.02572
 X99.85240 Y1.09912
 X100.70700 Y1.18886
 X101.54900 Y1.29481
 X102.37800 Y1.41704
 X103.19500 Y1.55550
 X103.99900 Y1.71024
 X104.79100 Y1.88112
 X105.57000 Y2.06819
 X106.33700 Y2.27149
 X107.09000 Y2.49094
 X107.83100 Y2.72657
 X108.55900 Y2.97831
 X109.27400 Y3.24615
 X109.97600 Y3.53011
 X110.66600 Y3.83018
 X111.34200 Y4.14638
 X112.00500 Y4.47857
 X112.65600 Y4.82688
 X113.29300 Y5.19119
 X113.91700 Y5.57150
 X114.52800 Y5.96788
 X115.12500 Y6.38021
 X115.71000 Y6.80860
 X116.28100 Y7.25287
 X116.83800 Y7.71317
 X117.38300 Y8.18935
 X117.91400 Y8.68147
 X118.30400 Y9.06071
 X118.43100 Y9.18951
 X118.61700 Y9.37679
 X119.15700 Y9.95410
 X119.83700 Y10.73280
 X120.47400 Y11.52310
 X121.06800 Y12.32270
 X121.62100 Y13.12910
 X122.13400 Y13.94000
 X122.60900 Y14.75280
 X123.04800 Y15.56500
 X123.45100 Y16.37440
 X123.82100 Y17.17850
 X124.15900 Y17.97470
 X124.46500 Y18.76100
 X124.74300 Y19.53430
 X124.99300 Y20.29280
 X125.21600 Y21.03360
 X125.41400 Y21.75460
 X125.58900 Y22.45320
 X125.74200 Y23.12690
 X125.87500 Y23.77360
 X125.98800 Y24.39060
 X126.08400 Y24.97540
 X126.16400 Y25.52570
 X126.22900 Y26.03900
 X126.28100 Y26.51310
 X126.32200 Y26.94510
 X126.35200 Y27.33310
 X126.37300 Y27.67430
 X126.38700 Y27.96650
 X126.39600 Y28.20710
 X126.40000 Y28.39360
 X126.40100 Y28.52370
 Y78.98440
 X126.40200
G0 Z-25.0000
M5 (stop spindle)
G04 P3 (wait for 3 seconds)
G0 Z-25.0000
M2 (end program)
