$X
$H
G10 P0 L20 X0 Y0 Z0
G40 (disable tool radius compensation)
G49 (disable tool length compensation)
G80 (cancel modal motion)
G54 (select coordinate system 1)
G90 (disable incremental moves)
G21 (metric)
F300.00000
S250.00000
G61 (exact path mode)
;PYCAM_TOOLPATH_SETTINGS: START
;[Bounds]
;maxz = 0.0
;maxx = 13.2421
;maxy = 13.4938
;minx = 0.251899
;miny = 0.0
;minz = 0.0
;
;[Tool]
;torus_radius = 0.125
;shape = CylindricalCutter
;tool_radius = 1.5875
;feedrate = 300.0
;
;[Process]
;engrave_offset = 0.0
;step_down = 3.0
;generator = EngraveCutter
;postprocessor = SimpleCutter
;overlap_percent = 0
;milling_style = ignore
;material_allowance = 0.0
;pocketing_type = none
;path_direction = x
;
;PYCAM_TOOLPATH_SETTINGS: END
G0 Z-25.0000
M3 (start spindle)
G04 P3 (wait for 3 seconds)
 X6.90668 Y2.72450
G1 Z-41.5000
 X6.86692 Y2.68847
 X6.73497 Y2.59446
 X6.55761 Y2.50103
 X6.38325 Y2.43832
 X6.22060 Y2.40039
 X6.07840 Y2.38124
 X5.96544 Y2.37494
 X5.89040 Y2.37549
 X5.86914 Y2.37701
 X5.86208
 X5.83458 Y2.37842
 X5.77463
 X5.59494 Y2.39378
 X5.36897 Y2.43761
 X5.15647 Y2.50683
 X4.95736 Y2.59842
 X4.77138 Y2.70921
 X4.59842 Y2.83604
 X4.43826 Y2.97586
 X4.29081 Y3.12549
 X4.15587 Y3.28190
 X4.03321 Y3.44189
 X3.92275 Y3.60243
 X3.82433 Y3.76031
 X3.73768 Y3.91249
 X3.66276 Y4.05583
 X3.59928 Y4.18722
 X3.55979 Y4.27431
 X3.54719 Y4.30354
 X3.70583 Y4.33914
 X4.17822 Y4.46197
 X4.76367 Y4.64432
 X5.30757 Y4.85200
 X5.68951 Y5.02328
 X5.81381 Y5.08637
 X5.88949 Y5.12468
 X6.12690 Y5.21913
 X6.40782 Y5.28435
 X6.65571 Y5.28157
 X6.82064 Y5.23676
 X6.86963 Y5.21050
 X6.90907 Y5.18918
 X7.01654 Y5.10471
 X7.13585 Y4.97006
 X7.23019 Y4.81825
 X7.30236 Y4.66103
 X7.35488 Y4.51025
 X7.39057 Y4.37765
 X7.41206 Y4.27496
 X7.41992 Y4.22922
 X7.42210 Y4.21392
 X7.42182 Y4.15224
 X7.41303 Y3.96718
 X7.38803 Y3.73736
 X7.34711 Y3.52468
 X7.29042 Y3.32926
 X7.21799 Y3.15142
 X7.12983 Y2.99121
 X7.02604 Y2.84885
 X6.93853 Y2.75336
 X6.90668 Y2.72450
G0 Z-25.0000
 X11.45570 Y8.88010
G1 Z-41.5000
 X11.42730 Y8.86160
 X11.33560 Y8.81565
 X11.20210 Y8.76904
 X11.05720 Y8.74078
 X10.94150 Y8.73122
 X9.82275
 X9.83268 Y8.74843
 X9.92665 Y8.92432
 X9.93565 Y8.94222
 X9.93668 Y8.94390
 X9.94700 Y8.96208
 X9.94797 Y8.96408
 X9.95481 Y8.97819
 X10.02390 Y9.12067
 X10.03090 Y9.13519
 X10.03260 Y9.13926
 X10.05110 Y9.18044
 X10.05270 Y9.18457
 X10.05790 Y9.19596
 X10.10610 Y9.31218
 X10.11060 Y9.32389
 X10.11310 Y9.32904
 X10.13610 Y9.38303
 X10.13810 Y9.38846
 X10.14150 Y9.39817
 X10.17590 Y9.49457
 X10.17940 Y9.50418
 X10.18150 Y9.51079
 X10.20510 Y9.57775
 X10.20730 Y9.58425
 X10.20890 Y9.58946
 X10.22320 Y9.64258
 X10.22490 Y9.64779
 X10.23180 Y9.67156
 X10.28850 Y9.90369
 X10.29260 Y9.92611
 X10.29330 Y9.92850
 X10.29870 Y9.95258
 X10.29940 Y9.95503
 X10.30110 Y9.96610
 X10.31590 Y10.07630
 X10.31730 Y10.08730
 X10.31770 Y10.09180
 X10.32370 Y10.13500
 X10.32440 Y10.13950
 X10.32570 Y10.15470
 X10.33250 Y10.27780
 Y10.31870
 X12.63120
 X12.60880 Y10.27690
 X12.53930 Y10.15230
 X12.42960 Y9.96799
 X12.30330 Y9.77268
 X12.16120 Y9.57351
 X12.00440 Y9.37761
 X11.83390 Y9.19206
 X11.65060 Y9.02387
 X11.50650 Y8.91282
 X11.45570 Y8.88010
G0 Z-25.0000
 X6.89290 Y10.84790
G1 Z-41.5000
 Y10.88790
 X6.90901 Y11.00790
 X6.95529 Y11.15680
 X7.02849 Y11.29170
 X7.12549 Y11.40910
 X7.24294 Y11.50610
 X7.37776 Y11.57930
 X7.52675 Y11.62550
 X7.64671 Y11.64170
 X7.72011
 X7.82047 Y11.63030
 X7.94683 Y11.59740
 X8.06392 Y11.54500
 X8.17003 Y11.47490
 X8.26335 Y11.38910
 X8.34207 Y11.28940
 X8.40446 Y11.17780
 X8.44015 Y11.08720
 X8.44868 Y11.05600
 X8.43110 Y11.06470
 X8.33740 Y11.09730
 X8.24621 Y11.11250
 X8.18913
 X8.10921 Y11.10180
 X8.00988 Y11.07100
 X7.92003 Y11.02210
 X7.84169 Y10.95750
 X7.77707 Y10.87920
 X7.72825 Y10.78930
 X7.69743 Y10.68990
 X7.68668 Y10.61000
 Y10.54620
 X7.70811 Y10.43470
 X7.76833 Y10.30270
 X7.86111 Y10.19330
 X7.94824 Y10.12800
 X7.98019 Y10.11200
 X7.95742 Y10.10310
 X7.83806 Y10.06960
 X7.72450 Y10.05410
 X7.64671
 X7.52675 Y10.07030
 X7.37776 Y10.11660
 X7.24294 Y10.18980
 X7.12549 Y10.28670
 X7.02849 Y10.40420
 X6.95529 Y10.53910
 X6.90901 Y10.68800
 X6.89290 Y10.80800
 Y10.84790
G0 Z-25.0000
 X9.86968 Y6.13232
G1 Z-41.5000
 X9.90967 Y6.05296
 X10.01430 Y5.80681
 X10.12490 Y5.47342
 X10.20240 Y5.13428
 X10.24710 Y4.79150
 X10.25980 Y4.44715
 X10.24090 Y4.10335
 X10.19110 Y3.76226
 X10.11100 Y3.42583
 X10.00110 Y3.09631
 X9.86208 Y2.77572
 X9.69444 Y2.46615
 X9.49892 Y2.16976
 X9.27593 Y1.88857
 X9.02621 Y1.62472
 X8.75022 Y1.38032
 X8.52636 Y1.20974
 X8.44868 Y1.15744
 X8.39367 Y1.12044
 X8.33886 Y1.08431
 X8.16911 Y0.98383
 X7.93636 Y0.86464
 X7.69629 Y0.76318
 X7.44965 Y0.67958
 X7.19732 Y0.61415
 X6.94021 Y0.56711
 X6.67914 Y0.53874
 X6.48096 Y0.52919
 X4.53836
 X4.34967 Y0.53646
 X4.11447 Y0.55827
 X3.89432 Y0.59484
 X3.73861 Y0.63129
 X3.68761 Y0.64627
 X3.62424 Y0.66509
 X3.43733 Y0.73210
 X3.20193 Y0.83556
 X2.98107 Y0.95535
 X2.77414 Y1.09017
 X2.58078 Y1.23872
 X2.40050 Y1.39963
 X2.23281 Y1.57161
 X2.07731 Y1.75331
 X1.93354 Y1.94336
 X1.80100 Y2.14051
 X1.67925 Y2.34343
 X1.56782 Y2.55078
 X1.46631 Y2.76118
 X1.37419 Y2.97336
 X1.29102 Y3.18604
 X1.21642 Y3.39774
 X1.14979 Y3.60732
 X1.09082 Y3.81332
 X1.03895 Y4.01443
 X0.99376 Y4.20942
 X0.95481 Y4.39686
 X0.92160 Y4.57547
 X0.89372 Y4.74393
 X0.87071 Y4.90088
 X0.85205 Y5.04503
 X0.83735 Y5.17503
 X0.82612 Y5.28956
 X0.81787 Y5.38726
 X0.81223 Y5.46690
 X0.80870 Y5.52707
 X0.80680 Y5.56646
 X0.80626 Y5.57949
 X0.80610 Y5.58376
 X0.79910 Y5.65115
 X0.78602 Y5.85394
 X0.78190 Y6.11393
 X0.79221 Y6.36356
 X0.81559 Y6.60265
 X0.85069 Y6.83100
 X0.89600 Y7.04850
 X0.95014 Y7.25489
 X1.01177 Y7.44993
 X1.07943 Y7.63357
 X1.15169 Y7.80556
 X1.22721 Y7.96571
 X1.30458 Y8.11382
 X1.38232 Y8.24972
 X1.45910 Y8.37326
 X1.53347 Y8.48421
 X1.58599 Y8.55811
 X1.60406 Y8.58236
 X1.39031 Y8.74078
 X1.63585 Y8.58658
 X3.26779 Y6.95464
 X3.45882 Y6.78754
 X3.72233 Y6.59571
 X3.99744 Y6.43946
 X4.21013 Y6.34511
 X4.28310 Y6.31967
 X4.33062 Y6.30311
 X4.47592 Y6.26069
 X4.65961 Y6.22103
 X4.83404 Y6.20063
 X4.99914 Y6.19949
 X5.15468 Y6.21761
 X5.30067 Y6.25493
 X5.43690 Y6.31142
 X5.53326 Y6.36600
 X5.56332 Y6.38704
 X5.60612 Y6.41710
 X5.72222 Y6.52485
 X5.84651 Y6.68354
 X5.94032 Y6.85499
 X6.00782 Y7.03108
 X6.05328 Y7.20372
 X6.08083 Y7.36475
 X6.09472 Y7.50597
 X6.09885 Y7.59099
 X6.09918 Y7.61931
 X6.09950 Y7.64578
 X6.07026 Y7.77007
 X6.00239 Y7.87799
 X5.98346 Y7.89621
 X5.97478 Y7.90451
 X5.91585 Y7.95514
 X5.83768 Y8.01824
 X5.81944 Y8.03276
 X5.79958 Y8.04856
 X5.74024 Y8.09603
 X5.65088 Y8.16922
 X5.55344 Y8.25244
 X5.45003 Y8.34586
 X5.34272 Y8.44971
 X5.23367 Y8.56401
 X5.12500 Y8.68901
 X5.01882 Y8.82482
 X4.91715 Y8.97157
 X4.82226 Y9.12950
 X4.73617 Y9.29867
 X4.66097 Y9.47922
 X4.59879 Y9.67139
 X4.55176 Y9.87528
 X4.52203 Y10.09100
 X4.51167 Y10.26180
 Y10.38630
 X4.52533 Y10.58900
 X4.56549 Y10.85150
 X4.63075 Y11.10490
 X4.71983 Y11.34790
 X4.83132 Y11.57920
 X4.96397 Y11.79730
 X5.11643 Y12.00100
 X5.28728 Y12.18900
 X5.47526 Y12.35990
 X5.67899 Y12.51230
 X5.89714 Y12.64490
 X6.12836 Y12.75640
 X6.37136 Y12.84550
 X6.62478 Y12.91070
 X6.88726 Y12.95090
 X7.08990 Y12.96460
 X7.22043
 X7.40935 Y12.95270
 X7.65457 Y12.91780
 X7.89208 Y12.86080
 X8.12082 Y12.78290
 X8.33968 Y12.68520
 X8.54758 Y12.56870
 X8.74349 Y12.43470
 X8.92622 Y12.28400
 X9.09478 Y12.11780
 X9.24799 Y11.93730
 X9.38482 Y11.74340
 X9.50424 Y11.53730
 X9.60504 Y11.32010
 X9.68625 Y11.09280
 X9.74669 Y10.85650
 X9.77860 Y10.67370
 X9.78538 Y10.61220
 X9.79101 Y10.56010
 X9.79264 Y10.54000
 X9.80333 Y10.37410
 Y10.25500
 X9.78207 Y10.08540
 X9.77865 Y10.06370
 X9.77794 Y10.05960
 X9.77089 Y10.01990
 X9.77018 Y10.01570
 X9.76090 Y9.96951
 X9.69515 Y9.73133
 X9.60454 Y9.48639
 X9.58285 Y9.43679
 X9.58247 Y9.43576
 X9.57894 Y9.42660
 X9.57861 Y9.42589
 X9.55621 Y9.37528
 X9.42985 Y9.12033
 X9.28683 Y8.86664
 X9.25618 Y8.81663
 X9.25379 Y8.81250
 X9.22726 Y8.77001
 X9.22444 Y8.76585
 X9.17865 Y8.69211
 X8.93468 Y8.33615
 X8.68024 Y8.00635
 X8.62929 Y7.94564
 X8.61171 Y7.92432
 X8.55490 Y7.80246
 X8.54226 Y7.66949
 X8.54676 Y7.64258
 X8.55024 Y7.62218
 X8.56967 Y7.56239
 X8.60878 Y7.49018
 X8.66265 Y7.42811
 X8.71186 Y7.38861
 X8.72982 Y7.37799
 X8.81950 Y7.32493
 X9.07297 Y7.13917
 X9.37819 Y6.85124
 X9.64415 Y6.51531
 X9.81976 Y6.23133
 X9.86968 Y6.13232
G0 Z-25.0000
 X9.00960 Y10.84790
G1 Z-41.5000
 Y10.88170
 X9.00271 Y10.98290
 X8.98264 Y11.11400
 X8.94993 Y11.24070
 X8.90539 Y11.36210
 X8.84956 Y11.47780
 X8.78315 Y11.58680
 X8.70692 Y11.68870
 X8.62142 Y11.78270
 X8.52740 Y11.86820
 X8.42551 Y11.94440
 X8.31646 Y12.01080
 X8.20085 Y12.06670
 X8.07938 Y12.11120
 X7.95275 Y12.14390
 X7.82161 Y12.16400
 X7.72038 Y12.17080
 X7.65289
 X7.55149 Y12.16400
 X7.42014 Y12.14390
 X7.29340 Y12.11120
 X7.17188 Y12.06670
 X7.05626 Y12.01080
 X6.94715 Y11.94440
 X6.84532 Y11.86820
 X6.75136 Y11.78270
 X6.66596 Y11.68870
 X6.58979 Y11.58680
 X6.52349 Y11.47780
 X6.46778 Y11.36210
 X6.42324 Y11.24070
 X6.39063 Y11.11400
 X6.37056 Y10.98290
 X6.36376 Y10.88170
 Y10.81420
 X6.37056 Y10.71300
 X6.39063 Y10.58190
 X6.42324 Y10.45520
 X6.46778 Y10.33380
 X6.52349 Y10.21820
 X6.58979 Y10.10910
 X6.66596 Y10.00720
 X6.75136 Y9.91319
 X6.84532 Y9.82769
 X6.94715 Y9.75146
 X7.05626 Y9.68506
 X7.17188 Y9.62924
 X7.29340 Y9.58469
 X7.42014 Y9.55197
 X7.55149 Y9.53190
 X7.65289 Y9.52501
 X7.72038
 X7.82161 Y9.53190
 X7.95275 Y9.55197
 X8.07938 Y9.58469
 X8.20085 Y9.62924
 X8.31646 Y9.68506
 X8.42551 Y9.75146
 X8.52740 Y9.82769
 X8.62142 Y9.91319
 X8.70692 Y10.00720
 X8.78315 Y10.10910
 X8.84956 Y10.21820
 X8.90539 Y10.33380
 X8.94993 Y10.45520
 X8.98264 Y10.58190
 X9.00271 Y10.71300
 X9.00960 Y10.81420
 Y10.84790
G0 Z-25.0000
 X7.12294 Y5.67481
G1 Z-41.5000
 X7.08371 Y5.69601
 X6.95975 Y5.74804
 X6.78754 Y5.79617
 X6.60644 Y5.81922
 X6.41667 Y5.81717
 X6.21821 Y5.79004
 X6.01133 Y5.73774
 X5.79617 Y5.66032
 X5.62756 Y5.58544
 X5.57281 Y5.55767
 X5.45508 Y5.49789
 X5.09310 Y5.33599
 X4.57525 Y5.13926
 X4.01531 Y4.96599
 X3.56158 Y4.84874
 X3.40924 Y4.81472
 X3.31011 Y4.79286
 X3.28754 Y4.78782
 X3.22206 Y4.76297
 X3.14378 Y4.71565
 X3.07764 Y4.65294
 X3.03678 Y4.59690
 X3.02615 Y4.57661
 X3.01167 Y4.54899
 X2.97775 Y4.40169
 X2.99544 Y4.25239
 X3.00672 Y4.22379
 X3.01850 Y4.19407
 X3.05556 Y4.10553
 X3.11963 Y3.96229
 X3.19937 Y3.79872
 X3.29508 Y3.61914
 X3.40713 Y3.42811
 X3.53586 Y3.23008
 X3.68169 Y3.02957
 X3.84494 Y2.83100
 X4.02599 Y2.63883
 X4.22521 Y2.45757
 X4.44299 Y2.29167
 X4.67958 Y2.14561
 X4.93549 Y2.02387
 X5.21094 Y1.93093
 X5.50646 Y1.87125
 X5.74328 Y1.84967
 X5.82226 Y1.84928
 X5.82769 Y1.84896
 X5.86854 Y1.84668
 X5.92269 Y1.84506
 X5.96843
 X6.05160 Y1.84819
 X6.18778 Y1.85997
 X6.34413 Y1.88428
 X6.51585 Y1.92492
 X6.69775 Y1.98562
 X6.88499 Y2.07021
 X7.07243 Y2.18251
 X7.21208 Y2.28749
 X7.25521 Y2.32622
 X7.29833 Y2.36496
 X7.41769 Y2.49240
 X7.55875 Y2.67947
 X7.67839 Y2.88732
 X7.77642 Y3.11567
 X7.85275 Y3.36442
 X7.90744 Y3.63325
 X7.94026 Y3.92204
 X7.95128 Y4.15343
 Y4.23053
 X7.94987 Y4.25803
 X7.94928 Y4.26275
 X7.94749 Y4.27681
 X7.94185 Y4.31543
 X7.93224 Y4.37169
 X7.91803 Y4.44336
 X7.89839 Y4.52810
 X7.87267 Y4.62369
 X7.84011 Y4.72781
 X7.80003 Y4.83826
 X7.75174 Y4.95269
 X7.69444 Y5.06885
 X7.62756 Y5.18440
 X7.55024 Y5.29725
 X7.46181 Y5.40494
 X7.36160 Y5.50532
 X7.24886 Y5.59603
 X7.15549 Y5.65717
 X7.12294 Y5.67481
G0 Z-25.0000
 X13.18220 Y10.66060
G1 Z-41.5000
 X13.16860 Y10.68200
 X13.11720 Y10.73930
 X13.03650 Y10.79820
 X12.94390 Y10.83520
 X12.86840 Y10.84790
 X10.28420
 X10.27240 Y10.91760
 X10.22460 Y11.12470
 X10.14140 Y11.39210
 X10.03600 Y11.64890
 X9.90944 Y11.89390
 X9.76286 Y12.12600
 X9.59739 Y12.34400
 X9.41417 Y12.54680
 X9.21442 Y12.73310
 X8.99918 Y12.90190
 X8.76969 Y13.05200
 X8.52713 Y13.18210
 X8.27251 Y13.29120
 X8.00711 Y13.37810
 X7.73204 Y13.44160
 X7.44846 Y13.48050
 X7.23019 Y13.49380
 X7.07639
 X6.83317 Y13.47740
 X6.51818 Y13.42910
 X6.21408 Y13.35080
 X5.92247 Y13.24380
 X5.64497 Y13.10990
 X5.38319 Y12.95070
 X5.13872 Y12.76770
 X4.91319 Y12.56260
 X4.70817 Y12.33700
 X4.52528 Y12.09250
 X4.36610 Y11.83070
 X4.23226 Y11.55320
 X4.12543 Y11.26170
 X4.04710 Y10.95770
 X3.99892 Y10.64280
 X3.98253 Y10.39980
 Y10.25020
 X3.99490 Y10.04450
 X4.03039 Y9.78489
 X4.08632 Y9.53982
 X4.16015 Y9.30914
 X4.24918 Y9.09278
 X4.35092 Y8.89051
 X4.46262 Y8.70231
 X4.58182 Y8.52794
 X4.70583 Y8.36740
 X4.83203 Y8.22043
 X4.95785 Y8.08703
 X5.08068 Y7.96696
 X5.19792 Y7.86014
 X5.30692 Y7.76644
 X5.40511 Y7.68576
 X5.46864 Y7.63482
 X5.48990 Y7.61789
 X5.49724 Y7.61236
 X5.56168 Y7.56168
 X5.56717 Y7.55718
 X5.56597 Y7.53847
 X5.56087 Y7.48236
 X5.54899 Y7.39242
 X5.52979 Y7.29243
 X5.50136 Y7.18750
 X5.46197 Y7.08274
 X5.40983 Y6.98313
 X5.34304 Y6.89382
 X5.28250 Y6.83578
 X5.25993 Y6.81988
 X5.22667 Y6.79650
 X5.11019 Y6.75006
 X4.92617 Y6.72678
 X4.70856 Y6.75006
 X4.51926 Y6.79850
 X4.45806 Y6.81988
 X4.39903 Y6.84044
 X4.22706 Y6.91683
 X4.00385 Y7.04394
 X3.78896 Y7.20090
 X3.63189 Y7.33849
 X3.58279 Y7.38753
 X2.01047 Y8.95985
 X1.98947 Y8.98068
 X1.91792 Y9.03440
 X1.81353 Y9.08708
 X1.70014 Y9.11615
 X1.61008 Y9.12229
 X1.58046 Y9.12001
 X1.55100 Y9.11794
 X1.46349 Y9.09879
 X1.35498 Y9.05339
 X1.25863 Y8.98583
 X1.19575 Y8.92199
 X1.17828 Y8.89811
 X1.15799 Y8.87076
 X1.09885 Y8.78728
 X1.01519 Y8.66217
 X0.92882 Y8.52306
 X0.84131 Y8.37017
 X0.75429 Y8.20378
 X0.66932 Y8.02408
 X0.58789 Y7.83138
 X0.51172 Y7.62592
 X0.44227 Y7.40788
 X0.38118 Y7.17751
 X0.33002 Y6.93511
 X0.29036 Y6.68088
 X0.26378 Y6.41504
 X0.25190 Y6.13792
 X0.25618 Y5.84972
 X0.27056 Y5.62517
 X0.27832 Y5.55062
 X0.27843 Y5.54551
 X0.27897 Y5.53022
 X0.28076 Y5.48693
 X0.28418 Y5.42204
 X0.28977 Y5.33692
 X0.29801 Y5.23292
 X0.30946 Y5.11133
 X0.32460 Y4.97347
 X0.34397 Y4.82069
 X0.36806 Y4.65435
 X0.39741 Y4.47569
 X0.43256 Y4.28614
 X0.47396 Y4.08692
 X0.52214 Y3.87944
 X0.57764 Y3.66499
 X0.64095 Y3.44488
 X0.69385 Y3.27632
 X0.71262 Y3.22049
 X0.76221 Y3.07221
 X0.93723 Y2.63590
 X1.20112 Y2.10558
 X1.50304 Y1.63092
 X1.84169 Y1.21322
 X2.21576 Y0.85390
 X2.62392 Y0.55425
 X3.06483 Y0.31559
 X3.41672 Y0.17508
 X3.53733 Y0.13932
 X3.59750 Y0.12153
 X3.78114 Y0.07802
 X4.03831 Y0.03451
 X4.31099 Y0.00863
 X4.52869 Y0.00000
 X6.49061
 X6.71778 Y0.01096
 X7.01725 Y0.04357
 X7.31222 Y0.09760
 X7.60172 Y0.17280
 X7.88471 Y0.26888
 X8.16015 Y0.38553
 X8.42703 Y0.52246
 X8.62153 Y0.63791
 X8.68435 Y0.67947
 X8.75315 Y0.72493
 X8.84071 Y0.78380
 X9.09289 Y0.97607
 X9.40369 Y1.25190
 X9.68494 Y1.55007
 X9.93588 Y1.86822
 X10.15590 Y2.20389
 X10.34420 Y2.55474
 X10.50030 Y2.91835
 X10.62340 Y3.29232
 X10.71290 Y3.67421
 X10.76800 Y4.06168
 X10.78820 Y4.45236
 X10.77270 Y4.84381
 X10.72090 Y5.23367
 X10.63200 Y5.61947
 X10.50550 Y5.99886
 X10.38620 Y6.27903
 X10.34060 Y6.36942
 X10.28730 Y6.47553
 X10.10210 Y6.78103
 X9.82297 Y7.14735
 X9.50407 Y7.46744
 X9.23981 Y7.67850
 X9.14611 Y7.74029
 X9.17122 Y7.77208
 X9.30935 Y7.95215
 X9.45839 Y8.15767
 X9.48904 Y8.20210
 X10.96040
 X11.13290 Y8.21718
 X11.35150 Y8.26161
 X11.55560 Y8.33453
 X11.69770 Y8.40636
 X11.74220 Y8.43490
 X11.80950 Y8.47831
 X12.00010 Y8.62608
 X12.23790 Y8.84782
 X12.45490 Y9.09044
 X12.65020 Y9.34412
 X12.82330 Y9.59928
 X12.97340 Y9.84614
 X13.09970 Y10.07500
 X13.17700 Y10.22540
 X13.20170 Y10.27600
 X13.21270 Y10.29860
 X13.23450 Y10.37200
 X13.24210 Y10.47090
 X13.22460 Y10.56850
 X13.19550 Y10.63930
 X13.18220 Y10.66060
G0 Z-25.0000
M5 (stop spindle)
G04 P3 (wait for 3 seconds)
G0 Z-25.0000
M2 (end program)
