;PYCAM-META-DATA: Filename: /media/martoio/MARTOIO/ME43/std_lib/svg/013-pizza-slice.svg
;PYCAM-META-DATA: Timestamp: 2017-12-06 01:59:03.251524
;PYCAM-META-DATA: Version: 0.5.1
;Estimated machine time: 10 minutes
G40 (disable tool radius compensation)
G49 (disable tool length compensation)
G80 (cancel modal motion)
G54 (select coordinate system 1)
G90 (disable incremental moves)
G21 (metric)
G61 (exact path mode)
F400.00000
S1.00000
;PYCAM_TOOLPATH_SETTINGS: START
;[Bounds]
;maxz = 0.0
;maxx = 163.012030512
;maxy = 163.017282247
;minx = -8.910184592
;miny = -8.9106620225
;minz = 0.0
;
;[Tool]
;torus_radius = 0.25
;speed = 1.0
;shape = CylindricalCutter
;tool_radius = 0.5
;feedrate = 400.0
;
;[Process]
;engrave_offset = 0.0
;step_down = 1.0
;generator = EngraveCutter
;postprocessor = SimpleCutter
;overlap_percent = 0
;milling_style = conventional
;material_allowance = 0.0
;pocketing_type = none
;path_direction = x
;
;PYCAM_TOOLPATH_SETTINGS: END
T1 M6
G0 Z5.0000
 X136.9698 Y56.0493
G1 Z0.0000
 X12.9006 Y12.8934
 X56.0566 Y136.9676
 X56.3219 Y137.6446
 X56.6352 Y138.2896
 X56.9938 Y138.9026
 X57.3951 Y139.4796
 X57.8366 Y140.0206
 X58.3155 Y140.5236
 X58.8294 Y140.9866
 X59.3755 Y141.4076
 X59.9512 Y141.7856
 X60.5541 Y142.1186
 X61.1816 Y142.4056
 X61.8309 Y142.6436
 X62.4994 Y142.8316
 X63.1847 Y142.9676
 X63.8840 Y143.0516
 X64.5948 Y143.0796
 X65.0195 Y143.0706
 X65.4492 Y143.0436
 X67.4281 Y142.8356
 X69.3902 Y142.5876
 X71.3352 Y142.3016
 X73.2627 Y141.9756
 X75.1722 Y141.6126
 X77.0636 Y141.2106
 X78.9363 Y140.7716
 X80.7899 Y140.2956
 X82.6244 Y139.7816
 X84.4391 Y139.2326
 X86.2337 Y138.6466
 X88.0080 Y138.0246
 X89.7613 Y137.3676
 X91.4936 Y136.6756
 X93.2042 Y135.9486
 X94.8930 Y135.1876
 X96.5595 Y134.3916
 X98.2034 Y133.5636
 X99.8244 Y132.7016
 X101.4219 Y131.8066
 X102.9958 Y130.8796
 X104.5455 Y129.9196
 X106.0708 Y128.9286
 X107.5708 Y127.9066
 X109.0468 Y126.8526
 X110.4958 Y125.7686
 X111.9198 Y124.6536
 X113.3178 Y123.5096
 X114.6878 Y122.3346
 X116.0318 Y121.1316
 X117.3488 Y119.8996
 X118.6368 Y118.6386
 X119.8978 Y117.3506
 X121.1298 Y116.0336
 X122.3338 Y114.6896
 X123.5078 Y113.3186
 X124.6518 Y111.9216
 X125.7668 Y110.4976
 X126.8508 Y109.0476
 X127.9038 Y107.5726
 X128.9268 Y106.0716
 X129.9178 Y104.5467
 X130.8778 Y102.9970
 X131.8048 Y101.4231
 X132.6998 Y99.8254
 X133.5608 Y98.2045
 X134.3898 Y96.5604
 X135.1848 Y94.8939
 X135.9458 Y93.2050
 X136.6728 Y91.4942
 X137.3648 Y89.7618
 X138.0218 Y88.0083
 X138.6438 Y86.2340
 X139.2288 Y84.4393
 X139.7788 Y82.6243
 X140.2918 Y80.7899
 X140.7678 Y78.9359
 X141.2068 Y77.0631
 X141.6088 Y75.1715
 X141.9718 Y73.2618
 X142.2968 Y71.3340
 X142.5838 Y69.3889
 X142.8308 Y67.4265
 X143.0388 Y65.4474
 X143.0668 Y65.0588
 X143.0788 Y64.6724
 X143.0738 Y64.2884
 X143.0528 Y63.9074
 X143.0158 Y63.5296
 X142.9638 Y63.1556
 X142.8958 Y62.7856
 X142.8128 Y62.4202
 X142.7158 Y62.0596
 X142.6038 Y61.7045
 X142.4768 Y61.3550
 X142.3368 Y61.0117
 X142.1818 Y60.6749
 X142.0138 Y60.3450
 X141.8328 Y60.0225
 X141.6388 Y59.7077
 X141.4318 Y59.4010
 X141.2118 Y59.1028
 X140.9798 Y58.8136
 X140.7368 Y58.5336
 X140.4808 Y58.2635
 X140.2138 Y58.0035
 X139.9358 Y57.7540
 X139.6468 Y57.5154
 X139.3468 Y57.2884
 X139.0368 Y57.0728
 X138.7158 Y56.8696
 X138.3858 Y56.6789
 X138.0458 Y56.5010
 X137.6958 Y56.3365
 X137.3378 Y56.1858
 X136.9698 Y56.0493
G0 Z5.0000
 X20.0527 Y41.1236
G1 Z0.0000
 X19.7451 Y41.1082
 X19.4462 Y41.0625
 X19.1579 Y40.9882
 X18.8813 Y40.8870
 X18.6182 Y40.7602
 X18.3701 Y40.6093
 X18.1384 Y40.4360
 X17.9246 Y40.2417
 X17.7303 Y40.0279
 X17.5570 Y39.7961
 X17.4062 Y39.5479
 X17.2794 Y39.2849
 X17.1782 Y39.0085
 X17.1040 Y38.7203
 X17.0584 Y38.4215
 X17.0429 Y38.1142
 X17.0584 Y37.8064
 X17.1040 Y37.5077
 X17.1782 Y37.2192
 X17.2794 Y36.9425
 X17.4062 Y36.6795
 X17.5570 Y36.4311
 X17.7303 Y36.1993
 X17.9246 Y35.9854
 X18.1384 Y35.7910
 X18.3701 Y35.6177
 X18.6182 Y35.4668
 X18.8813 Y35.3399
 X19.1579 Y35.2386
 X19.4462 Y35.1645
 X19.7451 Y35.1188
 X20.0527 Y35.1032
 X20.8265 Y35.0836
 X21.5901 Y35.0253
 X22.3426 Y34.9295
 X23.0833 Y34.7967
 X23.8111 Y34.6284
 X24.5249 Y34.4252
 X25.2240 Y34.1881
 X25.9073 Y33.9181
 X26.5740 Y33.6161
 X27.2229 Y33.2832
 X27.8531 Y32.9203
 X28.4640 Y32.5282
 X29.0542 Y32.1081
 X29.6230 Y31.6607
 X30.1694 Y31.1872
 X30.6924 Y30.6883
 X31.1911 Y30.1653
 X31.6644 Y29.6189
 X32.1116 Y29.0500
 X32.5316 Y28.4597
 X32.9234 Y27.8489
 X33.2862 Y27.2186
 X33.6190 Y26.5696
 X33.9206 Y25.9031
 X34.1905 Y25.2199
 X34.4274 Y24.5210
 X34.6305 Y23.8074
 X34.7988 Y23.0799
 X34.9313 Y22.3395
 X35.0273 Y21.5872
 X35.0855 Y20.8240
 X35.1051 Y20.0508
 X35.1206 Y19.7435
 X35.1662 Y19.4447
 X35.2404 Y19.1565
 X35.3416 Y18.8801
 X35.4683 Y18.6171
 X35.6191 Y18.3689
 X35.7924 Y18.1372
 X35.9866 Y17.9234
 X36.2004 Y17.7291
 X36.4320 Y17.5558
 X36.6802 Y17.4049
 X36.9433 Y17.2781
 X37.2198 Y17.1768
 X37.5081 Y17.1026
 X37.8069 Y17.0569
 X38.1147 Y17.0413
 X38.4231 Y17.0568
 X38.7227 Y17.1023
 X39.0116 Y17.1762
 X39.2884 Y17.2771
 X39.5517 Y17.4035
 X39.7999 Y17.5539
 X40.0316 Y17.7268
 X40.2454 Y17.9208
 X40.4394 Y18.1343
 X40.6124 Y18.3658
 X40.7630 Y18.6140
 X40.8895 Y18.8772
 X40.9906 Y19.1539
 X41.0645 Y19.4428
 X41.1101 Y19.7422
 X41.1256 Y20.0508
 X41.0981 Y21.1338
 X41.0166 Y22.2027
 X40.8823 Y23.2560
 X40.6967 Y24.2928
 X40.4611 Y25.3115
 X40.1767 Y26.3109
 X39.8449 Y27.2895
 X39.4672 Y28.2461
 X39.0447 Y29.1792
 X38.5787 Y30.0878
 X38.0708 Y30.9702
 X37.5220 Y31.8253
 X36.9341 Y32.6517
 X36.3080 Y33.4479
 X35.6451 Y34.2129
 X34.9470 Y34.9452
 X34.2148 Y35.6432
 X33.4498 Y36.3061
 X32.6536 Y36.9321
 X31.8272 Y37.5202
 X30.9720 Y38.0689
 X30.0895 Y38.5768
 X29.1811 Y39.0428
 X28.2479 Y39.4653
 X27.2913 Y39.8431
 X26.3127 Y40.1749
 X25.3134 Y40.4592
 X24.2947 Y40.6949
 X23.2579 Y40.8804
 X22.2044 Y41.0147
 X21.1356 Y41.0963
 X20.0527 Y41.1236
G0 Z5.0000
 X43.8705 Y113.1086
G1 Z0.0000
 X43.5683 Y113.1306
 X43.2699 Y113.1216
 X42.9774 Y113.0816
 X42.6924 Y113.0146
 X42.4170 Y112.9186
 X42.1529 Y112.7976
 X41.9017 Y112.6526
 X41.6656 Y112.4836
 X41.4463 Y112.2936
 X41.2456 Y112.0826
 X41.0655 Y111.8526
 X40.9074 Y111.6056
 X40.7738 Y111.3416
 X40.6659 Y111.0626
 X40.5861 Y110.7696
 X40.5358 Y110.4656
 X40.5156 Y110.1566
 X40.5265 Y109.8536
 X40.5670 Y109.5586
 X40.6360 Y109.2716
 X40.7319 Y108.9946
 X40.8534 Y108.7306
 X40.9990 Y108.4806
 X41.1676 Y108.2456
 X41.3574 Y108.0276
 X41.5674 Y107.8286
 X41.7962 Y107.6506
 X42.0423 Y107.4946
 X42.3042 Y107.3616
 X42.5808 Y107.2546
 X42.8705 Y107.1746
 X43.1720 Y107.1236
 X44.0210 Y107.0056
 X44.8561 Y106.8506
 X45.6763 Y106.6586
 X46.4808 Y106.4306
 X47.2685 Y106.1676
 X48.0391 Y105.8696
 X48.7915 Y105.5396
 X49.5245 Y105.1766
 X50.2377 Y104.7829
 X50.9301 Y104.3588
 X51.6009 Y103.9053
 X52.2491 Y103.4235
 X52.8740 Y102.9142
 X53.4747 Y102.3784
 X54.0504 Y101.8171
 X54.6002 Y101.2311
 X55.1231 Y100.6215
 X55.6185 Y99.9892
 X56.0856 Y99.3352
 X56.5233 Y98.6603
 X56.9308 Y97.9656
 X57.3074 Y97.2520
 X57.6522 Y96.5203
 X57.9642 Y95.7717
 X58.2427 Y95.0070
 X58.4869 Y94.2271
 X58.6958 Y93.4331
 X58.8685 Y92.6258
 X59.0045 Y91.8064
 X59.1027 Y90.9754
 X59.1622 Y90.1342
 X59.1822 Y89.2835
 X59.1586 Y88.3556
 X59.0887 Y87.4397
 X58.9737 Y86.5370
 X58.8145 Y85.6485
 X58.6124 Y84.7754
 X58.3685 Y83.9190
 X58.0841 Y83.0802
 X57.7602 Y82.2604
 X57.3980 Y81.4606
 X56.9986 Y80.6820
 X56.5630 Y79.9256
 X56.0927 Y79.1927
 X55.5886 Y78.4843
 X55.0519 Y77.8017
 X54.4837 Y77.1460
 X53.8851 Y76.5184
 X53.2573 Y75.9199
 X52.6016 Y75.3518
 X51.9190 Y74.8150
 X51.2106 Y74.3109
 X50.4776 Y73.8406
 X49.7212 Y73.4052
 X48.9424 Y73.0057
 X48.1426 Y72.6435
 X47.3226 Y72.3196
 X46.4838 Y72.0352
 X45.6273 Y71.7914
 X44.7541 Y71.5893
 X43.8655 Y71.4302
 X42.9626 Y71.3150
 X42.0466 Y71.2452
 X41.1185 Y71.2215
 X40.5015 Y71.2328
 X39.8855 Y71.2663
 X39.2708 Y71.3218
 X38.6581 Y71.3993
 X38.0479 Y71.4986
 X37.4408 Y71.6195
 X36.8370 Y71.7618
 X36.2374 Y71.9253
 X35.6423 Y72.1100
 X35.0523 Y72.3156
 X34.4680 Y72.5420
 X33.8898 Y72.7888
 X33.3183 Y73.0561
 X32.7540 Y73.3438
 X32.1973 Y73.6514
 X31.6490 Y73.9789
 X31.3817 Y74.1265
 X31.1058 Y74.2442
 X30.8231 Y74.3327
 X30.5358 Y74.3922
 X30.2460 Y74.4235
 X29.9559 Y74.4265
 X29.6677 Y74.4021
 X29.3834 Y74.3504
 X29.1051 Y74.2720
 X28.8351 Y74.1672
 X28.5754 Y74.0367
 X28.3281 Y73.8806
 X28.0954 Y73.6995
 X27.8794 Y73.4938
 X27.6823 Y73.2639
 X27.5062 Y73.0103
 X27.3567 Y72.7411
 X27.2377 Y72.4636
 X27.1485 Y72.1799
 X27.0887 Y71.8920
 X27.0577 Y71.6020
 X27.0551 Y71.3118
 X27.0804 Y71.0239
 X27.1330 Y70.7402
 X27.2124 Y70.4625
 X27.3181 Y70.1932
 X27.4497 Y69.9343
 X27.6065 Y69.6878
 X27.7880 Y69.4559
 X27.9938 Y69.2404
 X28.2235 Y69.0438
 X28.4765 Y68.8679
 X29.2059 Y68.4320
 X29.9467 Y68.0225
 X30.6984 Y67.6402
 X31.4599 Y67.2849
 X32.2309 Y66.9568
 X33.0105 Y66.6563
 X33.7980 Y66.3835
 X34.5927 Y66.1385
 X35.3940 Y65.9217
 X36.2009 Y65.7331
 X37.0131 Y65.5731
 X37.8297 Y65.4415
 X38.6498 Y65.3390
 X39.4730 Y65.2654
 X40.2986 Y65.2213
 X41.1256 Y65.2064
 X41.7463 Y65.2143
 X42.3631 Y65.2378
 X42.9760 Y65.2768
 X43.5848 Y65.3310
 X44.1890 Y65.4003
 X44.7887 Y65.4845
 X45.3837 Y65.5832
 X45.9735 Y65.6965
 X46.5584 Y65.8242
 X47.1379 Y65.9658
 X47.7117 Y66.1215
 X48.2799 Y66.2909
 X48.8422 Y66.4738
 X49.3983 Y66.6700
 X49.9481 Y66.8793
 X50.4916 Y67.1018
 X51.0283 Y67.3368
 X51.5580 Y67.5846
 X52.0809 Y67.8447
 X52.5963 Y68.1170
 X53.1044 Y68.4013
 X53.6048 Y68.6975
 X54.0974 Y69.0053
 X54.5820 Y69.3245
 X55.0584 Y69.6549
 X55.5265 Y69.9964
 X55.9859 Y70.3488
 X56.4365 Y70.7118
 X56.8781 Y71.0854
 X57.3106 Y71.4692
 X57.7338 Y71.8632
 X58.1474 Y72.2670
 X58.5513 Y72.6806
 X58.9454 Y73.1036
 X59.3292 Y73.5361
 X59.7029 Y73.9777
 X60.0659 Y74.4282
 X60.4183 Y74.8875
 X60.7598 Y75.3556
 X61.0904 Y75.8318
 X61.4095 Y76.3163
 X61.7173 Y76.8088
 X62.0134 Y77.3092
 X62.2979 Y77.8171
 X62.5701 Y78.3324
 X62.8302 Y78.8550
 X63.0780 Y79.3847
 X63.3131 Y79.9213
 X63.5355 Y80.4645
 X63.7448 Y81.0142
 X63.9410 Y81.5702
 X64.1240 Y82.1322
 X64.2933 Y82.7002
 X64.4490 Y83.2739
 X64.5906 Y83.8531
 X64.7183 Y84.4377
 X64.8316 Y85.0274
 X64.9304 Y85.6221
 X65.0145 Y86.2215
 X65.0838 Y86.8256
 X65.1380 Y87.4339
 X65.1769 Y88.0465
 X65.2004 Y88.6631
 X65.2084 Y89.2835
 X65.1816 Y90.4196
 X65.1024 Y91.5431
 X64.9716 Y92.6527
 X64.7905 Y93.7471
 X64.5602 Y94.8250
 X64.2819 Y95.8856
 X63.9566 Y96.9270
 X63.5854 Y97.9482
 X63.1697 Y98.9481
 X62.7102 Y99.9252
 X62.2084 Y100.8782
 X61.6652 Y101.8061
 X61.0820 Y102.7074
 X60.4597 Y103.5810
 X59.7994 Y104.4254
 X59.1024 Y105.2396
 X58.3698 Y106.0226
 X57.6026 Y106.7716
 X56.8020 Y107.4876
 X55.9692 Y108.1676
 X55.1052 Y108.8116
 X54.2113 Y109.4166
 X53.2884 Y109.9826
 X52.3380 Y110.5086
 X51.3608 Y110.9936
 X50.3581 Y111.4346
 X49.3312 Y111.8316
 X48.2809 Y112.1826
 X47.2087 Y112.4876
 X46.1154 Y112.7446
 X45.0023 Y112.9516
 X43.8705 Y113.1086
G0 Z5.0000
 X86.2812 Y71.2270
G1 Z0.0000
 X85.5830 Y71.2181
 X84.8891 Y71.1915
 X84.1998 Y71.1478
 X83.5151 Y71.0868
 X82.8355 Y71.0088
 X82.1609 Y70.9142
 X81.4917 Y70.8029
 X80.8281 Y70.6754
 X80.1702 Y70.5318
 X79.5184 Y70.3724
 X78.8729 Y70.1972
 X78.2337 Y70.0067
 X77.6012 Y69.8010
 X76.9756 Y69.5800
 X76.3570 Y69.3445
 X75.7458 Y69.0942
 X75.1420 Y68.8297
 X74.5459 Y68.5510
 X73.9579 Y68.2582
 X73.3779 Y67.9518
 X72.8063 Y67.6318
 X72.2433 Y67.2986
 X71.6891 Y66.9524
 X71.1440 Y66.5931
 X70.6080 Y66.2213
 X70.0815 Y65.8370
 X69.5645 Y65.4406
 X69.0576 Y65.0320
 X68.5606 Y64.6117
 X68.0740 Y64.1797
 X67.5979 Y63.7364
 X67.1324 Y63.2821
 X66.6781 Y62.8167
 X66.2348 Y62.3406
 X65.8029 Y61.8540
 X65.3824 Y61.3571
 X64.9740 Y60.8500
 X64.5774 Y60.3332
 X64.1931 Y59.8067
 X63.8213 Y59.2707
 X63.4620 Y58.7256
 X63.1158 Y58.1714
 X62.7826 Y57.6085
 X62.4626 Y57.0370
 X62.1562 Y56.4570
 X61.8636 Y55.8689
 X61.5848 Y55.2729
 X61.3202 Y54.6693
 X61.0699 Y54.0579
 X60.8344 Y53.4395
 X60.6136 Y52.8139
 X60.4077 Y52.1814
 X60.2172 Y51.5422
 X60.0420 Y50.8968
 X59.8824 Y50.2450
 X59.7390 Y49.5872
 X59.6113 Y48.9238
 X59.5002 Y48.2546
 X59.4055 Y47.5800
 X59.3276 Y46.9004
 X59.2666 Y46.2159
 X59.2227 Y45.5265
 X59.1963 Y44.8328
 X59.1874 Y44.1346
 X59.2130 Y42.9589
 X59.2897 Y41.7920
 X59.4169 Y40.6346
 X59.5945 Y39.4879
 X59.8220 Y38.3528
 X60.0992 Y37.2300
 X60.4255 Y36.1208
 X60.8008 Y35.0258
 X61.2245 Y33.9463
 X61.6966 Y32.8831
 X62.2165 Y31.8368
 X62.7837 Y30.8089
 X63.3981 Y29.7999
 X64.0594 Y28.8110
 X64.7672 Y27.8429
 X65.5209 Y26.8968
 X65.7563 Y26.6443
 X66.0130 Y26.4243
 X66.2881 Y26.2371
 X66.5787 Y26.0832
 X66.8820 Y25.9628
 X67.1951 Y25.8764
 X67.5149 Y25.8243
 X67.8390 Y25.8068
 X68.0940 Y25.8175
 X68.3474 Y25.8499
 X68.5983 Y25.9038
 X68.8448 Y25.9793
 X69.0856 Y26.0767
 X69.3194 Y26.1959
 X69.5447 Y26.3370
 X69.7599 Y26.5000
 X69.9862 Y26.7092
 X70.1867 Y26.9356
 X70.3612 Y27.1774
 X70.5092 Y27.4321
 X70.6309 Y27.6979
 X70.7256 Y27.9727
 X70.7934 Y28.2540
 X70.8340 Y28.5400
 X70.8472 Y28.8285
 X70.8326 Y29.1174
 X70.7901 Y29.4043
 X70.7194 Y29.6877
 X70.6205 Y29.9647
 X70.4929 Y30.2338
 X70.3365 Y30.4927
 X70.1511 Y30.7389
 X69.5629 Y31.4777
 X69.0105 Y32.2329
 X68.4945 Y33.0039
 X68.0149 Y33.7900
 X67.5722 Y34.5904
 X67.1665 Y35.4045
 X66.7981 Y36.2314
 X66.4674 Y37.0706
 X66.1745 Y37.9211
 X65.9198 Y38.7824
 X65.7035 Y39.6536
 X65.5261 Y40.5342
 X65.3874 Y41.4234
 X65.2881 Y42.3203
 X65.2283 Y43.2243
 X65.2084 Y44.1346
 X65.2358 Y45.2174
 X65.3173 Y46.2863
 X65.4516 Y47.3396
 X65.6372 Y48.3763
 X65.8729 Y49.3949
 X66.1572 Y50.3943
 X66.4890 Y51.3728
 X66.8667 Y52.3295
 X67.2892 Y53.2627
 X67.7552 Y54.1711
 X68.2631 Y55.0536
 X68.8117 Y55.9088
 X69.3998 Y56.7352
 X70.0259 Y57.5314
 X70.6887 Y58.2964
 X71.3869 Y59.0286
 X72.1191 Y59.7270
 X72.8841 Y60.3897
 X73.6804 Y61.0158
 X74.5067 Y61.6040
 X75.3619 Y62.1527
 X76.2442 Y62.6607
 X77.1529 Y63.1265
 X78.0859 Y63.5492
 X79.0426 Y63.9271
 X80.0212 Y64.2588
 X81.0205 Y64.5432
 X82.0392 Y64.7789
 X83.0759 Y64.9646
 X84.1294 Y65.0988
 X85.1983 Y65.1804
 X86.2812 Y65.2078
 X87.3638 Y65.1804
 X88.4326 Y65.0989
 X89.4859 Y64.9647
 X90.5227 Y64.7793
 X91.5413 Y64.5439
 X92.5406 Y64.2600
 X93.5192 Y63.9289
 X94.4758 Y63.5520
 X95.4090 Y63.1307
 X96.3176 Y62.6663
 X97.2001 Y62.1600
 X98.0552 Y61.6135
 X98.8816 Y61.0279
 X99.6781 Y60.4049
 X100.4431 Y59.7456
 X101.1755 Y59.0513
 X101.8738 Y58.3235
 X102.5369 Y57.5636
 X103.1633 Y56.7729
 X103.7515 Y55.9528
 X104.3004 Y55.1046
 X104.8085 Y54.2299
 X105.2748 Y53.3297
 X105.6978 Y52.4056
 X106.0758 Y51.4590
 X106.4078 Y50.4911
 X106.6928 Y49.5035
 X106.9288 Y48.4974
 X107.1148 Y47.4740
 X107.2498 Y46.4350
 X107.3318 Y45.3817
 X107.3598 Y44.3153
 X107.3428 Y44.1817
 X107.3218 Y44.0018
 X107.3038 Y43.8220
 X107.2928 Y43.6884
 X107.2988 Y43.3807
 X107.3348 Y43.0796
 X107.3998 Y42.7868
 X107.4918 Y42.5039
 X107.6088 Y42.2329
 X107.7518 Y41.9753
 X107.9168 Y41.7331
 X108.1038 Y41.5079
 X108.3108 Y41.3014
 X108.5368 Y41.1154
 X108.7798 Y40.9518
 X109.0378 Y40.8121
 X109.3108 Y40.6982
 X109.5968 Y40.6118
 X109.8938 Y40.5547
 X110.2008 Y40.5286
 X110.5198 Y40.5195
 X110.8268 Y40.5431
 X111.1228 Y40.5978
 X111.4058 Y40.6820
 X111.6738 Y40.7940
 X111.9268 Y40.9321
 X112.1628 Y41.0947
 X112.3798 Y41.2800
 X112.5778 Y41.4864
 X112.7548 Y41.7124
 X112.9108 Y41.9560
 X113.0418 Y42.2157
 X113.1488 Y42.4899
 X113.2298 Y42.7768
 X113.2838 Y43.0747
 X113.3088 Y43.3822
 X113.3178 Y43.4513
 X113.3288 Y43.5411
 X113.3398 Y43.6449
 X113.3508 Y43.7560
 X113.3598 Y43.8672
 X113.3678 Y43.9721
 X113.3728 Y44.0635
 X113.3748 Y44.1346
 X113.3658 Y44.8328
 X113.3398 Y45.5265
 X113.2958 Y46.2159
 X113.2348 Y46.9004
 X113.1568 Y47.5800
 X113.0618 Y48.2546
 X112.9508 Y48.9238
 X112.8228 Y49.5872
 X112.6798 Y50.2450
 X112.5198 Y50.8968
 X112.3448 Y51.5422
 X112.1548 Y52.1814
 X111.9488 Y52.8139
 X111.7278 Y53.4395
 X111.4918 Y54.0579
 X111.2418 Y54.6693
 X110.9778 Y55.2729
 X110.6988 Y55.8689
 X110.4058 Y56.4570
 X110.0998 Y57.0370
 X109.7798 Y57.6085
 X109.4468 Y58.1714
 X109.0998 Y58.7256
 X108.7408 Y59.2707
 X108.3688 Y59.8067
 X107.9848 Y60.3332
 X107.5878 Y60.8500
 X107.1798 Y61.3571
 X106.7598 Y61.8540
 X106.3278 Y62.3406
 X105.8838 Y62.8167
 X105.4298 Y63.2821
 X104.9644 Y63.7364
 X104.4883 Y64.1797
 X104.0016 Y64.6117
 X103.5047 Y65.0320
 X102.9977 Y65.4406
 X102.4808 Y65.8370
 X101.9542 Y66.2213
 X101.4183 Y66.5931
 X100.8731 Y66.9524
 X100.3190 Y67.2986
 X99.7559 Y67.6318
 X99.1844 Y67.9518
 X98.6044 Y68.2582
 X98.0163 Y68.5510
 X97.4202 Y68.8297
 X96.8165 Y69.0942
 X96.2052 Y69.3445
 X95.5866 Y69.5800
 X94.9610 Y69.8010
 X94.3285 Y70.0067
 X93.6894 Y70.1972
 X93.0438 Y70.3724
 X92.3920 Y70.5318
 X91.7341 Y70.6754
 X91.0705 Y70.8029
 X90.4013 Y70.9142
 X89.7267 Y71.0088
 X89.0472 Y71.0868
 X88.3624 Y71.1478
 X87.6731 Y71.1915
 X86.9792 Y71.2181
 X86.2812 Y71.2270
G0 Z5.0000
 X131.1828 Y62.3345
G1 Z0.0000
 X131.0248 Y64.0517
 X130.8288 Y65.7571
 X130.5958 Y67.4502
 X130.3258 Y69.1306
 X130.0198 Y70.7979
 X129.6778 Y72.4518
 X129.3018 Y74.0917
 X128.8888 Y75.7174
 X128.4428 Y77.3282
 X127.9618 Y78.9239
 X127.4468 Y80.5040
 X126.8988 Y82.0682
 X126.3188 Y83.6160
 X125.7048 Y85.1470
 X125.0598 Y86.6607
 X124.3828 Y88.1568
 X123.6738 Y89.6350
 X122.9348 Y91.0946
 X122.1648 Y92.5354
 X121.3648 Y93.9570
 X120.5348 Y95.3588
 X119.6758 Y96.7404
 X118.7888 Y98.1017
 X117.8728 Y99.4420
 X116.9278 Y100.7610
 X115.9568 Y102.0582
 X114.9578 Y103.3332
 X113.9318 Y104.5857
 X112.8798 Y105.8156
 X111.8018 Y107.0216
 X110.6978 Y108.2036
 X109.5698 Y109.3616
 X108.4158 Y110.4956
 X107.2378 Y111.6036
 X106.0368 Y112.6866
 X104.8113 Y113.7436
 X103.5630 Y114.7746
 X102.2922 Y115.7786
 X100.9988 Y116.7556
 X99.6838 Y117.7046
 X98.3473 Y118.6266
 X96.9897 Y119.5196
 X95.6115 Y120.3846
 X94.2130 Y121.2196
 X92.7949 Y122.0256
 X91.3573 Y122.8006
 X89.9006 Y123.5466
 X88.4255 Y124.2606
 X86.9322 Y124.9436
 X85.4210 Y125.5956
 X83.8926 Y126.2146
 X82.3473 Y126.8026
 X80.7854 Y127.3566
 X79.2073 Y127.8776
 X77.6135 Y128.3646
 X76.0047 Y128.8176
 X74.3808 Y129.2366
 X72.7423 Y129.6196
 X71.0899 Y129.9676
 X69.4238 Y130.2806
 X67.7445 Y130.5566
 X66.0524 Y130.7966
 X64.3479 Y130.9996
 X62.6313 Y131.1646
 X62.3474 Y131.1776
 X62.0640 Y131.1596
 X61.7829 Y131.1116
 X61.5065 Y131.0346
 X61.2372 Y130.9306
 X60.9772 Y130.8006
 X60.7286 Y130.6476
 X60.4937 Y130.4716
 X60.2749 Y130.2736
 X60.0744 Y130.0566
 X59.8942 Y129.8206
 X59.7370 Y129.5686
 X59.6047 Y129.3006
 X59.4997 Y129.0186
 X59.4241 Y128.7236
 X59.3805 Y128.4186
 X59.3701 Y128.1096
 X59.3906 Y127.8066
 X59.4402 Y127.5126
 X59.5180 Y127.2286
 X59.6222 Y126.9556
 X59.7515 Y126.6956
 X59.9047 Y126.4506
 X60.0802 Y126.2216
 X60.2767 Y126.0096
 X60.4930 Y125.8176
 X60.7274 Y125.6466
 X60.9787 Y125.4976
 X61.2456 Y125.3736
 X61.5266 Y125.2756
 X61.8202 Y125.2046
 X62.1254 Y125.1626
 X63.7044 Y125.0096
 X65.2723 Y124.8236
 X66.8288 Y124.6026
 X68.3736 Y124.3486
 X69.9062 Y124.0616
 X71.4262 Y123.7416
 X72.9333 Y123.3886
 X74.4270 Y123.0036
 X75.9070 Y122.5866
 X77.3730 Y122.1386
 X78.8245 Y121.6596
 X80.2613 Y121.1496
 X81.6829 Y120.6096
 X83.0888 Y120.0396
 X84.4788 Y119.4406
 X85.8524 Y118.8116
 X87.2094 Y118.1546
 X88.5492 Y117.4686
 X89.8717 Y116.7556
 X91.1763 Y116.0146
 X92.4626 Y115.2456
 X93.7304 Y114.4506
 X94.9792 Y113.6286
 X96.2086 Y112.7816
 X97.4183 Y111.9076
 X98.6079 Y111.0086
 X99.7770 Y110.0856
 X100.9254 Y109.1366
 X102.0523 Y108.1646
 X103.1577 Y107.1686
 X104.2412 Y106.1486
 X105.3018 Y105.1056
 X106.3408 Y104.0407
 X107.3558 Y102.9529
 X108.3478 Y101.8435
 X109.3148 Y100.7124
 X110.2588 Y99.5602
 X111.1778 Y98.3871
 X112.0718 Y97.1938
 X112.9398 Y95.9803
 X113.7828 Y94.7472
 X114.5998 Y93.4950
 X115.3898 Y92.2238
 X116.1528 Y90.9342
 X116.8888 Y89.6264
 X117.5968 Y88.3010
 X118.2768 Y86.9581
 X118.9288 Y85.5982
 X119.5518 Y84.2218
 X120.1458 Y82.8292
 X120.7108 Y81.4206
 X121.2448 Y79.9967
 X121.7488 Y78.5577
 X122.2218 Y77.1039
 X122.6648 Y75.6359
 X123.0758 Y74.1539
 X123.4548 Y72.6582
 X123.8018 Y71.1495
 X124.1168 Y69.6279
 X124.3978 Y68.0939
 X124.6458 Y66.5479
 X124.8608 Y64.9902
 X125.0408 Y63.4213
 X125.1878 Y61.8413
 X125.2238 Y61.5514
 X125.2868 Y61.2715
 X125.3748 Y61.0029
 X125.4868 Y60.7468
 X125.6218 Y60.5043
 X125.7768 Y60.2767
 X125.9528 Y60.0652
 X126.1458 Y59.8707
 X126.3558 Y59.6947
 X126.5818 Y59.5384
 X126.8208 Y59.4028
 X127.0728 Y59.2892
 X127.3368 Y59.1988
 X127.6098 Y59.1327
 X127.8908 Y59.0921
 X128.1788 Y59.0783
 X128.4268 Y59.0906
 X128.7318 Y59.1307
 X129.0258 Y59.2002
 X129.3078 Y59.2974
 X129.5748 Y59.4206
 X129.8268 Y59.5683
 X130.0618 Y59.7388
 X130.2778 Y59.9304
 X130.4748 Y60.1415
 X130.6518 Y60.3706
 X130.8058 Y60.6157
 X130.9358 Y60.8754
 X131.0408 Y61.1481
 X131.1198 Y61.4320
 X131.1708 Y61.7254
 X131.1918 Y62.0268
 X131.1828 Y62.3345
G0 Z5.0000
 X149.0348 Y66.0139
G1 Z0.0000
 X148.8128 Y68.1317
 X148.5478 Y70.2313
 X148.2408 Y72.3127
 X147.8938 Y74.3753
 X147.5048 Y76.4188
 X147.0738 Y78.4425
 X146.6048 Y80.4465
 X146.0948 Y82.4302
 X145.5448 Y84.3932
 X144.9568 Y86.3350
 X144.3298 Y88.2553
 X143.6648 Y90.1538
 X142.9618 Y92.0300
 X142.2208 Y93.8835
 X141.4428 Y95.7139
 X140.6288 Y97.5210
 X139.7778 Y99.3042
 X138.8908 Y101.0632
 X137.9688 Y102.7975
 X137.0118 Y104.5068
 X136.0198 Y106.1906
 X134.9928 Y107.8486
 X133.9328 Y109.4806
 X132.8378 Y111.0866
 X131.7108 Y112.6646
 X130.5508 Y114.2156
 X129.3578 Y115.7396
 X128.1338 Y117.2346
 X126.8778 Y118.7016
 X125.5898 Y120.1396
 X124.2718 Y121.5476
 X122.9228 Y122.9266
 X121.5448 Y124.2756
 X120.1358 Y125.5936
 X118.6978 Y126.8806
 X117.2318 Y128.1366
 X115.7358 Y129.3616
 X114.2128 Y130.5536
 X112.6618 Y131.7136
 X111.0838 Y132.8416
 X109.4778 Y133.9356
 X107.8458 Y134.9956
 X106.1878 Y136.0226
 X104.5044 Y137.0146
 X102.7952 Y137.9716
 X101.0609 Y138.8936
 X99.3022 Y139.7796
 X97.5191 Y140.6306
 X95.7122 Y141.4446
 X93.8819 Y142.2226
 X92.0286 Y142.9626
 X90.1526 Y143.6656
 X88.2542 Y144.3316
 X86.3341 Y144.9576
 X84.3926 Y145.5456
 X82.4298 Y146.0956
 X80.4465 Y146.6056
 X78.4427 Y147.0746
 X76.4191 Y147.5036
 X74.3759 Y147.8926
 X72.3137 Y148.2396
 X70.2326 Y148.5466
 X68.1331 Y148.8106
 X66.0159 Y149.0346
 X65.3666 Y149.0846
 X64.7212 Y149.1066
 X64.0801 Y149.1026
 X63.4442 Y149.0686
 X62.8140 Y149.0106
 X62.1901 Y148.9246
 X61.5734 Y148.8136
 X60.9642 Y148.6756
 X60.3636 Y148.5136
 X59.7719 Y148.3276
 X59.1897 Y148.1176
 X58.6180 Y147.8826
 X58.0573 Y147.6256
 X57.5081 Y147.3456
 X56.9713 Y147.0436
 X56.4474 Y146.7206
 X55.9372 Y146.3746
 X55.4412 Y146.0076
 X54.9601 Y145.6216
 X54.4945 Y145.2146
 X54.0452 Y144.7886
 X53.6129 Y144.3436
 X53.1980 Y143.8796
 X52.8012 Y143.3976
 X52.4234 Y142.8976
 X52.0649 Y142.3806
 X51.7269 Y141.8476
 X51.4095 Y141.2966
 X51.1136 Y140.7316
 X50.8398 Y140.1496
 X50.5888 Y139.5536
 X50.3613 Y138.9426
 X5.1631 Y8.9977
 X5.0514 Y8.5843
 X5.0000 Y8.1656
 X5.0073 Y7.7477
 X5.0722 Y7.3365
 X5.1932 Y6.9381
 X5.3690 Y6.5584
 X5.5983 Y6.2034
 X5.8796 Y5.8791
 X6.1050 Y5.6768
 X6.3459 Y5.4999
 X6.6005 Y5.3491
 X6.8668 Y5.2246
 X7.1430 Y5.1270
 X7.4270 Y5.0567
 X7.7172 Y5.0143
 X8.0114 Y5.0000
 X8.2603 Y5.0102
 X8.5095 Y5.0411
 X8.7567 Y5.0935
 X8.9996 Y5.1679
 X138.9438 Y50.3647
 X139.5558 Y50.5918
 X140.1518 Y50.8427
 X140.7338 Y51.1163
 X141.2988 Y51.4122
 X141.8488 Y51.7297
 X142.3818 Y52.0681
 X142.8978 Y52.4268
 X143.3968 Y52.8050
 X143.8768 Y53.2022
 X144.3388 Y53.6177
 X144.7838 Y54.0506
 X145.2088 Y54.5004
 X145.6138 Y54.9665
 X145.9988 Y55.4482
 X146.3638 Y55.9447
 X146.7088 Y56.4556
 X147.0308 Y56.9799
 X147.3318 Y57.5170
 X147.6118 Y58.0664
 X147.8688 Y58.6274
 X148.1018 Y59.1990
 X148.3118 Y59.7811
 X148.4988 Y60.3725
 X148.6598 Y60.9729
 X148.7988 Y61.5814
 X148.9118 Y62.1975
 X148.9978 Y62.8203
 X149.0588 Y63.4495
 X149.0938 Y64.0839
 X149.1018 Y64.7233
 X149.0818 Y65.3670
 X149.0348 Y66.0139
G0 Z5.0000
G0 Z5.0000
M2 (end program)
