$X
$H
G10 P0 L20 X0 Y0 Z0
G40 (disable tool radius compensation)
G49 (disable tool length compensation)
G80 (cancel modal motion)
G54 (select coordinate system 1)
G90 (disable incremental moves)
G21 (metric)
F300.00000
S250.00000
G61 (exact path mode)
;PYCAM_TOOLPATH_SETTINGS: START
;[Bounds]
;maxz = 0.0
;maxx = 120.505
;maxy = 103.378
;minx = 0.000759549
;miny = 17.1299
;minz = 0.0
;
;[Tool]
;torus_radius = 0.125
;shape = CylindricalCutter
;tool_radius = 1.5875
;feedrate = 300.0
;
;[Process]
;engrave_offset = 0.0
;step_down = 3.0
;generator = EngraveCutter
;postprocessor = SimpleCutter
;overlap_percent = 0
;milling_style = ignore
;material_allowance = 0.0
;pocketing_type = none
;path_direction = x
;
;PYCAM_TOOLPATH_SETTINGS: END
G0 Z-25.0000
M3 (start spindle)
G04 P3 (wait for 3 seconds)
 X5.08074 Y85.58530
G1 Z-53.0000
 X5.15479 Y85.58600
 X5.37711 Y85.58500
 X5.68961 Y85.57810
 X6.01671 Y85.56360
 X6.35693 Y85.54070
 X6.70871 Y85.50860
 X7.07064 Y85.46610
 X7.44114 Y85.41240
 X7.81874 Y85.34650
 X8.20193 Y85.26750
 X8.58925 Y85.17460
 X8.97917 Y85.06650
 X9.37017 Y84.94260
 X9.76079 Y84.80190
 X10.14950 Y84.64350
 X10.53480 Y84.46620
 X10.82140 Y84.32100
 X10.91530 Y84.26940
 X11.00630 Y84.21940
 X11.27470 Y84.06130
 X11.62130 Y83.83900
 X11.95500 Y83.60430
 X12.27600 Y83.35850
 X12.58440 Y83.10290
 X12.88010 Y82.83900
 X13.16330 Y82.56830
 X13.43410 Y82.29210
 X13.69240 Y82.01190
 X13.93850 Y81.72890
 X14.17220 Y81.44490
 X14.39390 Y81.16100
 X14.60330 Y80.87860
 X14.80080 Y80.59930
 X14.98640 Y80.32440
 X15.11720 Y80.12320
 X15.16000 Y80.05560
 X15.02100
 X14.79880 Y80.05830
 X14.48740 Y80.06750
 X14.16210 Y80.08360
 X13.82440 Y80.10810
 X13.47570 Y80.14140
 X13.11750 Y80.18490
 X12.75110 Y80.23900
 X12.37820 Y80.30530
 X11.99990 Y80.38400
 X11.61780 Y80.47670
 X11.23330 Y80.58390
 X10.84790 Y80.70650
 X10.46290 Y80.84570
 X10.07990 Y81.00220
 X9.70019 Y81.17720
 X9.41781 Y81.32070
 X9.32531 Y81.37140
 X9.23421 Y81.42140
 X8.96560 Y81.57960
 X8.61888 Y81.80180
 X8.28504 Y82.03650
 X7.96397 Y82.28240
 X7.65560 Y82.53790
 X7.35992 Y82.80180
 X7.07676 Y83.07250
 X6.80610 Y83.34870
 X6.54785 Y83.62900
 X6.30192 Y83.91190
 X6.06825 Y84.19600
 X5.84674 Y84.47990
 X5.63726 Y84.76220
 X5.43983 Y85.04150
 X5.25435 Y85.31640
 X5.12343 Y85.51760
 X5.08074 Y85.58530
G0 Z-25.0000
 X19.25670 Y91.97130
G1 Z-53.0000
 X19.23580 Y92.07290
 X19.18250 Y92.37940
 X19.12740 Y92.78680
 X19.09000 Y93.19250
 X19.06930 Y93.59570
 X19.06420 Y93.99560
 X19.07360 Y94.39110
 X19.09630 Y94.78170
 X19.13120 Y95.16640
 X19.17740 Y95.54430
 X19.23350 Y95.91460
 X19.29830 Y96.27640
 X19.37110 Y96.62900
 X19.45040 Y96.97130
 X19.53530 Y97.30260
 X19.62460 Y97.62190
 X19.69320 Y97.85220
 X19.71710 Y97.92860
 X19.76920 Y97.86780
 X19.92320 Y97.68280
 X20.13140 Y97.42390
 X20.34030 Y97.15240
 X20.54850 Y96.86860
 X20.75470 Y96.57290
 X20.95740 Y96.26570
 X21.15540 Y95.94720
 X21.34720 Y95.61810
 X21.53140 Y95.27830
 X21.70670 Y94.92850
 X21.87170 Y94.56890
 X22.02500 Y94.19990
 X22.16510 Y93.82190
 X22.29100 Y93.43510
 X22.40100 Y93.04010
 X22.47290 Y92.73830
 X22.49380 Y92.63690
 X22.51460 Y92.53540
 X22.56790 Y92.22890
 X22.62310 Y91.82150
 X22.66030 Y91.41580
 X22.68080 Y91.01260
 X22.68580 Y90.61280
 X22.67640 Y90.21710
 X22.65360 Y89.82640
 X22.61860 Y89.44180
 X22.57240 Y89.06390
 X22.51640 Y88.69350
 X22.45140 Y88.33170
 X22.37880 Y87.97920
 X22.29940 Y87.63690
 X22.21470 Y87.30570
 X22.12570 Y86.98620
 X22.05720 Y86.75610
 X22.03350 Y86.67960
 X21.98110 Y86.74060
 X21.82690 Y86.92560
 X21.61860 Y87.18440
 X21.40940 Y87.45600
 X21.20110 Y87.73970
 X20.99490 Y88.03540
 X20.79190 Y88.34280
 X20.59400 Y88.66120
 X20.40220 Y88.99060
 X20.21810 Y89.33030
 X20.04280 Y89.68010
 X19.87790 Y90.03970
 X19.72470 Y90.40880
 X19.58460 Y90.78680
 X19.45900 Y91.17350
 X19.34920 Y91.56850
 X19.27750 Y91.87010
 X19.25670 Y91.97130
G0 Z-25.0000
 X33.19710 Y88.84850
G1 Z-53.0000
 X33.26100 Y88.93010
 X33.46010 Y89.16930
 X33.73490 Y89.47510
 X34.01990 Y89.76640
 X34.31380 Y90.04320
 X34.61510 Y90.30600
 X34.92260 Y90.55490
 X35.23500 Y90.79040
 X35.55070 Y91.01280
 X35.86850 Y91.22220
 X36.18680 Y91.41920
 X36.50440 Y91.60390
 X36.82000 Y91.77670
 X37.13210 Y91.93780
 X37.43930 Y92.08760
 X37.74030 Y92.22640
 X37.96000 Y92.32320
 X38.03370 Y92.35440
 X38.02110 Y92.27530
 X37.98000 Y92.03820
 X37.91760 Y91.71180
 X37.84620 Y91.37680
 X37.76490 Y91.03430
 X37.67320 Y90.68570
 X37.57040 Y90.33220
 X37.45600 Y89.97510
 X37.32930 Y89.61570
 X37.18970 Y89.25530
 X37.03650 Y88.89510
 X36.86930 Y88.53650
 X36.68740 Y88.18080
 X36.49010 Y87.82920
 X36.27680 Y87.48290
 X36.04690 Y87.14350
 X35.86360 Y86.89330
 X35.79990 Y86.81190
 X35.73600 Y86.73030
 X35.53680 Y86.49140
 X35.26210 Y86.18570
 X34.97710 Y85.89460
 X34.68330 Y85.61790
 X34.38180 Y85.35510
 X34.07430 Y85.10610
 X33.76190 Y84.87070
 X33.44620 Y84.64820
 X33.12850 Y84.43860
 X32.81010 Y84.24150
 X32.49250 Y84.05680
 X32.17690 Y83.88390
 X31.86490 Y83.72280
 X31.55760 Y83.57290
 X31.25670 Y83.43400
 X31.03690 Y83.33740
 X30.96330 Y83.30600
 X30.97600 Y83.38510
 X31.01690 Y83.62240
 X31.07930 Y83.94860
 X31.15080 Y84.28380
 X31.23210 Y84.62620
 X31.32380 Y84.97490
 X31.42650 Y85.32830
 X31.54100 Y85.68540
 X31.66760 Y86.04490
 X31.80740 Y86.40530
 X31.96040 Y86.76540
 X32.12760 Y87.12400
 X32.30960 Y87.47970
 X32.50690 Y87.83140
 X32.72010 Y88.17750
 X32.95000 Y88.51690
 X33.13350 Y88.76710
 X33.19710 Y88.84850
G0 Z-25.0000
 X96.41850 Y28.77570
G1 Z-53.0000
 X96.24440 Y28.67390
 X95.71850 Y28.37560
 X95.00420 Y27.98580
 X94.27580 Y27.60650
 X93.53430 Y27.23810
 X92.78010 Y26.88030
 X92.01380 Y26.53350
 X91.23600 Y26.19790
 X90.44720 Y25.87350
 X89.64810 Y25.56060
 X88.83930 Y25.25930
 X88.02140 Y24.96970
 X87.19470 Y24.69210
 X86.36030 Y24.42640
 X85.51850 Y24.17310
 X84.66990 Y23.93190
 X83.81510 Y23.70330
 X82.95470 Y23.48750
 X82.08940 Y23.28440
 X81.21970 Y23.09440
 X80.34610 Y22.91740
 X79.46930 Y22.75380
 X78.59000 Y22.60350
 X77.70860 Y22.46680
 X76.82570 Y22.34390
 X75.94210 Y22.23490
 X75.05820 Y22.13990
 X74.17460 Y22.05900
 X73.29190 Y21.99250
 X72.41080 Y21.94060
 X71.53180 Y21.90330
 X70.65560 Y21.88080
 X70.00080 Y21.87330
 X69.57690
 X68.95990 Y21.87990
 X68.11830 Y21.90030
 X67.25920 Y21.93560
 X66.38390 Y21.98710
 X65.49370 Y22.05560
 X64.59000 Y22.14240
 X63.67390 Y22.24860
 X62.74670 Y22.37530
 X61.80990 Y22.52350
 X60.86470 Y22.69430
 X59.91240 Y22.88890
 X58.95430 Y23.10830
 X57.99170 Y23.35370
 X57.02580 Y23.62620
 X56.05820 Y23.92680
 X55.09000 Y24.25680
 X54.12240 Y24.61710
 X53.15680 Y25.00880
 X52.19460 Y25.43310
 X51.23710 Y25.89110
 X50.28540 Y26.38390
 X49.34100 Y26.91250
 X48.40500 Y27.47810
 X47.47890 Y28.08170
 X46.56400 Y28.72440
 X45.66140 Y29.40750
 X44.77260 Y30.13210
 X43.89890 Y30.89900
 X43.04150 Y31.70940
 X42.20180 Y32.56470
 X41.38100 Y33.46570
 X40.77600 Y34.17290
 X40.58040 Y34.41350
 X40.43710 Y34.58970
 X40.02060 Y35.12900
 X39.48810 Y35.86260
 X38.98080 Y36.61320
 X38.49740 Y37.37900
 X38.03580 Y38.15870
 X37.59460 Y38.95100
 X37.17190 Y39.75420
 X36.76610 Y40.56690
 X36.37540 Y41.38760
 X35.99820 Y42.21510
 X35.63260 Y43.04780
 X35.27710 Y43.88400
 X34.92970 Y44.72260
 X34.58900 Y45.56190
 X34.25310 Y46.40070
 X34.00330 Y47.02820
 X33.92030 Y47.23740
 X33.82260 Y47.48320
 X33.52920 Y48.22070
 X33.13390 Y49.20560
 X32.73120 Y50.19000
 X32.31870 Y51.17190
 X31.89320 Y52.14900
 X31.45190 Y53.11960
 X30.99210 Y54.08130
 X30.51080 Y55.03210
 X30.00530 Y55.97000
 X29.47250 Y56.89290
 X28.90960 Y57.79860
 X28.31370 Y58.68530
 X27.68240 Y59.55080
 X27.01220 Y60.39290
 X26.30060 Y61.20960
 X25.73830 Y61.80620
 X25.54460 Y61.99890
 X25.66820 Y62.14690
 X26.04210 Y62.58810
 X26.57490 Y63.20510
 X27.14170 Y63.84690
 X27.74070 Y64.51070
 X28.37060 Y65.19320
 X29.02960 Y65.89140
 X29.71630 Y66.60220
 X30.42900 Y67.32260
 X31.16620 Y68.04960
 X31.92650 Y68.78000
 X32.70810 Y69.51070
 X33.50940 Y70.23890
 X34.32920 Y70.96120
 X35.16560 Y71.67500
 X36.01690 Y72.37690
 X36.88210 Y73.06390
 X37.75920 Y73.73290
 X38.64670 Y74.38100
 X39.54310 Y75.00500
 X40.44680 Y75.60180
 X41.35620 Y76.16850
 X42.26990 Y76.70190
 X43.18620 Y77.19920
 X44.10350 Y77.65690
 X45.02040 Y78.07240
 X45.93510 Y78.44220
 X46.84640 Y78.76360
 X47.75240 Y79.03350
 X48.65150 Y79.24880
 X49.54250 Y79.40630
 X50.42360 Y79.50290
 X51.07570 Y79.53580
 X51.44650
 X51.85620 Y79.52210
 X51.90670 Y79.51930
 X52.09570 Y79.50870
 X52.66210 Y79.46290
 X53.40890 Y79.37900
 X54.14710 Y79.26750
 X54.87650 Y79.12850
 X55.59740 Y78.96210
 X56.30930 Y78.76830
 X57.01250 Y78.54710
 X57.70680 Y78.29830
 X58.39240 Y78.02250
 X59.06900 Y77.71920
 X59.73670 Y77.38860
 X60.39530 Y77.03070
 X61.04510 Y76.64560
 X61.68570 Y76.23320
 X62.31740 Y75.79360
 X62.93990 Y75.32690
 X63.55320 Y74.83320
 X64.15740 Y74.31220
 X64.75220 Y73.76420
 X65.33810 Y73.18900
 X65.91440 Y72.58690
 X66.48170 Y71.95780
 X67.03940 Y71.30180
 X67.58780 Y70.61870
 X68.12680 Y69.90880
 X68.65640 Y69.17190
 X69.17640 Y68.40810
 X69.68690 Y67.61750
 X70.18790 Y66.80010
 X70.67930 Y65.95580
 X71.16110 Y65.08500
 X71.51760 Y64.41290
 X71.63330 Y64.18720
 X71.67000 Y64.11580
 X71.79960 Y63.91170
 X71.99880 Y63.66420
 X72.22690 Y63.44720
 X72.48070 Y63.26290
 X72.75640 Y63.11360
 X73.05040 Y63.00170
 X73.35930 Y62.92930
 X73.59920 Y62.90110
 X73.67940 Y62.89890
 X73.76030 Y62.89690
 X74.00350 Y62.91280
 X74.31720 Y62.96880
 X74.61720 Y63.06490
 X74.90000 Y63.19890
 X75.16240 Y63.36900
 X75.40070 Y63.57330
 X75.61180 Y63.80960
 X75.75180 Y64.00650
 X75.79220 Y64.07570
 X75.85670 Y64.18640
 X76.06060 Y64.51220
 X76.35170 Y64.93990
 X76.66460 Y65.35880
 X76.99890 Y65.76900
 X77.35390 Y66.17060
 X77.72920 Y66.56350
 X78.12390 Y66.94810
 X78.53750 Y67.32420
 X78.96960 Y67.69180
 X79.41940 Y68.05120
 X79.88630 Y68.40250
 X80.36990 Y68.74560
 X80.86920 Y69.08070
 X81.38400 Y69.40760
 X81.91350 Y69.72670
 X82.45710 Y70.03790
 X83.01430 Y70.34140
 X83.58440 Y70.63710
 X84.16690 Y70.92510
 X84.76110 Y71.20560
 X85.36650 Y71.47850
 X85.98240 Y71.74400
 X86.60820 Y72.00210
 X87.24330 Y72.25290
 X87.88720 Y72.49640
 X88.53920 Y72.73280
 X89.19880 Y72.96210
 X89.86530 Y73.18430
 X90.53810 Y73.39960
 X91.21650 Y73.60810
 X91.90030 Y73.80960
 X92.58850 Y74.00440
 X93.28060 Y74.19250
 X93.97600 Y74.37400
 X94.67420 Y74.54900
 X95.37440 Y74.71750
 X96.07630 Y74.87940
 X96.77900 Y75.03530
 X97.48190 Y75.18470
 X98.18470 Y75.32810
 X98.88670 Y75.46510
 X99.58710 Y75.59630
 X100.28500 Y75.72130
 X100.98100 Y75.84040
 X101.67300 Y75.95370
 X102.36200 Y76.06130
 X103.04600 Y76.16310
 X103.72500 Y76.25930
 X104.39800 Y76.34990
 X105.06500 Y76.43500
 X105.72500 Y76.51460
 X106.37700 Y76.58890
 X107.02200 Y76.65790
 X107.65700 Y76.72170
 X108.28400 Y76.78030
 X108.90000 Y76.83370
 X109.50600 Y76.88220
 X110.10100 Y76.92570
 X110.68500 Y76.96440
 X111.25600 Y76.99830
 X111.81400 Y77.02740
 X112.35800 Y77.05180
 X112.88900 Y77.07170
 X113.27500 Y77.08360
 X113.40400 Y77.08680
 X113.39400 Y76.75150
 X113.35500 Y75.74540
 X113.29000 Y74.42510
 X113.20900 Y73.12560
 X113.11200 Y71.84680
 X112.99900 Y70.58880
 X112.87100 Y69.35130
 X112.72600 Y68.13430
 X112.56500 Y66.93780
 X112.38800 Y65.76140
 X112.19500 Y64.60510
 X111.98600 Y63.46920
 X111.76100 Y62.35290
 X111.51900 Y61.25670
 X111.26100 Y60.18010
 X110.98700 Y59.12330
 X110.69700 Y58.08580
 X110.39100 Y57.06790
 X110.06800 Y56.06940
 X109.72900 Y55.09000
 X109.37300 Y54.12990
 X109.00100 Y53.18860
 X108.61300 Y52.26640
 X108.20800 Y51.36290
 X107.78600 Y50.47810
 X107.34800 Y49.61190
 X106.89400 Y48.76430
 X106.42300 Y47.93500
 X105.93600 Y47.12400
 X105.43100 Y46.33130
 X104.91000 Y45.55650
 X104.37300 Y44.79970
 X103.96000 Y44.24380
 X103.81900 Y44.06080
 X103.78000 Y44.01030
 X103.67400 Y43.84990
 X103.55300 Y43.62650
 X103.45800 Y43.39310
 X103.38800 Y43.15120
 X103.34400 Y42.90360
 X103.32600 Y42.65210
 X103.33500 Y42.39870
 X103.35900 Y42.20830
 X103.38500 Y42.08310
 X103.43600 Y41.89760
 X103.52500 Y41.66000
 X103.63900 Y41.43470
 X103.77500 Y41.22350
 X103.93300 Y41.02790
 X104.11100 Y40.84970
 X104.30900 Y40.69070
 X104.46900 Y40.58400
 X104.52400 Y40.55250
 X104.63100 Y40.49190
 X104.96300 Y40.33260
 X105.45400 Y40.14360
 X105.99900 Y39.98510
 X106.60200 Y39.85670
 X107.26400 Y39.75760
 X107.99000 Y39.68760
 X108.78100 Y39.64580
 X109.42600 Y39.63210
 X109.90700
 X110.70700 Y39.64990
 X111.60900 Y39.68890
 X111.78900 Y39.69940
 X111.63800 Y39.56420
 X111.18000 Y39.16190
 X110.52700 Y38.60040
 X109.83000 Y38.01600
 X109.08800 Y37.40940
 X108.30000 Y36.78190
 X107.46600 Y36.13440
 X106.58500 Y35.46810
 X105.65700 Y34.78350
 X104.67900 Y34.08180
 X103.65300 Y33.36420
 X102.57600 Y32.63140
 X101.44900 Y31.88460
 X100.27100 Y31.12460
 X99.03960 Y30.35250
 X97.75580 Y29.56920
 X96.75400 Y28.97190
 X96.41850 Y28.77570
G0 Z-25.0000
 X15.09640 Y76.08530
G1 Z-53.0000
 X15.19070
 X15.47390 Y76.08900
 X15.83670 Y76.09920
 X16.18360 Y76.11510
 X16.51330 Y76.13570
 X16.82470 Y76.16030
 X17.11640 Y76.18760
 X17.38740 Y76.21710
 X17.63630 Y76.24760
 X17.86180 Y76.27830
 X18.06280 Y76.30820
 X18.23810 Y76.33640
 X18.38630 Y76.36210
 X18.50640 Y76.38420
 X18.59690 Y76.40180
 X18.65680 Y76.41420
 X18.67790 Y76.41860
 X18.68490 Y76.42010
 X18.73680 Y76.43170
 X18.89010 Y76.47750
 X19.08650 Y76.55560
 X19.27250 Y76.65360
 X19.44670 Y76.77040
 X19.60760 Y76.90500
 X19.75390 Y77.05610
 X19.88420 Y77.22280
 X19.97130 Y77.35740
 X19.99680 Y77.40400
 X20.02240 Y77.45070
 X20.08890 Y77.59630
 X20.15930 Y77.79540
 X20.20810 Y77.99990
 X20.23490 Y78.20780
 X20.23990 Y78.41740
 X20.22250 Y78.62680
 X20.18280 Y78.83440
 X20.13890 Y78.98850
 X20.12070 Y79.03850
 X20.11710 Y79.04810
 X20.10640 Y79.07680
 X20.08010 Y79.14530
 X20.04140 Y79.24280
 X19.99040 Y79.36750
 X19.92680 Y79.51790
 X19.85040 Y79.69260
 X19.76110 Y79.89010
 X19.65880 Y80.10880
 X19.54310 Y80.34690
 X19.41390 Y80.60350
 X19.27110 Y80.87650
 X19.11460 Y81.16460
 X18.94400 Y81.46620
 X18.75940 Y81.78010
 X18.56040 Y82.10430
 X18.34690 Y82.43760
 X18.11880 Y82.77830
 X17.87580 Y83.12500
 X17.61790 Y83.47610
 X17.34490 Y83.83010
 X17.05650 Y84.18560
 X16.75250 Y84.54070
 X16.43290 Y84.89420
 X16.09750 Y85.24460
 X15.74600 Y85.59010
 X15.37830 Y85.92940
 X14.99430 Y86.26110
 X14.59380 Y86.58330
 X14.17650 Y86.89470
 X13.74230 Y87.19390
 X13.29110 Y87.47900
 X12.94120 Y87.68390
 X12.82270 Y87.74890
 X12.61930 Y87.86060
 X11.99250 Y88.16560
 X11.11850 Y88.52930
 X10.20420 Y88.83900
 X9.25287 Y89.09440
 X8.26796 Y89.29430
 X7.25287 Y89.43810
 X6.21094 Y89.52500
 X5.41194 Y89.55400
 X5.05117
 X4.76785 Y89.55040
 X4.40479 Y89.54030
 X4.05772 Y89.52430
 X3.72781 Y89.50380
 X3.41635 Y89.47920
 X3.12446 Y89.45180
 X2.85346 Y89.42240
 X2.60454 Y89.39180
 X2.37896 Y89.36110
 X2.17790 Y89.33130
 X2.00261 Y89.30310
 X1.85433 Y89.27740
 X1.73426 Y89.25530
 X1.64367 Y89.23760
 X1.58376 Y89.22530
 X1.56272 Y89.22080
 X1.55578 Y89.21930
 X1.50379 Y89.20780
 X1.35042 Y89.16240
 X1.15408 Y89.08460
 X0.96810 Y88.98680
 X0.79389 Y88.87010
 X0.63292 Y88.73570
 X0.48665 Y88.58470
 X0.35645 Y88.41810
 X0.26942 Y88.28350
 X0.24376 Y88.23680
 X0.21826 Y88.19010
 X0.15169 Y88.04460
 X0.08122 Y87.84540
 X0.03250 Y87.64100
 X0.00564 Y87.43310
 X0.00076 Y87.22350
 X0.01812 Y87.01400
 X0.05778 Y86.80640
 X0.10172 Y86.65250
 X0.11995 Y86.60240
 X0.12343 Y86.59280
 X0.13417 Y86.56420
 X0.16048 Y86.49560
 X0.19906 Y86.39810
 X0.25005 Y86.27330
 X0.31364 Y86.12290
 X0.38997 Y85.94820
 X0.47922 Y85.75070
 X0.58160 Y85.53210
 X0.69727 Y85.29390
 X0.82639 Y85.03750
 X0.96908 Y84.76440
 X1.12565 Y84.47630
 X1.29612 Y84.17460
 X1.48074 Y83.86080
 X1.67969 Y83.53650
 X1.89312 Y83.20320
 X2.12121 Y82.86250
 X2.36410 Y82.51580
 X2.62201 Y82.16470
 X2.89507 Y81.81070
 X3.18349 Y81.45540
 X3.48742 Y81.10010
 X3.80701 Y80.74670
 X4.14247 Y80.39640
 X4.49397 Y80.05070
 X4.86171 Y79.71140
 X5.24576 Y79.37970
 X5.64643 Y79.05750
 X6.06375 Y78.74610
 X6.49799 Y78.44690
 X6.94928 Y78.16180
 X7.29932 Y77.95690
 X7.41786 Y77.89190
 X7.62131 Y77.78030
 X8.24810 Y77.47530
 X9.12207 Y77.11170
 X10.03640 Y76.80180
 X10.98770 Y76.54640
 X11.97260 Y76.34650
 X12.98770 Y76.20280
 X14.02960 Y76.11580
 X14.82860 Y76.08680
 X15.09500
 Y76.08640
 X15.09600 Y76.08530
 X15.09640
G0 Z-25.0000
 X27.55930 Y78.95830
G1 Z-53.0000
 X27.62430 Y78.90740
 X27.83680 Y78.77630
 X28.13740 Y78.64430
 X28.45470 Y78.56390
 X28.70000 Y78.53680
 X28.87440
 X29.12180 Y78.56530
 X29.15250 Y78.57100
 X29.16250 Y78.57290
 X29.19250 Y78.57890
 X29.26430 Y78.59390
 X29.36650 Y78.61630
 X29.49780 Y78.64640
 X29.65650 Y78.68490
 X29.84130 Y78.73210
 X30.05040 Y78.78830
 X30.28260 Y78.85420
 X30.53640 Y78.92990
 X30.81030 Y79.01580
 X31.10280 Y79.11260
 X31.41240 Y79.22070
 X31.73760 Y79.34010
 X32.07710 Y79.47180
 X32.42920 Y79.61580
 X32.79250 Y79.77260
 X33.16560 Y79.94280
 X33.54690 Y80.12650
 X33.93500 Y80.32430
 X34.32850 Y80.53670
 X34.72570 Y80.76390
 X35.12530 Y81.00650
 X35.52580 Y81.26490
 X35.92560 Y81.53940
 X36.32350 Y81.83040
 X36.71760 Y82.13850
 X37.10680 Y82.46400
 X37.48960 Y82.80740
 X37.86420 Y83.16890
 X38.22940 Y83.54920
 X38.58360 Y83.94850
 X38.84220 Y84.26070
 X38.92560 Y84.36710
 X39.00870 Y84.47360
 X39.24960 Y84.79990
 X39.55170 Y85.23990
 X39.83280 Y85.68580
 X40.09330 Y86.13670
 X40.33430 Y86.59070
 X40.55650 Y87.04680
 X40.76060 Y87.50380
 X40.94720 Y87.95990
 X41.11740 Y88.41400
 X41.27150 Y88.86500
 X41.41070 Y89.31130
 X41.53570 Y89.75150
 X41.64690 Y90.18460
 X41.74560 Y90.60890
 X41.83190 Y91.02330
 X41.90720 Y91.42620
 X41.97180 Y91.81680
 X42.02680 Y92.19320
 X42.07260 Y92.55430
 X42.11040 Y92.89890
 X42.14060 Y93.22540
 X42.16400 Y93.53260
 X42.18150 Y93.81920
 X42.19370 Y94.08390
 X42.20150 Y94.32510
 X42.20570 Y94.54180
 X42.20680 Y94.73250
 X42.20580 Y94.89580
 X42.20350 Y95.03070
 X42.20040 Y95.13540
 X42.19750 Y95.20890
 X42.19600 Y95.23940
 X42.19540 Y95.24960
 X42.19260 Y95.30280
 X42.17260 Y95.46140
 X42.12750 Y95.66760
 X42.06100 Y95.86680
 X41.97400 Y96.05750
 X41.86740 Y96.23790
 X41.74180 Y96.40650
 X41.59820 Y96.56180
 X41.47940 Y96.66920
 X41.43760 Y96.70210
 X41.39570 Y96.73490
 X41.26280 Y96.82430
 X41.07750 Y96.92620
 X40.88350 Y97.00750
 X40.68250 Y97.06780
 X40.47630 Y97.10640
 X40.26670 Y97.12310
 X40.05560 Y97.11760
 X39.89670 Y97.09920
 X39.84440 Y97.08930
 X39.83440 Y97.08750
 X39.80440 Y97.08150
 X39.73240 Y97.06650
 X39.63000 Y97.04420
 X39.49870 Y97.01400
 X39.34000 Y96.97560
 X39.15530 Y96.92830
 X38.94600 Y96.87210
 X38.71370 Y96.80640
 X38.45990 Y96.73070
 X38.18600 Y96.64460
 X37.89350 Y96.54780
 X37.58390 Y96.43990
 X37.25860 Y96.32030
 X36.91920 Y96.18870
 X36.56690 Y96.04470
 X36.20370 Y95.88790
 X35.83060 Y95.71780
 X35.44930 Y95.53400
 X35.06120 Y95.33610
 X34.66780 Y95.12380
 X34.27060 Y94.89650
 X33.87080 Y94.65390
 X33.47040 Y94.39560
 X33.07040 Y94.12110
 X32.67260 Y93.83000
 X32.27850 Y93.52190
 X31.88920 Y93.19640
 X31.50640 Y92.85320
 X31.13170 Y92.49150
 X30.76640 Y92.11140
 X30.41190 Y91.71210
 X30.15330 Y91.39970
 X30.07010 Y91.29320
 X29.98680 Y91.18680
 X29.74600 Y90.86060
 X29.44390 Y90.42060
 X29.16290 Y89.97460
 X28.90240 Y89.52380
 X28.66140 Y89.06970
 X28.43930 Y88.61360
 X28.23530 Y88.15680
 X28.04860 Y87.70060
 X27.87860 Y87.24640
 X27.72440 Y86.79540
 X27.58530 Y86.34920
 X27.46040 Y85.90890
 X27.34920 Y85.47600
 X27.25070 Y85.05150
 X27.16420 Y84.63720
 X27.08900 Y84.23420
 X27.02430 Y83.84360
 X26.96940 Y83.46720
 X26.92360 Y83.10610
 X26.88600 Y82.76150
 X26.85570 Y82.43500
 X26.83220 Y82.12780
 X26.81470 Y81.84120
 X26.80240 Y81.57650
 X26.79460 Y81.33530
 X26.79040 Y81.11860
 X26.78920 Y80.92790
 X26.79000 Y80.76460
 X26.79240 Y80.62970
 X26.79530 Y80.52500
 X26.79820 Y80.45170
 X26.79960 Y80.42100
 X26.80010 Y80.41070
 X26.80310 Y80.35760
 X26.82350 Y80.19900
 X26.86880 Y79.99260
 X26.93560 Y79.79320
 X27.02260 Y79.60250
 X27.12940 Y79.42190
 X27.25510 Y79.25330
 X27.39860 Y79.09830
 X27.51740 Y78.99110
 X27.55930 Y78.95830
G0 Z-25.0000
 X41.21010 Y66.38390
G1 Z-53.0000
 X41.10280 Y66.38370
 X40.78130 Y66.36180
 X40.38000 Y66.29990
 X40.00620 Y66.20040
 X39.66000 Y66.06630
 X39.34130 Y65.90000
 X39.05010 Y65.70460
 X38.78670 Y65.48240
 X38.55070 Y65.23610
 X38.34240 Y64.96850
 X38.16150 Y64.68220
 X38.00850 Y64.37990
 X37.88290 Y64.06420
 X37.78500 Y63.73780
 X37.71470 Y63.40330
 X37.67220 Y63.06350
 X37.65720 Y62.72100
 X37.67000 Y62.37850
 X37.71040 Y62.03850
 X37.77850 Y61.70370
 X37.87430 Y61.37710
 X37.99790 Y61.06100
 X38.14900 Y60.75810
 X38.32810 Y60.47130
 X38.53470 Y60.20290
 X38.76930 Y59.95580
 X39.03150 Y59.73260
 X39.32140 Y59.53620
 X39.63920 Y59.36900
 X39.98470 Y59.23360
 X40.35810 Y59.13290
 X40.75920 Y59.06940
 X41.08080 Y59.04650
 X41.18820 Y59.04580
 X41.21710
 X41.18960
 X41.29810 Y59.04510
 X41.62370 Y59.06440
 X42.03000 Y59.12360
 X42.40820 Y59.22080
 X42.75850 Y59.35330
 X43.08070 Y59.51850
 X43.37500 Y59.71330
 X43.64140 Y59.93540
 X43.87970 Y60.18190
 X44.09000 Y60.45010
 X44.27250 Y60.73750
 X44.42680 Y61.04110
 X44.55330 Y61.35820
 X44.65180 Y61.68630
 X44.72240 Y62.02250
 X44.76490 Y62.36430
 X44.77960 Y62.70870
 X44.76610 Y63.05320
 X44.72470 Y63.39510
 X44.65560 Y63.73150
 X44.55820 Y64.06000
 X44.43290 Y64.37750
 X44.27970 Y64.68170
 X44.09860 Y64.96960
 X43.88940 Y65.23860
 X43.65240 Y65.48580
 X43.38740 Y65.70890
 X43.09430 Y65.90490
 X42.77350 Y66.07100
 X42.42440 Y66.20470
 X42.04760 Y66.30330
 X41.64280 Y66.36390
 X41.31820 Y66.38420
 X41.21010 Y66.38390
G0 Z-25.0000
 X120.15800 Y44.04290
G1 Z-53.0000
 X120.11100 Y44.11920
 X119.94800 Y44.33390
 X119.70100 Y44.58570
 X119.42200 Y44.79610
 X119.11700 Y44.96280
 X118.79100 Y45.08310
 X118.44900 Y45.15460
 X118.09700 Y45.17490
 X117.82800 Y45.15650
 X117.74000 Y45.14140
 X117.73500 Y45.14080
 X117.72300 Y45.13880
 X117.68200 Y45.13190
 X117.61700 Y45.12140
 X117.52900 Y45.10740
 X117.42000 Y45.09010
 X117.29100 Y45.07000
 X117.14100 Y45.04710
 X116.97300 Y45.02180
 X116.78700 Y44.99430
 X116.58400 Y44.96500
 X116.36600 Y44.93400
 X116.13200 Y44.90170
 X115.88500 Y44.86820
 X115.62400 Y44.83390
 X115.35200 Y44.79890
 X115.06800 Y44.76380
 X114.77400 Y44.72850
 X114.47100 Y44.69350
 X114.16000 Y44.65890
 X113.84200 Y44.62510
 X113.51800 Y44.59220
 X113.18800 Y44.56080
 X112.85400 Y44.53070
 X112.51600 Y44.50260
 X112.17600 Y44.47650
 X111.83500 Y44.45260
 X111.49300 Y44.43150
 X111.15200 Y44.41320
 X110.81200 Y44.39810
 X110.47400 Y44.38630
 X110.14000 Y44.37810
 X109.89300 Y44.37430
 X109.81000 Y44.37370
 X109.93900 Y44.57920
 X110.31700 Y45.20110
 X110.80800 Y46.04490
 X111.28300 Y46.90500
 X111.74200 Y47.78180
 X112.18500 Y48.67540
 X112.61100 Y49.58570
 X113.02200 Y50.51290
 X113.41800 Y51.45710
 X113.79700 Y52.41830
 X114.16000 Y53.39680
 X114.50800 Y54.39240
 X114.83900 Y55.40540
 X115.15500 Y56.43580
 X115.45500 Y57.48380
 X115.74000 Y58.54930
 X116.00900 Y59.63250
 X116.26200 Y60.73350
 X116.49900 Y61.85240
 X116.72100 Y62.98930
 X116.92700 Y64.14420
 X117.11800 Y65.31720
 X117.29300 Y66.50860
 X117.45300 Y67.71820
 X117.59700 Y68.94620
 X117.72600 Y70.19290
 X117.83900 Y71.45810
 X117.93700 Y72.74190
 X118.01900 Y74.04460
 X118.08600 Y75.36610
 X118.13800 Y76.70670
 X118.17500 Y78.06610
 X118.19200 Y79.10010
 X118.19600 Y79.44490
 Y79.50500
 X118.18600 Y79.68560
 X118.15300 Y79.91970
 X118.09700 Y80.14610
 X118.02100 Y80.36350
 X117.92400 Y80.57070
 X117.80900 Y80.76640
 X117.67600 Y80.94970
 X117.52600 Y81.11930
 X117.36100 Y81.27380
 X117.18200 Y81.41240
 X116.99000 Y81.53350
 X116.78500 Y81.63630
 X116.57000 Y81.71930
 X116.34600 Y81.78140
 X116.11300 Y81.82150
 X115.93200 Y81.83720
 X115.87200 Y81.83850
 X115.79100 Y81.84030
 X115.37300 Y81.84600
 X114.98400 Y81.84830
 X114.72300
 X114.33100 Y81.84600
 X113.78800 Y81.83860
 X113.22700 Y81.82610
 X112.64800 Y81.80860
 X112.05200 Y81.78580
 X111.43900 Y81.75760
 X110.81000 Y81.72390
 X110.16700 Y81.68440
 X109.50800 Y81.63930
 X108.83700 Y81.58820
 X108.15200 Y81.53110
 X107.45400 Y81.46790
 X106.74500 Y81.39850
 X106.02500 Y81.32260
 X105.29500 Y81.24030
 X104.55500 Y81.15130
 X103.80600 Y81.05560
 X103.04900 Y80.95310
 X102.28500 Y80.84350
 X101.51400 Y80.72680
 X100.73600 Y80.60290
 X99.95360 Y80.47170
 X99.16600 Y80.33290
 X98.37430 Y80.18670
 X97.57930 Y80.03260
 X96.78170 Y79.87080
 X95.98210 Y79.70100
 X95.18120 Y79.52310
 X94.37970 Y79.33710
 X93.57830 Y79.14260
 X92.77780 Y78.93970
 X92.17810 Y78.78220
 X91.97860 Y78.72830
 X91.59780 Y78.62560
 X90.45940 Y78.30110
 X88.99280 Y77.85420
 X87.57870 Y77.38750
 X86.21750 Y76.90130
 X84.90930 Y76.39540
 X83.65420 Y75.87030
 X82.45220 Y75.32580
 X81.30380 Y74.76210
 X80.20860 Y74.17930
 X79.16720 Y73.57740
 X78.17960 Y72.95650
 X77.24580 Y72.31680
 X76.36630 Y71.65850
 X75.54070 Y70.98120
 X74.76960 Y70.28560
 X74.22750 Y69.75430
 X74.05310 Y69.57120
 X73.84990 Y69.90430
 X73.21780 Y70.88920
 X72.35560 Y72.14810
 X71.46710 Y73.34720
 X70.55260 Y74.48620
 X69.61280 Y75.56440
 X68.64810 Y76.58110
 X67.65900 Y77.53580
 X66.90430 Y78.21080
 X66.64610 Y78.42780
 X66.44820 Y78.59390
 X65.84220 Y79.07750
 X65.02400 Y79.68940
 X64.19170 Y80.26360
 X63.34540 Y80.80000
 X62.48540 Y81.29830
 X61.61180 Y81.75890
 X60.72490 Y82.18110
 X59.82470 Y82.56530
 X58.91170 Y82.91120
 X57.98570 Y83.21880
 X57.04720 Y83.48790
 X56.09620 Y83.71850
 X55.13320 Y83.91060
 X54.15810 Y84.06390
 X53.17110 Y84.17850
 X52.42250 Y84.24030
 X52.17260 Y84.25430
 X52.10010 Y84.25850
 X51.49490 Y84.27900
 X51.05540
 X50.34220 Y84.25070
 X49.38920 Y84.16750
 X48.43500 Y84.03180
 X47.48070 Y83.84600
 X46.52710 Y83.61250
 X45.57540 Y83.33390
 X44.62670 Y83.01250
 X43.68150 Y82.65080
 X42.74140 Y82.25120
 X41.80710 Y81.81640
 X40.87940 Y81.34850
 X39.95960 Y80.85000
 X39.04860 Y80.32350
 X38.14740 Y79.77120
 X37.25690 Y79.19580
 X36.37820 Y78.59970
 X35.51220 Y77.98510
 X34.66000 Y77.35490
 X33.82260 Y76.71100
 X33.00080 Y76.05610
 X32.19600 Y75.39280
 X31.40860 Y74.72330
 X30.64010 Y74.05010
 X29.89120 Y73.37570
 X29.16310 Y72.70250
 X28.45670 Y72.03310
 X27.77280 Y71.36960
 X27.11280 Y70.71460
 X26.47740 Y70.07070
 X25.86750 Y69.44010
 X25.28440 Y68.82540
 X24.86720 Y68.37880
 X24.72900 Y68.22900
 X24.78530 Y68.67850
 X24.93080 Y70.02970
 X25.08510 Y71.84600
 X25.18760 Y73.67350
 X25.23420 Y75.50810
 X25.22060 Y77.34560
 X25.14260 Y79.18180
 X24.99610 Y81.01250
 X24.84120 Y82.37970
 X24.77710 Y82.83360
 X24.79570 Y82.87220
 X24.85080 Y82.98860
 X24.93030 Y83.15960
 X25.01430 Y83.34610
 X25.10240 Y83.54790
 X25.19390 Y83.76430
 X25.28790 Y83.99490
 X25.38400 Y84.23900
 X25.48140 Y84.49670
 X25.57920 Y84.76690
 X25.67690 Y85.04960
 X25.77390 Y85.34400
 X25.86920 Y85.64990
 X25.96240 Y85.96670
 X26.05260 Y86.29390
 X26.13920 Y86.63110
 X26.22140 Y86.97780
 X26.29860 Y87.33360
 X26.37010 Y87.69790
 X26.43530 Y88.07030
 X26.49330 Y88.45040
 X26.54350 Y88.83750
 X26.58530 Y89.23150
 X26.61760 Y89.63170
 X26.64030 Y90.03750
 X26.65220 Y90.44880
 X26.65310 Y90.86470
 X26.64170 Y91.28510
 X26.61780 Y91.70940
 X26.58040 Y92.13710
 X26.52900 Y92.56780
 X26.46280 Y93.00100
 X26.40330 Y93.32760
 X26.38110 Y93.43600
 X26.35390 Y93.56850
 X26.26110 Y93.96310
 X26.12140 Y94.47820
 X25.96330 Y94.98110
 X25.78860 Y95.47150
 X25.59860 Y95.94920
 X25.39490 Y96.41380
 X25.17880 Y96.86510
 X24.95190 Y97.30260
 X24.71600 Y97.72640
 X24.47220 Y98.13580
 X24.22220 Y98.53080
 X23.96750 Y98.91110
 X23.70960 Y99.27630
 X23.45010 Y99.62620
 X23.19030 Y99.96040
 X22.93180 Y100.27900
 X22.67620 Y100.58100
 X22.42490 Y100.86600
 X22.17940 Y101.13500
 X21.94140 Y101.38700
 X21.71210 Y101.62200
 X21.49320 Y101.83800
 X21.28620 Y102.03700
 X21.09250 Y102.21800
 X20.91390 Y102.38000
 X20.75150 Y102.52400
 X20.60710 Y102.64800
 X20.48190 Y102.75300
 X20.37780 Y102.83900
 X20.29610 Y102.90400
 X20.23830 Y102.95000
 X20.21420 Y102.96900
 X20.20610 Y102.97500
 X20.16360 Y103.00700
 X20.02940 Y103.09400
 X19.84280 Y103.19300
 X19.64760 Y103.27100
 X19.44610 Y103.32800
 X19.23960 Y103.36400
 X19.02990 Y103.37800
 X18.81860 Y103.36900
 X18.65970 Y103.34800
 X18.60760 Y103.33700
 X18.55560 Y103.32700
 X18.40150 Y103.28300
 X18.20420 Y103.20800
 X18.01680 Y103.11200
 X17.84080 Y102.99800
 X17.67810 Y102.86600
 X17.52960 Y102.71700
 X17.39710 Y102.55200
 X17.30820 Y102.41900
 X17.28190 Y102.37200
 X17.27680 Y102.36400
 X17.26190 Y102.33700
 X17.22670 Y102.27300
 X17.17740 Y102.18000
 X17.11540 Y102.06100
 X17.04190 Y101.91500
 X16.95820 Y101.74400
 X16.86560 Y101.54800
 X16.76530 Y101.32800
 X16.65860 Y101.08600
 X16.54680 Y100.82200
 X16.43110 Y100.53600
 X16.31290 Y100.23000
 X16.19350 Y99.90500
 X16.07390 Y99.56110
 X15.95560 Y99.19960
 X15.83990 Y98.82120
 X15.72790 Y98.42680
 X15.62100 Y98.01710
 X15.52040 Y97.59330
 X15.42750 Y97.15600
 X15.34350 Y96.70610
 X15.26940 Y96.24440
 X15.20710 Y95.77190
 X15.15720 Y95.28940
 X15.12150 Y94.79780
 X15.10100 Y94.29790
 X15.09690 Y93.79040
 X15.11060 Y93.27650
 X15.14350 Y92.75680
 X15.19670 Y92.23220
 X15.27140 Y91.70360
 X15.34190 Y91.30430
 X15.36920 Y91.17190
 X15.41170 Y90.96490
 X15.56650 Y90.34930
 X15.81060 Y89.55650
 X16.09530 Y88.79470
 X16.41510 Y88.06500
 X16.76400 Y87.36850
 X17.13640 Y86.70610
 X17.52610 Y86.07920
 X17.92740 Y85.48860
 X18.33440 Y84.93560
 X18.74150 Y84.42140
 X19.14280 Y83.94680
 X19.53220 Y83.51320
 X19.90430 Y83.12140
 X20.25290 Y82.77280
 X20.57220 Y82.46830
 X20.78470 Y82.27320
 X20.85650 Y82.20920
 X20.88630 Y81.99580
 X20.96600 Y81.35430
 X21.05720 Y80.49530
 X21.13080 Y79.63280
 X21.18720 Y78.76720
 X21.22710 Y77.89920
 X21.25070 Y77.02930
 X21.25890 Y76.15820
 X21.25190 Y75.28620
 X21.23040 Y74.41400
 X21.19500 Y73.54220
 X21.14610 Y72.67130
 X21.08420 Y71.80180
 X21.00990 Y70.93430
 X20.92360 Y70.06940
 X20.82580 Y69.20780
 X20.71740 Y68.34970
 X20.59860 Y67.49580
 X20.47000 Y66.64680
 X20.33210 Y65.80310
 X20.18530 Y64.96530
 X20.03040 Y64.13400
 X19.86780 Y63.30970
 X19.69790 Y62.49290
 X19.52140 Y61.68430
 X19.33880 Y60.88440
 X19.15060 Y60.09380
 X18.95720 Y59.31290
 X18.75930 Y58.54240
 X18.55740 Y57.78280
 X18.35180 Y57.03470
 X18.14330 Y56.29860
 X17.93240 Y55.57510
 X17.71940 Y54.86470
 X17.50530 Y54.16810
 X17.29000 Y53.48560
 X17.07440 Y52.81790
 X16.85900 Y52.16570
 X16.64430 Y51.52930
 X16.43070 Y50.90940
 X16.21890 Y50.30670
 X16.00930 Y49.72140
 X15.80250 Y49.15430
 X15.59900 Y48.60580
 X15.39930 Y48.07670
 X15.20390 Y47.56740
 X15.01350 Y47.07830
 X14.82830 Y46.61030
 X14.64930 Y46.16380
 X14.47650 Y45.73920
 X14.31080 Y45.33720
 X14.15250 Y44.95850
 X14.00240 Y44.60330
 X13.86060 Y44.27250
 X13.72800 Y43.96650
 X13.60500 Y43.68580
 X13.49210 Y43.43110
 X13.38980 Y43.20290
 X13.29870 Y43.00180
 X13.21920 Y42.82820
 X13.15200 Y42.68280
 X13.09750 Y42.56600
 X13.05630 Y42.47860
 X13.02890 Y42.42100
 X13.01900 Y42.40060
 X13.01570 Y42.39360
 X12.99350 Y42.34810
 X12.93610 Y42.20680
 X12.87680 Y42.01650
 X12.83760 Y41.82420
 X12.81770 Y41.63100
 X12.81680 Y41.43850
 X12.83450 Y41.24780
 X12.87030 Y41.06040
 X12.92370 Y40.87760
 X12.99430 Y40.70080
 X13.08150 Y40.53130
 X13.18510 Y40.37030
 X13.30440 Y40.21920
 X13.43910 Y40.07930
 X13.58860 Y39.95210
 X13.75260 Y39.83870
 X13.88490 Y39.76310
 X13.93060 Y39.74080
 X13.98210 Y39.71560
 X14.14310 Y39.65180
 X14.35970 Y39.58900
 X14.57850 Y39.55190
 X14.74250 Y39.53970
 X14.86570
 X15.07130 Y39.55880
 X15.33850 Y39.61490
 X15.59530 Y39.70680
 X15.83750 Y39.83320
 X16.06140 Y39.99260
 X16.26290 Y40.18380
 X16.43820 Y40.40540
 X16.55180 Y40.59100
 X16.58330 Y40.65580
 X16.59180 Y40.67320
 X16.61680 Y40.72510
 X16.66830 Y40.83260
 X16.73710 Y40.97760
 X16.82220 Y41.15930
 X16.92310 Y41.37690
 X17.03880 Y41.62990
 X17.16860 Y41.91710
 X17.31180 Y42.23790
 X17.46760 Y42.59170
 X17.63530 Y42.97750
 X17.81400 Y43.39470
 X18.00310 Y43.84250
 X18.20170 Y44.32010
 X18.40900 Y44.82670
 X18.62430 Y45.36170
 X18.84690 Y45.92400
 X19.07580 Y46.51320
 X19.31060 Y47.12820
 X19.55030 Y47.76860
 X19.79400 Y48.43330
 X20.04120 Y49.12180
 X20.29110 Y49.83310
 X20.54280 Y50.56650
 X20.79560 Y51.32140
 X21.04880 Y52.09670
 X21.30140 Y52.89190
 X21.55280 Y53.70630
 X21.80240 Y54.53890
 X22.04900 Y55.38900
 X22.29220 Y56.25600
 X22.53110 Y57.13880
 X22.70760 Y57.81210
 X22.76510 Y58.03690
 X22.91010 Y57.87860
 X23.33110 Y57.39060
 X23.86830 Y56.71970
 X24.37880 Y56.02600
 X24.86460 Y55.31040
 X25.32760 Y54.57430
 X25.77030 Y53.81900
 X26.19420 Y53.04570
 X26.60170 Y52.25570
 X26.99470 Y51.45010
 X27.37540 Y50.63060
 X27.74570 Y49.79810
 X28.10760 Y48.95400
 X28.46330 Y48.09970
 X28.81490 Y47.23630
 X29.16420 Y46.36500
 X29.42610 Y45.70670
 X29.51330 Y45.48710
 X29.60260 Y45.26240
 X29.87100 Y44.58780
 X30.23240 Y43.68580
 X30.59960 Y42.78240
 X30.97490 Y41.87850
 X31.36040 Y40.97540
 X31.75820 Y40.07430
 X32.17070 Y39.17620
 X32.60000 Y38.28240
 X33.04810 Y37.39390
 X33.51740 Y36.51190
 X34.01010 Y35.63780
 X34.52830 Y34.77220
 X35.07420 Y33.91680
 X35.64990 Y33.07240
 X36.25780 Y32.24030
 X36.73570 Y31.62330
 X36.89990 Y31.42150
 X37.08710 Y31.19140
 X37.66320 Y30.51260
 X38.45190 Y29.63210
 X39.26600 Y28.77970
 X40.10500 Y27.95600
 X40.96890 Y27.16100
 X41.85740 Y26.39470
 X42.77030 Y25.65750
 X43.70720 Y24.94940
 X44.66820 Y24.27070
 X45.65310 Y23.62140
 X46.66130 Y23.00170
 X47.69290 Y22.41180
 X48.74760 Y21.85180
 X49.82530 Y21.32190
 X50.92560 Y20.82240
 X51.76610 Y20.46620
 X52.04850 Y20.35320
 X52.29940 Y20.25280
 X53.05780 Y19.96460
 X54.08140 Y19.60070
 X55.11900 Y19.26170
 X56.17060 Y18.94740
 X57.23570 Y18.65810
 X58.31430 Y18.39350
 X59.40600 Y18.15400
 X60.51040 Y17.93960
 X61.62760 Y17.75010
 X62.75720 Y17.58580
 X63.89900 Y17.44670
 X65.05280 Y17.33280
 X66.21830 Y17.24400
 X67.39530 Y17.18070
 X68.58350 Y17.14260
 X69.48280 Y17.12990
 X70.01970
 X70.73120 Y17.13810
 X71.68380 Y17.16260
 X72.63940 Y17.20360
 X73.59750 Y17.26040
 X74.55740 Y17.33320
 X75.51860 Y17.42170
 X76.48030 Y17.52560
 X77.44190 Y17.64490
 X78.40280 Y17.77940
 X79.36240 Y17.92900
 X80.31970 Y18.09350
 X81.27460 Y18.27260
 X82.22600 Y18.46620
 X83.17360 Y18.67430
 X84.11640 Y18.89650
 X85.05400 Y19.13260
 X85.98580 Y19.38280
 X86.91100 Y19.64650
 X87.82890 Y19.92390
 X88.73900 Y20.21440
 X89.64070 Y20.51820
 X90.53320 Y20.83510
 X91.41600 Y21.16470
 X92.28830 Y21.50710
 X93.14960 Y21.86180
 X93.99900 Y22.22900
 X94.83610 Y22.60830
 X95.66030 Y22.99970
 X96.47070 Y23.40290
 X97.26680 Y23.81780
 X98.04820 Y24.24400
 X98.62350 Y24.57040
 X98.81370 Y24.68180
 X99.16920 Y24.88970
 X100.23000 Y25.52250
 X101.59000 Y26.35250
 X102.89400 Y27.17100
 X104.14200 Y27.97690
 X105.33700 Y28.76920
 X106.47700 Y29.54680
 X107.56500 Y30.30890
 X108.60200 Y31.05440
 X109.58700 Y31.78240
 X110.52200 Y32.49170
 X111.40700 Y33.18150
 X112.24400 Y33.85080
 X113.03300 Y34.49850
 X113.77500 Y35.12370
 X114.47100 Y35.72540
 X115.12200 Y36.30250
 X115.72800 Y36.85400
 X116.29000 Y37.37920
 X116.81000 Y37.87680
 X117.28800 Y38.34580
 X117.72400 Y38.78540
 X118.12000 Y39.19460
 X118.47700 Y39.57220
 X118.79400 Y39.91740
 X119.07400 Y40.22900
 X119.31700 Y40.50620
 X119.52300 Y40.74810
 X119.69400 Y40.95330
 X119.83100 Y41.12130
 X119.93300 Y41.25070
 X120.00300 Y41.34080
 X120.03100 Y41.37790
 X120.04100 Y41.39040
 X120.09400 Y41.46220
 X120.23200 Y41.69360
 X120.37300 Y42.01670
 X120.46400 Y42.35360
 X120.50500 Y42.69860
 X120.49500 Y43.04600
 X120.43400 Y43.38960
 X120.32200 Y43.72390
 X120.20500 Y43.96680
 X120.15800 Y44.04290
G0 Z-25.0000
M5 (stop spindle)
G04 P3 (wait for 3 seconds)
G0 Z-25.0000
M2 (end program)
