;PYCAM-META-DATA: Filename: /media/martoio/MARTOIO/ME43/std_lib/svg/014-internet.svg
;PYCAM-META-DATA: Timestamp: 2017-12-06 01:59:53.370102
;PYCAM-META-DATA: Version: 0.5.1
;Estimated machine time: 12 minutes
G40 (disable tool radius compensation)
G49 (disable tool length compensation)
G80 (cancel modal motion)
G54 (select coordinate system 1)
G90 (disable incremental moves)
G21 (metric)
G61 (exact path mode)
F400.00000
S1.00000
;PYCAM_TOOLPATH_SETTINGS: START
;[Bounds]
;maxz = 0.0
;maxx = 141.225620625
;maxy = 141.225576387
;minx = -6.929601875
;miny = -6.92959785335
;minz = 0.0
;
;[Tool]
;torus_radius = 0.25
;speed = 1.0
;shape = CylindricalCutter
;tool_radius = 0.5
;feedrate = 400.0
;
;[Process]
;engrave_offset = 0.0
;step_down = 1.0
;generator = EngraveCutter
;postprocessor = SimpleCutter
;overlap_percent = 0
;milling_style = conventional
;material_allowance = 0.0
;pocketing_type = none
;path_direction = x
;
;PYCAM_TOOLPATH_SETTINGS: END
T1 M6
G0 Z5.0000
 X124.9645 Y69.2939
G1 Z0.0000
 X99.2331
 X99.0532 Y72.9412
 X98.7122 Y76.5581
 X98.2110 Y80.1399
 X97.5503 Y83.6811
 X96.7317 Y87.1780
 X95.7575 Y90.6240
 X94.6268 Y94.0162
 X93.3426 Y97.3476
 X97.7372 Y99.0402
 X102.0314 Y100.9903
 X106.2133 Y103.2001
 X110.2729 Y105.6680
 X113.3864 Y101.8825
 X116.1733 Y97.8389
 X118.6169 Y93.5575
 X120.6953 Y89.0582
 X122.3887 Y84.3622
 X123.6789 Y79.4893
 X124.5438 Y74.4598
 X124.9645 Y69.2939
G0 Z5.0000
 X99.2331 Y65.0023
G1 Z0.0000
 X124.9645
 X124.5719 Y60.0670
 X123.7746 Y55.2559
 X122.5892 Y50.5859
 X121.0333 Y46.0755
 X119.1234 Y41.7410
 X116.8780 Y37.6001
 X114.3120 Y33.6698
 X111.4431 Y29.9672
 X107.2802 Y32.5987
 X102.9890 Y34.9511
 X98.5801 Y37.0250
 X94.0633 Y38.8213
 X96.1706 Y45.1222
 X97.7432 Y51.6053
 X98.7676 Y58.2419
 X99.2331 Y65.0023
G0 Z5.0000
 X65.0022 Y39.2069
G1 Z0.0000
 Y10.6607
 X62.0058 Y13.4202
 X59.1796 Y16.3169
 X56.5265 Y19.3442
 X54.0496 Y22.4950
 X51.7523 Y25.7638
 X49.6372 Y29.1425
 X47.7083 Y32.6250
 X45.9684 Y36.2039
 X50.6185 Y37.4110
 X55.3485 Y38.3146
 X60.1466 Y38.9136
 X65.0022 Y39.2069
G0 Z5.0000
 X69.2939 Y43.4879
G1 Z0.0000
 Y65.0023
 X94.9525
 X94.5007 Y58.5929
 X93.5158 Y52.3007
 X92.0092 Y46.1542
 X89.9938 Y40.1795
 X84.9424 Y41.5219
 X79.8000 Y42.5197
 X74.5797 Y43.1747
 X69.2939 Y43.4879
G0 Z5.0000
 X91.6037 Y101.2826
G1 Z0.0000
 X89.9839 Y104.4804
 X88.2169 Y107.6014
 X86.3063 Y110.6427
 X84.2545 Y113.5989
 X82.0652 Y116.4679
 X79.7402 Y119.2449
 X77.2819 Y121.9247
 X74.6943 Y124.5036
 X79.3406 Y123.7017
 X83.8535 Y122.5375
 X88.2161 Y121.0249
 X92.4132 Y119.1834
 X96.4303 Y117.0260
 X100.2499 Y114.5679
 X103.8577 Y111.8258
 X107.2377 Y108.8156
 X103.4773 Y106.5854
 X99.6120 Y104.5829
 X95.6519 Y102.8151
 X91.6037 Y101.2826
G0 Z5.0000
 X69.2939 Y97.2321
G1 Z0.0000
 Y123.6356
 X72.1008 Y121.0621
 X74.7598 Y118.3671
 X77.2679 Y115.5574
 X79.6228 Y112.6368
 X81.8207 Y109.6137
 X83.8596 Y106.4919
 X85.7368 Y103.2768
 X87.4484 Y99.9758
 X83.0022 Y98.8769
 X78.4886 Y98.0500
 X73.9165 Y97.5009
 X69.2939 Y97.2321
G0 Z5.0000
 Y92.9432
G1 Z0.0000
 X74.3775 Y93.2363
 X79.4033 Y93.8491
 X84.3600 Y94.7778
 X89.2382 Y96.0186
 X90.4768 Y92.8490
 X91.5687 Y89.6209
 X92.5134 Y86.3397
 X93.3077 Y83.0090
 X93.9509 Y79.6348
 X94.4407 Y76.2211
 X94.7748 Y72.7727
 X94.9525 Y69.2939
 X69.2939
 Y92.9432
G0 Z5.0000
 X65.0022
G1 Z0.0000
 Y69.2939
 X39.3544
 X39.5315 Y72.7727
 X39.8661 Y76.2211
 X40.3555 Y79.6348
 X40.9986 Y83.0090
 X41.7930 Y86.3397
 X42.7372 Y89.6209
 X43.8298 Y92.8490
 X45.0682 Y96.0186
 X49.9396 Y94.7778
 X54.8934 Y93.8491
 X59.9183 Y93.2363
 X65.0022 Y92.9432
G0 Z5.0000
 Y97.2321
G1 Z0.0000
 X60.3793 Y97.5009
 X55.8083 Y98.0500
 X51.2980 Y98.8769
 X46.8579 Y99.9758
 X48.5694 Y103.2768
 X50.4459 Y106.4919
 X52.4845 Y109.6137
 X54.6820 Y112.6368
 X57.0353 Y115.5574
 X59.5418 Y118.3671
 X62.1983 Y121.0621
 X65.0022 Y123.6356
 Y97.2321
G0 Z5.0000
 X42.7030 Y101.2826
G1 Z0.0000
 X38.6487 Y102.8151
 X34.6858 Y104.5829
 X30.8230 Y106.5854
 X27.0689 Y108.8156
 X30.4489 Y111.8258
 X34.0562 Y114.5679
 X37.8758 Y117.0260
 X41.8918 Y119.1834
 X46.0879 Y121.0249
 X50.4492 Y122.5375
 X54.9596 Y123.7017
 X59.6040 Y124.5036
 X57.0151 Y121.9247
 X54.5567 Y119.2449
 X52.2315 Y116.4679
 X50.0421 Y113.5989
 X47.9921 Y110.6427
 X46.0833 Y107.6014
 X44.3197 Y104.4804
 X42.7030 Y101.2826
G0 Z5.0000
 X24.0256 Y105.6680
G1 Z0.0000
 X28.0890 Y103.2001
 X32.2706 Y100.9903
 X36.5624 Y99.0402
 X40.9562 Y97.3476
 X39.6737 Y94.0162
 X38.5440 Y90.6240
 X37.5688 Y87.1780
 X36.7498 Y83.6811
 X36.0882 Y80.1399
 X35.5860 Y76.5581
 X35.2445 Y72.9412
 X35.0653 Y69.2939
 X9.3423
 X9.7626 Y74.4598
 X10.6265 Y79.4893
 X11.9144 Y84.3622
 X13.6068 Y89.0582
 X15.6836 Y93.5575
 X18.1255 Y97.8389
 X20.9126 Y101.8825
 X24.0256 Y105.6680
G0 Z5.0000
 X9.3423 Y65.0023
G1 Z0.0000
 X35.0653
 X35.5307 Y58.2419
 X36.5594 Y51.6053
 X38.1353 Y45.1222
 X40.2439 Y38.8213
 X35.7210 Y37.0250
 X31.3086 Y34.9511
 X27.0162 Y32.5987
 X22.8523 Y29.9672
 X19.9869 Y33.6698
 X17.4231 Y37.6001
 X15.1778 Y41.7410
 X13.2682 Y46.0755
 X11.7125 Y50.5859
 X10.5281 Y55.2559
 X9.7321 Y60.0670
 X9.3423 Y65.0023
G0 Z5.0000
 X39.3544
G1 Z0.0000
 X65.0022
 Y43.4879
 X59.7186 Y43.1752
 X54.5007 Y42.5214
 X49.3587 Y41.5264
 X44.3048 Y40.1903
 X42.2935 Y46.1588
 X40.7898 Y52.3023
 X39.8055 Y58.5929
 X39.3544 Y65.0023
G0 Z5.0000
 X25.7724 Y26.7554
G1 Z0.0000
 X29.6323 Y29.1577
 X33.6088 Y31.3103
 X37.6932 Y33.2100
 X41.8778 Y34.8538
 X43.5270 Y31.3932
 X45.3431 Y28.0145
 X47.3230 Y24.7235
 X49.4650 Y21.5268
 X51.7663 Y18.4296
 X54.2251 Y15.4373
 X56.8383 Y12.5567
 X59.6040 Y9.7926
 X54.7277 Y10.6446
 X50.0001 Y11.8950
 X45.4395 Y13.5257
 X41.0638 Y15.5184
 X36.8907 Y17.8560
 X32.9393 Y20.5200
 X29.2269 Y23.4925
 X25.7724 Y26.7554
G0 Z5.0000
 X69.2939 Y10.6607
G1 Z0.0000
 Y39.2069
 X74.1501 Y38.9136
 X78.9480 Y38.3146
 X83.6773 Y37.4110
 X88.3270 Y36.2039
 X86.5910 Y32.6250
 X84.6638 Y29.1425
 X82.5489 Y25.7638
 X80.2511 Y22.4950
 X77.7726 Y19.3442
 X75.1177 Y16.3169
 X72.2903 Y13.4202
 X69.2939 Y10.6607
G0 Z5.0000
 X74.6943 Y9.7926
G1 Z0.0000
 X77.4599 Y12.5563
 X80.0740 Y15.4361
 X82.5337 Y18.4266
 X84.8361 Y21.5227
 X86.9791 Y24.7190
 X88.9588 Y28.0099
 X90.7737 Y31.3899
 X92.4208 Y34.8538
 X96.6034 Y33.2100
 X100.6896 Y31.3103
 X104.6687 Y29.1577
 X108.5347 Y26.7554
 X105.0765 Y23.4925
 X101.3624 Y20.5200
 X97.4091 Y17.8560
 X93.2356 Y15.5184
 X88.8593 Y13.5257
 X84.2977 Y11.8950
 X79.5705 Y10.6446
 X74.6943 Y9.7926
G0 Z5.0000
 X113.6332 Y25.9491
G1 Z0.0000
 X115.4139 Y28.0478
 X117.1027 Y30.2240
 X118.6951 Y32.4746
 X120.1896 Y34.7974
 X121.5830 Y37.1886
 X122.8694 Y39.6452
 X124.0487 Y42.1650
 X125.1172 Y44.7436
 X126.0717 Y47.3786
 X126.9093 Y50.0673
 X127.6254 Y52.8062
 X128.2185 Y55.5924
 X128.6840 Y58.4228
 X129.0219 Y61.2939
 X129.2262 Y64.2034
 X129.2960 Y67.1479
 X129.2208 Y70.2106
 X128.9999 Y73.2353
 X128.6346 Y76.2186
 X128.1304 Y79.1569
 X127.4895 Y82.0461
 X126.7149 Y84.8847
 X125.8112 Y87.6670
 X124.7815 Y90.3917
 X123.6303 Y93.0533
 X122.3591 Y95.6488
 X120.9733 Y98.1760
 X119.4750 Y100.6311
 X117.8674 Y103.0095
 X116.1543 Y105.3088
 X114.3416 Y107.5247
 X112.4295 Y109.6540
 X112.4083 Y109.6866
 X110.3147 Y111.8053
 X108.1231 Y113.8222
 X105.8382 Y115.7351
 X103.4621 Y117.5371
 X100.9994 Y119.2282
 X98.4548 Y120.8016
 X95.8304 Y122.2535
 X93.1315 Y123.5817
 X90.3613 Y124.7807
 X87.5243 Y125.8469
 X84.6235 Y126.7771
 X81.6635 Y127.5661
 X78.6477 Y128.2116
 X75.5800 Y128.7082
 X72.4642 Y129.0530
 X69.3046 Y129.2421
 X68.0908 Y129.2747
 X67.1479 Y129.2960
 X66.2078 Y129.2747
 X65.0022 Y129.2421
 X61.8423 Y129.0530
 X58.7260 Y128.7082
 X55.6580 Y128.2116
 X52.6414 Y127.5661
 X49.6809 Y126.7771
 X46.7797 Y125.8469
 X43.9415 Y124.7807
 X41.1712 Y123.5817
 X38.4719 Y122.2535
 X35.8479 Y120.8016
 X33.3027 Y119.2282
 X30.8411 Y117.5371
 X28.4660 Y115.7351
 X26.1815 Y113.8222
 X23.9922 Y111.8053
 X21.9013 Y109.6866
 X21.8799 Y109.6540
 X21.8692
 X19.9584 Y107.5247
 X18.1453 Y105.3088
 X16.4335 Y103.0095
 X14.8267 Y100.6311
 X13.3279 Y98.1760
 X11.9412 Y95.6488
 X10.6702 Y93.0533
 X9.5174 Y90.3917
 X8.4875 Y87.6670
 X7.5832 Y84.8847
 X6.8086 Y82.0461
 X6.1667 Y79.1569
 X5.6617 Y76.2186
 X5.2962 Y73.2353
 X5.0746 Y70.2106
 X5.0000 Y67.1479
 X5.0688 Y64.2034
 X5.2740 Y61.2939
 X5.6114 Y58.4228
 X6.0790 Y55.5924
 X6.6731 Y52.8062
 X7.3904 Y50.0673
 X8.2283 Y47.3786
 X9.1833 Y44.7436
 X10.2524 Y42.1650
 X11.4324 Y39.6452
 X12.7198 Y37.1886
 X14.1123 Y34.7974
 X15.6063 Y32.4746
 X17.1985 Y30.2240
 X18.8860 Y28.0478
 X20.6662 Y25.9491
 X20.6958 Y25.8848
 X20.8322 Y25.7617
 X22.9396 Y23.5197
 X25.1536 Y21.3839
 X27.4710 Y19.3585
 X29.8865 Y17.4482
 X32.3964 Y15.6573
 X34.9964 Y13.9900
 X37.6817 Y12.4500
 X40.4490 Y11.0426
 X43.2929 Y9.7712
 X46.2098 Y8.6407
 X49.1955 Y7.6553
 X52.2450 Y6.8189
 X55.3551 Y6.1358
 X58.5204 Y5.6110
 X61.7376 Y5.2480
 X65.0022 Y5.0511
 X66.2078 Y5.0082
 X67.1479 Y5.0000
 X68.0908 Y5.0190
 X69.2939 Y5.0511
 X69.3046
 X72.5709 Y5.2480
 X75.7901 Y5.6118
 X78.9583 Y6.1379
 X82.0705 Y6.8226
 X85.1232 Y7.6606
 X88.1113 Y8.6486
 X91.0311 Y9.7815
 X93.8773 Y11.0554
 X96.6467 Y12.4660
 X99.3349 Y14.0090
 X101.9365 Y15.6800
 X104.4477 Y17.4741
 X106.8648 Y19.3878
 X109.1832 Y21.4169
 X111.3991 Y23.5559
 X113.5063 Y25.8016
 X113.5997 Y25.8956
 X113.6332 Y25.9491
G0 Z5.0000
G0 Z5.0000
M2 (end program)
