$X
$H
G10 P0 L20 X0 Y0 Z0
G40 (disable tool radius compensation)
G49 (disable tool length compensation)
G80 (cancel modal motion)
G54 (select coordinate system 1)
G90 (disable incremental moves)
G21 (metric)
F300.00000
S250.00000
G61 (exact path mode)
;PYCAM_TOOLPATH_SETTINGS: START
;[Bounds]
;maxz = 0.0
;maxx = 135.466
;maxy = 131.99
;minx = 0.000759549
;miny = 3.47661
;minz = 0.0
;
;[Tool]
;torus_radius = 0.125
;shape = CylindricalCutter
;tool_radius = 1.5875
;feedrate = 300.0
;
;[Process]
;engrave_offset = 0.0
;step_down = 3.0
;generator = EngraveCutter
;postprocessor = SimpleCutter
;overlap_percent = 0
;milling_style = ignore
;material_allowance = 0.0
;pocketing_type = none
;path_direction = x
;
;PYCAM_TOOLPATH_SETTINGS: END
G0 Z-25.0000
M3 (start spindle)
G04 P3 (wait for 3 seconds)
 X45.34150 Y95.39320
G1 Z-53.0000
 Y95.30080
 X45.32280 Y95.02390
 X45.26810 Y94.66510
 X45.17920 Y94.31900
 X45.05780 Y93.98710
 X44.90570 Y93.67140
 X44.72470 Y93.37360
 X44.51680 Y93.09560
 X44.28370 Y92.83920
 X44.02740 Y92.60610
 X43.74930 Y92.39820
 X43.45150 Y92.21720
 X43.13580 Y92.06530
 X42.80390 Y91.94380
 X42.45780 Y91.85490
 X42.09900 Y91.80010
 X41.82210 Y91.78150
 X41.63740
 X41.36030 Y91.80010
 X41.00170 Y91.85490
 X40.65540 Y91.94380
 X40.32360 Y92.06530
 X40.00790 Y92.21720
 X39.71010 Y92.39820
 X39.43210 Y92.60610
 X39.17560 Y92.83920
 X38.94250 Y93.09560
 X38.73460 Y93.37360
 X38.55380 Y93.67140
 X38.40170 Y93.98710
 X38.28030 Y94.31900
 X38.19140 Y94.66510
 X38.13670 Y95.02390
 X38.11810 Y95.30080
 Y95.48560
 X38.13670 Y95.76260
 X38.19140 Y96.12140
 X38.28030 Y96.46750
 X38.40170 Y96.79940
 X38.55380 Y97.11510
 X38.73460 Y97.41290
 X38.94250 Y97.69110
 X39.17560 Y97.94750
 X39.43210 Y98.18070
 X39.71010 Y98.38860
 X40.00790 Y98.56940
 X40.32360 Y98.72150
 X40.65540 Y98.84290
 X41.00170 Y98.93190
 X41.36030 Y98.98670
 X41.63740 Y99.00530
 X41.82210
 X42.09900 Y98.98670
 X42.45780 Y98.93190
 X42.80390 Y98.84290
 X43.13580 Y98.72150
 X43.45150 Y98.56940
 X43.74930 Y98.38860
 X44.02740 Y98.18070
 X44.28370 Y97.94750
 X44.51680 Y97.69110
 X44.72470 Y97.41290
 X44.90570 Y97.11510
 X45.05780 Y96.79940
 X45.17920 Y96.46750
 X45.26810 Y96.12140
 X45.32280 Y95.76260
 X45.34150 Y95.48560
 Y95.39320
G0 Z-25.0000
 X33.99900 Y95.39180
G1 Z-53.0000
 Y95.49110
 X34.00900 Y95.78900
 X34.03890 Y96.18110
 X34.08820 Y96.56750
 X34.15630 Y96.94780
 X34.24280 Y97.32140
 X34.34710 Y97.68810
 X34.46890 Y98.04710
 X34.60750 Y98.39790
 X34.76250 Y98.74030
 X34.93350 Y99.07360
 X35.11990 Y99.39740
 X35.32120 Y99.71100
 X35.53690 Y100.01400
 X35.76670 Y100.30600
 X36.00990 Y100.58700
 X36.26600 Y100.85600
 X36.53460 Y101.11200
 X36.81530 Y101.35500
 X37.10740 Y101.58500
 X37.41060 Y101.80000
 X37.72430 Y102.00200
 X38.04810 Y102.18800
 X38.38120 Y102.35900
 X38.72360 Y102.51400
 X39.07460 Y102.65300
 X39.43350 Y102.77400
 X39.80010 Y102.87900
 X40.17380 Y102.96500
 X40.55400 Y103.03300
 X40.94040 Y103.08300
 X41.33250 Y103.11300
 X41.63040 Y103.12300
 X41.82900
 X42.12680 Y103.11300
 X42.51890 Y103.08300
 X42.90530 Y103.03300
 X43.28560 Y102.96500
 X43.65930 Y102.87900
 X44.02580 Y102.77500
 X44.38490 Y102.65300
 X44.73580 Y102.51400
 X45.07820 Y102.35900
 X45.41140 Y102.18800
 X45.73510 Y102.00200
 X46.04890 Y101.80100
 X46.35190 Y101.58500
 X46.64420 Y101.35500
 X46.92490 Y101.11200
 X47.19350 Y100.85600
 X47.44960 Y100.58700
 X47.69280 Y100.30700
 X47.92250 Y100.01500
 X48.13820 Y99.71150
 X48.33960 Y99.39790
 X48.52600 Y99.07420
 X48.69690 Y98.74080
 X48.85190 Y98.39850
 X48.99060 Y98.04760
 X49.11240 Y97.68850
 X49.21670 Y97.32190
 X49.30310 Y96.94820
 X49.37130 Y96.56780
 X49.42040 Y96.18120
 X49.45040 Y95.78920
 X49.46060 Y95.49110
 Y95.29250
 X49.45040 Y94.99470
 X49.42040 Y94.60260
 X49.37130 Y94.21620
 X49.30310 Y93.83600
 X49.21670 Y93.46240
 X49.11240 Y93.09580
 X48.99060 Y92.73680
 X48.85190 Y92.38600
 X48.69690 Y92.04360
 X48.52600 Y91.71040
 X48.33960 Y91.38680
 X48.13820 Y91.07320
 X47.92250 Y90.77010
 X47.69280 Y90.47790
 X47.44960 Y90.19740
 X47.19350 Y89.92890
 X46.92490 Y89.67260
 X46.64420 Y89.42960
 X46.35190 Y89.19990
 X46.04890 Y88.98430
 X45.73510 Y88.78310
 X45.41140 Y88.59670
 X45.07820 Y88.42580
 X44.73580 Y88.27080
 X44.38490 Y88.13220
 X44.02580 Y88.01060
 X43.65930 Y87.90630
 X43.28560 Y87.81970
 X42.90530 Y87.75170
 X42.51890 Y87.70240
 X42.12680 Y87.67250
 X41.82900 Y87.66250
 X41.63040
 X41.33250 Y87.67250
 X40.94040 Y87.70240
 X40.55400 Y87.75170
 X40.17380 Y87.81970
 X39.80010 Y87.90630
 X39.43350 Y88.01060
 X39.07460 Y88.13220
 X38.72360 Y88.27080
 X38.38120 Y88.42580
 X38.04810 Y88.59670
 X37.72430 Y88.78310
 X37.41060 Y88.98430
 X37.10740 Y89.19990
 X36.81530 Y89.42960
 X36.53460 Y89.67260
 X36.26600 Y89.92890
 X36.00990 Y90.19740
 X35.76670 Y90.47790
 X35.53690 Y90.77010
 X35.32120 Y91.07320
 X35.11990 Y91.38680
 X34.93350 Y91.71040
 X34.76250 Y92.04360
 X34.60750 Y92.38600
 X34.46890 Y92.73680
 X34.34710 Y93.09580
 X34.24280 Y93.46240
 X34.15630 Y93.83600
 X34.08820 Y94.21620
 X34.03890 Y94.60260
 X34.00900 Y94.99470
 X33.99900 Y95.29250
 Y95.39180
G0 Z-25.0000
 X32.09470 Y74.32850
G1 Z-53.0000
 X32.12100 Y74.38170
 X32.22220 Y74.53010
 X32.39260 Y74.70900
 X32.60290 Y74.86400
 X32.85010 Y74.99370
 X33.13140 Y75.09690
 X33.44370 Y75.17240
 X33.78460 Y75.21850
 X34.05920 Y75.23420
 X34.46750
 X35.41810 Y75.25220
 X36.64460 Y75.30540
 X37.83100 Y75.39240
 X38.97830 Y75.51150
 X40.08780 Y75.66150
 X41.16000 Y75.84100
 X42.19620 Y76.04820
 X43.19740 Y76.28190
 X44.16440 Y76.54060
 X45.09850 Y76.82280
 X46.00030 Y77.12720
 X46.87100 Y77.45210
 X47.71150 Y77.79630
 X48.52290 Y78.15810
 X49.30610 Y78.53620
 X50.06210 Y78.92920
 X50.79190 Y79.33560
 X51.49670 Y79.75380
 X52.17710 Y80.18240
 X52.83430 Y80.62010
 X53.46930 Y81.06540
 X54.08290 Y81.51670
 X54.67640 Y81.97280
 X55.25040 Y82.43190
 X55.80630 Y82.89290
 X56.34490 Y83.35400
 X56.86710 Y83.81420
 X57.37400 Y84.27150
 X57.86650 Y84.72490
 X58.34570 Y85.17280
 X58.81260 Y85.61360
 X59.15430 Y85.93790
 X59.26810 Y86.04600
 X59.41110 Y86.18210
 X59.84060 Y86.58960
 X60.39530 Y87.11190
 X60.93500 Y87.61140
 X61.46220 Y88.08580
 X61.97940 Y88.53330
 X62.48900 Y88.95210
 X62.99370 Y89.34000
 X63.49600 Y89.69540
 X63.99850 Y90.01610
 X64.50380 Y90.30040
 X65.01400 Y90.54610
 X65.53220 Y90.75150
 X66.06070 Y90.91470
 X66.60190 Y91.03360
 X67.15880 Y91.10640
 X67.58970 Y91.13100
 X67.87690
 X68.30790 Y91.10640
 X68.86470 Y91.03360
 X69.40600 Y90.91470
 X69.93440 Y90.75150
 X70.45260 Y90.54610
 X70.96290 Y90.30040
 X71.46810 Y90.01610
 X71.97060 Y89.69540
 X72.47290 Y89.34000
 X72.97760 Y88.95210
 X73.48720 Y88.53330
 X74.00440 Y88.08580
 X74.53150 Y87.61140
 X75.07120 Y87.11190
 X75.62610 Y86.58960
 X76.05560 Y86.18210
 X76.19860 Y86.04600
 X76.31240 Y85.93790
 X76.65400 Y85.61360
 X77.12080 Y85.17280
 X77.60000 Y84.72490
 X78.09260 Y84.27150
 X78.59940 Y83.81420
 X79.12180 Y83.35400
 X79.66030 Y82.89290
 X80.21610 Y82.43190
 X80.79030 Y81.97280
 X81.38370 Y81.51670
 X81.99740 Y81.06540
 X82.63240 Y80.62010
 X83.28960 Y80.18240
 X83.97000 Y79.75380
 X84.67460 Y79.33560
 X85.40460 Y78.92920
 X86.16060 Y78.53620
 X86.94380 Y78.15810
 X87.75510 Y77.79630
 X88.59570 Y77.45210
 X89.46640 Y77.12720
 X90.36820 Y76.82280
 X91.30220 Y76.54060
 X92.26930 Y76.28190
 X93.27040 Y76.04820
 X94.30650 Y75.84100
 X95.37890 Y75.66150
 X96.48830 Y75.51150
 X97.63570 Y75.39240
 X98.82210 Y75.30540
 X100.04900 Y75.25220
 X100.99900 Y75.23420
 X101.40700
 X101.68200 Y75.21850
 X102.02300 Y75.17240
 X102.33500 Y75.09690
 X102.61700 Y74.99370
 X102.86400 Y74.86400
 X103.07400 Y74.70900
 X103.24400 Y74.53010
 X103.34600 Y74.38170
 X103.37200 Y74.32850
 X103.39200 Y74.28900
 X103.43800 Y74.16430
 X103.47600 Y73.99320
 X103.48600 Y73.81670
 X103.46900 Y73.63640
 X103.42500 Y73.45370
 X103.35500 Y73.27040
 X103.25800 Y73.08790
 X103.16800 Y72.95110
 X103.13500 Y72.90790
 X103.09200 Y72.85060
 X102.94700 Y72.68930
 X102.71800 Y72.47850
 X102.44900 Y72.27790
 X102.13800 Y72.08970
 X101.78700 Y71.91640
 X101.39400 Y71.76030
 X100.95800 Y71.62380
 X100.48000 Y71.50890
 X99.95860 Y71.41850
 X99.39380 Y71.35440
 X98.78510 Y71.31940
 X98.13210 Y71.31560
 X97.43430 Y71.34530
 X96.69130 Y71.41100
 X95.90260 Y71.51490
 X95.27580 Y71.61930
 X95.06790 Y71.65940
 X94.82190 Y71.70690
 X93.60940 Y71.93940
 X92.41890 Y72.16420
 X92.18400 Y72.20790
 X92.18220 Y72.20830
 X92.17110 Y72.21180
 X92.16740
 X91.92690 Y72.25690
 X91.20540 Y72.39080
 X90.25150 Y72.56510
 X89.30610 Y72.73420
 X88.36970 Y72.89720
 X87.44280 Y73.05330
 X86.52560 Y73.20190
 X85.61890 Y73.34210
 X84.72290 Y73.47290
 X83.83830 Y73.59390
 X82.96560 Y73.70420
 X82.10490 Y73.80290
 X81.25690 Y73.88940
 X80.42210 Y73.96290
 X79.60080 Y74.02250
 X78.79360 Y74.06750
 X78.19920 Y74.09170
 X78.00100 Y74.09710
 X77.90240 Y74.10010
 X77.41390 Y74.11290
 X76.98210 Y74.11930
 X76.66390
 X76.14120 Y74.11180
 X75.46140 Y74.08920
 X74.79850 Y74.05080
 X74.15260 Y73.99610
 X73.52380 Y73.92490
 X72.91190 Y73.83650
 X72.31720 Y73.73060
 X71.73960 Y73.60650
 X71.17890 Y73.46400
 X70.63530 Y73.30250
 X70.10890 Y73.12140
 X69.59940 Y72.92040
 X69.10720 Y72.69890
 X68.63220 Y72.45670
 X68.17420 Y72.19290
 X67.84150 Y71.98170
 X67.73330 Y71.90740
 X67.61420 Y71.98930
 X67.24720 Y72.22070
 X66.74010 Y72.50750
 X66.21240 Y72.76850
 X65.66350 Y73.00420
 X65.09400 Y73.21530
 X64.50360 Y73.40220
 X63.89250 Y73.56610
 X63.26070 Y73.70740
 X62.60810 Y73.82640
 X61.93470 Y73.92420
 X61.24100 Y74.00120
 X60.52640 Y74.05830
 X59.79140 Y74.09580
 X59.03570 Y74.11470
 X58.25960 Y74.11530
 X57.66190 Y74.10470
 X57.46290 Y74.09850
 X57.44500 Y74.09780
 X57.26430 Y74.09100
 X57.24630 Y74.09040
 X57.21190 Y74.08900
 X56.86790 Y74.07540
 X56.83320 Y74.07380
 X56.44780 Y74.05720
 X55.29260 Y73.98150
 X53.70280 Y73.83860
 X52.06650 Y73.65040
 X50.38690 Y73.42210
 X48.66740 Y73.15890
 X46.91080 Y72.86630
 X45.12040 Y72.54930
 X43.75430 Y72.29850
 X43.29930 Y72.21330
 X43.29760 Y72.21290
 X43.28180 Y72.20830
 X43.28010 Y72.20790
 X43.04510 Y72.16420
 X41.85540 Y71.94010
 X40.64430 Y71.70830
 X40.39870 Y71.66080
 X40.19070 Y71.62070
 X39.56380 Y71.51620
 X38.77500 Y71.41220
 X38.03180 Y71.34650
 X37.33390 Y71.31670
 X36.68080 Y71.32040
 X36.07220 Y71.35540
 X35.50740 Y71.41930
 X34.98610 Y71.50970
 X34.50790 Y71.62430
 X34.07240 Y71.76070
 X33.67900 Y71.91680
 X33.32750 Y72.09000
 X33.01720 Y72.27810
 X32.74790 Y72.47860
 X32.51920 Y72.68930
 X32.37400 Y72.85060
 X32.33030 Y72.90790
 X32.29740 Y72.95110
 X32.20780 Y73.08790
 X32.11130 Y73.27040
 X32.04100 Y73.45370
 X31.99740 Y73.63640
 X31.98070 Y73.81670
 X31.99110 Y73.99320
 X32.02900 Y74.16430
 X32.07500 Y74.28900
 X32.09470 Y74.32850
G0 Z-25.0000
 X67.73330 Y62.64420
G1 Z-53.0000
 X67.47000
 X66.68030 Y62.64930
 X65.67850 Y62.66500
 X64.72560 Y62.69150
 X63.81940 Y62.72880
 X62.95780 Y62.77720
 X62.13820 Y62.83710
 X61.35860 Y62.90850
 X60.61670 Y62.99170
 X59.91010 Y63.08680
 X59.23670 Y63.19400
 X58.59420 Y63.31370
 X57.98030 Y63.44610
 X57.39280 Y63.59120
 X56.82940 Y63.74940
 X56.28790 Y63.92100
 X55.76580 Y64.10580
 X55.26130 Y64.30440
 X54.77170 Y64.51680
 X54.29500 Y64.74330
 X53.82870 Y64.98420
 X53.37080 Y65.23940
 X52.91900 Y65.50960
 X52.47100 Y65.79440
 X52.02430 Y66.09460
 X51.57710 Y66.41010
 X51.12670 Y66.74110
 X50.67110 Y67.08790
 X50.20810 Y67.45070
 X49.73510 Y67.82960
 X49.25030 Y68.22500
 X48.75100 Y68.63690
 X48.36400 Y68.95850
 X48.23530 Y69.06570
 X48.48260 Y69.10750
 X49.70680 Y69.30620
 X50.91290 Y69.49030
 X51.15140 Y69.52470
 X51.16440 Y69.52650
 X51.29530 Y69.54530
 X51.30830 Y69.54690
 X51.33710 Y69.55110
 X51.62310 Y69.59080
 X51.65150 Y69.59500
 X51.79400 Y69.61430
 X52.22170 Y69.67040
 X52.78750 Y69.74110
 X53.34880 Y69.80690
 X53.90490 Y69.86750
 X54.45570 Y69.92260
 X55.00070 Y69.97190
 X55.53960 Y70.01510
 X56.07190 Y70.05210
 X56.59750 Y70.08240
 X57.11560 Y70.10580
 X57.62610 Y70.12210
 X58.12850 Y70.13080
 X58.62250 Y70.13190
 X59.10760 Y70.12500
 X59.58360 Y70.10990
 X60.05000 Y70.08620
 X60.50640 Y70.05380
 X60.95240 Y70.01210
 X61.38760 Y69.96110
 X61.81190 Y69.90040
 X62.22460 Y69.82990
 X62.62540 Y69.74900
 X63.01400 Y69.65780
 X63.38990 Y69.55580
 X63.75280 Y69.44280
 X64.10240 Y69.31830
 X64.43810 Y69.18240
 X64.75960 Y69.03460
 X65.06650 Y68.87460
 X65.35860 Y68.70210
 X65.63540 Y68.51710
 X65.83280 Y68.37040
 X65.89640 Y68.31890
 X65.90130 Y68.31490
 X65.95080 Y68.27490
 X65.95570 Y68.27060
 X65.98740 Y68.24460
 X66.28940 Y67.96900
 X66.31790 Y67.94000
 X66.36120 Y67.89580
 X66.50220 Y67.77370
 X66.70420 Y67.63320
 X66.92110 Y67.51930
 X67.09210 Y67.45080
 X67.15060 Y67.43280
 X67.19740 Y67.41830
 X67.43720 Y67.36690
 X67.65930 Y67.34460
 X67.78290
 X67.91540 Y67.35420
 X67.93150 Y67.35580
 X68.01690 Y67.36430
 X68.27030 Y67.41940
 X68.59100 Y67.54000
 X68.88670 Y67.71460
 X69.08970 Y67.87830
 X69.15010 Y67.94000
 X69.17830 Y67.96900
 X69.47930 Y68.24420
 X69.51100 Y68.27060
 X69.51580 Y68.27490
 X69.56650 Y68.31490
 X69.57170 Y68.31890
 X69.63530 Y68.37040
 X69.83260 Y68.51710
 X70.10940 Y68.70210
 X70.40140 Y68.87460
 X70.70830 Y69.03460
 X71.02990 Y69.18240
 X71.36540 Y69.31830
 X71.71490 Y69.44280
 X72.07760 Y69.55580
 X72.45350 Y69.65780
 X72.84190 Y69.74900
 X73.24260 Y69.82990
 X73.65530 Y69.90040
 X74.07930 Y69.96110
 X74.51440 Y70.01210
 X74.96040 Y70.05380
 X75.41670 Y70.08620
 X75.88290 Y70.10990
 X76.35880 Y70.12500
 X76.84380 Y70.13190
 X77.33750 Y70.13080
 X77.83990 Y70.12210
 X78.35030 Y70.10580
 X78.86830 Y70.08240
 X79.39360 Y70.05210
 X79.92580 Y70.01510
 X80.46470 Y69.97190
 X81.00970 Y69.92260
 X81.56040 Y69.86750
 X82.11650 Y69.80690
 X82.67780 Y69.74110
 X83.24360 Y69.67040
 X83.67110 Y69.61430
 X83.81360 Y69.59500
 X83.84320 Y69.59080
 X84.13960 Y69.54970
 X84.16930 Y69.54560
 X84.18100 Y69.54390
 X84.29690 Y69.52650
 X84.30830 Y69.52470
 X84.54740 Y69.49060
 X85.75690 Y69.30670
 X86.98440 Y69.10750
 X87.23240 Y69.06570
 X87.10360 Y68.95850
 X86.71650 Y68.63690
 X86.21720 Y68.22500
 X85.73220 Y67.82960
 X85.25930 Y67.45070
 X84.79610 Y67.08790
 X84.34040 Y66.74110
 X83.89010 Y66.41010
 X83.44280 Y66.09460
 X82.99610 Y65.79440
 X82.54790 Y65.50960
 X82.09600 Y65.23940
 X81.63810 Y64.98420
 X81.17190 Y64.74330
 X80.69510 Y64.51680
 X80.20560 Y64.30440
 X79.70080 Y64.10580
 X79.17890 Y63.92100
 X78.63740 Y63.74940
 X78.07390 Y63.59120
 X77.48640 Y63.44610
 X76.87250 Y63.31370
 X76.22990 Y63.19400
 X75.55650 Y63.08680
 X74.85000 Y62.99170
 X74.10810 Y62.90850
 X73.32850 Y62.83710
 X72.50890 Y62.77720
 X71.64720 Y62.72880
 X70.74110 Y62.69150
 X69.78820 Y62.66500
 X68.78640 Y62.64930
 X67.99650 Y62.64420
 X67.73330
G0 Z-25.0000
 X97.34870 Y95.39320
G1 Z-53.0000
 Y95.30080
 X97.33000 Y95.02390
 X97.27530 Y94.66510
 X97.18630 Y94.31900
 X97.06470 Y93.98710
 X96.91250 Y93.67140
 X96.73150 Y93.37360
 X96.52360 Y93.09560
 X96.29030 Y92.83920
 X96.03380 Y92.60610
 X95.75560 Y92.39820
 X95.45760 Y92.21720
 X95.14180 Y92.06530
 X94.80990 Y91.94380
 X94.46360 Y91.85490
 X94.10490 Y91.80010
 X93.82790 Y91.78150
 X93.64310
 X93.36610 Y91.80010
 X93.00750 Y91.85490
 X92.66120 Y91.94380
 X92.32930 Y92.06530
 X92.01360 Y92.21720
 X91.71580 Y92.39820
 X91.43790 Y92.60610
 X91.18140 Y92.83920
 X90.94830 Y93.09560
 X90.74040 Y93.37360
 X90.55960 Y93.67140
 X90.40750 Y93.98710
 X90.28610 Y94.31900
 X90.19720 Y94.66510
 X90.14240 Y95.02390
 X90.12380 Y95.30080
 Y95.48560
 X90.14240 Y95.76260
 X90.19720 Y96.12140
 X90.28610 Y96.46750
 X90.40750 Y96.79940
 X90.55960 Y97.11510
 X90.74040 Y97.41290
 X90.94830 Y97.69110
 X91.18140 Y97.94750
 X91.43790 Y98.18070
 X91.71580 Y98.38860
 X92.01360 Y98.56940
 X92.32930 Y98.72150
 X92.66120 Y98.84290
 X93.00750 Y98.93190
 X93.36610 Y98.98670
 X93.64310 Y99.00530
 X93.82790
 X94.10490 Y98.98670
 X94.46360 Y98.93190
 X94.80990 Y98.84290
 X95.14180 Y98.72150
 X95.45760 Y98.56940
 X95.75560 Y98.38860
 X96.03380 Y98.18070
 X96.29030 Y97.94750
 X96.52360 Y97.69110
 X96.73150 Y97.41290
 X96.91250 Y97.11510
 X97.06470 Y96.79940
 X97.18630 Y96.46750
 X97.27530 Y96.12140
 X97.33000 Y95.76260
 X97.34870 Y95.48560
 Y95.39320
G0 Z-25.0000
 X86.00630 Y95.39180
G1 Z-53.0000
 Y95.49110
 X86.01620 Y95.78900
 X86.04610 Y96.18110
 X86.09540 Y96.56750
 X86.16350 Y96.94780
 X86.25000 Y97.32140
 X86.35430 Y97.68810
 X86.47610 Y98.04710
 X86.61470 Y98.39790
 X86.76970 Y98.74030
 X86.94070 Y99.07360
 X87.12710 Y99.39740
 X87.32830 Y99.71100
 X87.54420 Y100.01400
 X87.77380 Y100.30600
 X88.01710 Y100.58700
 X88.27320 Y100.85600
 X88.54180 Y101.11200
 X88.82250 Y101.35500
 X89.11460 Y101.58500
 X89.41780 Y101.80000
 X89.73150 Y102.00200
 X90.05530 Y102.18800
 X90.38850 Y102.35900
 X90.73080 Y102.51400
 X91.08180 Y102.65300
 X91.44070 Y102.77400
 X91.80740 Y102.87900
 X92.18100 Y102.96500
 X92.56130 Y103.03300
 X92.94760 Y103.08300
 X93.33970 Y103.11300
 X93.63760 Y103.12300
 X93.83630
 X94.13400 Y103.11300
 X94.52610 Y103.08300
 X94.91250 Y103.03300
 X95.29280 Y102.96500
 X95.66650 Y102.87900
 X96.03310 Y102.77500
 X96.39210 Y102.65300
 X96.74310 Y102.51400
 X97.08530 Y102.35900
 X97.41860 Y102.18800
 X97.74240 Y102.00200
 X98.05600 Y101.80100
 X98.35920 Y101.58500
 X98.65140 Y101.35500
 X98.93210 Y101.11200
 X99.20070 Y100.85600
 X99.45680 Y100.58700
 X99.70000 Y100.30700
 X99.92970 Y100.01500
 X100.14500 Y99.71150
 X100.34700 Y99.39790
 X100.53300 Y99.07420
 X100.70400 Y98.74080
 X100.85900 Y98.39850
 X100.99800 Y98.04760
 X101.11900 Y97.68850
 X101.22400 Y97.32190
 X101.31000 Y96.94820
 X101.37800 Y96.56780
 X101.42800 Y96.18120
 X101.45800 Y95.78920
 X101.46800 Y95.49110
 Y95.29250
 X101.45800 Y94.99470
 X101.42800 Y94.60260
 X101.37800 Y94.21620
 X101.31000 Y93.83600
 X101.22400 Y93.46240
 X101.11900 Y93.09580
 X100.99800 Y92.73680
 X100.85900 Y92.38600
 X100.70400 Y92.04360
 X100.53300 Y91.71040
 X100.34700 Y91.38680
 X100.14500 Y91.07320
 X99.92970 Y90.77010
 X99.70000 Y90.47790
 X99.45680 Y90.19740
 X99.20070 Y89.92890
 X98.93210 Y89.67260
 X98.65140 Y89.42960
 X98.35920 Y89.19990
 X98.05600 Y88.98430
 X97.74240 Y88.78310
 X97.41860 Y88.59670
 X97.08530 Y88.42580
 X96.74310 Y88.27080
 X96.39210 Y88.13220
 X96.03310 Y88.01060
 X95.66650 Y87.90630
 X95.29280 Y87.81970
 X94.91250 Y87.75170
 X94.52610 Y87.70240
 X94.13400 Y87.67250
 X93.83630 Y87.66250
 X93.63760
 X93.33970 Y87.67250
 X92.94760 Y87.70240
 X92.56130 Y87.75170
 X92.18100 Y87.81970
 X91.80740 Y87.90630
 X91.44070 Y88.01060
 X91.08180 Y88.13220
 X90.73080 Y88.27080
 X90.38850 Y88.42580
 X90.05530 Y88.59670
 X89.73150 Y88.78310
 X89.41780 Y88.98430
 X89.11460 Y89.19990
 X88.82250 Y89.42960
 X88.54180 Y89.67260
 X88.27320 Y89.92890
 X88.01710 Y90.19740
 X87.77380 Y90.47790
 X87.54420 Y90.77010
 X87.32830 Y91.07320
 X87.12710 Y91.38680
 X86.94070 Y91.71040
 X86.76970 Y92.04360
 X86.61470 Y92.38600
 X86.47610 Y92.73680
 X86.35430 Y93.09580
 X86.25000 Y93.46240
 X86.16350 Y93.83600
 X86.09540 Y94.21620
 X86.04610 Y94.60260
 X86.01620 Y94.99470
 X86.00630 Y95.29250
 Y95.39180
G0 Z-25.0000
 X28.53790 Y76.09100
G1 Z-53.0000
 X28.49690 Y76.00820
 X28.38610 Y75.75390
 X28.26060 Y75.40940
 X28.16100 Y75.05900
 X28.08740 Y74.70360
 X28.03930 Y74.34470
 X28.01710 Y73.98320
 X28.02010 Y73.62060
 X28.04880 Y73.25790
 X28.10240 Y72.89650
 X28.18130 Y72.53750
 X28.28500 Y72.18220
 X28.41350 Y71.83180
 X28.56670 Y71.48750
 X28.74440 Y71.15060
 X28.94650 Y70.82210
 X29.11390 Y70.58110
 X29.17290 Y70.50330
 X29.19760 Y70.47080
 X29.27400 Y70.37470
 X29.38820 Y70.23790
 X29.51610 Y70.09390
 X29.65810 Y69.94390
 X29.81460 Y69.78890
 X29.98600 Y69.63000
 X30.17290 Y69.46850
 X30.37570 Y69.30540
 X30.59470 Y69.14170
 X30.83040 Y68.97860
 X31.08330 Y68.81720
 X31.35400 Y68.65850
 X31.64260 Y68.50380
 X31.94990 Y68.35390
 X32.27600 Y68.21010
 X32.62150 Y68.07360
 X32.98680 Y67.94540
 X33.37250 Y67.82650
 X33.77890 Y67.71810
 X34.20640 Y67.62130
 X34.65560 Y67.53710
 X35.12680 Y67.46680
 X35.62060 Y67.41120
 X36.13720 Y67.37180
 X36.67740 Y67.34940
 X37.24110 Y67.34530
 X37.82930 Y67.36040
 X38.44220 Y67.39580
 X39.08030 Y67.45280
 X39.74390 Y67.53240
 X40.43350 Y67.63570
 X40.97110 Y67.72920
 X41.14970 Y67.76360
 X41.31330 Y67.79500
 X42.96120 Y68.11240
 X43.12710 Y68.14400
 X43.26720 Y68.02970
 X43.68680 Y67.68530
 X44.22780 Y67.23830
 X44.75380 Y66.80110
 X45.13970 Y66.47930
 X45.26850 Y66.37190
 X45.41030 Y66.25380
 X45.83580 Y65.89900
 X46.38760 Y65.44100
 X46.92640 Y64.99790
 X47.45440 Y64.56970
 X47.97430 Y64.15670
 X48.48830 Y63.75850
 X48.99900 Y63.37540
 X49.50860 Y63.00720
 X50.01960 Y62.65400
 X50.53440 Y62.31580
 X51.05560 Y61.99260
 X51.58540 Y61.68440
 X52.12640 Y61.39120
 X52.68080 Y61.11310
 X53.25130 Y60.85000
 X53.84000 Y60.60180
 X54.44970 Y60.36860
 X55.08240 Y60.15060
 X55.74080 Y59.94740
 X56.42740 Y59.75930
 X57.14420 Y59.58620
 X57.89400 Y59.42820
 X58.67920 Y59.28530
 X59.50190 Y59.15720
 X60.36500 Y59.04440
 X61.27060 Y58.94650
 X62.22110 Y58.86370
 X63.21900 Y58.79600
 X64.26680 Y58.74320
 X65.36680 Y58.70560
 X66.52150 Y58.68290
 X67.43040 Y58.67540
 X68.03620
 X68.94510 Y58.68290
 X70.09970 Y58.70560
 X71.19990 Y58.74320
 X72.24750 Y58.79600
 X73.24560 Y58.86370
 X74.19610 Y58.94650
 X75.10170 Y59.04440
 X75.96460 Y59.15720
 X76.78750 Y59.28530
 X77.57260 Y59.42820
 X78.32240 Y59.58620
 X79.03930 Y59.75930
 X79.72570 Y59.94740
 X80.38420 Y60.15060
 X81.01690 Y60.36860
 X81.62650 Y60.60180
 X82.21530 Y60.85000
 X82.78570 Y61.11310
 X83.34030 Y61.39120
 X83.88130 Y61.68440
 X84.41100 Y61.99260
 X84.93210 Y62.31580
 X85.44710 Y62.65400
 X85.95810 Y63.00720
 X86.46760 Y63.37540
 X86.97820 Y63.75850
 X87.49240 Y64.15670
 X88.01210 Y64.56970
 X88.54010 Y64.99790
 X89.07900 Y65.44100
 X89.63080 Y65.89900
 X90.05640 Y66.25380
 X90.19820 Y66.37190
 X90.32690 Y66.47930
 X90.71290 Y66.80110
 X91.23860 Y67.23830
 X91.77920 Y67.68530
 X92.19820 Y68.02960
 X92.33820 Y68.14400
 X92.50430 Y68.11240
 X94.15210 Y67.79500
 X94.31580 Y67.76360
 X94.45650 Y67.73650
 X94.88000 Y67.66100
 X95.42780 Y67.57380
 X95.95920 Y67.50150
 X96.47460 Y67.44350
 X96.97430 Y67.39940
 X97.45870 Y67.36860
 X97.92790 Y67.35040
 X98.26880 Y67.34460
 X98.49470
 X98.83210 Y67.35070
 X99.26670 Y67.36830
 X99.68600 Y67.39720
 X100.09000 Y67.43670
 X100.48000 Y67.48610
 X100.85500 Y67.54490
 X101.21600 Y67.61260
 X101.56300 Y67.68850
 X101.89700 Y67.77220
 X102.21700 Y67.86290
 X102.52300 Y67.96030
 X102.81700 Y68.06350
 X103.09700 Y68.17220
 X103.36500 Y68.28580
 X103.62100 Y68.40360
 X103.86400 Y68.52510
 X104.09600 Y68.64970
 X104.31500 Y68.77690
 X104.52400 Y68.90600
 X104.72100 Y69.03650
 X104.90700 Y69.16790
 X105.08200 Y69.29960
 X105.24700 Y69.43100
 X105.40200 Y69.56140
 X105.54600 Y69.69040
 X105.68000 Y69.81740
 X105.80500 Y69.94170
 X105.92100 Y70.06290
 X106.02700 Y70.18030
 X106.12500 Y70.29350
 X106.21300 Y70.40170
 X106.27400 Y70.47850
 X106.29400 Y70.50440
 X106.35300 Y70.58210
 X106.52000 Y70.82290
 X106.72200 Y71.15130
 X106.89900 Y71.48810
 X107.05200 Y71.83220
 X107.18100 Y72.18250
 X107.28500 Y72.53780
 X107.36400 Y72.89670
 X107.41700 Y73.25810
 X107.44600 Y73.62070
 X107.44900 Y73.98320
 X107.42700 Y74.34470
 X107.37900 Y74.70360
 X107.30600 Y75.05900
 X107.20600 Y75.40940
 X107.08000 Y75.75390
 X106.97000 Y76.00820
 X106.92900 Y76.09100
 X106.88400 Y76.18180
 X106.73400 Y76.44710
 X106.51500 Y76.78430
 X106.27000 Y77.10190
 X106.00300 Y77.39960
 X105.71200 Y77.67650
 X105.40000 Y77.93250
 X105.06800 Y78.16650
 X104.71600 Y78.37850
 X104.34500 Y78.56750
 X103.95700 Y78.73310
 X103.55200 Y78.87470
 X103.13200 Y78.99180
 X102.69800 Y79.08400
 X102.24900 Y79.15040
 X101.78800 Y79.19070
 X101.43400 Y79.20430
 X101.03600
 X100.19600 Y79.21930
 X99.11390 Y79.26330
 X98.06920 Y79.33570
 X97.06040 Y79.43500
 X96.08670 Y79.56040
 X95.14670 Y79.71080
 X94.23940 Y79.88510
 X93.36370 Y80.08220
 X92.51860 Y80.30110
 X91.70290 Y80.54080
 X90.91540 Y80.80030
 X90.15500 Y81.07820
 X89.42070 Y81.37380
 X88.71130 Y81.68580
 X88.02570 Y82.01350
 X87.36280 Y82.35540
 X86.72140 Y82.71070
 X86.10040 Y83.07830
 X85.49890 Y83.45710
 X84.91560 Y83.84610
 X84.34940 Y84.24430
 X83.79920 Y84.65040
 X83.26390 Y85.06360
 X82.74240 Y85.48280
 X82.23360 Y85.90680
 X81.73620 Y86.33460
 X81.24930 Y86.76530
 X80.77180 Y87.19760
 X80.30250 Y87.63070
 X79.84030 Y88.06350
 X79.38400 Y88.49460
 X79.04540 Y88.81610
 X78.93260 Y88.92330
 X78.77650 Y89.07170
 X78.30780 Y89.51610
 X77.68470 Y90.10070
 X77.06100 Y90.67290
 X76.43400 Y91.22850
 X75.80140 Y91.76330
 X75.16030 Y92.27350
 X74.50830 Y92.75460
 X73.84290 Y93.20260
 X73.16170 Y93.61360
 X72.46190 Y93.98310
 X71.74110 Y94.30710
 X70.99680 Y94.58140
 X70.22640 Y94.80190
 X69.42740 Y94.96460
 X68.59720 Y95.06530
 X67.94930 Y95.09970
 X67.51740
 X66.86920 Y95.06530
 X66.03880 Y94.96460
 X65.23960 Y94.80190
 X64.46900 Y94.58140
 X63.72460 Y94.30710
 X63.00360 Y93.98310
 X62.30390 Y93.61360
 X61.62250 Y93.20260
 X60.95710 Y92.75460
 X60.30500 Y92.27350
 X59.66390 Y91.76330
 X59.03130 Y91.22850
 X58.40420 Y90.67290
 X57.78060 Y90.10070
 X57.15750 Y89.51610
 X56.68880 Y89.07170
 X56.53260 Y88.92330
 X56.41990 Y88.81610
 X56.08130 Y88.49460
 X55.62500 Y88.06350
 X55.16280 Y87.63070
 X54.69350 Y87.19760
 X54.21580 Y86.76530
 X53.72900 Y86.33460
 X53.23170 Y85.90680
 X52.72280 Y85.48280
 X52.20130 Y85.06360
 X51.66600 Y84.65040
 X51.11580 Y84.24430
 X50.54960 Y83.84610
 X49.96630 Y83.45710
 X49.36470 Y83.07830
 X48.74390 Y82.71070
 X48.10250 Y82.35540
 X47.43960 Y82.01350
 X46.75400 Y81.68580
 X46.04460 Y81.37380
 X45.31010 Y81.07820
 X44.54990 Y80.80030
 X43.76240 Y80.54080
 X42.94650 Y80.30110
 X42.10140 Y80.08220
 X41.22570 Y79.88510
 X40.31850 Y79.71080
 X39.37860 Y79.56040
 X38.40490 Y79.43500
 X37.39610 Y79.33570
 X36.35140 Y79.26330
 X35.26940 Y79.21930
 X34.42930 Y79.20430
 X34.14930
 X34.03110 Y79.20420
 X33.67690 Y79.19040
 X33.21610 Y79.15000
 X32.76790 Y79.08350
 X32.33330 Y78.99130
 X31.91320 Y78.87400
 X31.50870 Y78.73240
 X31.12070 Y78.56680
 X30.75030 Y78.37790
 X30.39830 Y78.16610
 X30.06600 Y77.93210
 X29.75420 Y77.67640
 X29.46390 Y77.39930
 X29.19610 Y77.10180
 X28.95190 Y76.78420
 X28.73210 Y76.44710
 X28.58290 Y76.18180
 X28.53790 Y76.09100
G0 Z-25.0000
 X53.42930 Y95.39180
G1 Z-53.0000
 Y95.54210
 X53.41390 Y95.99290
 X53.36880 Y96.58630
 X53.29420 Y97.17110
 X53.19110 Y97.74670
 X53.06030 Y98.31220
 X52.90220 Y98.86710
 X52.71810 Y99.41030
 X52.50830 Y99.94140
 X52.27360 Y100.45900
 X52.01500 Y100.96400
 X51.73290 Y101.45400
 X51.42830 Y101.92900
 X51.10170 Y102.38700
 X50.75420 Y102.82900
 X50.38610 Y103.25400
 X49.99850 Y103.66100
 X49.59180 Y104.04800
 X49.16710 Y104.41600
 X48.72500 Y104.76400
 X48.26620 Y105.09100
 X47.79150 Y105.39500
 X47.30150 Y105.67700
 X46.79710 Y105.93600
 X46.27900 Y106.17100
 X45.74810 Y106.38000
 X45.20470 Y106.56400
 X44.65000 Y106.72200
 X44.08440 Y106.85300
 X43.50890 Y106.95600
 X42.92420 Y107.03100
 X42.33080 Y107.07600
 X41.88000 Y107.09100
 X41.57940
 X41.12860 Y107.07600
 X40.53530 Y107.03100
 X39.95040 Y106.95600
 X39.37500 Y106.85300
 X38.80940 Y106.72300
 X38.25470 Y106.56500
 X37.71140 Y106.38000
 X37.18030 Y106.17100
 X36.66220 Y105.93600
 X36.15790 Y105.67700
 X35.66790 Y105.39500
 X35.19320 Y105.09100
 X34.73440 Y104.76400
 X34.29220 Y104.41700
 X33.86750 Y104.04900
 X33.46100 Y103.66100
 X33.07330 Y103.25500
 X32.70530 Y102.83000
 X32.35760 Y102.38800
 X32.03110 Y101.92900
 X31.72650 Y101.45400
 X31.44440 Y100.96400
 X31.18580 Y100.46000
 X30.95110 Y99.94180
 X30.74140 Y99.41070
 X30.55710 Y98.86740
 X30.39920 Y98.31250
 X30.26830 Y97.74690
 X30.16530 Y97.17140
 X30.09070 Y96.58650
 X30.04540 Y95.99310
 X30.03030 Y95.54220
 Y95.24150
 X30.04540 Y94.79070
 X30.09070 Y94.19750
 X30.16530 Y93.61260
 X30.26830 Y93.03720
 X30.39920 Y92.47170
 X30.55710 Y91.91690
 X30.74140 Y91.37380
 X30.95110 Y90.84280
 X31.18580 Y90.32470
 X31.44440 Y89.82030
 X31.72650 Y89.33040
 X32.03110 Y88.85580
 X32.35760 Y88.39710
 X32.70530 Y87.95500
 X33.07330 Y87.53030
 X33.46100 Y87.12380
 X33.86750 Y86.73620
 X34.29220 Y86.36830
 X34.73440 Y86.02070
 X35.19320 Y85.69420
 X35.66790 Y85.38960
 X36.15790 Y85.10760
 X36.66220 Y84.84900
 X37.18030 Y84.61440
 X37.71140 Y84.40470
 X38.25470 Y84.22060
 X38.80940 Y84.06260
 X39.37500 Y83.93180
 X39.95040 Y83.82870
 X40.53530 Y83.75420
 X41.12860 Y83.70900
 X41.57940 Y83.69380
 X41.88000
 X42.33080 Y83.70900
 X42.92420 Y83.75420
 X43.50890 Y83.82870
 X44.08440 Y83.93180
 X44.65000 Y84.06260
 X45.20470 Y84.22060
 X45.74810 Y84.40470
 X46.27900 Y84.61440
 X46.79710 Y84.84900
 X47.30150 Y85.10760
 X47.79150 Y85.38960
 X48.26620 Y85.69420
 X48.72500 Y86.02070
 X49.16710 Y86.36830
 X49.59180 Y86.73620
 X49.99850 Y87.12380
 X50.38610 Y87.53030
 X50.75420 Y87.95500
 X51.10170 Y88.39710
 X51.42830 Y88.85580
 X51.73290 Y89.33040
 X52.01500 Y89.82030
 X52.27360 Y90.32470
 X52.50830 Y90.84280
 X52.71810 Y91.37380
 X52.90220 Y91.91690
 X53.06030 Y92.47170
 X53.19110 Y93.03720
 X53.29420 Y93.61260
 X53.36880 Y94.19750
 X53.41390 Y94.79070
 X53.42930 Y95.24150
 Y95.39180
G0 Z-25.0000
 X105.43700
G1 Z-53.0000
 Y95.54210
 X105.42100 Y95.99290
 X105.37600 Y96.58630
 X105.30100 Y97.17110
 X105.19800 Y97.74670
 X105.06700 Y98.31220
 X104.90900 Y98.86710
 X104.72500 Y99.41030
 X104.51600 Y99.94140
 X104.28100 Y100.45900
 X104.02200 Y100.96400
 X103.74000 Y101.45400
 X103.43600 Y101.92900
 X103.10900 Y102.38700
 X102.76100 Y102.82900
 X102.39300 Y103.25400
 X102.00600 Y103.66100
 X101.59900 Y104.04800
 X101.17400 Y104.41600
 X100.73200 Y104.76400
 X100.27300 Y105.09100
 X99.79870 Y105.39500
 X99.30880 Y105.67700
 X98.80430 Y105.93600
 X98.28620 Y106.17100
 X97.75530 Y106.38000
 X97.21190 Y106.56400
 X96.65720 Y106.72200
 X96.09170 Y106.85300
 X95.51610 Y106.95600
 X94.93120 Y107.03100
 X94.33810 Y107.07600
 X93.88720 Y107.09100
 X93.58670
 X93.13580 Y107.07600
 X92.54250 Y107.03100
 X91.95760 Y106.95600
 X91.38220 Y106.85300
 X90.81670 Y106.72300
 X90.26190 Y106.56500
 X89.71860 Y106.38000
 X89.18750 Y106.17100
 X88.66940 Y105.93600
 X88.16510 Y105.67700
 X87.67510 Y105.39500
 X87.20040 Y105.09100
 X86.74150 Y104.76400
 X86.29940 Y104.41700
 X85.87470 Y104.04900
 X85.46820 Y103.66100
 X85.08060 Y103.25500
 X84.71250 Y102.83000
 X84.36490 Y102.38800
 X84.03830 Y101.92900
 X83.73380 Y101.45400
 X83.45170 Y100.96400
 X83.19290 Y100.46000
 X82.95830 Y99.94180
 X82.74850 Y99.41070
 X82.56430 Y98.86740
 X82.40640 Y98.31250
 X82.27560 Y97.74690
 X82.17250 Y97.17140
 X82.09790 Y96.58650
 X82.05260 Y95.99310
 X82.03750 Y95.54220
 Y95.24150
 X82.05260 Y94.79070
 X82.09790 Y94.19750
 X82.17250 Y93.61260
 X82.27560 Y93.03720
 X82.40640 Y92.47170
 X82.56430 Y91.91690
 X82.74850 Y91.37380
 X82.95830 Y90.84280
 X83.19290 Y90.32470
 X83.45170 Y89.82030
 X83.73380 Y89.33040
 X84.03830 Y88.85580
 X84.36490 Y88.39710
 X84.71250 Y87.95500
 X85.08060 Y87.53030
 X85.46820 Y87.12380
 X85.87470 Y86.73620
 X86.29940 Y86.36830
 X86.74150 Y86.02070
 X87.20040 Y85.69420
 X87.67510 Y85.38960
 X88.16510 Y85.10760
 X88.66940 Y84.84900
 X89.18750 Y84.61440
 X89.71860 Y84.40470
 X90.26190 Y84.22060
 X90.81670 Y84.06260
 X91.38220 Y83.93180
 X91.95760 Y83.82870
 X92.54250 Y83.75420
 X93.13580 Y83.70900
 X93.58670 Y83.69380
 X93.88720
 X94.33810 Y83.70900
 X94.93120 Y83.75420
 X95.51610 Y83.82870
 X96.09170 Y83.93180
 X96.65720 Y84.06260
 X97.21190 Y84.22060
 X97.75530 Y84.40470
 X98.28620 Y84.61440
 X98.80430 Y84.84900
 X99.30880 Y85.10760
 X99.79870 Y85.38960
 X100.27300 Y85.69420
 X100.73200 Y86.02070
 X101.17400 Y86.36830
 X101.59900 Y86.73620
 X102.00600 Y87.12380
 X102.39300 Y87.53030
 X102.76100 Y87.95500
 X103.10900 Y88.39710
 X103.43600 Y88.85580
 X103.74000 Y89.33040
 X104.02200 Y89.82030
 X104.28100 Y90.32470
 X104.51600 Y90.84280
 X104.72500 Y91.37380
 X104.90900 Y91.91690
 X105.06700 Y92.47170
 X105.19800 Y93.03720
 X105.30100 Y93.61260
 X105.37600 Y94.19750
 X105.42100 Y94.79070
 X105.43700 Y95.24150
 Y95.39180
G0 Z-25.0000
 X121.65300 Y53.72690
G1 Z-53.0000
 X121.70400 Y53.73060
 X121.85500 Y53.75150
 X122.05000 Y53.79540
 X122.23600 Y53.85750
 X122.41300 Y53.93680
 X122.58100 Y54.03240
 X122.73700 Y54.14290
 X122.88100 Y54.26760
 X123.01300 Y54.40510
 X123.13100 Y54.55470
 X123.23400 Y54.71500
 X123.32200 Y54.88510
 X123.39300 Y55.06390
 X123.44700 Y55.25040
 X123.48300 Y55.44350
 X123.49900 Y55.64210
 Y55.79440
 X123.49600 Y55.84500
 X123.46100 Y56.34080
 X123.37300 Y57.82930
 X123.28600 Y59.79670
 X123.23300 Y61.74010
 X123.21600 Y63.17490
 Y64.17140
 X123.20500 Y65.72630
 X123.17400 Y67.76010
 X123.12100 Y69.75530
 X123.04700 Y71.71210
 X122.95200 Y73.63100
 X122.83600 Y75.51220
 X122.69800 Y77.35640
 X122.53900 Y79.16390
 X122.35700 Y80.93500
 X122.15400 Y82.67040
 X121.93000 Y84.37030
 X121.68300 Y86.03510
 X121.41400 Y87.66540
 X121.12300 Y89.26150
 X120.81000 Y90.82390
 X120.47400 Y92.35290
 X120.11600 Y93.84890
 X119.73600 Y95.31250
 X119.33200 Y96.74400
 X118.90600 Y98.14390
 X118.45800 Y99.51240
 X117.98600 Y100.85000
 X117.49100 Y102.15700
 X116.97300 Y103.43500
 X116.43200 Y104.68300
 X115.86800 Y105.90100
 X115.28000 Y107.09100
 X114.66800 Y108.25300
 X114.03300 Y109.38600
 X113.37500 Y110.49300
 X112.69200 Y111.57200
 X112.16600 Y112.36400
 X111.98600 Y112.62400
 X111.77600 Y112.92800
 X111.12600 Y113.82600
 X110.23400 Y114.98900
 X109.30900 Y116.11300
 X108.35200 Y117.19800
 X107.36200 Y118.24300
 X106.33900 Y119.25000
 X105.28300 Y120.21800
 X104.19400 Y121.14800
 X103.07200 Y122.03800
 X101.91700 Y122.89000
 X100.72800 Y123.70300
 X99.50500 Y124.47800
 X98.24830 Y125.21500
 X96.95760 Y125.91300
 X95.63260 Y126.57200
 X94.27350 Y127.19400
 X92.87990 Y127.77700
 X91.45150 Y128.32200
 X89.98830 Y128.82900
 X88.49030 Y129.29800
 X86.95710 Y129.73000
 X85.38880 Y130.12300
 X83.78500 Y130.47900
 X82.14570 Y130.79700
 X80.47070 Y131.07700
 X78.75990 Y131.32000
 X77.01290 Y131.52500
 X75.22990 Y131.69200
 X73.41060 Y131.82300
 X71.55490 Y131.91600
 X69.66250 Y131.97200
 X68.21560 Y131.99000
 X67.25100
 X65.80420 Y131.97200
 X63.91180 Y131.91600
 X62.05610 Y131.82300
 X60.23670 Y131.69200
 X58.45360 Y131.52500
 X56.70680 Y131.32000
 X54.99600 Y131.07700
 X53.32100 Y130.79700
 X51.68150 Y130.47900
 X50.07780 Y130.12300
 X48.50940 Y129.73000
 X46.97630 Y129.29800
 X45.47820 Y128.82900
 X44.01500 Y128.32200
 X42.58670 Y127.77700
 X41.19290 Y127.19400
 X39.83380 Y126.57200
 X38.50870 Y125.91300
 X37.21810 Y125.21500
 X35.96120 Y124.47800
 X34.73850 Y123.70300
 X33.54930 Y122.89000
 X32.39380 Y122.03800
 X31.27150 Y121.14800
 X30.18280 Y120.21800
 X29.12690 Y119.25000
 X28.10420 Y118.24300
 X27.11400 Y117.19800
 X26.15680 Y116.11300
 X25.23190 Y114.98900
 X24.33940 Y113.82600
 X23.68920 Y112.92800
 X23.47920 Y112.62400
 X23.29900 Y112.36400
 X22.77290 Y111.57200
 X22.09060 Y110.49300
 X21.43210 Y109.38600
 X20.79720 Y108.25300
 X20.18600 Y107.09100
 X19.59820 Y105.90100
 X19.03390 Y104.68300
 X18.49290 Y103.43500
 X17.97510 Y102.15700
 X17.48040 Y100.85000
 X17.00880 Y99.51240
 X16.56000 Y98.14390
 X16.13400 Y96.74400
 X15.73080 Y95.31250
 X15.35030 Y93.84890
 X14.99240 Y92.35290
 X14.65680 Y90.82390
 X14.34350 Y89.26150
 X14.05250 Y87.66540
 X13.78370 Y86.03510
 X13.53690 Y84.37030
 X13.31210 Y82.67040
 X13.10920 Y80.93500
 X12.92810 Y79.16390
 X12.76860 Y77.35640
 X12.63060 Y75.51220
 X12.51420 Y73.63100
 X12.41920 Y71.71210
 X12.34540 Y69.75530
 X12.29280 Y67.76010
 X12.26130 Y65.72630
 X12.25090 Y64.17140
 Y63.15320
 X12.23180 Y61.65330
 X12.17550 Y59.65250
 X12.08340 Y57.65240
 X11.95690 Y55.65420
 X11.79730 Y53.65920
 X11.60620 Y51.66920
 X11.38480 Y49.68510
 X11.13460 Y47.70880
 X10.85700 Y45.74130
 X10.55340 Y43.78400
 X10.22520 Y41.83860
 X9.87381 Y39.90630
 X9.50060 Y37.98860
 X9.10699 Y36.08670
 X8.69433 Y34.20220
 X8.26417 Y32.33640
 X7.81771 Y30.49070
 X7.35650 Y28.66650
 X6.88194 Y26.86530
 X6.39535 Y25.08850
 X5.89811 Y23.33720
 X5.39176 Y21.61310
 X4.87761 Y19.91750
 X4.35704 Y18.25190
 X3.83149 Y16.61750
 X3.30236 Y15.01580
 X2.77106 Y13.44820
 X2.23899 Y11.91620
 X1.70751 Y10.42100
 X1.17806 Y8.96414
 X0.65202 Y7.54693
 X0.26226 Y6.51438
 X0.13086 Y6.17079
 X0.11274 Y6.12343
 X0.06798 Y5.97765
 X0.02572 Y5.78288
 X0.00353 Y5.58778
 X0.00076 Y5.39367
 X0.01687 Y5.20182
 X0.05132 Y5.01351
 X0.10346 Y4.83003
 X0.17280 Y4.65267
 X0.25868 Y4.48269
 X0.36057 Y4.32140
 X0.47792 Y4.17008
 X0.61013 Y4.03000
 X0.75662 Y3.90246
 X0.91678 Y3.78874
 X1.09012 Y3.69011
 X1.22857 Y3.62603
 X1.27599 Y3.60786
 X1.33420 Y3.58583
 X1.62912 Y3.50917
 X1.89556 Y3.47661
 X2.05843
 X2.28071 Y3.49903
 X2.56814 Y3.56478
 X2.84185 Y3.67188
 X3.09711 Y3.81808
 X3.32910 Y4.00142
 X3.53310 Y4.21978
 X3.70426 Y4.47097
 X3.81017 Y4.68033
 X3.83789 Y4.75299
 X3.97217 Y5.10400
 X4.37039 Y6.15886
 X4.90776 Y7.60682
 X5.44868 Y9.09565
 X5.99169 Y10.62370
 X6.53526 Y12.18980
 X7.07807 Y13.79240
 X7.61865 Y15.43010
 X8.15554 Y17.10150
 X8.68733 Y18.80530
 X9.21263 Y20.53990
 X9.72993 Y22.30390
 X10.23780 Y24.09610
 X10.73500 Y25.91490
 X11.21980 Y27.75880
 X11.69100 Y29.62650
 X12.14700 Y31.51680
 X12.58650 Y33.42790
 X13.00800 Y35.35860
 X13.41010 Y37.30750
 X13.79130 Y39.27320
 X14.15030 Y41.25420
 X14.48560 Y43.24920
 X14.79580 Y45.25650
 X15.07930 Y47.27500
 X15.33490 Y49.30330
 X15.56100 Y51.33970
 X15.75620 Y53.38310
 X15.91930 Y55.43180
 X16.04860 Y57.48460
 X16.14260 Y59.54010
 X16.20010 Y61.59670
 X16.21970 Y63.13900
 Y64.14530
 X16.22970 Y65.62190
 X16.26000 Y67.55620
 X16.31060 Y69.45630
 X16.38140 Y71.32220
 X16.47250 Y73.15430
 X16.58400 Y74.95250
 X16.71580 Y76.71710
 X16.86820 Y78.44820
 X17.04100 Y80.14600
 X17.23420 Y81.81060
 X17.44790 Y83.44220
 X17.68220 Y85.04110
 X17.93720 Y86.60720
 X18.21280 Y88.14080
 X18.50900 Y89.64210
 X18.82610 Y91.11120
 X19.16380 Y92.54830
 X19.52240 Y93.95350
 X19.90170 Y95.32690
 X20.30180 Y96.66870
 X20.72290 Y97.97930
 X21.16500 Y99.25860
 X21.62810 Y100.50700
 X22.11210 Y101.72400
 X22.61710 Y102.91100
 X23.14320 Y104.06700
 X23.69040 Y105.19200
 X24.25890 Y106.28700
 X24.84850 Y107.35200
 X25.45930 Y108.38700
 X26.09140 Y109.39300
 X26.57790 Y110.12700
 X26.74490 Y110.36800
 X26.93630 Y110.64500
 X27.52940 Y111.46400
 X28.34490 Y112.52400
 X29.19100 Y113.54800
 X30.06790 Y114.53700
 X30.97580 Y115.49100
 X31.91500 Y116.40800
 X32.88560 Y117.29100
 X33.88740 Y118.13800
 X34.92080 Y118.95000
 X35.98610 Y119.72600
 X37.08330 Y120.46800
 X38.21240 Y121.17400
 X39.37360 Y121.84500
 X40.56720 Y122.48200
 X41.79320 Y123.08300
 X43.05180 Y123.64900
 X44.34310 Y124.18100
 X45.66720 Y124.67800
 X47.02430 Y125.14000
 X48.41460 Y125.56800
 X49.83810 Y125.96100
 X51.29500 Y126.32000
 X52.78560 Y126.64400
 X54.30970 Y126.93300
 X55.86780 Y127.18900
 X57.45990 Y127.41000
 X59.08600 Y127.59700
 X60.74630 Y127.75000
 X62.44110 Y127.86900
 X64.17040 Y127.95400
 X65.93440 Y128.00400
 X67.28360 Y128.02100
 X68.18310
 X69.53190 Y128.00400
 X71.29600 Y127.95400
 X73.02510 Y127.86900
 X74.71990 Y127.75000
 X76.38030 Y127.59700
 X78.00640 Y127.41000
 X79.59830 Y127.18900
 X81.15630 Y126.93300
 X82.68060 Y126.64400
 X84.17100 Y126.32000
 X85.62790 Y125.96100
 X87.05150 Y125.56800
 X88.44170 Y125.14000
 X89.79890 Y124.67800
 X91.12310 Y124.18100
 X92.41440 Y123.64900
 X93.67290 Y123.08300
 X94.89900 Y122.48200
 X96.09250 Y121.84500
 X97.25390 Y121.17400
 X98.38310 Y120.46800
 X99.48010 Y119.72600
 X100.54500 Y118.95000
 X101.57900 Y118.13800
 X102.58100 Y117.29100
 X103.55200 Y116.40800
 X104.49100 Y115.49100
 X105.39900 Y114.53700
 X106.27600 Y113.54800
 X107.12200 Y112.52400
 X107.93700 Y111.46400
 X108.53000 Y110.64500
 X108.72200 Y110.36800
 X108.88900 Y110.12700
 X109.37500 Y109.39300
 X110.00700 Y108.38700
 X110.61800 Y107.35200
 X111.20800 Y106.28700
 X111.77600 Y105.19200
 X112.32300 Y104.06700
 X112.85000 Y102.91100
 X113.35500 Y101.72400
 X113.83900 Y100.50700
 X114.30200 Y99.25860
 X114.74400 Y97.97930
 X115.16500 Y96.66870
 X115.56500 Y95.32690
 X115.94400 Y93.95350
 X116.30300 Y92.54830
 X116.64100 Y91.11120
 X116.95800 Y89.64210
 X117.25400 Y88.14080
 X117.52900 Y86.60720
 X117.78400 Y85.04110
 X118.01900 Y83.44220
 X118.23300 Y81.81060
 X118.42600 Y80.14600
 X118.59800 Y78.44820
 X118.75100 Y76.71710
 X118.88300 Y74.95250
 X118.99400 Y73.15430
 X119.08500 Y71.32220
 X119.15600 Y69.45630
 X119.20700 Y67.55620
 X119.23700 Y65.62190
 X119.24700 Y64.14530
 Y63.15780
 X119.26500 Y61.67140
 X119.32000 Y59.65860
 X119.41100 Y57.62180
 X119.50100 Y56.08130
 X119.53700 Y55.56820
 X119.54000 Y55.51760
 X119.56100 Y55.36650
 X119.60400 Y55.17240
 X119.66600 Y54.98610
 X119.74500 Y54.80920
 X119.84100 Y54.64210
 X119.95100 Y54.48610
 X120.07600 Y54.34180
 X120.21300 Y54.21040
 X120.36200 Y54.09250
 X120.52300 Y53.98930
 X120.69300 Y53.90150
 X120.87200 Y53.83010
 X121.05800 Y53.77610
 X121.25100 Y53.74030
 X121.45000 Y53.72360
 X121.60300
 X121.65300 Y53.72690
G0 Z-25.0000
 X102.95600 Y23.41710
G1 Z-53.0000
 X102.76900 Y23.71310
 X102.19000 Y24.58830
 X101.38300 Y25.73490
 X100.53500 Y26.85560
 X99.64780 Y27.94920
 X98.72110 Y29.01500
 X97.75570 Y30.05180
 X96.75190 Y31.05850
 X95.97490 Y31.79460
 X95.71040 Y32.03400
 X95.65040 Y32.08810
 X95.04610 Y32.62080
 X94.98540 Y32.67320
 X94.80850 Y32.82600
 X94.27100 Y33.27610
 X93.54470 Y33.86150
 X92.80680 Y34.42960
 X92.05750 Y34.98000
 X91.29740 Y35.51260
 X90.52650 Y36.02760
 X89.74530 Y36.52460
 X88.95390 Y37.00350
 X88.15280 Y37.46430
 X87.34220 Y37.90680
 X86.52260 Y38.33080
 X85.69400 Y38.73640
 X84.85690 Y39.12330
 X84.01150 Y39.49140
 X83.15820 Y39.84070
 X82.29740 Y40.17100
 X81.42900 Y40.48220
 X80.55380 Y40.77420
 X79.67180 Y41.04680
 X78.78330 Y41.29990
 X77.88890 Y41.53350
 X76.98860 Y41.74740
 X76.08280 Y41.94150
 X75.17170 Y42.11560
 X74.25580 Y42.26970
 X73.33530 Y42.40360
 X72.41060 Y42.51720
 X71.48180 Y42.61060
 X70.54940 Y42.68330
 X69.61370 Y42.73540
 X68.67490 Y42.76670
 X67.96880 Y42.77710
 X67.49030
 X66.76140 Y42.76600
 X65.79240 Y42.73260
 X64.82670 Y42.67710
 X63.86440 Y42.59970
 X62.90630 Y42.50030
 X61.95250 Y42.37930
 X61.00320 Y42.23670
 X60.05900 Y42.07260
 X59.12000 Y41.88720
 X58.18670 Y41.68070
 X57.25930 Y41.45310
 X56.33820 Y41.20440
 X55.42380 Y40.93500
 X54.51620 Y40.64500
 X53.61610 Y40.33430
 X52.72360 Y40.00320
 X51.83900 Y39.65190
 X50.96290 Y39.28040
 X50.09530 Y38.88890
 X49.23670 Y38.47740
 X48.38740 Y38.04610
 X47.54790 Y37.59530
 X46.71820 Y37.12490
 X45.89890 Y36.63500
 X45.09030 Y36.12600
 X44.29260 Y35.59780
 X43.50620 Y35.05060
 X42.73170 Y34.48440
 X41.96890 Y33.89960
 X41.21860 Y33.29630
 X40.48100 Y32.67430
 X39.93560 Y32.19610
 X39.75620 Y32.03400
 X39.48930 Y31.79220
 X38.70470 Y31.04860
 X37.69190 Y30.03190
 X36.71810 Y28.98470
 X36.01250 Y28.18110
 X35.78360 Y27.90790
 X35.53650 Y27.61290
 X34.81690 Y26.70960
 X33.89810 Y25.47930
 X33.02780 Y24.21820
 X32.20670 Y22.92790
 X31.43530 Y21.60960
 X30.71470 Y20.26470
 X30.04540 Y18.89460
 X29.42790 Y17.50060
 X28.86320 Y16.08400
 X28.35180 Y14.64630
 X27.89430 Y13.18880
 X27.49170 Y11.71280
 X27.14430 Y10.21970
 X26.85320 Y8.71089
 X26.61880 Y7.18772
 X26.47860 Y6.03624
 X26.44170 Y5.65147
 X26.43680 Y5.60107
 X26.43250 Y5.44874
 X26.44360 Y5.24978
 X26.47420 Y5.05588
 X26.52310 Y4.86811
 X26.58970 Y4.68744
 X26.67310 Y4.51508
 X26.77210 Y4.35206
 X26.88610 Y4.19954
 X27.01420 Y4.05854
 X27.15540 Y3.93018
 X27.30870 Y3.81554
 X27.47360 Y3.71571
 X27.64870 Y3.63178
 X27.83350 Y3.56489
 X28.02680 Y3.51611
 X28.17740 Y3.49137
 X28.22790 Y3.48649
 X28.24400 Y3.48508
 X28.37560 Y3.47661
 X28.46640
 X28.60710 Y3.48551
 X28.79060 Y3.51172
 X28.96860 Y3.55436
 X29.14040 Y3.61285
 X29.30530 Y3.68636
 X29.46210 Y3.77408
 X29.60990 Y3.87543
 X29.74810 Y3.98947
 X29.87560 Y4.11561
 X29.99140 Y4.25299
 X30.09470 Y4.40093
 X30.18460 Y4.55860
 X30.26030 Y4.72537
 X30.32070 Y4.90039
 X30.36510 Y5.08296
 X30.38790 Y5.22472
 X30.39250 Y5.27225
 X30.42470 Y5.60699
 X30.54490 Y6.60883
 X30.74310 Y7.92882
 X30.98640 Y9.23172
 X31.19670 Y10.19710
 X31.27440 Y10.51700
 X31.32120 Y10.70950
 X31.46960 Y11.28470
 X31.68040 Y12.04550
 X31.90670 Y12.79920
 X32.14830 Y13.54560
 X32.40510 Y14.28460
 X32.67690 Y15.01610
 X32.96350 Y15.73970
 X33.26460 Y16.45560
 X33.58010 Y17.16320
 X33.90990 Y17.86280
 X34.25380 Y18.55390
 X34.61140 Y19.23640
 X34.98260 Y19.91000
 X35.36750 Y20.57490
 X35.76570 Y21.23070
 X36.17680 Y21.87720
 X36.60110 Y22.51440
 X37.03790 Y23.14210
 X37.48750 Y23.75990
 X37.94930 Y24.36790
 X38.42330 Y24.96580
 X38.90940 Y25.55350
 X39.40740 Y26.13070
 X39.91690 Y26.69750
 X40.43810 Y27.25350
 X40.97030 Y27.79860
 X41.51360 Y28.33260
 X42.06790 Y28.85560
 X42.63290 Y29.36690
 X43.20850 Y29.86680
 X43.79440 Y30.35500
 X44.39060 Y30.83140
 X44.99650 Y31.29570
 X45.61250 Y31.74760
 X46.23790 Y32.18740
 X46.87290 Y32.61440
 X47.51710 Y33.02890
 X48.17030 Y33.43040
 X48.83240 Y33.81890
 X49.50320 Y34.19420
 X50.18250 Y34.55610
 X50.87030 Y34.90440
 X51.56610 Y35.23900
 X52.26990 Y35.55990
 X52.98140 Y35.86670
 X53.70060 Y36.15920
 X54.42710 Y36.43750
 X55.16080 Y36.70110
 X55.90170 Y36.95010
 X56.64930 Y37.18420
 X57.40360 Y37.40330
 X58.16440 Y37.60710
 X58.93150 Y37.79570
 X59.70490 Y37.96880
 X60.48400 Y38.12600
 X61.26900 Y38.26750
 X62.05940 Y38.39290
 X62.85540 Y38.50210
 X63.65640 Y38.59500
 X64.46250 Y38.67140
 X65.27350 Y38.73110
 X66.08900 Y38.77390
 X66.90900 Y38.79970
 X67.52720 Y38.80830
 X67.96060
 X68.64260 Y38.79790
 X69.54670 Y38.76640
 X70.44510 Y38.71430
 X71.33790 Y38.64180
 X72.22490 Y38.54900
 X73.10540 Y38.43620
 X73.97970 Y38.30360
 X74.84710 Y38.15150
 X75.70760 Y37.98000
 X76.56100 Y37.78940
 X77.40680 Y37.58000
 X78.24500 Y37.35180
 X79.07510 Y37.10510
 X79.89720 Y36.84030
 X80.71080 Y36.55750
 X81.51570 Y36.25680
 X82.31170 Y35.93860
 X83.09850 Y35.60310
 X83.87570 Y35.25040
 X84.64330 Y34.88080
 X85.40110 Y34.49460
 X86.14860 Y34.09190
 X86.88570 Y33.67310
 X87.61220 Y33.23820
 X88.32780 Y32.78750
 X89.03210 Y32.32120
 X89.72500 Y31.83970
 X90.40630 Y31.34310
 X91.07570 Y30.83140
 X91.73290 Y30.30510
 X92.37780 Y29.76440
 X93.00990 Y29.20940
 X93.62920 Y28.64060
 X94.23530 Y28.05780
 X94.82790 Y27.46150
 X95.40710 Y26.85190
 X95.97220 Y26.22930
 X96.52330 Y25.59360
 X97.06000 Y24.94540
 X97.58190 Y24.28470
 X98.08900 Y23.61170
 X98.58110 Y22.92680
 X99.05780 Y22.23000
 X99.51880 Y21.52180
 X99.96390 Y20.80220
 X100.39300 Y20.07140
 X100.80600 Y19.32990
 X101.20200 Y18.57760
 X101.58100 Y17.81490
 X101.94300 Y17.04190
 X102.28800 Y16.25900
 X102.61500 Y15.46620
 X102.92400 Y14.66400
 X103.21500 Y13.85240
 X103.48800 Y13.03170
 X103.74200 Y12.20220
 X103.97700 Y11.36390
 X104.19400 Y10.51720
 X104.39100 Y9.66233
 X104.56800 Y8.79943
 X104.72600 Y7.92871
 X104.86300 Y7.05051
 X104.98000 Y6.16493
 X105.05500 Y5.49567
 X105.07700 Y5.27225
 X105.07800 Y5.25504
 X105.10300 Y5.08768
 X105.10700 Y5.07118
 X105.11600 Y5.02539
 X105.15200 Y4.88971
 X105.21300 Y4.71582
 X105.29000 Y4.55018
 X105.38000 Y4.39356
 X105.48400 Y4.24669
 X105.60000 Y4.11035
 X105.72700 Y3.98525
 X105.86500 Y3.87207
 X106.01300 Y3.77165
 X106.17000 Y3.68468
 X106.33400 Y3.61187
 X106.50500 Y3.55404
 X106.68200 Y3.51183
 X106.86500 Y3.48600
 X107.05200 Y3.47732
 X107.19400 Y3.48199
 X107.24200 Y3.48649
 X107.29200 Y3.49137
 X107.44300 Y3.51611
 X107.63600 Y3.56489
 X107.82100 Y3.63178
 X107.99600 Y3.71571
 X108.16100 Y3.81554
 X108.31400 Y3.93018
 X108.45500 Y4.05854
 X108.58300 Y4.19954
 X108.69700 Y4.35206
 X108.79600 Y4.51508
 X108.88000 Y4.68744
 X108.94600 Y4.86811
 X108.99500 Y5.05588
 X109.02600 Y5.24978
 X109.03700 Y5.44874
 X109.03200 Y5.60107
 X109.02800 Y5.65147
 X108.99900 Y5.94933
 X108.89600 Y6.84110
 X108.72900 Y8.02306
 X108.52800 Y9.19672
 X108.29400 Y10.36150
 X108.02600 Y11.51680
 X107.72500 Y12.66190
 X107.39000 Y13.79630
 X107.02400 Y14.91930
 X106.62500 Y16.03010
 X106.19400 Y17.12850
 X105.73200 Y18.21350
 X105.23800 Y19.28440
 X104.71300 Y20.34100
 X104.15800 Y21.38240
 X103.57200 Y22.40790
 X103.11400 Y23.16710
 X102.95600 Y23.41710
G0 Z-25.0000
 X135.33600 Y6.17079
G1 Z-53.0000
 X135.08800 Y6.81728
 X134.36200 Y8.76247
 X133.42800 Y11.34190
 X132.53300 Y13.90880
 X131.67900 Y16.46220
 X130.86400 Y19.00190
 X130.08900 Y21.52740
 X129.35500 Y24.03790
 X128.66200 Y26.53320
 X128.00800 Y29.01240
 X127.39600 Y31.47510
 X126.82400 Y33.92100
 X126.29400 Y36.34930
 X125.80500 Y38.75940
 X125.35700 Y41.15110
 X124.95000 Y43.52360
 X124.67200 Y45.28750
 X124.58600 Y45.87630
 X124.57800 Y45.92650
 X124.54600 Y46.07560
 X124.48700 Y46.26610
 X124.41100 Y46.44720
 X124.31900 Y46.61790
 X124.21100 Y46.77740
 X124.08900 Y46.92470
 X123.95400 Y47.05930
 X123.80700 Y47.18000
 X123.64900 Y47.28630
 X123.48100 Y47.37690
 X123.30500 Y47.45150
 X123.12100 Y47.50890
 X122.93100 Y47.54830
 X122.73500 Y47.56900
 X122.53600 Y47.57000
 X122.38400 Y47.55810
 X122.33400 Y47.55060
 X122.28400 Y47.54320
 X122.13500 Y47.51110
 X121.94400 Y47.45290
 X121.76300 Y47.37690
 X121.59200 Y47.28440
 X121.43300 Y47.17650
 X121.28500 Y47.05440
 X121.15100 Y46.91930
 X121.03000 Y46.77210
 X120.92400 Y46.61400
 X120.83300 Y46.44640
 X120.75800 Y46.27010
 X120.70100 Y46.08640
 X120.66100 Y45.89650
 X120.64000 Y45.70140
 X120.63900 Y45.50220
 X120.65100 Y45.35030
 X120.65800 Y45.30010
 X120.74700 Y44.69790
 X121.03100 Y42.89380
 X121.44700 Y40.46780
 X121.90500 Y38.02260
 X122.40400 Y35.55900
 X122.94600 Y33.07740
 X123.53000 Y30.57850
 X124.15500 Y28.06260
 X124.82100 Y25.53060
 X125.52900 Y22.98260
 X126.27800 Y20.41960
 X127.06800 Y17.84180
 X127.89900 Y15.25000
 X128.77100 Y12.64480
 X129.68300 Y10.02640
 X130.63600 Y7.39567
 X131.37700 Y5.41217
 X131.62900 Y4.75299
 X131.65700 Y4.68044
 X131.76200 Y4.47140
 X131.93300 Y4.22032
 X132.13700 Y4.00206
 X132.36900 Y3.81863
 X132.62400 Y3.67219
 X132.89800 Y3.56500
 X133.18600 Y3.49908
 X133.40800 Y3.47661
 X133.57100
 X133.83700 Y3.50933
 X134.13300 Y3.58664
 X134.19100 Y3.60894
 X134.23800 Y3.62706
 X134.37700 Y3.69103
 X134.55000 Y3.78950
 X134.71000 Y3.90306
 X134.85600 Y4.03049
 X134.98900 Y4.17046
 X135.10600 Y4.32167
 X135.20800 Y4.48292
 X135.29400 Y4.65283
 X135.36300 Y4.83014
 X135.41500 Y5.01357
 X135.45000 Y5.20188
 X135.46600 Y5.39367
 X135.46300 Y5.58778
 X135.44100 Y5.78288
 X135.39900 Y5.97765
 X135.35400 Y6.12343
 X135.33600 Y6.17079
G0 Z-25.0000
M5 (stop spindle)
G04 P3 (wait for 3 seconds)
G0 Z-25.0000
M2 (end program)
