;PYCAM-META-DATA: Filename: /media/martoio/MARTOIO/ME43/std_lib/svg/016-blackboard.svg
;PYCAM-META-DATA: Timestamp: 2017-12-06 02:01:38.849328
;PYCAM-META-DATA: Version: 0.5.1
;Estimated machine time: 11 minutes
G40 (disable tool radius compensation)
G49 (disable tool length compensation)
G80 (cancel modal motion)
G54 (select coordinate system 1)
G90 (disable incremental moves)
G21 (metric)
G61 (exact path mode)
F400.00000
S1.00000
;PYCAM_TOOLPATH_SETTINGS: START
;[Bounds]
;maxz = 0.0
;maxx = 163.4489
;maxy = 163.447475826
;minx = -8.9499
;miny = -8.9497705296
;minz = 0.0
;
;[Tool]
;torus_radius = 0.25
;speed = 1.0
;shape = CylindricalCutter
;tool_radius = 0.5
;feedrate = 400.0
;
;[Process]
;engrave_offset = 0.0
;step_down = 1.0
;generator = EngraveCutter
;postprocessor = SimpleCutter
;overlap_percent = 0
;milling_style = conventional
;material_allowance = 0.0
;pocketing_type = none
;path_direction = x
;
;PYCAM_TOOLPATH_SETTINGS: END
T1 M6
G0 Z5.0000
 X147.0890 Y144.6827
G1 Z0.0000
 X79.6565
 Y147.0897
 X79.6442 Y147.3357
 X79.6076 Y147.5747
 X79.5485 Y147.8067
 X79.4675 Y148.0267
 X79.3664 Y148.2377
 X79.2458 Y148.4367
 X79.1074 Y148.6217
 X78.9521 Y148.7927
 X78.7811 Y148.9477
 X78.5958 Y149.0867
 X78.3974 Y149.2077
 X78.1869 Y149.3087
 X77.9657 Y149.3897
 X77.7349 Y149.4497
 X77.4956 Y149.4857
 X77.2493 Y149.4977
 X77.0025 Y149.4857
 X76.7631 Y149.4497
 X76.5319 Y149.3897
 X76.3106 Y149.3087
 X76.1000 Y149.2077
 X75.9014 Y149.0867
 X75.7160 Y148.9477
 X75.5450 Y148.7927
 X75.3897 Y148.6217
 X75.2512 Y148.4367
 X75.1307 Y148.2377
 X75.0294 Y148.0267
 X74.9486 Y147.8067
 X74.8893 Y147.5747
 X74.8529 Y147.3357
 X74.8406 Y147.0897
 Y144.6827
 X7.4087
 X7.1621 Y144.6697
 X6.9227 Y144.6337
 X6.6917 Y144.5747
 X6.4702 Y144.4927
 X6.2597 Y144.3907
 X6.0610 Y144.2697
 X5.8757 Y144.1327
 X5.7047 Y143.9767
 X5.5493 Y143.8057
 X5.4108 Y143.6197
 X5.2903 Y143.4217
 X5.1890 Y143.2107
 X5.1081 Y142.9897
 X5.0488 Y142.7587
 X5.0124 Y142.5197
 X5.0000 Y142.2737
 Y132.6407
 X5.0124 Y132.3947
 X5.0488 Y132.1557
 X5.1081 Y131.9247
 X5.1890 Y131.7037
 X5.2903 Y131.4927
 X5.4108 Y131.2947
 X5.5493 Y131.1087
 X5.7047 Y130.9377
 X5.8757 Y130.7827
 X6.0610 Y130.6437
 X6.2597 Y130.5227
 X6.4702 Y130.4217
 X6.6917 Y130.3407
 X6.9227 Y130.2817
 X7.1621 Y130.2447
 X7.4087 Y130.2327
 X132.6390
 X132.8860 Y130.2447
 X133.1250 Y130.2817
 X133.3560 Y130.3407
 X133.5780 Y130.4217
 X133.7880 Y130.5227
 X133.9870 Y130.6437
 X134.1730 Y130.7827
 X134.3430 Y130.9377
 X134.4990 Y131.1087
 X134.6380 Y131.2947
 X134.7580 Y131.4927
 X134.8590 Y131.7037
 X134.9400 Y131.9247
 X134.9990 Y132.1557
 X135.0360 Y132.3947
 X135.0480 Y132.6407
 X135.0360 Y132.8867
 X134.9990 Y133.1257
 X134.9400 Y133.3567
 X134.8590 Y133.5777
 X134.7580 Y133.7877
 X134.6380 Y133.9867
 X134.4990 Y134.1717
 X134.3430 Y134.3427
 X134.1730 Y134.4987
 X133.9870 Y134.6367
 X133.7880 Y134.7577
 X133.5780 Y134.8587
 X133.3560 Y134.9397
 X133.1250 Y134.9997
 X132.8860 Y135.0357
 X132.6390 Y135.0487
 X9.8161
 Y139.8657
 X144.6810
 Y135.0487
 X142.2730
 X142.0270 Y135.0357
 X141.7870 Y134.9997
 X141.5560 Y134.9397
 X141.3350 Y134.8587
 X141.1240 Y134.7577
 X140.9260 Y134.6367
 X140.7400 Y134.4987
 X140.5690 Y134.3427
 X140.4140 Y134.1717
 X140.2750 Y133.9867
 X140.1550 Y133.7877
 X140.0530 Y133.5777
 X139.9720 Y133.3567
 X139.9130 Y133.1257
 X139.8770 Y132.8867
 X139.8640 Y132.6407
 Y50.7578
 X139.8550 Y50.3867
 X139.8270 Y50.0203
 X139.7810 Y49.6593
 X139.7170 Y49.3040
 X139.6370 Y48.9549
 X139.5390 Y48.6124
 X139.4250 Y48.2768
 X139.2960 Y47.9490
 X139.1510 Y47.6292
 X138.9910 Y47.3176
 X138.8170 Y47.0151
 X138.6290 Y46.7221
 X138.4270 Y46.4388
 X138.2120 Y46.1658
 X137.9850 Y45.9036
 X137.7460 Y45.6526
 X137.4950 Y45.4132
 X137.2330 Y45.1860
 X136.9590 Y44.9714
 X136.6760 Y44.7699
 X136.3830 Y44.5817
 X136.0800 Y44.4075
 X135.7690 Y44.2478
 X135.4490 Y44.1029
 X135.1210 Y43.9735
 X134.7850 Y43.8596
 X134.4430 Y43.7621
 X134.0930 Y43.6814
 X133.7380 Y43.6178
 X133.3770 Y43.5717
 X133.0100 Y43.5438
 X132.6390 Y43.5343
 X21.8575
 X21.4864 Y43.5438
 X21.1200 Y43.5717
 X20.7589 Y43.6178
 X20.4036 Y43.6814
 X20.0544 Y43.7621
 X19.7118 Y43.8596
 X19.3764 Y43.9735
 X19.0485 Y44.1029
 X18.7285 Y44.2478
 X18.4170 Y44.4075
 X18.1145 Y44.5817
 X17.8213 Y44.7699
 X17.5380 Y44.9714
 X17.2650 Y45.1860
 X17.0027 Y45.4132
 X16.7516 Y45.6526
 X16.5122 Y45.9036
 X16.2849 Y46.1658
 X16.0702 Y46.4388
 X15.8685 Y46.7221
 X15.6803 Y47.0151
 X15.5061 Y47.3176
 X15.3464 Y47.6292
 X15.2014 Y47.9490
 X15.0718 Y48.2768
 X14.9581 Y48.6124
 X14.8605 Y48.9549
 X14.7797 Y49.3040
 X14.7160 Y49.6593
 X14.6700 Y50.0203
 X14.6420 Y50.3867
 X14.6326 Y50.7578
 Y123.0067
 X14.6202 Y123.2527
 X14.5837 Y123.4927
 X14.5245 Y123.7227
 X14.4436 Y123.9447
 X14.3423 Y124.1547
 X14.2218 Y124.3537
 X14.0833 Y124.5387
 X13.9280 Y124.7097
 X13.7571 Y124.8657
 X13.5717 Y125.0047
 X13.3733 Y125.1247
 X13.1628 Y125.2267
 X12.9415 Y125.3077
 X12.7106 Y125.3667
 X12.4713 Y125.4037
 X12.2249 Y125.4157
 X11.9782 Y125.4037
 X11.7388 Y125.3667
 X11.5078 Y125.3077
 X11.2863 Y125.2267
 X11.0758 Y125.1247
 X10.8772 Y125.0047
 X10.6918 Y124.8657
 X10.5208 Y124.7097
 X10.3655 Y124.5387
 X10.2269 Y124.3537
 X10.1064 Y124.1547
 X10.0051 Y123.9447
 X9.9242 Y123.7227
 X9.8650 Y123.4927
 X9.8285 Y123.2527
 X9.8161 Y123.0067
 Y50.7578
 X9.8318 Y50.1390
 X9.8784 Y49.5285
 X9.9551 Y48.9265
 X10.0612 Y48.3342
 X10.1959 Y47.7522
 X10.3584 Y47.1811
 X10.5480 Y46.6220
 X10.7639 Y46.0754
 X11.0054 Y45.5422
 X11.2717 Y45.0231
 X11.5620 Y44.5189
 X11.8755 Y44.0303
 X12.2116 Y43.5581
 X12.5694 Y43.1031
 X12.9482 Y42.6660
 X13.3472 Y42.2475
 X13.7657 Y41.8486
 X14.2028 Y41.4699
 X14.6579 Y41.1121
 X15.1302 Y40.7760
 X15.6189 Y40.4625
 X16.1232 Y40.1722
 X16.6424 Y39.9060
 X17.1756 Y39.6646
 X17.7223 Y39.4486
 X18.2816 Y39.2590
 X18.8527 Y39.0965
 X19.4347 Y38.9618
 X20.0272 Y38.8558
 X20.6293 Y38.7790
 X21.2401 Y38.7325
 X21.8589 Y38.7167
 X132.6390
 X133.2580 Y38.7325
 X133.8690 Y38.7790
 X134.4710 Y38.8558
 X135.0630 Y38.9618
 X135.6450 Y39.0965
 X136.2160 Y39.2590
 X136.7750 Y39.4486
 X137.3220 Y39.6646
 X137.8550 Y39.9060
 X138.3740 Y40.1722
 X138.8780 Y40.4625
 X139.3670 Y40.7760
 X139.8390 Y41.1121
 X140.2940 Y41.4699
 X140.7310 Y41.8486
 X141.1500 Y42.2475
 X141.5490 Y42.6660
 X141.9280 Y43.1031
 X142.2850 Y43.5581
 X142.6210 Y44.0303
 X142.9350 Y44.5189
 X143.2250 Y45.0231
 X143.4910 Y45.5422
 X143.7330 Y46.0754
 X143.9490 Y46.6220
 X144.1390 Y47.1811
 X144.3010 Y47.7522
 X144.4360 Y48.3342
 X144.5420 Y48.9265
 X144.6180 Y49.5285
 X144.6650 Y50.1390
 X144.6810 Y50.7578
 Y130.2327
 X147.0890
 X147.3360 Y130.2447
 X147.5750 Y130.2817
 X147.8060 Y130.3407
 X148.0280 Y130.4217
 X148.2370 Y130.5227
 X148.4360 Y130.6437
 X148.6220 Y130.7827
 X148.7930 Y130.9377
 X148.9490 Y131.1087
 X149.0870 Y131.2947
 X149.2080 Y131.4927
 X149.3100 Y131.7037
 X149.3900 Y131.9247
 X149.4500 Y132.1557
 X149.4860 Y132.3947
 X149.4990 Y132.6407
 Y142.2737
 X149.4860 Y142.5197
 X149.4500 Y142.7587
 X149.3900 Y142.9897
 X149.3100 Y143.2107
 X149.2080 Y143.4217
 X149.0870 Y143.6197
 X148.9490 Y143.8057
 X148.7930 Y143.9767
 X148.6220 Y144.1327
 X148.4360 Y144.2697
 X148.2370 Y144.3907
 X148.0280 Y144.4927
 X147.8060 Y144.5747
 X147.5750 Y144.6337
 X147.3360 Y144.6697
 X147.0890 Y144.6827
G0 Z5.0000
 X125.4140 Y94.1081
G1 Z0.0000
 X125.4050 Y94.4793
 X125.3770 Y94.8456
 X125.3310 Y95.2067
 X125.2670 Y95.5620
 X125.1870 Y95.9111
 X125.0890 Y96.2538
 X124.9750 Y96.5892
 X124.8460 Y96.9170
 X124.7010 Y97.2369
 X124.5410 Y97.5483
 X124.3670 Y97.8508
 X124.1790 Y98.1439
 X123.9770 Y98.4272
 X123.7630 Y98.7003
 X123.5350 Y98.9625
 X123.2960 Y99.2135
 X123.0450 Y99.4529
 X122.7830 Y99.6801
 X122.5100 Y99.8949
 X122.2260 Y100.0964
 X121.9330 Y100.2846
 X121.6310 Y100.4588
 X121.3190 Y100.6185
 X120.9990 Y100.7633
 X120.6720 Y100.8928
 X120.3360 Y101.0067
 X119.9940 Y101.1042
 X119.6440 Y101.1850
 X119.2890 Y101.2486
 X118.9280 Y101.2946
 X118.5620 Y101.3226
 X118.1910 Y101.3320
 X117.8190 Y101.3226
 X117.4530 Y101.2946
 X117.0920 Y101.2486
 X116.7360 Y101.1850
 X116.3870 Y101.1042
 X116.0440 Y101.0067
 X115.7090 Y100.8928
 X115.3810 Y100.7633
 X115.0610 Y100.6185
 X114.7490 Y100.4588
 X114.4470 Y100.2846
 X114.1540 Y100.0964
 X113.8700 Y99.8949
 X113.5970 Y99.6801
 X113.3350 Y99.4529
 X113.0840 Y99.2135
 X112.8450 Y98.9625
 X112.6170 Y98.7003
 X112.4030 Y98.4272
 X112.2010 Y98.1439
 X112.0130 Y97.8508
 X111.8390 Y97.5483
 X111.6790 Y97.2369
 X111.5340 Y96.9170
 X111.4050 Y96.5892
 X111.2910 Y96.2538
 X111.1930 Y95.9111
 X111.1130 Y95.5620
 X111.0490 Y95.2067
 X111.0030 Y94.8456
 X110.9750 Y94.4793
 X110.9660 Y94.1081
 X110.9780 Y93.8619
 X111.0140 Y93.6229
 X111.0740 Y93.3921
 X111.1550 Y93.1708
 X111.2560 Y92.9603
 X111.3760 Y92.7617
 X111.5150 Y92.5763
 X111.6700 Y92.4051
 X111.8410 Y92.2497
 X112.0260 Y92.1110
 X112.2250 Y91.9903
 X112.4350 Y91.8888
 X112.6570 Y91.8078
 X112.8870 Y91.7483
 X113.1270 Y91.7118
 X113.3730 Y91.6993
 X113.6200 Y91.7118
 X113.8590 Y91.7483
 X114.0900 Y91.8078
 X114.3120 Y91.8888
 X114.5220 Y91.9903
 X114.7210 Y92.1110
 X114.9060 Y92.2497
 X115.0770 Y92.4051
 X115.2330 Y92.5763
 X115.3710 Y92.7617
 X115.4920 Y92.9603
 X115.5930 Y93.1708
 X115.6740 Y93.3921
 X115.7330 Y93.6229
 X115.7690 Y93.8619
 X115.7820 Y94.1081
 X115.7940 Y94.3536
 X115.8310 Y94.5922
 X115.8900 Y94.8226
 X115.9710 Y95.0436
 X116.0730 Y95.2540
 X116.1930 Y95.4526
 X116.3320 Y95.6381
 X116.4870 Y95.8092
 X116.6580 Y95.9647
 X116.8440 Y96.1036
 X117.0420 Y96.2244
 X117.2530 Y96.3261
 X117.4740 Y96.4072
 X117.7050 Y96.4668
 X117.9430 Y96.5035
 X118.1890 Y96.5158
 X118.4360 Y96.5035
 X118.6750 Y96.4668
 X118.9060 Y96.4074
 X119.1270 Y96.3263
 X119.3370 Y96.2247
 X119.5360 Y96.1040
 X119.7210 Y95.9654
 X119.8920 Y95.8100
 X120.0480 Y95.6393
 X120.1870 Y95.4543
 X120.3070 Y95.2564
 X120.4090 Y95.0465
 X120.4900 Y94.8264
 X120.5490 Y94.5970
 X120.5860 Y94.3595
 X120.5980 Y94.1151
 X120.5660 Y93.9608
 X120.4950 Y93.7797
 X120.3850 Y93.5746
 X120.2410 Y93.3485
 X120.0650 Y93.1039
 X119.8590 Y92.8439
 X119.6260 Y92.5713
 X119.3690 Y92.2888
 X119.0900 Y91.9992
 X118.7910 Y91.7056
 X118.4770 Y91.4104
 X118.1480 Y91.1167
 X117.8080 Y90.8272
 X117.4590 Y90.5449
 X117.1040 Y90.2725
 X116.7450 Y90.0128
 X111.9280 Y86.4010
 X111.6400 Y86.1465
 X111.4010 Y85.8558
 X111.2120 Y85.5354
 X111.0750 Y85.1917
 X110.9920 Y84.8311
 X110.9650 Y84.4603
 X110.9970 Y84.0856
 X111.0900 Y83.7135
 X111.1570 Y83.5326
 X111.2390 Y83.3599
 X111.3320 Y83.1957
 X111.4380 Y83.0404
 X111.5540 Y82.8949
 X111.6810 Y82.7592
 X111.8180 Y82.6342
 X111.9640 Y82.5201
 X112.1180 Y82.4176
 X112.2800 Y82.3274
 X112.4490 Y82.2495
 X112.6240 Y82.1846
 X112.8050 Y82.1333
 X112.9900 Y82.0961
 X113.1800 Y82.0733
 X113.3730 Y82.0657
 X123.0060
 X123.2520 Y82.0782
 X123.4920 Y82.1147
 X123.7230 Y82.1740
 X123.9440 Y82.2551
 X124.1550 Y82.3565
 X124.3530 Y82.4772
 X124.5390 Y82.6158
 X124.7100 Y82.7714
 X124.8650 Y82.9424
 X125.0030 Y83.1279
 X125.1240 Y83.3265
 X125.2250 Y83.5371
 X125.3060 Y83.7583
 X125.3650 Y83.9892
 X125.4020 Y84.2283
 X125.4140 Y84.4744
 X125.4020 Y84.7204
 X125.3650 Y84.9593
 X125.3060 Y85.1899
 X125.2250 Y85.4110
 X125.1240 Y85.6214
 X125.0030 Y85.8199
 X124.8650 Y86.0053
 X124.7100 Y86.1763
 X124.5390 Y86.3317
 X124.3530 Y86.4704
 X124.1550 Y86.5910
 X123.9440 Y86.6925
 X123.7230 Y86.7735
 X123.4920 Y86.8329
 X123.2520 Y86.8694
 X123.0060 Y86.8818
 X120.6020
 X120.9600 Y87.1708
 X121.3380 Y87.4896
 X121.7300 Y87.8365
 X122.1310 Y88.2099
 X122.5350 Y88.6078
 X122.9340 Y89.0286
 X123.3250 Y89.4706
 X123.6990 Y89.9318
 X124.0520 Y90.4107
 X124.3770 Y90.9054
 X124.6690 Y91.4143
 X124.9220 Y91.9354
 X125.1280 Y92.4671
 X125.2830 Y93.0076
 X125.3800 Y93.5553
 X125.4140 Y94.1081
G0 Z5.0000
 X98.9229 Y91.6993
G1 Z0.0000
 X99.1690 Y91.6870
 X99.4082 Y91.6503
 X99.6390 Y91.5908
 X99.8603 Y91.5096
 X100.0708 Y91.4081
 X100.2694 Y91.2872
 X100.4549 Y91.1483
 X100.6260 Y90.9926
 X100.7814 Y90.8215
 X100.9201 Y90.6360
 X101.0408 Y90.4374
 X101.1422 Y90.2270
 X101.2232 Y90.0057
 X101.2826 Y89.7751
 X101.3192 Y89.5364
 X101.3317 Y89.2906
 X101.3440 Y89.0446
 X101.3804 Y88.8057
 X101.4397 Y88.5751
 X101.5206 Y88.3539
 X101.6219 Y88.1436
 X101.7424 Y87.9451
 X101.8810 Y87.7597
 X102.0364 Y87.5888
 X102.2074 Y87.4333
 X102.3928 Y87.2946
 X102.5914 Y87.1740
 X102.8019 Y87.0726
 X103.0235 Y86.9915
 X103.2544 Y86.9322
 X103.4940 Y86.8957
 X103.7407 Y86.8832
 X103.9871 Y86.8957
 X104.2263 Y86.9322
 X104.4571 Y86.9915
 X104.6783 Y87.0726
 X104.8889 Y87.1740
 X105.0870 Y87.2946
 X105.2730 Y87.4333
 X105.4430 Y87.5888
 X105.5990 Y87.7597
 X105.7370 Y87.9451
 X105.8580 Y88.1436
 X105.9590 Y88.3539
 X106.0400 Y88.5751
 X106.0990 Y88.8057
 X106.1360 Y89.0446
 X106.1480 Y89.2906
 X106.1390 Y89.6618
 X106.1110 Y90.0282
 X106.0650 Y90.3895
 X106.0010 Y90.7449
 X105.9200 Y91.0942
 X105.8230 Y91.4368
 X105.7090 Y91.7722
 X105.5790 Y92.1003
 X105.4340 Y92.4203
 X105.2750 Y92.7317
 X105.1010 Y93.0343
 X104.9125 Y93.3275
 X104.7108 Y93.6108
 X104.4961 Y93.8839
 X104.2688 Y94.1461
 X104.0294 Y94.3972
 X103.7783 Y94.6367
 X103.5161 Y94.8639
 X103.2431 Y95.0786
 X102.9597 Y95.2803
 X102.6665 Y95.4683
 X102.3639 Y95.6425
 X102.0525 Y95.8022
 X101.7325 Y95.9471
 X101.4046 Y96.0767
 X101.0690 Y96.1904
 X100.7264 Y96.2879
 X100.3771 Y96.3688
 X100.0217 Y96.4325
 X99.6604 Y96.4785
 X99.2940 Y96.5064
 X98.9229 Y96.5158
 X98.5517 Y96.5064
 X98.1854 Y96.4785
 X97.8243 Y96.4325
 X97.4690 Y96.3688
 X97.1199 Y96.2879
 X96.7772 Y96.1904
 X96.4418 Y96.0767
 X96.1139 Y95.9471
 X95.7939 Y95.8022
 X95.4824 Y95.6425
 X95.1799 Y95.4683
 X94.8867 Y95.2803
 X94.6033 Y95.0786
 X94.3303 Y94.8639
 X94.0681 Y94.6367
 X93.8169 Y94.3972
 X93.5775 Y94.1461
 X93.3501 Y93.8839
 X93.1356 Y93.6108
 X92.9339 Y93.3275
 X92.7457 Y93.0343
 X92.5715 Y92.7317
 X92.4117 Y92.4203
 X92.2668 Y92.1003
 X92.1372 Y91.7722
 X92.0235 Y91.4368
 X91.9258 Y91.0942
 X91.8450 Y90.7449
 X91.7814 Y90.3895
 X91.7354 Y90.0282
 X91.7074 Y89.6618
 X91.6979 Y89.2906
 Y79.6579
 X91.7074 Y79.2868
 X91.7354 Y78.9203
 X91.7814 Y78.5592
 X91.8450 Y78.2038
 X91.9258 Y77.8545
 X92.0235 Y77.5118
 X92.1372 Y77.1764
 X92.2668 Y76.8485
 X92.4117 Y76.5285
 X92.5715 Y76.2169
 X92.7457 Y75.9145
 X92.9339 Y75.6213
 X93.1356 Y75.3379
 X93.3501 Y75.0650
 X93.5775 Y74.8026
 X93.8169 Y74.5515
 X94.0681 Y74.3122
 X94.3303 Y74.0850
 X94.6033 Y73.8703
 X94.8867 Y73.6686
 X95.1799 Y73.4806
 X95.4824 Y73.3064
 X95.7939 Y73.1467
 X96.1139 Y73.0018
 X96.4418 Y72.8722
 X96.7772 Y72.7585
 X97.1199 Y72.6610
 X97.4690 Y72.5801
 X97.8243 Y72.5165
 X98.1854 Y72.4704
 X98.5517 Y72.4425
 X98.9229 Y72.4331
 X99.2940 Y72.4425
 X99.6604 Y72.4704
 X100.0217 Y72.5165
 X100.3771 Y72.5801
 X100.7264 Y72.6610
 X101.0690 Y72.7585
 X101.4046 Y72.8722
 X101.7325 Y73.0018
 X102.0525 Y73.1467
 X102.3639 Y73.3064
 X102.6665 Y73.4806
 X102.9597 Y73.6686
 X103.2431 Y73.8703
 X103.5161 Y74.0850
 X103.7783 Y74.3122
 X104.0294 Y74.5515
 X104.2688 Y74.8026
 X104.4961 Y75.0650
 X104.7108 Y75.3379
 X104.9125 Y75.6213
 X105.1010 Y75.9145
 X105.2750 Y76.2169
 X105.4340 Y76.5285
 X105.5790 Y76.8485
 X105.7090 Y77.1764
 X105.8230 Y77.5118
 X105.9200 Y77.8545
 X106.0010 Y78.2038
 X106.0650 Y78.5592
 X106.1110 Y78.9203
 X106.1390 Y79.2868
 X106.1480 Y79.6579
 X106.1360 Y79.9042
 X106.0990 Y80.1433
 X106.0400 Y80.3742
 X105.9590 Y80.5954
 X105.8580 Y80.8060
 X105.7370 Y81.0046
 X105.5990 Y81.1901
 X105.4430 Y81.3611
 X105.2730 Y81.5167
 X105.0870 Y81.6553
 X104.8889 Y81.7760
 X104.6783 Y81.8775
 X104.4571 Y81.9585
 X104.2263 Y82.0178
 X103.9871 Y82.0543
 X103.7407 Y82.0668
 X103.4940 Y82.0543
 X103.2544 Y82.0178
 X103.0235 Y81.9585
 X102.8019 Y81.8775
 X102.5914 Y81.7760
 X102.3928 Y81.6553
 X102.2074 Y81.5167
 X102.0364 Y81.3611
 X101.8810 Y81.1901
 X101.7424 Y81.0046
 X101.6219 Y80.8060
 X101.5206 Y80.5954
 X101.4397 Y80.3742
 X101.3804 Y80.1433
 X101.3440 Y79.9042
 X101.3317 Y79.6579
 X101.3192 Y79.4124
 X101.2826 Y79.1736
 X101.2232 Y78.9431
 X101.1422 Y78.7220
 X101.0408 Y78.5114
 X100.9201 Y78.3128
 X100.7814 Y78.1272
 X100.6260 Y77.9561
 X100.4549 Y77.8004
 X100.2694 Y77.6615
 X100.0708 Y77.5407
 X99.8603 Y77.4390
 X99.6390 Y77.3578
 X99.4082 Y77.2983
 X99.1690 Y77.2617
 X98.9229 Y77.2492
 X98.6769 Y77.2617
 X98.4381 Y77.2983
 X98.2075 Y77.3578
 X97.9864 Y77.4390
 X97.7760 Y77.5407
 X97.5774 Y77.6615
 X97.3921 Y77.8004
 X97.2211 Y77.9561
 X97.0657 Y78.1272
 X96.9269 Y78.3128
 X96.8062 Y78.5114
 X96.7049 Y78.7220
 X96.6238 Y78.9431
 X96.5644 Y79.1736
 X96.5279 Y79.4124
 X96.5156 Y79.6579
 Y89.2906
 X96.5279 Y89.5364
 X96.5644 Y89.7751
 X96.6238 Y90.0057
 X96.7049 Y90.2270
 X96.8062 Y90.4374
 X96.9269 Y90.6360
 X97.0657 Y90.8215
 X97.2211 Y90.9926
 X97.3921 Y91.1483
 X97.5774 Y91.2872
 X97.7760 Y91.4081
 X97.9864 Y91.5096
 X98.2075 Y91.5908
 X98.4381 Y91.6503
 X98.6769 Y91.6870
 X98.9229 Y91.6993
G0 Z5.0000
 X84.4742 Y72.4331
G1 Z0.0000
 X84.7206 Y72.4456
 X84.9599 Y72.4821
 X85.1907 Y72.5414
 X85.4119 Y72.6225
 X85.6224 Y72.7239
 X85.8210 Y72.8446
 X86.0063 Y72.9832
 X86.1771 Y73.1386
 X86.3324 Y73.3096
 X86.4708 Y73.4950
 X86.5912 Y73.6935
 X86.6925 Y73.9039
 X86.7733 Y74.1250
 X86.8326 Y74.3556
 X86.8690 Y74.5946
 X86.8815 Y74.8404
 Y94.1081
 X86.8738 Y94.3013
 X86.8511 Y94.4908
 X86.8140 Y94.6761
 X86.7628 Y94.8567
 X86.6981 Y95.0317
 X86.6203 Y95.2004
 X86.5300 Y95.3621
 X86.4276 Y95.5163
 X86.3137 Y95.6621
 X86.1889 Y95.7990
 X86.0533 Y95.9261
 X85.9078 Y96.0431
 X85.7528 Y96.1488
 X85.5886 Y96.2429
 X85.4158 Y96.3246
 X85.2351 Y96.3931
 X84.8622 Y96.4843
 X84.4871 Y96.5153
 X84.1160 Y96.4881
 X83.7554 Y96.4049
 X83.4119 Y96.2675
 X83.0918 Y96.0783
 X82.8015 Y95.8393
 X82.5476 Y95.5524
 X77.2493 Y88.4874
 X71.9506 Y95.5524
 X71.6972 Y95.8399
 X71.4072 Y96.0793
 X71.0874 Y96.2689
 X70.7440 Y96.4064
 X70.3835 Y96.4897
 X70.0122 Y96.5167
 X69.6367 Y96.4851
 X69.2633 Y96.3931
 X69.0825 Y96.3246
 X68.9097 Y96.2429
 X68.7454 Y96.1488
 X68.5901 Y96.0431
 X68.4444 Y95.9261
 X68.3089 Y95.7990
 X68.1838 Y95.6621
 X68.0699 Y95.5163
 X67.9674 Y95.3621
 X67.8769 Y95.2004
 X67.7990 Y95.0317
 X67.7342 Y94.8567
 X67.6829 Y94.6761
 X67.6456 Y94.4908
 X67.6229 Y94.3013
 X67.6153 Y94.1081
 Y74.8419
 X67.6276 Y74.5957
 X67.6640 Y74.3567
 X67.7233 Y74.1257
 X67.8042 Y73.9044
 X67.9056 Y73.6939
 X68.0261 Y73.4953
 X68.1646 Y73.3099
 X68.3200 Y73.1388
 X68.4908 Y72.9833
 X68.6762 Y72.8446
 X68.8749 Y72.7239
 X69.0854 Y72.6225
 X69.3069 Y72.5414
 X69.5379 Y72.4821
 X69.7774 Y72.4456
 X70.0240 Y72.4331
 X70.2704 Y72.4456
 X70.5097 Y72.4821
 X70.7406 Y72.5414
 X70.9618 Y72.6225
 X71.1724 Y72.7239
 X71.3708 Y72.8446
 X71.5561 Y72.9833
 X71.7271 Y73.1388
 X71.8824 Y73.3099
 X72.0208 Y73.4953
 X72.1414 Y73.6939
 X72.2426 Y73.9044
 X72.3236 Y74.1257
 X72.3828 Y74.3567
 X72.4193 Y74.5957
 X72.4317 Y74.8419
 Y86.8832
 X75.3226 Y83.0303
 X75.5054 Y82.8168
 X75.7112 Y82.6320
 X75.9371 Y82.4754
 X76.1796 Y82.3474
 X76.4353 Y82.2478
 X76.7008 Y82.1767
 X76.9731 Y82.1340
 X77.2488 Y82.1197
 X77.5243 Y82.1340
 X77.7967 Y82.1767
 X78.0624 Y82.2478
 X78.3182 Y82.3474
 X78.5607 Y82.4754
 X78.7867 Y82.6320
 X78.9928 Y82.8168
 X79.1758 Y83.0303
 X82.0654 Y86.8832
 Y74.8419
 X82.0778 Y74.5957
 X82.1142 Y74.3567
 X82.1735 Y74.1257
 X82.2543 Y73.9044
 X82.3557 Y73.6939
 X82.4763 Y73.4953
 X82.6147 Y73.3099
 X82.7701 Y73.1388
 X82.9410 Y72.9833
 X83.1264 Y72.8446
 X83.3250 Y72.7239
 X83.5356 Y72.6225
 X83.7571 Y72.5414
 X83.9881 Y72.4821
 X84.2275 Y72.4456
 X84.4742 Y72.4331
G0 Z5.0000
 X50.7578 Y86.8832
G1 Z0.0000
 X60.3904
 X60.6369 Y86.8957
 X60.8764 Y86.9322
 X61.1074 Y86.9915
 X61.3289 Y87.0726
 X61.5394 Y87.1740
 X61.7381 Y87.2946
 X61.9233 Y87.4333
 X62.0943 Y87.5888
 X62.2497 Y87.7597
 X62.3882 Y87.9451
 X62.5087 Y88.1436
 X62.6101 Y88.3539
 X62.6910 Y88.5751
 X62.7503 Y88.8057
 X62.7867 Y89.0446
 X62.7992 Y89.2906
 X62.7867 Y89.5368
 X62.7503 Y89.7760
 X62.6910 Y90.0068
 X62.6101 Y90.2281
 X62.5087 Y90.4386
 X62.3882 Y90.6372
 X62.2497 Y90.8226
 X62.0943 Y90.9938
 X61.9233 Y91.1493
 X61.7381 Y91.2879
 X61.5394 Y91.4086
 X61.3289 Y91.5100
 X61.1074 Y91.5911
 X60.8764 Y91.6504
 X60.6369 Y91.6870
 X60.3904 Y91.6993
 X50.7578
 X50.5111 Y91.6870
 X50.2717 Y91.6504
 X50.0407 Y91.5911
 X49.8192 Y91.5100
 X49.6086 Y91.4086
 X49.4100 Y91.2879
 X49.2246 Y91.1493
 X49.0536 Y90.9938
 X48.8983 Y90.8226
 X48.7597 Y90.6372
 X48.6392 Y90.4386
 X48.5379 Y90.2281
 X48.4571 Y90.0068
 X48.3978 Y89.7760
 X48.3614 Y89.5368
 X48.3490 Y89.2906
 X48.3614 Y89.0446
 X48.3978 Y88.8057
 X48.4571 Y88.5751
 X48.5379 Y88.3539
 X48.6392 Y88.1436
 X48.7597 Y87.9451
 X48.8983 Y87.7597
 X49.0536 Y87.5888
 X49.2246 Y87.4333
 X49.4100 Y87.2946
 X49.6086 Y87.1740
 X49.8192 Y87.0726
 X50.0407 Y86.9915
 X50.2717 Y86.9322
 X50.5111 Y86.8957
 X50.7578 Y86.8832
G0 Z5.0000
 X41.1237 Y91.6993
G1 Z0.0000
 X41.3704 Y91.7118
 X41.6099 Y91.7483
 X41.8410 Y91.8078
 X42.0625 Y91.8888
 X42.2731 Y91.9903
 X42.4717 Y92.1110
 X42.6571 Y92.2497
 X42.8281 Y92.4051
 X42.9835 Y92.5763
 X43.1221 Y92.7617
 X43.2425 Y92.9603
 X43.3439 Y93.1708
 X43.4247 Y93.3921
 X43.4840 Y93.6229
 X43.5204 Y93.8619
 X43.5329 Y94.1081
 X43.5204 Y94.3542
 X43.4840 Y94.5931
 X43.4247 Y94.8236
 X43.3439 Y95.0449
 X43.2425 Y95.2553
 X43.1221 Y95.4539
 X42.9835 Y95.6392
 X42.8281 Y95.8103
 X42.6571 Y95.9657
 X42.4717 Y96.1043
 X42.2731 Y96.2250
 X42.0625 Y96.3265
 X41.8410 Y96.4075
 X41.6099 Y96.4669
 X41.3704 Y96.5035
 X41.1237 Y96.5158
 X31.4915
 X31.2450 Y96.5035
 X31.0057 Y96.4669
 X30.7749 Y96.4075
 X30.5535 Y96.3265
 X30.3428 Y96.2250
 X30.1443 Y96.1043
 X29.9589 Y95.9657
 X29.7878 Y95.8103
 X29.6324 Y95.6392
 X29.4938 Y95.4539
 X29.3732 Y95.2553
 X29.2718 Y95.0449
 X29.1910 Y94.8236
 X29.1317 Y94.5931
 X29.0951 Y94.3542
 X29.0828 Y94.1081
 Y74.8404
 X29.0951 Y74.5946
 X29.1317 Y74.3556
 X29.1910 Y74.1250
 X29.2718 Y73.9039
 X29.3732 Y73.6935
 X29.4938 Y73.4950
 X29.6324 Y73.3096
 X29.7878 Y73.1386
 X29.9589 Y72.9832
 X30.1443 Y72.8446
 X30.3428 Y72.7239
 X30.5535 Y72.6225
 X30.7749 Y72.5414
 X31.0057 Y72.4821
 X31.2450 Y72.4456
 X31.4915 Y72.4331
 X41.1237
 X41.3704 Y72.4456
 X41.6099 Y72.4821
 X41.8410 Y72.5414
 X42.0625 Y72.6225
 X42.2731 Y72.7239
 X42.4717 Y72.8446
 X42.6571 Y72.9832
 X42.8281 Y73.1386
 X42.9835 Y73.3096
 X43.1221 Y73.4950
 X43.2425 Y73.6935
 X43.3439 Y73.9039
 X43.4247 Y74.1250
 X43.4840 Y74.3556
 X43.5204 Y74.5946
 X43.5329 Y74.8404
 X43.5204 Y75.0868
 X43.4840 Y75.3258
 X43.4247 Y75.5567
 X43.3439 Y75.7779
 X43.2425 Y75.9885
 X43.1221 Y76.1871
 X42.9835 Y76.3725
 X42.8281 Y76.5436
 X42.6571 Y76.6992
 X42.4717 Y76.8378
 X42.2731 Y76.9585
 X42.0625 Y77.0600
 X41.8410 Y77.1410
 X41.6099 Y77.2003
 X41.3704 Y77.2368
 X41.1237 Y77.2492
 X33.9003
 Y82.0657
 X41.1237
 X41.3704 Y82.0782
 X41.6099 Y82.1147
 X41.8410 Y82.1740
 X42.0625 Y82.2551
 X42.2731 Y82.3565
 X42.4717 Y82.4772
 X42.6571 Y82.6158
 X42.8281 Y82.7714
 X42.9835 Y82.9424
 X43.1221 Y83.1279
 X43.2425 Y83.3265
 X43.3439 Y83.5371
 X43.4247 Y83.7583
 X43.4840 Y83.9892
 X43.5204 Y84.2283
 X43.5329 Y84.4744
 X43.5204 Y84.7204
 X43.4840 Y84.9593
 X43.4247 Y85.1899
 X43.3439 Y85.4110
 X43.2425 Y85.6214
 X43.1221 Y85.8199
 X42.9835 Y86.0053
 X42.8281 Y86.1763
 X42.6571 Y86.3317
 X42.4717 Y86.4704
 X42.2731 Y86.5910
 X42.0625 Y86.6925
 X41.8410 Y86.7735
 X41.6099 Y86.8329
 X41.3704 Y86.8694
 X41.1237 Y86.8818
 X33.9003
 Y91.6993
 X41.1237
G0 Z5.0000
 X50.7578 Y77.2492
G1 Z0.0000
 X60.3904
 X60.6369 Y77.2617
 X60.8764 Y77.2982
 X61.1074 Y77.3576
 X61.3289 Y77.4386
 X61.5394 Y77.5401
 X61.7381 Y77.6608
 X61.9233 Y77.7996
 X62.0943 Y77.9550
 X62.2497 Y78.1261
 X62.3882 Y78.3115
 X62.5087 Y78.5101
 X62.6101 Y78.7207
 X62.6910 Y78.9420
 X62.7503 Y79.1728
 X62.7867 Y79.4118
 X62.7992 Y79.6579
 X62.7867 Y79.9040
 X62.7503 Y80.1429
 X62.6910 Y80.3735
 X62.6101 Y80.5947
 X62.5087 Y80.8051
 X62.3882 Y81.0036
 X62.2497 Y81.1890
 X62.0943 Y81.3601
 X61.9233 Y81.5156
 X61.7381 Y81.6542
 X61.5394 Y81.7749
 X61.3289 Y81.8764
 X61.1074 Y81.9574
 X60.8764 Y82.0168
 X60.6369 Y82.0533
 X60.3904 Y82.0657
 X50.7578
 X50.5111 Y82.0533
 X50.2717 Y82.0168
 X50.0407 Y81.9574
 X49.8192 Y81.8764
 X49.6086 Y81.7749
 X49.4100 Y81.6542
 X49.2246 Y81.5156
 X49.0536 Y81.3601
 X48.8983 Y81.1890
 X48.7597 Y81.0036
 X48.6392 Y80.8051
 X48.5379 Y80.5947
 X48.4571 Y80.3735
 X48.3978 Y80.1429
 X48.3614 Y79.9040
 X48.3490 Y79.6579
 X48.3614 Y79.4118
 X48.3978 Y79.1728
 X48.4571 Y78.9420
 X48.5379 Y78.7207
 X48.6392 Y78.5101
 X48.7597 Y78.3115
 X48.8983 Y78.1261
 X49.0536 Y77.9550
 X49.2246 Y77.7996
 X49.4100 Y77.6608
 X49.6086 Y77.5401
 X49.8192 Y77.4386
 X50.0407 Y77.3576
 X50.2717 Y77.2982
 X50.5111 Y77.2617
 X50.7578 Y77.2492
G0 Z5.0000
 X77.2493 Y33.9003
G1 Z0.0000
 X77.0025 Y33.8879
 X76.7631 Y33.8514
 X76.5319 Y33.7919
 X76.3106 Y33.7110
 X76.1000 Y33.6095
 X75.9014 Y33.4888
 X75.7160 Y33.3501
 X75.5450 Y33.1946
 X75.3897 Y33.0236
 X75.2512 Y32.8381
 X75.1307 Y32.6396
 X75.0294 Y32.4290
 X74.9486 Y32.2076
 X74.8893 Y31.9768
 X74.8529 Y31.7378
 X74.8406 Y31.4915
 Y25.2643
 X58.6885 Y9.1123
 X58.5231 Y8.9291
 X58.3797 Y8.7340
 X58.2583 Y8.5287
 X58.1590 Y8.3149
 X58.0818 Y8.0944
 X58.0268 Y7.8688
 X57.9936 Y7.6398
 X57.9826 Y7.4091
 X57.9936 Y7.1785
 X58.0268 Y6.9495
 X58.0818 Y6.7240
 X58.1590 Y6.5036
 X58.2583 Y6.2900
 X58.3797 Y6.0849
 X58.5231 Y5.8900
 X58.6885 Y5.7070
 X58.8713 Y5.5418
 X59.0660 Y5.3985
 X59.2711 Y5.2773
 X59.4846 Y5.1780
 X59.7051 Y5.1008
 X59.9307 Y5.0456
 X60.1596 Y5.0125
 X60.3904 Y5.0014
 X60.6215 Y5.0125
 X60.8508 Y5.0456
 X61.0767 Y5.1008
 X61.2972 Y5.1780
 X61.5110 Y5.2773
 X61.7160 Y5.3985
 X61.9107 Y5.5418
 X62.0935 Y5.7070
 X78.9511 Y22.5647
 X79.1107 Y22.7415
 X79.2512 Y22.9317
 X79.3722 Y23.1336
 X79.4728 Y23.3458
 X79.5521 Y23.5670
 X79.6096 Y23.7950
 X79.6447 Y24.0288
 X79.6565 Y24.2665
 Y31.4915
 X79.6442 Y31.7378
 X79.6076 Y31.9768
 X79.5485 Y32.2076
 X79.4675 Y32.4290
 X79.3664 Y32.6396
 X79.2458 Y32.8381
 X79.1074 Y33.0236
 X78.9521 Y33.1946
 X78.7811 Y33.3501
 X78.5958 Y33.4888
 X78.3974 Y33.6095
 X78.1869 Y33.7110
 X77.9657 Y33.7919
 X77.7349 Y33.8514
 X77.4956 Y33.8879
 X77.2493 Y33.9003
G0 Z5.0000
 X86.1760 Y18.7446
G1 Z0.0000
 X85.9929 Y18.9103
 X85.7981 Y19.0539
 X85.5929 Y19.1754
 X85.3793 Y19.2747
 X85.1589 Y19.3521
 X84.9333 Y19.4074
 X84.7043 Y19.4404
 X84.4735 Y19.4515
 X84.2428 Y19.4404
 X84.0139 Y19.4074
 X83.7882 Y19.3521
 X83.5678 Y19.2747
 X83.3540 Y19.1754
 X83.1489 Y19.0539
 X82.9539 Y18.9103
 X82.7710 Y18.7446
 X82.6054 Y18.5616
 X82.4621 Y18.3667
 X82.3407 Y18.1615
 X82.2415 Y17.9479
 X82.1643 Y17.7274
 X82.1092 Y17.5018
 X82.0760 Y17.2728
 X82.0650 Y17.0421
 X82.0760 Y16.8114
 X82.1092 Y16.5824
 X82.1643 Y16.3568
 X82.2415 Y16.1363
 X82.3407 Y15.9227
 X82.4621 Y15.7175
 X82.6054 Y15.5226
 X82.7710 Y15.3396
 X92.4050 Y5.7056
 X92.5874 Y5.5408
 X92.7818 Y5.3977
 X92.9868 Y5.2765
 X93.2006 Y5.1771
 X93.4211 Y5.0998
 X93.6468 Y5.0444
 X93.8760 Y5.0111
 X94.1067 Y5.0000
 X94.3378 Y5.0111
 X94.5672 Y5.0444
 X94.7931 Y5.0998
 X95.0136 Y5.1771
 X95.2272 Y5.2765
 X95.4324 Y5.3977
 X95.6272 Y5.5408
 X95.8100 Y5.7056
 X95.9754 Y5.8888
 X96.1187 Y6.0839
 X96.2401 Y6.2892
 X96.3393 Y6.5030
 X96.4165 Y6.7236
 X96.4717 Y6.9492
 X96.5047 Y7.1782
 X96.5158 Y7.4090
 X96.5047 Y7.6397
 X96.4717 Y7.8687
 X96.4165 Y8.0943
 X96.3393 Y8.3149
 X96.2401 Y8.5287
 X96.1187 Y8.7340
 X95.9754 Y8.9291
 X95.8100 Y9.1123
 X86.1760 Y18.7446
G0 Z5.0000
G0 Z5.0000
M2 (end program)
