$X
$H
G10 P0 L20 X0 Y0 Z0
G40 (disable tool radius compensation)
G49 (disable tool length compensation)
G80 (cancel modal motion)
G54 (select coordinate system 1)
G90 (disable incremental moves)
G21 (metric)
F300.00000
S250.00000
G61 (exact path mode)
;PYCAM_TOOLPATH_SETTINGS: START
;[Bounds]
;maxz = 0.0
;maxx = 128.415
;maxy = 127.823
;minx = 0.00401476
;miny = 0.594781
;minz = 0.0
;
;[Tool]
;torus_radius = 0.125
;shape = CylindricalCutter
;tool_radius = 1.5875
;feedrate = 300.0
;
;[Process]
;engrave_offset = 0.0
;step_down = 3.0
;generator = EngraveCutter
;postprocessor = SimpleCutter
;overlap_percent = 0
;milling_style = ignore
;material_allowance = 0.0
;pocketing_type = none
;path_direction = x
;
;PYCAM_TOOLPATH_SETTINGS: END
G0 Z-25.0000
M3 (start spindle)
G04 P3 (wait for 3 seconds)
 X62.09310 Y19.87330
G1 Z-53.0000
 X66.32640
 Y15.64000
 X62.09310
 Y19.87330
G0 Z-25.0000
 X55.07320 Y62.00940
G1 Z-53.0000
 X55.00750 Y61.86310
 X54.78470 Y61.43530
 X54.44880 Y60.89030
 X54.06690 Y60.37460
 X53.64080 Y59.88850
 X53.17240 Y59.43210
 X52.66280 Y59.00560
 X52.11420 Y58.60930
 X51.52810 Y58.24330
 X50.90600 Y57.90790
 X50.24990 Y57.60320
 X49.56120 Y57.32940
 X48.84180 Y57.08690
 X48.09320 Y56.87570
 X47.31710 Y56.69600
 X46.51530 Y56.54820
 X45.68930 Y56.43210
 X44.84100 Y56.34830
 X43.97180 Y56.29680
 X43.08360 Y56.27790
 X42.17790 Y56.29180
 X41.25650 Y56.33850
 X40.32110 Y56.41850
 X39.37330 Y56.53180
 X38.41470 Y56.67860
 X37.44720 Y56.85920
 X36.47240 Y57.07380
 X35.49170 Y57.32250
 X34.50710 Y57.60560
 X33.52010 Y57.92320
 X32.53260 Y58.27560
 X31.54600 Y58.66290
 X30.80640 Y58.97600
 X30.56220 Y59.08530
 X30.31810 Y59.19490
 X29.59250 Y59.53860
 X28.64740 Y60.01720
 X27.72760 Y60.52000
 X26.83430 Y61.04540
 X25.96820 Y61.59220
 X25.13040 Y62.15890
 X24.32190 Y62.74400
 X23.54380 Y63.34640
 X22.79670 Y63.96440
 X22.08180 Y64.59680
 X21.40000 Y65.24220
 X20.75220 Y65.89930
 X20.13970 Y66.56640
 X19.56310 Y67.24240
 X19.02350 Y67.92580
 X18.52180 Y68.61530
 X18.05920 Y69.30940
 X17.63640 Y70.00680
 X17.25430 Y70.70610
 X16.91420 Y71.40570
 X16.61690 Y72.10460
 X16.36330 Y72.80110
 X16.15440 Y73.49400
 X15.99130 Y74.18190
 X15.87470 Y74.86330
 X15.80580 Y75.53680
 X15.78560 Y76.20110
 X15.81490 Y76.85490
 X15.89460 Y77.49650
 X16.02600 Y78.12490
 X16.20960 Y78.73850
 X16.38110 Y79.18940
 X16.44680 Y79.33580
 X16.48600 Y79.42330
 X16.61290 Y79.68170
 X16.79610 Y80.01720
 X16.99610 Y80.34240
 X17.21260 Y80.65710
 X17.44510 Y80.96130
 X17.69350 Y81.25500
 X17.95720 Y81.53820
 X18.23600 Y81.81080
 X18.52940 Y82.07290
 X18.83720 Y82.32420
 X19.15890 Y82.56470
 X19.49420 Y82.79460
 X19.84280 Y83.01360
 X20.20420 Y83.22180
 X20.57820 Y83.41920
 X20.96430 Y83.60540
 X21.36240 Y83.78080
 X21.77180 Y83.94530
 X22.19250 Y84.09860
 X22.62380 Y84.24080
 X23.06560 Y84.37210
 X23.51740 Y84.49190
 X23.97890 Y84.60070
 X24.44970 Y84.69810
 X24.92960 Y84.78420
 X25.41810 Y84.85900
 X25.91470 Y84.92240
 X26.41940 Y84.97440
 X26.93170 Y85.01490
 X27.45110 Y85.04390
 X27.97740 Y85.06130
 X28.37690 Y85.06710
 X28.69280
 X29.24080 Y85.05640
 X29.98210 Y85.02420
 X30.73280 Y84.97040
 X31.49220 Y84.89490
 X32.25930 Y84.79760
 X33.03330 Y84.67850
 X33.81320 Y84.53720
 X34.59830 Y84.37390
 X35.38750 Y84.18830
 X36.18010 Y83.98060
 X36.97510 Y83.75030
 X37.77170 Y83.49740
 X38.56870 Y83.22190
 X39.36580 Y82.92370
 X40.16150 Y82.60260
 X40.75810 Y82.34720
 X40.95540 Y82.25860
 X41.19960 Y82.14920
 X41.92510 Y81.80540
 X42.87060 Y81.32680
 X43.79040 Y80.82400
 X44.68400 Y80.29860
 X45.55030 Y79.75190
 X46.38820 Y79.18540
 X47.19680 Y78.60030
 X47.97530 Y77.99810
 X48.72250 Y77.38010
 X49.43750 Y76.74780
 X50.11930 Y76.10250
 X50.76710 Y75.44560
 X51.37990 Y74.77850
 X51.95650 Y74.10260
 X52.49630 Y73.41930
 X52.99790 Y72.72990
 X53.46070 Y72.03600
 X53.88360 Y71.33860
 X54.26570 Y70.63940
 X54.60580 Y69.93970
 X54.90320 Y69.24110
 X55.15680 Y68.54460
 X55.36560 Y67.85170
 X55.52880 Y67.16390
 X55.64530 Y66.48250
 X55.71420 Y65.80900
 X55.73440 Y65.14460
 X55.70510 Y64.49080
 X55.62540 Y63.84920
 X55.49400 Y63.22070
 X55.31030 Y62.60710
 X55.13890 Y62.15600
 X55.07320 Y62.00940
G0 Z-25.0000
 X110.03100 Y68.00430
G1 Z-53.0000
 X109.89500 Y67.82220
 X109.47200 Y67.28760
 X108.87400 Y66.58570
 X108.23900 Y65.89930
 X107.56700 Y65.22960
 X106.86100 Y64.57720
 X106.12100 Y63.94320
 X105.34800 Y63.32820
 X104.54400 Y62.73330
 X103.71000 Y62.15940
 X102.84700 Y61.60740
 X101.95600 Y61.07820
 X101.03900 Y60.57240
 X100.09700 Y60.09110
 X99.13110 Y59.63530
 X98.14250 Y59.20560
 X97.38640 Y58.89990
 X97.13250 Y58.80310
 X96.87850 Y58.70650
 X96.11060 Y58.43220
 X95.08670 Y58.09570
 X94.06220 Y57.79370
 X93.03890 Y57.52650
 X92.01790 Y57.29440
 X91.00100 Y57.09740
 X89.98960 Y56.93570
 X88.98510 Y56.80930
 X87.98920 Y56.71860
 X87.00320 Y56.66380
 X86.02870 Y56.64490
 X85.06740 Y56.66210
 X84.12040 Y56.71560
 X83.18940 Y56.80560
 X82.27610 Y56.93220
 X81.60420 Y57.04990
 X81.38170 Y57.09570
 X81.17970 Y57.13720
 X80.57780 Y57.27890
 X79.80600 Y57.49080
 X79.06720 Y57.73070
 X78.36210 Y57.99810
 X77.69150 Y58.29240
 X77.05640 Y58.61310
 X76.45740 Y58.95930
 X75.89560 Y59.33080
 X75.37150 Y59.72710
 X74.88610 Y60.14720
 X74.44010 Y60.59080
 X74.03460 Y61.05740
 X73.67010 Y61.54630
 X73.34780 Y62.05680
 X73.06810 Y62.58860
 X72.88540 Y63.00070
 X72.83210 Y63.14080
 X72.77490 Y63.29080
 X72.63000 Y63.75080
 X72.48210 Y64.37380
 X72.38750 Y65.00850
 X72.34500 Y65.65350
 X72.35360 Y66.30760
 X72.41250 Y66.96940
 X72.52030 Y67.63780
 X72.67600 Y68.31110
 X72.87880 Y68.98820
 X73.12740 Y69.66760
 X73.42080 Y70.34820
 X73.75820 Y71.02860
 X74.13820 Y71.70740
 X74.56000 Y72.38320
 X75.02250 Y73.05490
 X75.52460 Y73.72100
 X76.06530 Y74.38030
 X76.64350 Y75.03130
 X77.25820 Y75.67280
 X77.90850 Y76.30330
 X78.59310 Y76.92180
 X79.31110 Y77.52670
 X80.06140 Y78.11680
 X80.84310 Y78.69060
 X81.65490 Y79.24690
 X82.49580 Y79.78440
 X83.36510 Y80.30180
 X84.26140 Y80.79780
 X85.18380 Y81.27080
 X86.13110 Y81.71970
 X87.10250 Y82.14320
 X87.84670 Y82.44460
 X88.09670 Y82.53970
 X88.44600 Y82.67260
 X89.50500 Y83.04210
 X90.91580 Y83.47890
 X92.32560 Y83.84990
 X93.73010 Y84.15430
 X95.12560 Y84.39190
 X96.50820 Y84.56220
 X97.87380 Y84.66490
 X98.88250 Y84.69920
 X99.51740
 X100.41300 Y84.67110
 X101.58500 Y84.58690
 X102.73000 Y84.44610
 X103.56900 Y84.30540
 X103.84600 Y84.24830
 X104.04800 Y84.20680
 X104.65000 Y84.06510
 X105.42200 Y83.85320
 X106.16100 Y83.61330
 X106.86600 Y83.34600
 X107.53600 Y83.05150
 X108.17100 Y82.73100
 X108.77000 Y82.38440
 X109.33200 Y82.01280
 X109.85600 Y81.61650
 X110.34200 Y81.19640
 X110.78800 Y80.75280
 X111.19300 Y80.28620
 X111.55800 Y79.79740
 X111.88000 Y79.28690
 X112.16000 Y78.75530
 X112.34200 Y78.34320
 X112.39600 Y78.20310
 X112.44900 Y78.06310
 X112.58700 Y77.63390
 X112.73100 Y77.05110
 X112.83000 Y76.45570
 X112.88300 Y75.84850
 X112.89000 Y75.23070
 X112.85200 Y74.60290
 X112.76900 Y73.96650
 X112.64200 Y73.32220
 X112.46900 Y72.67110
 X112.25200 Y72.01420
 X111.99100 Y71.35250
 X111.68600 Y70.68670
 X111.33700 Y70.01810
 X110.94500 Y69.34750
 X110.50900 Y68.67580
 X110.15400 Y68.16960
 X110.03100 Y68.00430
G0 Z-25.0000
 X107.93100 Y32.91670
G1 Z-53.0000
 X89.04610 Y14.83390
 X88.88330 Y14.67820
 X88.38750 Y14.21880
 X87.71760 Y13.62310
 X87.03710 Y13.04690
 X86.34600 Y12.49030
 X85.64490 Y11.95320
 X84.93390 Y11.43570
 X84.21360 Y10.93760
 X83.48420 Y10.45910
 X82.74630 Y10.00010
 X81.99990 Y9.56065
 X81.24560 Y9.14074
 X80.48380 Y8.74035
 X79.71470 Y8.35949
 X78.93870 Y7.99810
 X78.15630 Y7.65631
 X77.36780 Y7.33404
 X76.57330 Y7.03125
 X75.77360 Y6.74804
 X74.96880 Y6.48432
 X74.15920 Y6.24018
 X73.34540 Y6.01551
 X72.52750 Y5.81044
 X71.70610 Y5.62483
 X70.88140 Y5.45876
 X70.05390 Y5.31228
 X69.22370 Y5.18528
 X68.39140 Y5.07781
 X67.55740 Y4.98990
 X66.72180 Y4.92150
 X65.88510 Y4.87261
 X65.04780 Y4.84332
 X64.21010 Y4.83350
 X63.37240 Y4.84326
 X62.53500 Y4.87250
 X61.69830 Y4.92133
 X60.86280 Y4.98964
 X60.02870 Y5.07747
 X59.19640 Y5.18490
 X58.36630 Y5.31185
 X57.53860 Y5.45828
 X56.71390 Y5.62429
 X55.89240 Y5.80985
 X55.07440 Y6.01486
 X54.26060 Y6.23947
 X53.45100 Y6.48361
 X52.64610 Y6.74729
 X51.84620 Y7.03049
 X51.05180 Y7.33322
 X50.26320 Y7.65549
 X49.48070 Y7.99729
 X48.70460 Y8.35867
 X47.93560 Y8.73953
 X47.17350 Y9.13997
 X46.41920 Y9.55990
 X45.67280 Y9.99940
 X44.93460 Y10.45840
 X44.20510 Y10.93700
 X43.48470 Y11.43510
 X42.77360 Y11.95270
 X42.07240 Y12.48990
 X41.38110 Y13.04660
 X40.70040 Y13.62280
 X40.03040 Y14.21860
 X39.53440 Y14.67820
 X20.48720 Y32.91670
 X20.19990 Y33.19170
 X19.35390 Y34.03370
 X18.25930 Y35.17720
 X17.20360 Y36.34650
 X16.18690 Y37.54070
 X15.20990 Y38.75920
 X14.27240 Y40.00100
 X13.37500 Y41.26540
 X12.51780 Y42.55180
 X11.70120 Y43.85920
 X10.92530 Y45.18690
 X10.19050 Y46.53420
 X9.49701 Y47.90030
 X8.84511 Y49.28440
 X8.23514 Y50.68580
 X7.66726 Y52.10360
 X7.14176 Y53.53720
 X6.65901 Y54.98560
 X6.21918 Y56.44820
 X5.82260 Y57.92420
 X5.46946 Y59.41280
 X5.16010 Y60.91330
 X4.89481 Y62.42490
 X4.67378 Y63.94670
 X4.49729 Y65.47810
 X4.36572 Y67.01820
 X4.27919 Y68.56640
 X4.23807 Y70.12170
 X4.24262 Y71.68350
 X4.29308 Y73.25100
 X4.38971 Y74.82350
 X4.53282 Y76.39990
 X4.66949 Y77.58560
 X4.72265 Y77.97970
 X4.77576 Y78.37400
 X4.95801 Y79.55360
 X5.23763 Y81.11180
 X5.56093 Y82.65370
 X5.92746 Y84.17860
 X6.33675 Y85.68600
 X6.78842 Y87.17490
 X7.28190 Y88.64490
 X7.81685 Y90.09530
 X8.39264 Y91.52530
 X9.00890 Y92.93420
 X9.66521 Y94.32150
 X10.36100 Y95.68650
 X11.09590 Y97.02850
 X11.86940 Y98.34670
 X12.68090 Y99.64060
 X13.53020 Y100.90900
 X14.41670 Y102.15300
 X15.34000 Y103.36900
 X16.29940 Y104.55900
 X17.29490 Y105.72100
 X18.32540 Y106.85400
 X19.39100 Y107.95900
 X20.49100 Y109.03400
 X21.62500 Y110.07800
 X22.79240 Y111.09100
 X23.99280 Y112.07300
 X25.22570 Y113.02200
 X26.49080 Y113.93800
 X27.78760 Y114.82000
 X29.11540 Y115.66700
 X30.47400 Y116.48000
 X31.51290 Y117.06800
 X31.86290 Y117.25700
 X32.22190 Y117.45100
 X33.31120 Y118.01000
 X34.78140 Y118.71800
 X36.27220 Y119.37900
 X37.78220 Y119.99400
 X39.31000 Y120.56100
 X40.85420 Y121.08100
 X42.41350 Y121.55300
 X43.98640 Y121.97700
 X45.57170 Y122.35200
 X47.16780 Y122.67800
 X48.77330 Y122.95500
 X50.38720 Y123.18300
 X52.00780 Y123.36100
 X53.63370 Y123.48800
 X55.26380 Y123.56400
 X56.48820 Y123.59000
 X71.93110
 X73.15560 Y123.56400
 X74.78560 Y123.48800
 X76.41150 Y123.36100
 X78.03190 Y123.18300
 X79.64570 Y122.95500
 X81.25120 Y122.67800
 X82.84740 Y122.35200
 X84.43250 Y121.97700
 X86.00530 Y121.55300
 X87.56460 Y121.08100
 X89.10880 Y120.56100
 X90.63650 Y119.99400
 X92.14650 Y119.37900
 X93.63740 Y118.71800
 X95.10780 Y118.01000
 X96.19720 Y117.45100
 X96.55620 Y117.25700
 X96.90630 Y117.06800
 X97.94510 Y116.48000
 X99.30380 Y115.66700
 X100.63200 Y114.82000
 X101.92800 Y113.93800
 X103.19300 Y113.02200
 X104.42600 Y112.07300
 X105.62700 Y111.09100
 X106.79400 Y110.07800
 X107.92800 Y109.03400
 X109.02800 Y107.95900
 X110.09400 Y106.85400
 X111.12400 Y105.72100
 X112.12000 Y104.55900
 X113.07900 Y103.36900
 X114.00200 Y102.15300
 X114.88900 Y100.90900
 X115.73800 Y99.64060
 X116.55000 Y98.34670
 X117.32300 Y97.02850
 X118.05800 Y95.68650
 X118.75400 Y94.32150
 X119.41000 Y92.93420
 X120.02600 Y91.52530
 X120.60200 Y90.09530
 X121.13700 Y88.64490
 X121.63000 Y87.17490
 X122.08200 Y85.68600
 X122.49100 Y84.17860
 X122.85800 Y82.65370
 X123.18100 Y81.11180
 X123.46000 Y79.55360
 X123.64200 Y78.37400
 X123.69600 Y77.97970
 X123.74900 Y77.58560
 X123.88500 Y76.39990
 X124.02900 Y74.82350
 X124.12500 Y73.25100
 X124.17600 Y71.68350
 X124.18100 Y70.12170
 X124.13900 Y68.56640
 X124.05300 Y67.01820
 X123.92100 Y65.47810
 X123.74500 Y63.94670
 X123.52400 Y62.42490
 X123.25900 Y60.91330
 X122.94900 Y59.41280
 X122.59600 Y57.92420
 X122.19900 Y56.44820
 X121.76000 Y54.98560
 X121.27700 Y53.53720
 X120.75100 Y52.10360
 X120.18300 Y50.68580
 X119.57300 Y49.28440
 X118.92100 Y47.90030
 X118.22800 Y46.53420
 X117.49300 Y45.18690
 X116.71700 Y43.85920
 X115.90000 Y42.55180
 X115.04300 Y41.26540
 X114.14600 Y40.00100
 X113.20800 Y38.75920
 X112.23100 Y37.54070
 X111.21400 Y36.34650
 X110.15900 Y35.17720
 X109.06400 Y34.03370
 X108.21800 Y33.19170
 X107.93100 Y32.91670
G0 Z-25.0000
 X42.68890 Y86.12540
G1 Z-53.0000
 X42.38640 Y86.26100
 X41.47010 Y86.64820
 X40.25180 Y87.12420
 X39.03560 Y87.55350
 X37.82330 Y87.93650
 X36.61680 Y88.27360
 X35.41760 Y88.56500
 X34.22760 Y88.81110
 X33.04880 Y89.01190
 X31.88240 Y89.16810
 X30.73040 Y89.27970
 X29.59470 Y89.34690
 X28.47690 Y89.37040
 X27.37890 Y89.35030
 X26.30220 Y89.28670
 X25.24880 Y89.18010
 X24.22030 Y89.03080
 X23.21850 Y88.83900
 X22.24500 Y88.60510
 X21.30180 Y88.32930
 X20.39060 Y88.01190
 X19.51310 Y87.65330
 X18.67080 Y87.25380
 X17.86600 Y86.81330
 X17.10000 Y86.33260
 X16.37470 Y85.81180
 X15.69190 Y85.25120
 X15.05320 Y84.65110
 X14.46060 Y84.01170
 X13.91560 Y83.33350
 X13.42000 Y82.61650
 X12.97570 Y81.86120
 X12.67470 Y81.26960
 X12.58430 Y81.06790
 X12.49390 Y80.86640
 X12.25220 Y80.24830
 X11.98380 Y79.41430
 X11.77800 Y78.56750
 X11.63400 Y77.70940
 X11.55070 Y76.84180
 X11.52740 Y75.96570
 X11.56290 Y75.08290
 X11.65640 Y74.19500
 X11.80690 Y73.30320
 X12.01350 Y72.40920
 X12.27510 Y71.51460
 X12.59100 Y70.62070
 X12.96010 Y69.72900
 X13.38150 Y68.84110
 X13.85430 Y67.95860
 X14.37750 Y67.08280
 X14.95000 Y66.21530
 X15.57110 Y65.35760
 X16.23990 Y64.51130
 X16.95510 Y63.67760
 X17.71610 Y62.85850
 X18.52180 Y62.05500
 X19.37140 Y61.26890
 X20.26360 Y60.50150
 X21.19790 Y59.75460
 X22.17310 Y59.02960
 X23.18830 Y58.32760
 X24.24260 Y57.65070
 X25.33500 Y57.00010
 X26.46460 Y56.37740
 X27.63040 Y55.78400
 X28.52900 Y55.35710
 X28.83150 Y55.22140
 X29.05940 Y55.11920
 X29.74850 Y54.82360
 X30.66530 Y54.45250
 X31.58140 Y54.10790
 X32.49610 Y53.78960
 X33.40850 Y53.49750
 X34.31790 Y53.23150
 X35.22350 Y52.99150
 X36.12470 Y52.77720
 X37.02070 Y52.58870
 X37.91070 Y52.42580
 X38.79400 Y52.28830
 X39.66990 Y52.17610
 X40.53760 Y52.08900
 X41.39650 Y52.02710
 X42.24570 Y51.99000
 X42.87470 Y51.97760
 X43.25610
 X43.77130 Y51.98610
 X44.45010 Y52.01140
 X45.12030 Y52.05360
 X45.78170 Y52.11260
 X46.43360 Y52.18830
 X47.07580 Y52.28060
 X47.70780 Y52.38940
 X48.32920 Y52.51460
 X48.93930 Y52.65640
 X49.53810 Y52.81440
 X50.12490 Y52.98860
 X50.69930 Y53.17920
 X51.26100 Y53.38570
 X51.80930 Y53.60830
 X52.34420 Y53.84690
 X52.86500 Y54.10150
 X53.37130 Y54.37180
 X53.86260 Y54.65790
 X54.33860 Y54.95990
 X54.79890 Y55.27720
 X55.24290 Y55.61010
 X55.67040 Y55.95860
 X56.08080 Y56.32250
 X56.47380 Y56.70170
 X56.84880 Y57.09630
 X57.20560 Y57.50580
 X57.54350 Y57.93060
 X57.86220 Y58.37040
 X58.16150 Y58.82530
 X58.44060 Y59.29500
 X58.69930 Y59.77960
 X58.88060 Y60.15280
 X58.93720 Y60.27870
 X59.02750 Y60.48040
 X59.26920 Y61.09870
 X59.53750 Y61.93280
 X59.74310 Y62.77970
 X59.88690 Y63.63780
 X59.97010 Y64.50570
 X59.99350 Y65.38180
 X59.95780 Y66.26460
 X59.86430 Y67.15260
 X59.71380 Y68.04440
 X59.50710 Y68.93850
 X59.24530 Y69.83320
 X58.92940 Y70.72720
 X58.56030 Y71.61890
 X58.13890 Y72.50670
 X57.66610 Y73.38930
 X57.14290 Y74.26510
 X56.57030 Y75.13250
 X55.94920 Y75.99030
 X55.28060 Y76.83650
 X54.56510 Y77.67010
 X53.80420 Y78.48930
 X52.99850 Y79.29260
 X52.14900 Y80.07870
 X51.25670 Y80.84600
 X50.32240 Y81.59290
 X49.34720 Y82.31790
 X48.33190 Y83.01970
 X47.27780 Y83.69650
 X46.18530 Y84.34710
 X45.05580 Y84.96970
 X43.89000 Y85.56310
 X42.99140 Y85.98970
 X42.68890 Y86.12540
G0 Z-25.0000
 X51.50970 Y43.15680
G1 Z-53.0000
 Y38.92330
 X51.59130
 X51.83600 Y38.91510
 X52.15790 Y38.89060
 X52.47510 Y38.85010
 X52.78750 Y38.79420
 X53.09440 Y38.72320
 X53.39560 Y38.63750
 X53.69040 Y38.53750
 X53.97860 Y38.42360
 X54.25990 Y38.29640
 X54.53350 Y38.15600
 X54.79940 Y38.00290
 X55.05710 Y37.83750
 X55.30610 Y37.66030
 X55.54610 Y37.47170
 X55.77670 Y37.27190
 X55.99740 Y37.06150
 X56.20780 Y36.84080
 X56.40750 Y36.61040
 X56.59620 Y36.37040
 X56.77350 Y36.12140
 X56.93890 Y35.86370
 X57.09210 Y35.59780
 X57.23240 Y35.32400
 X57.35990 Y35.04290
 X57.47370 Y34.75460
 X57.57380 Y34.45970
 X57.65940 Y34.15860
 X57.73040 Y33.85170
 X57.78650 Y33.53920
 X57.82690 Y33.22180
 X57.85150 Y32.89970
 X57.85990 Y32.65500
 Y32.57350
 X62.09310
 Y32.70930
 X62.07930 Y33.11720
 X62.03830 Y33.65400
 X61.97100 Y34.18310
 X61.87780 Y34.70370
 X61.75930 Y35.21540
 X61.61650 Y35.71720
 X61.44990 Y36.20880
 X61.26010 Y36.68920
 X61.04790 Y37.15780
 X60.81390 Y37.61400
 X60.55880 Y38.05740
 X60.28320 Y38.48670
 X59.98790 Y38.90180
 X59.67350 Y39.30170
 X59.34060 Y39.68580
 X58.98990 Y40.05360
 X58.62220 Y40.40430
 X58.23810 Y40.73710
 X57.83810 Y41.05150
 X57.42310 Y41.34690
 X56.99360 Y41.62250
 X56.55040 Y41.87760
 X56.09420 Y42.11170
 X55.62560 Y42.32380
 X55.14510 Y42.51360
 X54.65360 Y42.68010
 X54.15170 Y42.82310
 X53.64010 Y42.94140
 X53.11940 Y43.03460
 X52.59030 Y43.10210
 X52.05360 Y43.14290
 X51.64570 Y43.15680
 X51.50970
G0 Z-25.0000
 X66.32640 Y32.57350
G1 Z-53.0000
 X70.55970
 Y32.65500
 X70.56810 Y32.89970
 X70.59260 Y33.22180
 X70.63310 Y33.53920
 X70.68900 Y33.85170
 X70.76000 Y34.15860
 X70.84570 Y34.45970
 X70.94570 Y34.75460
 X71.05960 Y35.04290
 X71.18680 Y35.32400
 X71.32720 Y35.59780
 X71.48030 Y35.86370
 X71.64560 Y36.12140
 X71.82290 Y36.37040
 X72.01150 Y36.61040
 X72.21120 Y36.84080
 X72.42170 Y37.06150
 X72.64220 Y37.27190
 X72.87280 Y37.47170
 X73.11280 Y37.66030
 X73.36180 Y37.83750
 X73.61940 Y38.00290
 X73.88530 Y38.15600
 X74.15900 Y38.29640
 X74.44030 Y38.42360
 X74.72850 Y38.53750
 X75.02350 Y38.63750
 X75.32460 Y38.72320
 X75.63150 Y38.79420
 X75.94390 Y38.85010
 X76.26140 Y38.89060
 X76.58350 Y38.91510
 X76.82820 Y38.92330
 X76.90970
 Y43.15680
 X76.77380
 X76.36600 Y43.14290
 X75.82920 Y43.10210
 X75.30010 Y43.03460
 X74.77940 Y42.94140
 X74.26780 Y42.82310
 X73.76600 Y42.68010
 X73.27440 Y42.51360
 X72.79400 Y42.32380
 X72.32540 Y42.11170
 X71.86900 Y41.87760
 X71.42580 Y41.62250
 X70.99650 Y41.34690
 X70.58140 Y41.05150
 X70.18150 Y40.73710
 X69.79740 Y40.40430
 X69.42960 Y40.05360
 X69.07890 Y39.68580
 X68.74600 Y39.30170
 X68.43150 Y38.90180
 X68.13630 Y38.48670
 X67.86070 Y38.05740
 X67.60560 Y37.61400
 X67.37150 Y37.15780
 X67.15940 Y36.68920
 X66.96960 Y36.20880
 X66.80310 Y35.71720
 X66.66010 Y35.21540
 X66.54180 Y34.70370
 X66.44860 Y34.18310
 X66.38110 Y33.65400
 X66.34030 Y33.11720
 X66.32640 Y32.70930
 Y32.57350
G0 Z-25.0000
 X116.35300 Y79.71190
G1 Z-53.0000
 X116.27500 Y79.91720
 X116.01100 Y80.52140
 X115.61100 Y81.29920
 X115.15700 Y82.04440
 X114.64700 Y82.75630
 X114.08500 Y83.43390
 X113.47000 Y84.07650
 X112.80500 Y84.68330
 X112.08900 Y85.25360
 X111.32400 Y85.78620
 X110.51200 Y86.28070
 X109.65300 Y86.73580
 X108.74900 Y87.15130
 X107.80000 Y87.52570
 X106.80800 Y87.85860
 X105.77400 Y88.14900
 X104.96900 Y88.34070
 X104.69900 Y88.39620
 X104.44000 Y88.44940
 X103.65800 Y88.58680
 X102.59800 Y88.73540
 X101.51800 Y88.84220
 X100.42200 Y88.90720
 X99.31060 Y88.93080
 X98.18580 Y88.91290
 X97.04960 Y88.85400
 X95.90350 Y88.75420
 X94.74930 Y88.61350
 X93.58860 Y88.43210
 X92.42350 Y88.21030
 X91.25530 Y87.94810
 X90.08610 Y87.64580
 X88.91750 Y87.30360
 X87.75110 Y86.92170
 X86.87780 Y86.61000
 X86.58900 Y86.50000
 X86.27920 Y86.38210
 X85.35740 Y86.00790
 X84.15920 Y85.48290
 X82.99560 Y84.92650
 X81.86740 Y84.34010
 X80.77580 Y83.72530
 X79.72170 Y83.08350
 X78.70630 Y82.41600
 X77.73040 Y81.72430
 X76.79530 Y81.00990
 X75.90180 Y80.27430
 X75.05100 Y79.51890
 X74.24400 Y78.74510
 X73.48170 Y77.95430
 X72.76530 Y77.14820
 X72.09570 Y76.32790
 X71.47400 Y75.49510
 X70.90110 Y74.65110
 X70.37820 Y73.79750
 X69.90640 Y72.93560
 X69.48640 Y72.06680
 X69.11940 Y71.19280
 X68.80650 Y70.31470
 X68.54870 Y69.43430
 X68.34710 Y68.55280
 X68.20250 Y67.67180
 X68.11610 Y66.79260
 X68.08900 Y65.91670
 X68.12190 Y65.04570
 X68.21620 Y64.18070
 X68.37290 Y63.32350
 X68.59280 Y62.47530
 X68.79830 Y61.84430
 X68.87710 Y61.63760
 X68.95510 Y61.43250
 X69.21960 Y60.82850
 X69.61870 Y60.05080
 X70.07360 Y59.30570
 X70.58260 Y58.59380
 X71.14500 Y57.91600
 X71.75940 Y57.27320
 X72.42510 Y56.66610
 X73.14060 Y56.09570
 X73.90490 Y55.56280
 X74.71690 Y55.06810
 X75.57560 Y54.61250
 X76.47960 Y54.19680
 X77.42810 Y53.82190
 X78.41990 Y53.48870
 X79.45360 Y53.19810
 X80.25860 Y53.00610
 X80.52860 Y52.95060
 X80.85740 Y52.88310
 X81.85100 Y52.71640
 X83.20560 Y52.54930
 X84.58860 Y52.44920
 X85.64460 Y52.41570
 X86.38190
 X87.53760 Y52.45430
 X89.09900 Y52.56990
 X90.67600 Y52.76170
 X92.26420 Y53.02930
 X93.85930 Y53.37240
 X95.45680 Y53.79010
 X97.05220 Y54.28220
 X98.24720 Y54.69830
 X98.64120 Y54.84820
 X98.93000 Y54.95810
 X99.78940 Y55.30600
 X100.91400 Y55.79610
 X102.01500 Y56.31750
 X103.08900 Y56.86920
 X104.13500 Y57.45000
 X105.15300 Y58.05920
 X106.14000 Y58.69540
 X107.09600 Y59.35780
 X108.01800 Y60.04540
 X108.90600 Y60.75690
 X109.75800 Y61.49170
 X110.57200 Y62.24850
 X111.34800 Y63.02630
 X112.08300 Y63.82400
 X112.77700 Y64.64080
 X113.26900 Y65.26350
 X113.42800 Y65.47560
 X113.59200 Y65.69670
 X114.06600 Y66.37500
 X114.64500 Y67.27960
 X115.16400 Y68.18790
 X115.62300 Y69.09850
 X116.02200 Y70.01000
 X116.36000 Y70.92110
 X116.63800 Y71.83040
 X116.85400 Y72.73680
 X117.00900 Y73.63860
 X117.10200 Y74.53460
 X117.13400 Y75.42330
 X117.10300 Y76.30360
 X117.01000 Y77.17390
 X116.85400 Y78.03310
 X116.63500 Y78.87940
 X116.43100 Y79.50670
 X116.35300 Y79.71190
G0 Z-25.0000
 X127.89200 Y78.54600
G1 Z-53.0000
 X127.83400 Y78.97190
 X127.63700 Y80.24640
 X127.33500 Y81.92990
 X126.98600 Y83.59570
 X126.59000 Y85.24320
 X126.14700 Y86.87170
 X125.65900 Y88.48040
 X125.12600 Y90.06850
 X124.54800 Y91.63540
 X123.92600 Y93.18030
 X123.26000 Y94.70250
 X122.55100 Y96.20140
 X121.79900 Y97.67600
 X121.00600 Y99.12580
 X120.17000 Y100.55000
 X119.29300 Y101.94800
 X118.37600 Y103.31900
 X117.41800 Y104.66200
 X116.42000 Y105.97600
 X115.38400 Y107.26200
 X114.30800 Y108.51700
 X113.19500 Y109.74200
 X112.04400 Y110.93500
 X110.85500 Y112.09700
 X109.63000 Y113.22500
 X108.36900 Y114.32000
 X107.07200 Y115.38000
 X105.74000 Y116.40600
 X104.37300 Y117.39600
 X102.97300 Y118.34900
 X101.53800 Y119.26500
 X100.07000 Y120.14300
 X98.94760 Y120.77800
 X98.56970 Y120.98300
 X98.18170 Y121.19200
 X97.00470 Y121.79700
 X95.41610 Y122.56100
 X93.80530 Y123.27600
 X92.17390 Y123.93900
 X90.52320 Y124.55200
 X88.85470 Y125.11400
 X87.17000 Y125.62300
 X85.47070 Y126.08100
 X83.75790 Y126.48600
 X82.03350 Y126.83900
 X80.29870 Y127.13800
 X78.55530 Y127.38400
 X76.80430 Y127.57600
 X75.04760 Y127.71300
 X73.28670 Y127.79600
 X71.96380 Y127.82300
 X56.45540
 X55.13240 Y127.79600
 X53.37130 Y127.71300
 X51.61440 Y127.57600
 X49.86360 Y127.38400
 X48.12000 Y127.13800
 X46.38530 Y126.83900
 X44.66100 Y126.48600
 X42.94830 Y126.08100
 X41.24890 Y125.62300
 X39.56430 Y125.11400
 X37.89600 Y124.55200
 X36.24530 Y123.93900
 X34.61390 Y123.27600
 X33.00320 Y122.56100
 X31.41460 Y121.79700
 X30.23750 Y121.19200
 X29.84960 Y120.98300
 X29.47150 Y120.77800
 X28.34900 Y120.14300
 X26.88120 Y119.26500
 X25.44650 Y118.34900
 X24.04560 Y117.39600
 X22.67880 Y116.40600
 X21.34670 Y115.38000
 X20.04970 Y114.32000
 X18.78850 Y113.22500
 X17.56330 Y112.09700
 X16.37500 Y110.93500
 X15.22390 Y109.74200
 X14.11040 Y108.51700
 X13.03500 Y107.26200
 X11.99840 Y105.97600
 X11.00100 Y104.66200
 X10.04330 Y103.31900
 X9.12576 Y101.94800
 X8.24897 Y100.55000
 X7.41336 Y99.12580
 X6.61942 Y97.67600
 X5.86774 Y96.20140
 X5.15875 Y94.70250
 X4.49294 Y93.18030
 X3.87082 Y91.63540
 X3.29297 Y90.06850
 X2.75976 Y88.48040
 X2.27181 Y86.87170
 X1.82958 Y85.24320
 X1.43354 Y83.59570
 X1.08420 Y81.92990
 X0.78212 Y80.24640
 X0.58518 Y78.97190
 X0.52778 Y78.54600
 X0.47032 Y78.12000
 X0.32259 Y76.83900
 X0.16797 Y75.13560
 X0.06348 Y73.43670
 X0.00895 Y71.74310
 X0.00401 Y70.05570
 X0.04839 Y68.37510
 X0.14182 Y66.70250
 X0.28396 Y65.03850
 X0.47461 Y63.38390
 X0.71338 Y61.73960
 X1.00000 Y60.10640
 X1.33420 Y58.48530
 X1.71571 Y56.87690
 X2.14421 Y55.28210
 X2.61936 Y53.70190
 X3.14100 Y52.13690
 X3.70871 Y50.58810
 X4.32221 Y49.05630
 X4.98128 Y47.54220
 X5.68560 Y46.04680
 X6.43490 Y44.57080
 X7.22879 Y43.11510
 X8.06711 Y41.68070
 X8.94949 Y40.26820
 X9.87565 Y38.87850
 X10.84530 Y37.51240
 X11.85810 Y36.17070
 X12.91390 Y34.85440
 X14.01220 Y33.56420
 X15.15310 Y32.30100
 X16.33570 Y31.06560
 X17.24970 Y30.15600
 X17.56030 Y29.85880
 X36.44510 Y11.77470
 X36.62690 Y11.60060
 X37.18110 Y11.08700
 X37.92970 Y10.42100
 X38.69040 Y9.77692
 X39.46280 Y9.15468
 X40.24670 Y8.55419
 X41.04120 Y7.97558
 X41.84650 Y7.41878
 X42.66180 Y6.88385
 X43.48680 Y6.37071
 X44.32100 Y5.87939
 X45.16420 Y5.40994
 X46.01580 Y4.96229
 X46.87570 Y4.53651
 X47.74310 Y4.13254
 X48.61780 Y3.75038
 X49.49940 Y3.39008
 X50.38750 Y3.05160
 X51.28150 Y2.73497
 X52.18140 Y2.44015
 X53.08640 Y2.16721
 X53.99630 Y1.91607
 X54.91070 Y1.68674
 X55.82900 Y1.47928
 X56.75100 Y1.29367
 X57.67640 Y1.12988
 X58.60440 Y0.98790
 X59.53500 Y0.86779
 X60.46750 Y0.76953
 X61.40170 Y0.69309
 X62.33690 Y0.63851
 X63.27320 Y0.60574
 X63.97570 Y0.59478
 X64.44390
 X65.14640 Y0.60574
 X66.08250 Y0.63851
 X67.01780 Y0.69309
 X67.95190 Y0.76953
 X68.88430 Y0.86779
 X69.81470 Y0.98790
 X70.74280 Y1.12988
 X71.66790 Y1.29367
 X72.58990 Y1.47928
 X73.50820 Y1.68674
 X74.42240 Y1.91607
 X75.33210 Y2.16721
 X76.23710 Y2.44015
 X77.13680 Y2.73497
 X78.03070 Y3.05160
 X78.91870 Y3.39008
 X79.80030 Y3.75038
 X80.67490 Y4.13254
 X81.54220 Y4.53651
 X82.40190 Y4.96229
 X83.25350 Y5.40994
 X84.09670 Y5.87939
 X84.93100 Y6.37071
 X85.75600 Y6.88385
 X86.57120 Y7.41878
 X87.37640 Y7.97558
 X88.17110 Y8.55419
 X88.95490 Y9.15468
 X89.72740 Y9.77692
 X90.48820 Y10.42100
 X91.23680 Y11.08700
 X91.79110 Y11.60050
 X91.97310 Y11.77470
 X110.85900 Y29.85880
 X111.16900 Y30.15600
 X112.08300 Y31.06560
 X113.26600 Y32.30100
 X114.40700 Y33.56420
 X115.50500 Y34.85440
 X116.56100 Y36.17070
 X117.57300 Y37.51240
 X118.54300 Y38.87850
 X119.46900 Y40.26820
 X120.35100 Y41.68070
 X121.19000 Y43.11510
 X121.98300 Y44.57080
 X122.73300 Y46.04680
 X123.43700 Y47.54220
 X124.09600 Y49.05630
 X124.71000 Y50.58810
 X125.27700 Y52.13690
 X125.79900 Y53.70190
 X126.27400 Y55.28210
 X126.70300 Y56.87690
 X127.08400 Y58.48530
 X127.41800 Y60.10640
 X127.70500 Y61.73960
 X127.94400 Y63.38390
 X128.13400 Y65.03850
 X128.27700 Y66.70250
 X128.37000 Y68.37510
 X128.41500 Y70.05570
 X128.41000 Y71.74310
 X128.35500 Y73.43670
 X128.25100 Y75.13560
 X128.09700 Y76.83900
 X127.94900 Y78.12000
 X127.89200 Y78.54600
G0 Z-25.0000
M5 (stop spindle)
G04 P3 (wait for 3 seconds)
G0 Z-25.0000
M2 (end program)
