$X
$H
G10 P0 L20 X0 Y0 Z0
G40 (disable tool radius compensation)
G49 (disable tool length compensation)
G80 (cancel modal motion)
G54 (select coordinate system 1)
G90 (disable incremental moves)
G21 (metric)
F300.00000
S250.00000
G61 (exact path mode)
;PYCAM_TOOLPATH_SETTINGS: START
;[Bounds]
;maxz = 0.0
;maxx = 127.0
;maxy = 126.998
;minx = 0.0
;miny = 0.00254992
;minz = 0.0
;
;[Tool]
;torus_radius = 0.125
;shape = CylindricalCutter
;tool_radius = 1.5875
;feedrate = 300.0
;
;[Process]
;engrave_offset = 0.0
;step_down = 3.0
;generator = EngraveCutter
;postprocessor = SimpleCutter
;overlap_percent = 0
;milling_style = ignore
;material_allowance = 0.0
;pocketing_type = none
;path_direction = x
;
;PYCAM_TOOLPATH_SETTINGS: END
G0 Z-25.0000
M3 (start spindle)
G04 P3 (wait for 3 seconds)
 X63.50000 Y42.33610
G1 Z-41.5000
 X63.38080
 X63.02330 Y42.34680
 X62.55210 Y42.37820
 X62.08650 Y42.43030
 X61.62720 Y42.50220
 X61.17470 Y42.59360
 X60.72930 Y42.70420
 X60.29140 Y42.83350
 X59.86170 Y42.98080
 X59.44040 Y43.14600
 X59.02810 Y43.32850
 X58.62500 Y43.52780
 X58.23190 Y43.74330
 X57.84920 Y43.97500
 X57.47710 Y44.22190
 X57.11610 Y44.48420
 X56.76690 Y44.76080
 X56.42990 Y45.05170
 X56.10510 Y45.35610
 X55.79360 Y45.67390
 X55.49540 Y46.00440
 X55.21120 Y46.34720
 X54.94130 Y46.70190
 X54.68610 Y47.06810
 X54.44620 Y47.44510
 X54.22210 Y47.83280
 X54.01400 Y48.23040
 X53.82260 Y48.63780
 X53.64820 Y49.05430
 X53.49140 Y49.47940
 X53.35240 Y49.91290
 X53.23180 Y50.35420
 X53.15310 Y50.69030
 X53.13010 Y50.80280
 X73.87100
 X73.84790 Y50.69030
 X73.76920 Y50.35420
 X73.64850 Y49.91290
 X73.50940 Y49.47940
 X73.35250 Y49.05430
 X73.17810 Y48.63780
 X72.98650 Y48.23040
 X72.77830 Y47.83280
 X72.55420 Y47.44510
 X72.31420 Y47.06810
 X72.05900 Y46.70190
 X71.78900 Y46.34720
 X71.50470 Y46.00440
 X71.20650 Y45.67390
 X70.89490 Y45.35610
 X70.57030 Y45.05170
 X70.23320 Y44.76080
 X69.88390 Y44.48420
 X69.52290 Y44.22190
 X69.15080 Y43.97500
 X68.76810 Y43.74330
 X68.37500 Y43.52780
 X67.97190 Y43.32850
 X67.55960 Y43.14600
 X67.13830 Y42.98080
 X66.70850 Y42.83350
 X66.27070 Y42.70420
 X65.82530 Y42.59360
 X65.37260 Y42.50220
 X64.91350 Y42.43030
 X64.44790 Y42.37820
 X63.97670 Y42.34680
 X63.61920 Y42.33610
 X63.50000
G0 Z-25.0000
 Y93.13610
G1 Z-41.5000
 X63.36400
 X62.95610 Y93.15000
 X62.41940 Y93.19100
 X61.89030 Y93.25830
 X61.36960 Y93.35150
 X60.85810 Y93.47000
 X60.35610 Y93.61280
 X59.86470 Y93.77940
 X59.38430 Y93.96920
 X58.91560 Y94.18140
 X58.45930 Y94.41540
 X58.01610 Y94.67040
 X57.58670 Y94.94600
 X57.17170 Y95.24140
 X56.77180 Y95.55580
 X56.38750 Y95.88860
 X56.01990 Y96.23930
 X55.66920 Y96.60710
 X55.33620 Y96.99130
 X55.02180 Y97.39120
 X54.72650 Y97.80620
 X54.45080 Y98.23570
 X54.19580 Y98.67890
 X53.96180 Y99.13510
 X53.74960 Y99.60380
 X53.55990 Y100.08400
 X53.39320 Y100.57600
 X53.25040 Y101.07800
 X53.13190 Y101.58900
 X53.03880 Y102.11000
 X52.97140 Y102.63900
 X52.93040 Y103.17600
 X52.91670 Y103.58400
 Y103.84800
 X52.92890 Y104.23200
 X52.96530 Y104.73900
 X53.02530 Y105.23800
 X53.10820 Y105.73000
 X53.21360 Y106.21500
 X53.34100 Y106.69100
 X53.48960 Y107.15700
 X53.65890 Y107.61500
 X53.84850 Y108.06200
 X54.05780 Y108.49800
 X54.28610 Y108.92300
 X54.53310 Y109.33700
 X54.79790 Y109.73700
 X55.08010 Y110.12500
 X55.37920 Y110.50000
 X55.69460 Y110.86000
 X56.02570 Y111.20600
 X56.37190 Y111.53600
 X56.73280 Y111.85100
 X57.10760 Y112.15000
 X57.49610 Y112.43100
 X57.89740 Y112.69500
 X58.31110 Y112.94200
 X58.73650 Y113.16900
 X59.17330 Y113.37800
 X59.62070 Y113.56700
 X60.07820 Y113.73500
 X60.54530 Y113.88300
 X61.02140 Y114.01000
 X61.50600 Y114.11400
 X61.99830 Y114.19700
 X62.37290 Y114.24400
 X62.49810 Y114.25600
 X62.43100 Y114.13900
 X62.24440 Y113.77800
 X62.02170 Y113.28400
 X61.83060 Y112.77500
 X61.67210 Y112.25400
 X61.54710 Y111.72200
 X61.45680 Y111.17900
 X61.40180 Y110.62800
 X61.38330 Y110.20900
 Y109.96100
 X61.39430 Y109.63400
 X61.42710 Y109.20500
 X61.48110 Y108.78200
 X61.55570 Y108.36500
 X61.65030 Y107.95600
 X61.76460 Y107.55400
 X61.89790 Y107.16100
 X62.04970 Y106.77700
 X62.21940 Y106.40200
 X62.40670 Y106.03700
 X62.61080 Y105.68200
 X62.83130 Y105.33900
 X63.06750 Y105.00700
 X63.31900 Y104.68700
 X63.58540 Y104.37900
 X63.86600 Y104.08500
 X64.16010 Y103.80500
 X64.46750 Y103.53800
 X64.78740 Y103.28700
 X65.11940 Y103.05100
 X65.46310 Y102.83000
 X65.81750 Y102.62600
 X66.18250 Y102.43900
 X66.55750 Y102.26900
 X66.94180 Y102.11700
 X67.33500 Y101.98400
 X67.73650 Y101.87000
 X68.14580 Y101.77500
 X68.56220 Y101.70100
 X68.98560 Y101.64700
 X69.41500 Y101.61400
 X69.74130 Y101.60300
 X69.98940
 X70.40810 Y101.62100
 X70.95930 Y101.67600
 X71.50190 Y101.76700
 X72.03460 Y101.89200
 X72.55580 Y102.05000
 X73.06420 Y102.24200
 X73.55820 Y102.46500
 X73.91900 Y102.65200
 X74.03640 Y102.71900
 X74.02460 Y102.59400
 X73.97720 Y102.21900
 X73.89510 Y101.72700
 X73.79060 Y101.24200
 X73.66400 Y100.76600
 X73.51620 Y100.29900
 X73.34760 Y99.84100
 X73.15880 Y99.39350
 X72.95010 Y98.95670
 X72.72250 Y98.53110
 X72.47640 Y98.11740
 X72.21220 Y97.71610
 X71.93060 Y97.32760
 X71.63210 Y96.95260
 X71.31720 Y96.59170
 X70.98680 Y96.24540
 X70.64100 Y95.91430
 X70.28070 Y95.59890
 X69.90630 Y95.29970
 X69.51830 Y95.01750
 X69.11740 Y94.75260
 X68.70400 Y94.50570
 X68.27890 Y94.27740
 X67.84250 Y94.06820
 X67.39540 Y93.87850
 X66.93820 Y93.70900
 X66.47130 Y93.56060
 X65.99540 Y93.43320
 X65.51100 Y93.32780
 X65.01880 Y93.24490
 X64.51920 Y93.18490
 X64.01260 Y93.14850
 X63.62820 Y93.13610
 X63.50000
G0 Z-25.0000
 X95.25000 Y4.75965
G1 Z-41.5000
 X95.18360 Y4.80908
 X94.99400 Y4.96972
 X94.73870 Y5.21679
 X94.48070 Y5.50168
 X94.21670 Y5.82493
 X93.94350 Y6.18718
 X93.65780 Y6.58908
 X93.35610 Y7.03136
 X93.11510 Y7.39344
 X93.03560 Y7.51454
 X92.99970 Y7.56917
 X92.89220 Y7.73286
 X92.74630 Y7.95383
 X92.59760 Y8.17686
 X92.44580 Y8.40132
 X92.29070 Y8.62651
 X92.13180 Y8.85194
 X91.96890 Y9.07682
 X91.80170 Y9.30063
 X91.62990 Y9.52268
 X91.45310 Y9.74240
 X91.27110 Y9.95915
 X91.08360 Y10.17220
 X90.89030 Y10.38100
 X90.69080 Y10.58500
 X90.48490 Y10.78340
 X90.27240 Y10.97570
 X90.05260 Y11.16120
 X89.82560 Y11.33940
 X89.59080 Y11.50940
 X89.34820 Y11.67080
 X89.09740 Y11.82300
 X88.83790 Y11.96520
 X88.56960 Y12.09680
 X88.29210 Y12.21730
 X88.00510 Y12.32600
 X87.70830 Y12.42220
 X87.40150 Y12.50530
 X87.08430 Y12.57470
 X86.75640 Y12.62980
 X86.41750 Y12.67000
 X86.06740 Y12.69450
 X85.79610 Y12.70280
 X85.61510
 X85.34380 Y12.69450
 X84.99360 Y12.67000
 X84.65490 Y12.62980
 X84.32690 Y12.57470
 X84.00990 Y12.50530
 X83.70320 Y12.42220
 X83.40650 Y12.32600
 X83.11960 Y12.21730
 X82.84220 Y12.09680
 X82.57400 Y11.96520
 X82.31470 Y11.82300
 X82.06400 Y11.67080
 X81.82150 Y11.50940
 X81.58690 Y11.33940
 X81.36010 Y11.16120
 X81.14070 Y10.97570
 X80.92820 Y10.78340
 X80.72250 Y10.58500
 X80.52320 Y10.38100
 X80.33000 Y10.17220
 X80.14280 Y9.95915
 X79.96100 Y9.74240
 X79.78440 Y9.52268
 X79.61280 Y9.30063
 X79.44570 Y9.07682
 X79.28310 Y8.85194
 X79.12430 Y8.62651
 X78.96930 Y8.40132
 X78.81760 Y8.17686
 X78.66920 Y7.95383
 X78.52330 Y7.73286
 X78.41600 Y7.56912
 X78.38010 Y7.51454
 X78.31220 Y7.41124
 X78.10690 Y7.10215
 X77.84790 Y6.71929
 X77.60100 Y6.36561
 X77.36420 Y6.04075
 X77.13560 Y5.74419
 X76.91310 Y5.47564
 X76.69490 Y5.23460
 X76.47880 Y5.02061
 X76.26290 Y4.83344
 X76.04530 Y4.67253
 X75.82390 Y4.53749
 X75.59680 Y4.42790
 X75.36210 Y4.34343
 X75.11760 Y4.28358
 X74.86140 Y4.24799
 X74.65920 Y4.23617
 X74.52420
 X74.32170 Y4.24799
 X74.06540 Y4.28358
 X73.82100 Y4.34343
 X73.58630 Y4.42790
 X73.35940 Y4.53749
 X73.13820 Y4.67253
 X72.92080 Y4.83344
 X72.70510 Y5.02061
 X72.48940 Y5.23460
 X72.27140 Y5.47564
 X72.04930 Y5.74419
 X71.82100 Y6.04075
 X71.58460 Y6.36561
 X71.33790 Y6.71929
 X71.07920 Y7.10215
 X70.87420 Y7.41124
 X70.80640 Y7.51454
 X70.77060 Y7.56917
 X70.66310 Y7.73286
 X70.51740 Y7.95383
 X70.36890 Y8.17686
 X70.21740 Y8.40132
 X70.06240 Y8.62651
 X69.90370 Y8.85194
 X69.74110 Y9.07682
 X69.57420 Y9.30063
 X69.40260 Y9.52268
 X69.22610 Y9.74240
 X69.04440 Y9.95915
 X68.85740 Y10.17220
 X68.66430 Y10.38100
 X68.46510 Y10.58500
 X68.25960 Y10.78340
 X68.04720 Y10.97570
 X67.82790 Y11.16120
 X67.60130 Y11.33940
 X67.36680 Y11.50940
 X67.12440 Y11.67080
 X66.87400 Y11.82300
 X66.61490 Y11.96520
 X66.34670 Y12.09680
 X66.06960 Y12.21730
 X65.78290 Y12.32600
 X65.48640 Y12.42220
 X65.17990 Y12.50530
 X64.86280 Y12.57470
 X64.53510 Y12.62980
 X64.19640 Y12.67000
 X63.84640 Y12.69450
 X63.57510 Y12.70280
 X63.39440
 X63.12330 Y12.69450
 X62.77330 Y12.67000
 X62.43470 Y12.62980
 X62.10710 Y12.57470
 X61.79010 Y12.50530
 X61.48350 Y12.42220
 X61.18690 Y12.32600
 X60.90030 Y12.21730
 X60.62290 Y12.09680
 X60.35490 Y11.96520
 X60.09560 Y11.82300
 X59.84490 Y11.67080
 X59.60250 Y11.50940
 X59.36790 Y11.33940
 X59.14110 Y11.16120
 X58.92170 Y10.97570
 X58.70920 Y10.78340
 X58.50350 Y10.58500
 X58.30420 Y10.38100
 X58.11110 Y10.17220
 X57.92370 Y9.95915
 X57.74210 Y9.74240
 X57.56540 Y9.52268
 X57.39390 Y9.30063
 X57.22690 Y9.07682
 X57.06420 Y8.85194
 X56.90560 Y8.62651
 X56.75060 Y8.40132
 X56.59900 Y8.17686
 X56.45070 Y7.95383
 X56.30500 Y7.73286
 X56.19760 Y7.56917
 X56.16190 Y7.51454
 X56.09400 Y7.41124
 X55.88890 Y7.10215
 X55.63010 Y6.71929
 X55.38350 Y6.36561
 X55.14680 Y6.04075
 X54.91820 Y5.74419
 X54.69600 Y5.47564
 X54.47760 Y5.23460
 X54.26170 Y5.02061
 X54.04600 Y4.83344
 X53.82830 Y4.67253
 X53.60710 Y4.53749
 X53.38010 Y4.42790
 X53.14530 Y4.34343
 X52.90100 Y4.28358
 X52.64490 Y4.24799
 X52.44250 Y4.23617
 X52.30760
 X52.10510 Y4.24799
 X51.84890 Y4.28358
 X51.60440 Y4.34343
 X51.36960 Y4.42790
 X51.14250 Y4.53749
 X50.92130 Y4.67253
 X50.70370 Y4.83344
 X50.48810 Y5.02061
 X50.27220 Y5.23460
 X50.05430 Y5.47564
 X49.83210 Y5.74419
 X49.60370 Y6.04075
 X49.36740 Y6.36561
 X49.12080 Y6.71929
 X48.86220 Y7.10215
 X48.65720 Y7.41124
 X48.58960 Y7.51454
 X48.55360 Y7.56917
 X48.44610 Y7.73286
 X48.30040 Y7.95383
 X48.15180 Y8.17686
 X48.00010 Y8.40132
 X47.84500 Y8.62651
 X47.68640 Y8.85194
 X47.52360 Y9.07682
 X47.35670 Y9.30063
 X47.18500 Y9.52268
 X47.00860 Y9.74240
 X46.82680 Y9.95915
 X46.63960 Y10.17220
 X46.44650 Y10.38100
 X46.24740 Y10.58500
 X46.04180 Y10.78340
 X45.82940 Y10.97570
 X45.61010 Y11.16120
 X45.38330 Y11.33940
 X45.14900 Y11.50940
 X44.90670 Y11.67080
 X44.65600 Y11.82300
 X44.39680 Y11.96520
 X44.12880 Y12.09680
 X43.85170 Y12.21730
 X43.56490 Y12.32600
 X43.26830 Y12.42220
 X42.96180 Y12.50530
 X42.64490 Y12.57470
 X42.31720 Y12.62980
 X41.97850 Y12.67000
 X41.62850 Y12.69450
 X41.35720 Y12.70280
 X41.17640
 X40.90510 Y12.69450
 X40.55510 Y12.67000
 X40.21640 Y12.62980
 X39.88880 Y12.57470
 X39.57170 Y12.50530
 X39.26510 Y12.42220
 X38.96860 Y12.32600
 X38.68190 Y12.21730
 X38.40470 Y12.09680
 X38.13670 Y11.96520
 X37.87750 Y11.82300
 X37.62680 Y11.67080
 X37.38440 Y11.50940
 X37.15000 Y11.33940
 X36.92330 Y11.16120
 X36.70390 Y10.97570
 X36.49150 Y10.78340
 X36.28580 Y10.58500
 X36.08670 Y10.38100
 X35.89360 Y10.17220
 X35.70630 Y9.95915
 X35.52460 Y9.74240
 X35.34790 Y9.52268
 X35.17620 Y9.30063
 X35.00920 Y9.07682
 X34.84640 Y8.85194
 X34.68750 Y8.62651
 X34.53240 Y8.40132
 X34.38070 Y8.17686
 X34.23190 Y7.95383
 X34.08600 Y7.73286
 X33.97830 Y7.56912
 X33.94250 Y7.51454
 X33.86360 Y7.39438
 X33.62530 Y7.03515
 X33.32680 Y6.59608
 X33.04390 Y6.19672
 X32.77330 Y5.83643
 X32.51190 Y5.51460
 X32.25640 Y5.23058
 X32.00350 Y4.98372
 X31.81570 Y4.82297
 X31.75000 Y4.77344
 Y51.98360
 X31.76240 Y52.35060
 X31.79930 Y52.83360
 X31.85990 Y53.30970
 X31.94390 Y53.77830
 X32.05040 Y54.23870
 X32.17890 Y54.69040
 X32.32890 Y55.13260
 X32.49970 Y55.56500
 X32.69070 Y55.98680
 X32.90140 Y56.39750
 X33.13100 Y56.79640
 X33.37900 Y57.18290
 X33.64490 Y57.55640
 X33.92780 Y57.91640
 X34.22750 Y58.26220
 X34.54310 Y58.59310
 X34.87400 Y58.90880
 X35.21990 Y59.20830
 X35.57970 Y59.49140
 X35.95330 Y59.75720
 X36.33970 Y60.00530
 X36.73860 Y60.23490
 X37.14930 Y60.44540
 X37.57110 Y60.63640
 X38.00350 Y60.80720
 X38.44580 Y60.95720
 X38.89750 Y61.08580
 X39.35790 Y61.19240
 X39.82640 Y61.27630
 X40.30260 Y61.33690
 X40.78560 Y61.37380
 X41.15260 Y61.38610
 X41.45170
 X41.98190 Y61.40420
 X42.67960 Y61.45740
 X43.36740 Y61.54500
 X44.04420 Y61.66630
 X44.70930 Y61.82010
 X45.36170 Y62.00580
 X46.00060 Y62.22250
 X46.62510 Y62.46920
 X47.23440 Y62.74500
 X47.82750 Y63.04930
 X48.40360 Y63.38100
 X48.96190 Y63.73920
 X49.50150 Y64.12320
 X50.02140 Y64.53190
 X50.52080 Y64.96470
 X50.99890 Y65.42060
 X51.45490 Y65.89860
 X51.88750 Y66.39810
 X52.29640 Y66.91810
 X52.68030 Y67.45760
 X53.03860 Y68.01580
 X53.37030 Y68.59190
 X53.67440 Y69.18510
 X53.95040 Y69.79440
 X54.19710 Y70.41890
 X54.41380 Y71.05780
 X54.59940 Y71.71030
 X54.75320 Y72.37530
 X54.87440 Y73.05210
 X54.96210 Y73.73990
 X55.01540 Y74.43760
 X55.03330 Y74.96780
 Y85.47820
 X55.01470 Y85.68780
 X54.96010 Y85.95920
 X54.87150 Y86.21930
 X54.75040 Y86.46490
 X54.59880 Y86.69290
 X54.41820 Y86.90000
 X54.21060 Y87.08330
 X54.03830 Y87.20440
 X53.97780 Y87.23940
 X53.84040 Y87.31900
 X53.43350 Y87.56710
 X52.90250 Y87.91120
 X52.38500 Y88.27150
 X51.88140 Y88.64750
 X51.39180 Y89.03880
 X50.91650 Y89.44490
 X50.45600 Y89.86530
 X50.01010 Y90.29970
 X49.57960 Y90.74750
 X49.16430 Y91.20820
 X48.76460 Y91.68150
 X48.38100 Y92.16690
 X48.01330 Y92.66400
 X47.66240 Y93.17240
 X47.32790 Y93.69130
 X47.01040 Y94.22060
 X46.71010 Y94.75970
 X46.42740 Y95.30820
 X46.16240 Y95.86570
 X45.91530 Y96.43150
 X45.68650 Y97.00540
 X45.47630 Y97.58710
 X45.28490 Y98.17570
 X45.11240 Y98.77100
 X44.95930 Y99.37250
 X44.82570 Y99.97990
 X44.71190 Y100.59300
 X44.61830 Y101.21000
 X44.54510 Y101.83200
 X44.49240 Y102.45800
 X44.46060 Y103.08700
 X44.45000 Y103.56100
 Y103.97200
 X44.47690 Y104.73100
 X44.55720 Y105.73500
 X44.69010 Y106.72900
 X44.87440 Y107.71200
 X45.10970 Y108.68200
 X45.39490 Y109.63700
 X45.72890 Y110.57400
 X46.11110 Y111.49300
 X46.54060 Y112.39000
 X47.01640 Y113.26400
 X47.53780 Y114.11300
 X48.10390 Y114.93600
 X48.71370 Y115.72900
 X49.36640 Y116.49100
 X50.06120 Y117.22100
 X50.60880 Y117.74700
 X50.79720 Y117.91600
 X50.98790 Y118.08700
 X51.57790 Y118.57900
 X52.38510 Y119.19500
 X53.21760 Y119.76400
 X54.07390 Y120.28500
 X54.95260 Y120.75800
 X55.85220 Y121.18200
 X56.77110 Y121.55700
 X57.70820 Y121.88200
 X58.66190 Y122.15700
 X59.63080 Y122.38200
 X60.61350 Y122.55600
 X61.60830 Y122.67900
 X62.61430 Y122.74900
 X63.62960 Y122.76800
 X64.65310 Y122.73400
 X65.42620 Y122.67500
 X65.68310 Y122.64700
 X65.88960 Y122.62400
 X66.50740 Y122.53700
 X67.32040 Y122.39200
 X68.12130 Y122.21200
 X68.90930 Y121.99900
 X69.68350 Y121.75300
 X70.44320 Y121.47400
 X71.18760 Y121.16500
 X71.91580 Y120.82500
 X72.62710 Y120.45500
 X73.32060 Y120.05600
 X73.99560 Y119.63000
 X74.65110 Y119.17600
 X75.28650 Y118.69500
 X75.90100 Y118.19000
 X76.49360 Y117.65900
 X77.06360 Y117.10400
 X77.61030 Y116.52700
 X78.13260 Y115.92600
 X78.63010 Y115.30500
 X79.10180 Y114.66300
 X79.54690 Y114.00000
 X79.96460 Y113.31900
 X80.35390 Y112.62000
 X80.71430 Y111.90300
 X81.04490 Y111.16900
 X81.34490 Y110.42000
 X81.61330 Y109.65600
 X81.84960 Y108.87700
 X82.05280 Y108.08500
 X82.22220 Y107.28100
 X82.35690 Y106.46500
 X82.43600 Y105.84500
 X82.45610 Y105.63700
 X82.47330 Y105.46100
 X82.51260 Y104.93100
 X82.54400 Y104.22900
 X82.55030 Y103.53000
 X82.53180 Y102.83600
 X82.48890 Y102.14600
 X82.42180 Y101.46200
 X82.33070 Y100.78400
 X82.21600 Y100.11300
 X82.07780 Y99.44790
 X81.91640 Y98.79070
 X81.73190 Y98.14140
 X81.52500 Y97.50070
 X81.29560 Y96.86890
 X81.04400 Y96.24650
 X80.77060 Y95.63430
 X80.47540 Y95.03240
 X80.15900 Y94.44150
 X79.82140 Y93.86210
 X79.46290 Y93.29470
 X79.08390 Y92.73990
 X78.68460 Y92.19790
 X78.26500 Y91.66960
 X77.82570 Y91.15530
 X77.36680 Y90.65540
 X76.88860 Y90.17060
 X76.39140 Y89.70130
 X75.87530 Y89.24790
 X75.34070 Y88.81110
 X74.78790 Y88.39140
 X74.21690 Y87.98930
 X73.62830 Y87.60510
 X73.17530 Y87.32820
 X73.02220 Y87.23940
 X72.96170 Y87.20430
 X72.78930 Y87.08290
 X72.58180 Y86.89940
 X72.40130 Y86.69220
 X72.24960 Y86.46430
 X72.12850 Y86.21890
 X72.03970 Y85.95900
 X71.98530 Y85.68780
 X71.96670 Y85.47810
 Y74.96780
 X71.98460 Y74.43760
 X72.03780 Y73.73990
 X72.12560 Y73.05210
 X72.24670 Y72.37530
 X72.40060 Y71.71030
 X72.58620 Y71.05780
 X72.80290 Y70.41890
 X73.04960 Y69.79440
 X73.32560 Y69.18510
 X73.62970 Y68.59190
 X73.96140 Y68.01580
 X74.31960 Y67.45760
 X74.70360 Y66.91810
 X75.11240 Y66.39810
 X75.54510 Y65.89860
 X76.00100 Y65.42060
 X76.47920 Y64.96470
 X76.97860 Y64.53190
 X77.49850 Y64.12320
 X78.03810 Y63.73920
 X78.59630 Y63.38100
 X79.17240 Y63.04930
 X79.76560 Y62.74500
 X80.37490 Y62.46920
 X80.99930 Y62.22250
 X81.63830 Y62.00580
 X82.29070 Y61.82010
 X82.95570 Y61.66630
 X83.63260 Y61.54500
 X84.32030 Y61.45740
 X85.01810 Y61.40420
 X85.54820 Y61.38610
 X85.84740
 X86.21430 Y61.37380
 X86.69740 Y61.33690
 X87.17350 Y61.27630
 X87.64210 Y61.19240
 X88.10250 Y61.08580
 X88.55420 Y60.95720
 X88.99650 Y60.80720
 X89.42890 Y60.63640
 X89.85070 Y60.44540
 X90.26130 Y60.23490
 X90.66010 Y60.00530
 X91.04670 Y59.75720
 X91.42010 Y59.49140
 X91.78010 Y59.20830
 X92.12600 Y58.90880
 X92.45680 Y58.59310
 X92.77250 Y58.26220
 X93.07210 Y57.91640
 X93.35510 Y57.55640
 X93.62100 Y57.18290
 X93.86900 Y56.79640
 X94.09860 Y56.39750
 X94.30920 Y55.98680
 X94.50030 Y55.56500
 X94.67100 Y55.13260
 X94.82100 Y54.69040
 X94.94960 Y54.23870
 X95.05610 Y53.77830
 X95.14000 Y53.30970
 X95.20070 Y52.83360
 X95.23760 Y52.35060
 X95.25000 Y51.98360
 Y4.75965
G0 Z-25.0000
 X77.65670 Y108.10200
G1 Z-41.5000
 X77.63250 Y108.17900
 X77.53650 Y108.40400
 X77.37440 Y108.68000
 X77.17490 Y108.92600
 X76.94180 Y109.13900
 X76.67960 Y109.31500
 X76.39280 Y109.45100
 X76.08530 Y109.54300
 X75.84310 Y109.58200
 X75.76180 Y109.58700
 X75.68240 Y109.58900
 X75.44320 Y109.57300
 X75.13100 Y109.51400
 X74.83070 Y109.41400
 X74.54790 Y109.27300
 X74.28810 Y109.09400
 X74.05690 Y108.87800
 X73.86010 Y108.62700
 X73.73620 Y108.41700
 X73.70310 Y108.34300
 X73.67130 Y108.27200
 X73.56540 Y108.06400
 X73.40960 Y107.79800
 X73.23610 Y107.54600
 X73.04630 Y107.30900
 X72.84100 Y107.08700
 X72.62110 Y106.88000
 X72.38790 Y106.69100
 X72.14240 Y106.51800
 X71.88510 Y106.36400
 X71.61760 Y106.22800
 X71.34080 Y106.11100
 X71.05540 Y106.01400
 X70.76260 Y105.93700
 X70.46350 Y105.88100
 X70.15890 Y105.84800
 X69.92720 Y105.83600
 X69.74190
 X69.41780 Y105.85800
 X68.99790 Y105.92200
 X68.59250 Y106.02700
 X68.20370 Y106.16900
 X67.83370 Y106.34800
 X67.48470 Y106.56000
 X67.15880 Y106.80400
 X66.85790 Y107.07800
 X66.58460 Y107.37800
 X66.34060 Y107.70400
 X66.12830 Y108.05300
 X65.94990 Y108.42300
 X65.80720 Y108.81200
 X65.70280 Y109.21700
 X65.63850 Y109.63700
 X65.61670 Y109.96200
 Y110.14700
 X65.62810 Y110.37800
 X65.66190 Y110.68300
 X65.71750 Y110.98200
 X65.79420 Y111.27500
 X65.89120 Y111.56000
 X66.00820 Y111.83700
 X66.14430 Y112.10400
 X66.29890 Y112.36100
 X66.47140 Y112.60700
 X66.66100 Y112.84000
 X66.86710 Y113.06000
 X67.08920 Y113.26500
 X67.32640 Y113.45500
 X67.57830 Y113.62900
 X67.84400 Y113.78500
 X68.05220 Y113.89100
 X68.12320 Y113.92200
 X68.19720 Y113.95600
 X68.40920 Y114.07800
 X68.66380 Y114.27200
 X68.88390 Y114.50000
 X69.06690 Y114.75800
 X69.20960 Y115.03900
 X69.30930 Y115.34000
 X69.36290 Y115.65600
 X69.37280 Y115.90000
 X69.36780 Y115.98100
 X69.36280 Y116.06300
 X69.32280 Y116.30400
 X69.23080 Y116.61100
 X69.09530 Y116.89800
 X68.91940 Y117.16000
 X68.70680 Y117.39300
 X68.46080 Y117.59300
 X68.18470 Y117.75500
 X67.95970 Y117.85200
 X67.88220 Y117.87600
 X67.61710 Y117.95800
 X66.80960 Y118.16400
 X65.71940 Y118.37000
 X64.61500 Y118.49500
 X63.77870 Y118.53600
 X63.30960
 X62.73860 Y118.51700
 X61.98710 Y118.46000
 X61.24650 Y118.36500
 X60.51750 Y118.23500
 X59.80120 Y118.06900
 X59.09860 Y117.86900
 X58.41060 Y117.63600
 X57.73810 Y117.37000
 X57.08180 Y117.07300
 X56.44310 Y116.74500
 X55.82260 Y116.38800
 X55.22140 Y116.00200
 X54.64040 Y115.58800
 X54.08040 Y115.14800
 X53.54260 Y114.68200
 X53.02780 Y114.19100
 X52.53680 Y113.67600
 X52.07080 Y113.13800
 X51.63060 Y112.57800
 X51.21710 Y111.99700
 X50.83140 Y111.39600
 X50.47420 Y110.77600
 X50.14650 Y110.13700
 X49.84940 Y109.48100
 X49.58380 Y108.80800
 X49.35060 Y108.12000
 X49.15060 Y107.41800
 X48.98490 Y106.70200
 X48.85430 Y105.97300
 X48.75990 Y105.23200
 X48.70260 Y104.48100
 X48.68330 Y103.91000
 Y103.52900
 X48.70260 Y102.95800
 X48.75990 Y102.20700
 X48.85430 Y101.46700
 X48.98490 Y100.73800
 X49.15060 Y100.02200
 X49.35060 Y99.31920
 X49.58380 Y98.63110
 X49.84940 Y97.95860
 X50.14650 Y97.30250
 X50.47420 Y96.66380
 X50.83140 Y96.04330
 X51.21710 Y95.44210
 X51.63060 Y94.86100
 X52.07080 Y94.30110
 X52.53680 Y93.76320
 X53.02780 Y93.24830
 X53.54260 Y92.75720
 X54.08040 Y92.29110
 X54.64040 Y91.85080
 X55.22140 Y91.43740
 X55.82260 Y91.05140
 X56.44310 Y90.69420
 X57.08180 Y90.36650
 X57.73810 Y90.06930
 X58.41060 Y89.80360
 X59.09860 Y89.57030
 X59.80120 Y89.37030
 X60.51750 Y89.20440
 X61.24650 Y89.07390
 X61.98710 Y88.97960
 X62.73860 Y88.92220
 X63.30960 Y88.90280
 X63.69030
 X64.26140 Y88.92220
 X65.01280 Y88.97960
 X65.75350 Y89.07390
 X66.48240 Y89.20440
 X67.19860 Y89.37030
 X67.90130 Y89.57030
 X68.58930 Y89.80360
 X69.26190 Y90.06930
 X69.91810 Y90.36650
 X70.55680 Y90.69420
 X71.17740 Y91.05140
 X71.77850 Y91.43740
 X72.35960 Y91.85080
 X72.91940 Y92.29110
 X73.45740 Y92.75720
 X73.97220 Y93.24830
 X74.46310 Y93.76320
 X74.92920 Y94.30110
 X75.36930 Y94.86100
 X75.78290 Y95.44210
 X76.16860 Y96.04330
 X76.52580 Y96.66380
 X76.85350 Y97.30250
 X77.15060 Y97.95860
 X77.41610 Y98.63110
 X77.64940 Y99.31920
 X77.84940 Y100.02200
 X78.01510 Y100.73800
 X78.14560 Y101.46700
 X78.24000 Y102.20700
 X78.29740 Y102.95800
 X78.31670 Y103.52900
 Y103.99800
 X78.27510 Y104.83300
 X78.15100 Y105.93800
 X77.94460 Y107.02900
 X77.73860 Y107.83700
 X77.65670 Y108.10200
G0 Z-25.0000
 X76.20000 Y55.03610
G1 Z-41.5000
 X50.74600
 X50.58360 Y55.02530
 X50.37360 Y54.99330
 X50.17080 Y54.94130
 X49.97640 Y54.87010
 X49.79140 Y54.78110
 X49.61680 Y54.67530
 X49.45390 Y54.55360
 X49.30350 Y54.41710
 X49.16680 Y54.26680
 X49.04500 Y54.10390
 X48.93890 Y53.92940
 X48.84970 Y53.74430
 X48.77850 Y53.54970
 X48.72640 Y53.34670
 X48.69420 Y53.13630
 X48.68330 Y52.97380
 Y52.72920
 X48.70260 Y52.15830
 X48.75990 Y51.40710
 X48.85430 Y50.66650
 X48.98490 Y49.93780
 X49.15060 Y49.22170
 X49.35060 Y48.51920
 X49.58380 Y47.83110
 X49.84940 Y47.15860
 X50.14650 Y46.50250
 X50.47420 Y45.86370
 X50.83140 Y45.24330
 X51.21710 Y44.64210
 X51.63060 Y44.06100
 X52.07080 Y43.50100
 X52.53680 Y42.96310
 X53.02780 Y42.44820
 X53.54260 Y41.95720
 X54.08040 Y41.49110
 X54.64040 Y41.05080
 X55.22140 Y40.63740
 X55.82260 Y40.25140
 X56.44310 Y39.89420
 X57.08180 Y39.56650
 X57.73810 Y39.26930
 X58.41060 Y39.00360
 X59.09860 Y38.77030
 X59.80120 Y38.57030
 X60.51750 Y38.40440
 X61.24650 Y38.27390
 X61.98710 Y38.17960
 X62.73860 Y38.12220
 X63.30960 Y38.10280
 X63.69030
 X64.26140 Y38.12220
 X65.01280 Y38.17960
 X65.75350 Y38.27390
 X66.48240 Y38.40440
 X67.19860 Y38.57030
 X67.90130 Y38.77030
 X68.58930 Y39.00360
 X69.26190 Y39.26930
 X69.91810 Y39.56650
 X70.55680 Y39.89420
 X71.17740 Y40.25140
 X71.77850 Y40.63740
 X72.35960 Y41.05080
 X72.91940 Y41.49110
 X73.45740 Y41.95720
 X73.97220 Y42.44820
 X74.46310 Y42.96310
 X74.92920 Y43.50100
 X75.36930 Y44.06100
 X75.78290 Y44.64210
 X76.16860 Y45.24330
 X76.52580 Y45.86370
 X76.85350 Y46.50250
 X77.15060 Y47.15860
 X77.41610 Y47.83110
 X77.64940 Y48.51920
 X77.84940 Y49.22170
 X78.01510 Y49.93780
 X78.14560 Y50.66650
 X78.24000 Y51.40710
 X78.29740 Y52.15830
 X78.31670 Y52.72920
 Y52.97380
 X78.30570 Y53.13630
 X78.27360 Y53.34670
 X78.22140 Y53.54970
 X78.15030 Y53.74430
 X78.06100 Y53.92940
 X77.95500 Y54.10390
 X77.83310 Y54.26680
 X77.69640 Y54.41710
 X77.54610 Y54.55360
 X77.38320 Y54.67530
 X77.20860 Y54.78110
 X77.02360 Y54.87010
 X76.82920 Y54.94130
 X76.62640 Y54.99330
 X76.41630 Y55.02530
 X76.25400 Y55.03610
 X76.20000
G0 Z-25.0000
 X122.76700 Y80.43610
G1 Z-41.5000
 Y80.27930
 X122.75900 Y79.80850
 X122.73600 Y79.18440
 X122.69800 Y78.56430
 X122.64600 Y77.94850
 X122.57800 Y77.33670
 X122.49700 Y76.72940
 X122.40100 Y76.12680
 X122.29000 Y75.52890
 X122.16600 Y74.93600
 X122.02800 Y74.34820
 X121.87700 Y73.76570
 X121.71200 Y73.18870
 X121.53400 Y72.61750
 X121.34300 Y72.05210
 X121.13900 Y71.49280
 X120.92200 Y70.93940
 X120.69300 Y70.39260
 X120.45200 Y69.85250
 X120.19800 Y69.31890
 X119.93200 Y68.79220
 X119.65500 Y68.27260
 X119.36600 Y67.76040
 X119.06600 Y67.25560
 X118.75400 Y66.75820
 X118.43100 Y66.26880
 X118.09700 Y65.78720
 X117.75200 Y65.31390
 X117.39700 Y64.84870
 X117.03200 Y64.39210
 X116.65600 Y63.94420
 X116.27000 Y63.50510
 X115.87500 Y63.07500
 X115.47000 Y62.65420
 X115.05500 Y62.24250
 X114.63100 Y61.84060
 X114.19800 Y61.44830
 X113.75500 Y61.06600
 X113.30400 Y60.69360
 X112.84500 Y60.33150
 X112.37700 Y59.97990
 X111.90100 Y59.63880
 X111.41600 Y59.30850
 X110.92400 Y58.98920
 X110.42400 Y58.68100
 X109.91700 Y58.38400
 X109.40200 Y58.09860
 X108.88000 Y57.82470
 X108.35100 Y57.56280
 X107.81500 Y57.31280
 X107.27200 Y57.07500
 X106.72300 Y56.84960
 X106.16800 Y56.63670
 X105.60600 Y56.43650
 X105.03900 Y56.24920
 X104.46600 Y56.07490
 X103.88700 Y55.91380
 X103.30300 Y55.76610
 X102.71300 Y55.63220
 X102.11900 Y55.51180
 X101.52000 Y55.40560
 X100.91600 Y55.31320
 X100.30700 Y55.23530
 X99.69400 Y55.17180
 X99.23120 Y55.13330
 X99.07690 Y55.12290
 X99.04250 Y55.26350
 X98.92760 Y55.68220
 X98.75570 Y56.23190
 X98.56150 Y56.77150
 X98.34600 Y57.30060
 X98.10940 Y57.81850
 X97.85240 Y58.32470
 X97.57530 Y58.81890
 X97.27870 Y59.30010
 X96.96350 Y59.76810
 X96.62970 Y60.22220
 X96.27820 Y60.66210
 X95.90940 Y61.08690
 X95.52390 Y61.49630
 X95.12210 Y61.88970
 X94.70470 Y62.26670
 X94.27210 Y62.62640
 X93.82490 Y62.96860
 X93.36360 Y63.29260
 X92.88860 Y63.59790
 X92.40080 Y63.88400
 X91.90040 Y64.15030
 X91.38820 Y64.39620
 X90.86430 Y64.62140
 X90.32970 Y64.82510
 X89.78470 Y65.00690
 X89.23000 Y65.16610
 X88.66600 Y65.30240
 X88.09310 Y65.41510
 X87.51210 Y65.50380
 X86.92330 Y65.56780
 X86.32750 Y65.60640
 X85.87560 Y65.61940
 X85.60260
 X85.23560 Y65.63190
 X84.75250 Y65.66870
 X84.27640 Y65.72940
 X83.80780 Y65.81330
 X83.34750 Y65.91990
 X82.89580 Y66.04850
 X82.45350 Y66.19850
 X82.02110 Y66.36930
 X81.59930 Y66.56030
 X81.18860 Y66.77080
 X80.78970 Y67.00060
 X80.40330 Y67.24850
 X80.02970 Y67.51430
 X79.66990 Y67.79740
 X79.32400 Y68.09690
 X78.99310 Y68.41260
 X78.67740 Y68.74360
 X78.37780 Y69.08930
 X78.09470 Y69.44930
 X77.82900 Y69.82280
 X77.58100 Y70.20930
 X77.35140 Y70.60820
 X77.14070 Y71.01890
 X76.94970 Y71.44070
 X76.77890 Y71.87310
 X76.62890 Y72.31530
 X76.50040 Y72.76690
 X76.39390 Y73.22740
 X76.30990 Y73.69600
 X76.24930 Y74.17210
 X76.21240 Y74.65510
 X76.20000 Y75.02210
 Y84.22570
 X76.36900 Y84.33610
 X76.86870 Y84.67930
 X77.51890 Y85.15400
 X78.14990 Y85.64930
 X78.76140 Y86.16430
 X79.35320 Y86.69850
 X79.92490 Y87.25120
 X80.47610 Y87.82190
 X81.00670 Y88.40990
 X81.51610 Y89.01440
 X82.00430 Y89.63500
 X82.47070 Y90.27100
 X82.91500 Y90.92170
 X83.33690 Y91.58650
 X83.73610 Y92.26470
 X84.11240 Y92.95580
 X84.46530 Y93.65920
 X84.79440 Y94.37400
 X85.09970 Y95.09970
 X85.38060 Y95.83580
 X85.63680 Y96.58150
 X85.86810 Y97.33640
 X86.07390 Y98.09940
 X86.25420 Y98.87040
 X86.40850 Y99.64850
 X86.53650 Y100.43300
 X86.63790 Y101.22300
 X86.71240 Y102.01900
 X86.75960 Y102.81900
 X86.77920 Y103.62300
 X86.77080 Y104.43000
 X86.73420 Y105.24000
 X86.68890 Y105.85000
 X86.66900 Y106.05200
 X86.64430 Y106.30600
 X86.54760 Y107.06400
 X86.38290 Y108.06200
 X86.17570 Y109.04600
 X85.92710 Y110.01500
 X85.63820 Y110.96700
 X85.30970 Y111.90200
 X84.94280 Y112.81800
 X84.53830 Y113.71500
 X84.09750 Y114.59200
 X83.62110 Y115.44800
 X83.11010 Y116.28100
 X82.56570 Y117.09100
 X81.98860 Y117.87700
 X81.38000 Y118.63700
 X80.74080 Y119.37100
 X80.07210 Y120.07800
 X79.37470 Y120.75600
 X78.64960 Y121.40500
 X77.89790 Y122.02400
 X77.12060 Y122.61100
 X76.31860 Y123.16600
 X75.49280 Y123.68800
 X74.64430 Y124.17600
 X73.77420 Y124.62800
 X72.88320 Y125.04400
 X71.97250 Y125.42300
 X71.04320 Y125.76300
 X70.09580 Y126.06500
 X69.13180 Y126.32600
 X68.15190 Y126.54500
 X67.15720 Y126.72300
 X66.40140 Y126.82900
 X66.14860 Y126.85700
 X65.83930 Y126.89100
 X64.90750 Y126.96000
 X63.66860 Y126.99800
 X62.43460 Y126.97200
 X61.20810 Y126.88100
 X59.99140 Y126.72600
 X58.78690 Y126.51000
 X57.59750 Y126.23100
 X56.42540 Y125.89200
 X55.27320 Y125.49200
 X54.14330 Y125.03300
 X53.03820 Y124.51500
 X51.96060 Y123.93900
 X50.91280 Y123.30600
 X49.89740 Y122.61700
 X48.91670 Y121.87200
 X48.20370 Y121.27800
 X47.97350 Y121.07200
 X47.74320 Y120.86500
 X47.07420 Y120.22200
 X46.22500 Y119.33000
 X45.42740 Y118.39800
 X44.68210 Y117.42800
 X43.99030 Y116.42300
 X43.35320 Y115.38500
 X42.77150 Y114.31600
 X42.24670 Y113.22000
 X41.77960 Y112.09800
 X41.37140 Y110.95200
 X41.02290 Y109.78500
 X40.73560 Y108.60000
 X40.51010 Y107.39800
 X40.34780 Y106.18300
 X40.24960 Y104.95600
 X40.21670 Y104.02800
 Y103.53600
 X40.22850 Y102.98500
 X40.26350 Y102.25300
 X40.32150 Y101.52500
 X40.40250 Y100.80200
 X40.50580 Y100.08400
 X40.63140 Y99.37030
 X40.77890 Y98.66280
 X40.94810 Y97.96150
 X41.13860 Y97.26680
 X41.35040 Y96.57940
 X41.58290 Y95.89960
 X41.83610 Y95.22790
 X42.10960 Y94.56470
 X42.40310 Y93.91070
 X42.71630 Y93.26610
 X43.04900 Y92.63150
 X43.40100 Y92.00750
 X43.77180 Y91.39430
 X44.16140 Y90.79260
 X44.56930 Y90.20290
 X44.99540 Y89.62560
 X45.43930 Y89.06100
 X45.90080 Y88.50970
 X46.37960 Y87.97220
 X46.87540 Y87.44890
 X47.38810 Y86.94040
 X47.91710 Y86.44720
 X48.46240 Y85.96970
 X49.02360 Y85.50820
 X49.60040 Y85.06350
 X50.19260 Y84.63580
 X50.64650 Y84.32580
 X50.80000 Y84.22570
 Y75.02210
 X50.78760 Y74.65510
 X50.75070 Y74.17210
 X50.69000 Y73.69600
 X50.60610 Y73.22740
 X50.49960 Y72.76690
 X50.37110 Y72.31530
 X50.22100 Y71.87310
 X50.05030 Y71.44070
 X49.85920 Y71.01890
 X49.64860 Y70.60820
 X49.41900 Y70.20930
 X49.17100 Y69.82280
 X48.90510 Y69.44930
 X48.62210 Y69.08930
 X48.32250 Y68.74360
 X48.00690 Y68.41260
 X47.67600 Y68.09690
 X47.33010 Y67.79740
 X46.97030 Y67.51430
 X46.59670 Y67.24850
 X46.21010 Y67.00060
 X45.81120 Y66.77080
 X45.40070 Y66.56030
 X44.97890 Y66.36930
 X44.54650 Y66.19850
 X44.10420 Y66.04850
 X43.65250 Y65.91990
 X43.19210 Y65.81330
 X42.72350 Y65.72940
 X42.24740 Y65.66870
 X41.76440 Y65.63190
 X41.39740 Y65.61940
 X41.12290
 X40.66650 Y65.60610
 X40.06500 Y65.56670
 X39.47060 Y65.50150
 X38.88400 Y65.41120
 X38.30600 Y65.29640
 X37.73680 Y65.15750
 X37.17710 Y64.99530
 X36.62740 Y64.81010
 X36.08830 Y64.60260
 X35.56040 Y64.37350
 X35.04420 Y64.12310
 X34.54030 Y63.85190
 X34.04900 Y63.56070
 X33.57120 Y63.25000
 X33.10740 Y62.92010
 X32.65780 Y62.57190
 X32.22330 Y62.20600
 X31.80430 Y61.82250
 X31.40150 Y61.42240
 X31.01530 Y61.00610
 X30.64630 Y60.57400
 X30.29490 Y60.12690
 X29.96190 Y59.66530
 X29.64780 Y59.18970
 X29.35310 Y58.70070
 X29.07820 Y58.19880
 X28.82390 Y57.68440
 X28.59060 Y57.15850
 X28.37890 Y56.62130
 X28.18940 Y56.07350
 X28.02250 Y55.51540
 X27.91180 Y55.09060
 X27.87900 Y54.94790
 X27.69750 Y54.93720
 X27.15370 Y54.89640
 X26.43330 Y54.82740
 X25.71790 Y54.74130
 X25.00790 Y54.63820
 X24.30330 Y54.51850
 X23.60430 Y54.38220
 X22.91140 Y54.22990
 X22.22440 Y54.06120
 X21.54390 Y53.87680
 X20.86990 Y53.67680
 X20.20250 Y53.46140
 X19.54220 Y53.23060
 X18.88890 Y52.98490
 X18.24310 Y52.72420
 X17.60490 Y52.44900
 X16.97440 Y52.15940
 X16.35190 Y51.85570
 X15.73780 Y51.53790
 X15.13190 Y51.20640
 X14.53470 Y50.86130
 X13.94640 Y50.50280
 X13.36710 Y50.13120
 X12.79720 Y49.74650
 X12.23660 Y49.34930
 X11.68570 Y48.93940
 X11.14480 Y48.51720
 X10.61390 Y48.08310
 X10.09340 Y47.63680
 X9.58339 Y47.17890
 X9.08410 Y46.70960
 X8.59581 Y46.22890
 X8.11865 Y45.73720
 X7.65283 Y45.23460
 X7.19863 Y44.72140
 X6.75618 Y44.19780
 X6.32579 Y43.66390
 X5.90756 Y43.11990
 X5.50179 Y42.56610
 X5.10861 Y42.00280
 X4.72831 Y41.43000
 X4.36100 Y40.84790
 X4.00700 Y40.25690
 X3.66644 Y39.65720
 X3.33963 Y39.04890
 X3.02664 Y38.43220
 X2.72781 Y37.80740
 X2.44325 Y37.17460
 X2.17324 Y36.53400
 X1.91797 Y35.88600
 X1.67763 Y35.23070
 X1.45247 Y34.56820
 X1.24262 Y33.89870
 X1.04839 Y33.22260
 X0.86995 Y32.54000
 X0.70752 Y31.85110
 X0.56125 Y31.15630
 X0.43142 Y30.45540
 X0.31820 Y29.74890
 X0.22184 Y29.03690
 X0.14252 Y28.31970
 X0.08046 Y27.59760
 X0.03592 Y26.87060
 X0.00901 Y26.13890
 X0.00000 Y25.58680
 Y25.40280
 X4.23335
 Y25.55820
 X4.24083 Y26.02420
 X4.26318 Y26.64180
 X4.30024 Y27.25570
 X4.35178 Y27.86560
 X4.41775 Y28.47120
 X4.49783 Y29.07260
 X4.59196 Y29.66960
 X4.69993 Y30.26170
 X4.82156 Y30.84900
 X4.95665 Y31.43140
 X5.10508 Y32.00860
 X5.26665 Y32.58040
 X5.44119 Y33.14650
 X5.62858 Y33.70720
 X5.82856 Y34.26190
 X6.04101 Y34.81060
 X6.26574 Y35.35290
 X6.50256 Y35.88900
 X6.75136 Y36.41860
 X7.01193 Y36.94140
 X7.28407 Y37.45720
 X7.56765 Y37.96600
 X7.86253 Y38.46760
 X8.16840 Y38.96180
 X8.48525 Y39.44850
 X8.81282 Y39.92740
 X9.15093 Y40.39820
 X9.49946 Y40.86110
 X9.85824 Y41.31570
 X10.22700 Y41.76180
 X10.60570 Y42.19940
 X10.99410 Y42.62820
 X11.39200 Y43.04810
 X11.79930 Y43.45880
 X12.21570 Y43.86010
 X12.64120 Y44.25220
 X13.07550 Y44.63460
 X13.51850 Y45.00710
 X13.97000 Y45.36970
 X14.42990 Y45.72220
 X14.89780 Y46.06430
 X15.37380 Y46.39600
 X15.85760 Y46.71690
 X16.34900 Y47.02720
 X16.84790 Y47.32640
 X17.35400 Y47.61430
 X17.86740 Y47.89110
 X18.38760 Y48.15630
 X18.91470 Y48.40970
 X19.44830 Y48.65150
 X19.98830 Y48.88110
 X20.53470 Y49.09860
 X21.08710 Y49.30360
 X21.64540 Y49.49630
 X22.20960 Y49.67610
 X22.77930 Y49.84310
 X23.35430 Y49.99710
 X23.93460 Y50.13780
 X24.52000 Y50.26510
 X25.11030 Y50.37900
 X25.70510 Y50.47900
 X26.30470 Y50.56530
 X26.90860 Y50.63740
 X27.36440 Y50.68250
 X27.51670 Y50.69510
 Y2.07856
 X27.54880 Y1.80328
 X27.64310 Y1.44943
 X27.79690 Y1.11670
 X27.94860 Y0.88395
 X28.00740 Y0.81315
 X28.01630 Y0.80333
 X28.04310 Y0.77387
 X28.08490 Y0.72852
 X28.12690 Y0.68338
 X28.15490 Y0.65435
 X28.16440 Y0.64486
 X28.22990 Y0.57932
 X28.44940 Y0.40549
 X28.76830 Y0.22119
 X29.11400 Y0.09576
 X29.38690 Y0.04053
 X29.47890 Y0.03315
 X29.57970 Y0.02441
 X29.88320 Y0.00776
 X30.27440 Y0.00255
 X30.65290 Y0.01666
 X31.01880 Y0.04937
 X31.37250 Y0.09983
 X31.71430 Y0.16716
 X32.04460 Y0.25065
 X32.36360 Y0.34945
 X32.67170 Y0.46267
 X32.96930 Y0.58963
 X33.25640 Y0.72938
 X33.53370 Y0.88124
 X33.80140 Y1.04427
 X34.05970 Y1.21772
 X34.30900 Y1.40076
 X34.54970 Y1.59261
 X34.78190 Y1.79237
 X35.00620 Y1.99935
 X35.22280 Y2.21263
 X35.43190 Y2.43143
 X35.63400 Y2.65494
 X35.82930 Y2.88232
 X36.01820 Y3.11279
 X36.20100 Y3.34554
 X36.37790 Y3.57975
 X36.54940 Y3.81456
 X36.71570 Y4.04921
 X36.87720 Y4.28282
 X37.03420 Y4.51471
 X37.18690 Y4.74387
 X37.33580 Y4.96967
 X37.44490 Y5.13579
 X37.48120 Y5.19114
 X37.54900 Y5.29449
 X37.75400 Y5.60357
 X38.01280 Y5.98643
 X38.25940 Y6.34011
 X38.49580 Y6.66499
 X38.72420 Y6.96153
 X38.94640 Y7.23008
 X39.16430 Y7.47114
 X39.38010 Y7.68506
 X39.59570 Y7.87229
 X39.81310 Y8.03321
 X40.03430 Y8.16824
 X40.26130 Y8.27783
 X40.49600 Y8.36231
 X40.74060 Y8.42215
 X40.99680 Y8.45774
 X41.19930 Y8.46951
 X41.33430
 X41.53680 Y8.45774
 X41.79310 Y8.42215
 X42.03760 Y8.36231
 X42.27240 Y8.27783
 X42.49940 Y8.16824
 X42.72070 Y8.03321
 X42.93810 Y7.87229
 X43.15360 Y7.68506
 X43.36940 Y7.47114
 X43.58740 Y7.23008
 X43.80930 Y6.96153
 X44.03750 Y6.66499
 X44.27370 Y6.34011
 X44.52000 Y5.98643
 X44.77830 Y5.60357
 X44.98310 Y5.29449
 X45.05080 Y5.19114
 X45.08650 Y5.13661
 X45.19400 Y4.97293
 X45.33970 Y4.75206
 X45.48830 Y4.52908
 X45.63990 Y4.30469
 X45.79490 Y4.07954
 X45.95360 Y3.85417
 X46.11640 Y3.62929
 X46.28350 Y3.40554
 X46.45500 Y3.18349
 X46.63170 Y2.96376
 X46.81330 Y2.74707
 X47.00070 Y2.53396
 X47.19390 Y2.32508
 X47.39310 Y2.12115
 X47.59880 Y1.92269
 X47.81120 Y1.73036
 X48.03070 Y1.54482
 X48.25760 Y1.36670
 X48.49210 Y1.19656
 X48.73460 Y1.03510
 X48.98530 Y0.88297
 X49.24460 Y0.74072
 X49.51260 Y0.60905
 X49.79000 Y0.48855
 X50.07670 Y0.37983
 X50.37330 Y0.28364
 X50.68000 Y0.20047
 X50.99710 Y0.13102
 X51.32470 Y0.07590
 X51.66350 Y0.03570
 X52.01350 Y0.01118
 X52.28470 Y0.00282
 X52.46560
 X52.73690 Y0.01118
 X53.08710 Y0.03570
 X53.42580 Y0.07590
 X53.75380 Y0.13102
 X54.07080 Y0.20047
 X54.37760 Y0.28364
 X54.67430 Y0.37983
 X54.96110 Y0.48855
 X55.23850 Y0.60905
 X55.50670 Y0.74072
 X55.76610 Y0.88297
 X56.01680 Y1.03510
 X56.25930 Y1.19656
 X56.49380 Y1.36670
 X56.72070 Y1.54482
 X56.94030 Y1.73036
 X57.15260 Y1.92269
 X57.35830 Y2.12115
 X57.55760 Y2.32508
 X57.75080 Y2.53396
 X57.93820 Y2.74707
 X58.11990 Y2.96376
 X58.29640 Y3.18349
 X58.46810 Y3.40554
 X58.63510 Y3.62929
 X58.79790 Y3.85417
 X58.95650 Y4.07954
 X59.11150 Y4.30469
 X59.26320 Y4.52908
 X59.41170 Y4.75206
 X59.55740 Y4.97293
 X59.66470 Y5.13661
 X59.70060 Y5.19114
 X59.76830 Y5.29449
 X59.97310 Y5.60357
 X60.23140 Y5.98643
 X60.47790 Y6.34011
 X60.71430 Y6.66499
 X60.94250 Y6.96153
 X61.16460 Y7.23008
 X61.38260 Y7.47114
 X61.59850 Y7.68506
 X61.81420 Y7.87229
 X62.03170 Y8.03321
 X62.25290 Y8.16824
 X62.47990 Y8.27783
 X62.71460 Y8.36231
 X62.95900 Y8.42215
 X63.21500 Y8.45774
 X63.41740 Y8.46951
 X63.55220
 X63.75430 Y8.45774
 X64.01030 Y8.42215
 X64.25440 Y8.36231
 X64.48900 Y8.27783
 X64.71600 Y8.16829
 X64.93710 Y8.03331
 X65.15440 Y7.87240
 X65.37000 Y7.68528
 X65.58580 Y7.47140
 X65.80380 Y7.23047
 X66.02580 Y6.96197
 X66.25400 Y6.66558
 X66.49040 Y6.34088
 X66.73680 Y5.98736
 X66.99530 Y5.60476
 X67.19990 Y5.29585
 X67.26760 Y5.19254
 X67.30350 Y5.13797
 X67.41100 Y4.97424
 X67.55670 Y4.75319
 X67.70510 Y4.53017
 X67.85680 Y4.30567
 X68.01180 Y4.08035
 X68.17060 Y3.85493
 X68.33320 Y3.62999
 X68.50030 Y3.40614
 X68.67190 Y3.18397
 X68.84850 Y2.96425
 X69.03010 Y2.74744
 X69.21750 Y2.53429
 X69.41060 Y2.32542
 X69.60990 Y2.12142
 X69.81560 Y1.92290
 X70.02810 Y1.73053
 X70.24750 Y1.54497
 X70.47430 Y1.36681
 X70.70870 Y1.19667
 X70.95110 Y1.03516
 X71.20190 Y0.88303
 X71.46110 Y0.74078
 X71.72920 Y0.60905
 X72.00650 Y0.48855
 X72.29330 Y0.37988
 X72.58990 Y0.28364
 X72.89650 Y0.20047
 X73.21360 Y0.13102
 X73.54130 Y0.07590
 X73.88000 Y0.03575
 X74.23000 Y0.01118
 X74.50120 Y0.00282
 X74.68210
 X74.95350 Y0.01118
 X75.30360 Y0.03570
 X75.64250 Y0.07590
 X75.97040 Y0.13102
 X76.28750 Y0.20047
 X76.59430 Y0.28364
 X76.89100 Y0.37983
 X77.17780 Y0.48855
 X77.45510 Y0.60905
 X77.72350 Y0.74072
 X77.98280 Y0.88297
 X78.23350 Y1.03510
 X78.47600 Y1.19656
 X78.71060 Y1.36670
 X78.93740 Y1.54482
 X79.15690 Y1.73036
 X79.36940 Y1.92269
 X79.57510 Y2.12115
 X79.77440 Y2.32508
 X79.96750 Y2.53396
 X80.15490 Y2.74707
 X80.33670 Y2.96376
 X80.51320 Y3.18349
 X80.68490 Y3.40554
 X80.85190 Y3.62929
 X81.01460 Y3.85417
 X81.17330 Y4.07954
 X81.32830 Y4.30469
 X81.47990 Y4.52908
 X81.62850 Y4.75206
 X81.77420 Y4.97293
 X81.88170 Y5.13661
 X81.91750 Y5.19114
 X81.98530 Y5.29449
 X82.19030 Y5.60357
 X82.44920 Y5.98643
 X82.69580 Y6.34011
 X82.93240 Y6.66499
 X83.16080 Y6.96153
 X83.38310 Y7.23008
 X83.60130 Y7.47114
 X83.81720 Y7.68506
 X84.03310 Y7.87229
 X84.25060 Y8.03321
 X84.47190 Y8.16824
 X84.69920 Y8.27783
 X84.93420 Y8.36231
 X85.17890 Y8.42215
 X85.43540 Y8.45774
 X85.63810 Y8.46951
 X85.77330
 X85.97630 Y8.45774
 X86.23320 Y8.42215
 X86.47830 Y8.36231
 X86.71360 Y8.27783
 X86.94110 Y8.16824
 X87.16280 Y8.03321
 X87.38070 Y7.87229
 X87.59680 Y7.68506
 X87.81310 Y7.47114
 X88.03140 Y7.23008
 X88.25400 Y6.96153
 X88.48280 Y6.66499
 X88.71970 Y6.34011
 X88.96680 Y5.98643
 X89.22600 Y5.60357
 X89.43140 Y5.29449
 X89.49930 Y5.19114
 X89.53360 Y5.13883
 X89.63680 Y4.98178
 X89.77750 Y4.76861
 X89.92170 Y4.55231
 X90.06970 Y4.33356
 X90.22170 Y4.11307
 X90.37810 Y3.89150
 X90.53890 Y3.66960
 X90.70460 Y3.44792
 X90.87530 Y3.22726
 X91.05140 Y3.00831
 X91.23320 Y2.79172
 X91.42080 Y2.57813
 X91.61460 Y2.36833
 X91.81470 Y2.16288
 X92.02150 Y1.96257
 X92.23530 Y1.76807
 X92.45640 Y1.58003
 X92.68490 Y1.39914
 X92.92100 Y1.22613
 X93.16510 Y1.06163
 X93.41750 Y0.90636
 X93.67850 Y0.76096
 X93.94820 Y0.62619
 X94.22690 Y0.50266
 X94.51490 Y0.39111
 X94.81260 Y0.29221
 X95.12000 Y0.20665
 X95.43760 Y0.13514
 X95.76560 Y0.07829
 X96.10420 Y0.03684
 X96.45360 Y0.01145
 X96.72400 Y0.00282
 X96.90150
 X97.16320 Y0.01090
 X97.46260 Y0.02941
 X97.52360 Y0.03456
 X97.57010 Y0.03874
 X97.70890 Y0.06044
 X97.89240 Y0.10411
 X98.07240 Y0.16450
 X98.24720 Y0.24040
 X98.41540 Y0.33073
 X98.57510 Y0.43430
 X98.72500 Y0.55002
 X98.83010 Y0.64355
 X98.86320 Y0.67665
 X98.90030 Y0.71349
 X99.00420 Y0.83138
 X99.12810 Y0.99799
 X99.23430 Y1.17518
 X99.32260 Y1.36144
 X99.39210 Y1.55550
 X99.44240 Y1.75592
 X99.47310 Y1.96132
 X99.48330 Y2.11806
 Y50.91000
 X99.66280 Y50.92290
 X100.20100 Y50.96990
 X100.91300 Y51.04670
 X101.62000 Y51.14010
 X102.32200 Y51.25010
 X103.01900 Y51.37650
 X103.71000 Y51.51900
 X104.39500 Y51.67750
 X105.07400 Y51.85170
 X105.74600 Y52.04140
 X106.41200 Y52.24650
 X107.07200 Y52.46670
 X107.72400 Y52.70170
 X108.36900 Y52.95150
 X109.00700 Y53.21580
 X109.63700 Y53.49460
 X110.26000 Y53.78720
 X110.87400 Y54.09390
 X111.48100 Y54.41420
 X112.07900 Y54.74810
 X112.66800 Y55.09530
 X113.24900 Y55.45540
 X113.82100 Y55.82860
 X114.38300 Y56.21430
 X114.93700 Y56.61260
 X115.48000 Y57.02310
 X116.01400 Y57.44570
 X116.53800 Y57.88010
 X117.05100 Y58.32640
 X117.55400 Y58.78390
 X118.04700 Y59.25280
 X118.52800 Y59.73260
 X118.99900 Y60.22330
 X119.45800 Y60.72470
 X119.90600 Y61.23670
 X120.34300 Y61.75860
 X120.76700 Y62.29070
 X121.17900 Y62.83260
 X121.57900 Y63.38420
 X121.96700 Y63.94510
 X122.34200 Y64.51540
 X122.70400 Y65.09460
 X123.05300 Y65.68260
 X123.38800 Y66.27930
 X123.71000 Y66.88430
 X124.01900 Y67.49750
 X124.31300 Y68.11870
 X124.59300 Y68.74780
 X124.85900 Y69.38440
 X125.11100 Y70.02830
 X125.34800 Y70.67960
 X125.57000 Y71.33760
 X125.77600 Y72.00260
 X125.96800 Y72.67420
 X126.14300 Y73.35190
 X126.30300 Y74.03600
 X126.44700 Y74.72600
 X126.57500 Y75.42180
 X126.68700 Y76.12310
 X126.78200 Y76.82970
 X126.86000 Y77.54150
 X126.92100 Y78.25830
 X126.96500 Y78.97990
 X126.99100 Y79.70580
 X127.00000 Y80.25360
 Y80.43610
 X122.76700
G0 Z-25.0000
M5 (stop spindle)
G04 P3 (wait for 3 seconds)
G0 Z-25.0000
M2 (end program)
