;PYCAM-META-DATA: Filename: /media/martoio/MARTOIO/ME43/std_lib/svg/018-science-2.svg
;PYCAM-META-DATA: Timestamp: 2017-12-06 02:02:56.740597
;PYCAM-META-DATA: Version: 0.5.1
;Estimated machine time: 16 minutes
G40 (disable tool radius compensation)
G49 (disable tool length compensation)
G80 (cancel modal motion)
G54 (select coordinate system 1)
G90 (disable incremental moves)
G21 (metric)
G61 (exact path mode)
F400.00000
S1.00000
;PYCAM_TOOLPATH_SETTINGS: START
;[Bounds]
;maxz = 0.0
;maxx = 148.2348
;maxy = 130.851236
;minx = -7.5668
;miny = -5.986476
;minz = 0.0
;
;[Tool]
;torus_radius = 0.25
;speed = 1.0
;shape = CylindricalCutter
;tool_radius = 0.5
;feedrate = 400.0
;
;[Process]
;engrave_offset = 0.0
;step_down = 1.0
;generator = EngraveCutter
;postprocessor = SimpleCutter
;overlap_percent = 0
;milling_style = conventional
;material_allowance = 0.0
;pocketing_type = none
;path_direction = x
;
;PYCAM_TOOLPATH_SETTINGS: END
T1 M6
G0 Z5.0000
 X131.4350 Y18.4056
G1 Z0.0000
 X131.4110 Y17.9303
 X131.3400 Y17.4685
 X131.2250 Y17.0227
 X131.0680 Y16.5950
 X130.8720 Y16.1881
 X130.6380 Y15.8042
 X130.3700 Y15.4456
 X130.0690 Y15.1147
 X129.7390 Y14.8140
 X129.3800 Y14.5457
 X128.9960 Y14.3122
 X128.5890 Y14.1159
 X128.1620 Y13.9591
 X127.7160 Y13.8440
 X127.2540 Y13.7734
 X126.7780 Y13.7493
 X13.8896
 X13.4143 Y13.7734
 X12.9525 Y13.8440
 X12.5066 Y13.9591
 X12.0790 Y14.1159
 X11.6721 Y14.3122
 X11.2882 Y14.5457
 X10.9296 Y14.8140
 X10.5988 Y15.1147
 X10.2980 Y15.4456
 X10.0297 Y15.8042
 X9.7962 Y16.1881
 X9.5999 Y16.5950
 X9.4430 Y17.0227
 X9.3281 Y17.4685
 X9.2574 Y17.9303
 X9.2333 Y18.4056
 Y68.0770
 X9.2574 Y68.5524
 X9.3281 Y69.0142
 X9.4430 Y69.4600
 X9.5999 Y69.8877
 X9.7962 Y70.2946
 X10.0297 Y70.6785
 X10.2980 Y71.0371
 X10.5988 Y71.3679
 X10.9296 Y71.6686
 X11.2882 Y71.9370
 X11.6721 Y72.1704
 X12.0790 Y72.3668
 X12.5066 Y72.5236
 X12.9525 Y72.6385
 X13.4143 Y72.7092
 X13.8896 Y72.7334
 X18.5460
 Y34.2104
 X18.5634 Y33.5217
 X18.6153 Y32.8417
 X18.7007 Y32.1717
 X18.8188 Y31.5121
 X18.9688 Y30.8642
 X19.1496 Y30.2285
 X19.3607 Y29.6059
 X19.6011 Y28.9974
 X19.8699 Y28.4038
 X20.1662 Y27.8259
 X20.4894 Y27.2645
 X20.8386 Y26.7204
 X21.2126 Y26.1947
 X21.6110 Y25.6882
 X22.0326 Y25.2015
 X22.4768 Y24.7357
 X22.9426 Y24.2915
 X23.4293 Y23.8699
 X23.9358 Y23.4716
 X24.4615 Y23.0975
 X25.0056 Y22.7484
 X25.5669 Y22.4252
 X26.1449 Y22.1288
 X26.7385 Y21.8600
 X27.3469 Y21.6196
 X27.9694 Y21.4085
 X28.6051 Y21.2277
 X29.2532 Y21.0777
 X29.9126 Y20.9596
 X30.5828 Y20.8742
 X31.2626 Y20.8224
 X31.9515 Y20.8049
 X32.6403 Y20.8224
 X33.3201 Y20.8742
 X33.9903 Y20.9596
 X34.6499 Y21.0777
 X35.2979 Y21.2277
 X35.9336 Y21.4085
 X36.5561 Y21.6196
 X37.1647 Y21.8600
 X37.7583 Y22.1288
 X38.3362 Y22.4252
 X38.8976 Y22.7484
 X39.4415 Y23.0975
 X39.9672 Y23.4716
 X40.4739 Y23.8699
 X40.9606 Y24.2915
 X41.4264 Y24.7357
 X41.8706 Y25.2015
 X42.2922 Y25.6882
 X42.6904 Y26.1947
 X43.0646 Y26.7204
 X43.4136 Y27.2645
 X43.7368 Y27.8259
 X44.0332 Y28.4038
 X44.3019 Y28.9974
 X44.5424 Y29.6059
 X44.7533 Y30.2285
 X44.9343 Y30.8642
 X45.0843 Y31.5121
 X45.2024 Y32.1717
 X45.2876 Y32.8417
 X45.3396 Y33.5217
 X45.3571 Y34.2104
 Y72.7334
 X56.9286
 Y34.2104
 X56.9460 Y33.5217
 X56.9979 Y32.8417
 X57.0833 Y32.1717
 X57.2014 Y31.5121
 X57.3513 Y30.8642
 X57.5322 Y30.2285
 X57.7433 Y29.6059
 X57.9836 Y28.9974
 X58.2525 Y28.4038
 X58.5489 Y27.8259
 X58.8721 Y27.2645
 X59.2211 Y26.7204
 X59.5953 Y26.1947
 X59.9935 Y25.6882
 X60.4151 Y25.2015
 X60.8594 Y24.7357
 X61.3251 Y24.2915
 X61.8118 Y23.8699
 X62.3185 Y23.4716
 X62.8442 Y23.0975
 X63.3881 Y22.7484
 X63.9494 Y22.4252
 X64.5274 Y22.1288
 X65.1210 Y21.8600
 X65.7296 Y21.6196
 X66.3521 Y21.4085
 X66.9878 Y21.2277
 X67.6358 Y21.0777
 X68.2953 Y20.9596
 X68.9654 Y20.8742
 X69.6453 Y20.8224
 X70.3340 Y20.8049
 X71.0228 Y20.8224
 X71.7028 Y20.8742
 X72.3728 Y20.9596
 X73.0324 Y21.0777
 X73.6803 Y21.2277
 X74.3160 Y21.4085
 X74.9386 Y21.6196
 X75.5471 Y21.8600
 X76.1407 Y22.1288
 X76.7186 Y22.4252
 X77.2800 Y22.7484
 X77.8240 Y23.0975
 X78.3497 Y23.4716
 X78.8562 Y23.8699
 X79.3429 Y24.2915
 X79.8088 Y24.7357
 X80.2529 Y25.2015
 X80.6746 Y25.6882
 X81.0729 Y26.1947
 X81.4469 Y26.7204
 X81.7961 Y27.2645
 X82.1193 Y27.8259
 X82.4157 Y28.4038
 X82.6844 Y28.9974
 X82.9249 Y29.6059
 X83.1360 Y30.2285
 X83.3168 Y30.8642
 X83.4668 Y31.5121
 X83.5849 Y32.1717
 X83.6703 Y32.8417
 X83.7221 Y33.5217
 X83.7396 Y34.2104
 Y72.7334
 X95.3111
 Y34.2104
 X95.3286 Y33.5217
 X95.3804 Y32.8417
 X95.4658 Y32.1717
 X95.5839 Y31.5121
 X95.7339 Y30.8642
 X95.9147 Y30.2285
 X96.1258 Y29.6059
 X96.3663 Y28.9974
 X96.6350 Y28.4038
 X96.9315 Y27.8259
 X97.2546 Y27.2645
 X97.6036 Y26.7204
 X97.9778 Y26.1947
 X98.3761 Y25.6882
 X98.7978 Y25.2015
 X99.2419 Y24.7357
 X99.7078 Y24.2915
 X100.1944 Y23.8699
 X100.7010 Y23.4716
 X101.2267 Y23.0975
 X101.7707 Y22.7484
 X102.3321 Y22.4252
 X102.9100 Y22.1288
 X103.5036 Y21.8600
 X104.1121 Y21.6196
 X104.7347 Y21.4085
 X105.3700 Y21.2277
 X106.0180 Y21.0777
 X106.6780 Y20.9596
 X107.3480 Y20.8742
 X108.0280 Y20.8224
 X108.7170 Y20.8049
 X109.4050 Y20.8224
 X110.0850 Y20.8742
 X110.7550 Y20.9596
 X111.4150 Y21.0777
 X112.0630 Y21.2277
 X112.6990 Y21.4085
 X113.3210 Y21.6196
 X113.9300 Y21.8600
 X114.5230 Y22.1288
 X115.1010 Y22.4252
 X115.6630 Y22.7484
 X116.2070 Y23.0975
 X116.7320 Y23.4716
 X117.2390 Y23.8699
 X117.7250 Y24.2915
 X118.1910 Y24.7357
 X118.6350 Y25.2015
 X119.0570 Y25.6882
 X119.4550 Y26.1947
 X119.8300 Y26.7204
 X120.1790 Y27.2645
 X120.5020 Y27.8259
 X120.7980 Y28.4038
 X121.0670 Y28.9974
 X121.3070 Y29.6059
 X121.5180 Y30.2285
 X121.6990 Y30.8642
 X121.8490 Y31.5121
 X121.9680 Y32.1717
 X122.0530 Y32.8417
 X122.1050 Y33.5217
 X122.1220 Y34.2104
 Y72.7334
 X126.7780
 X127.2540 Y72.7092
 X127.7160 Y72.6385
 X128.1620 Y72.5236
 X128.5890 Y72.3668
 X128.9960 Y72.1704
 X129.3800 Y71.9370
 X129.7390 Y71.6686
 X130.0690 Y71.3679
 X130.3700 Y71.0371
 X130.6380 Y70.6785
 X130.8720 Y70.2946
 X131.0680 Y69.8877
 X131.2250 Y69.4600
 X131.3400 Y69.0142
 X131.4110 Y68.5524
 X131.4350 Y68.0770
 Y18.4056
G0 Z5.0000
 X118.3390 Y115.6318
G1 Z0.0000
 X118.1470 Y115.0608
 X118.0060 Y114.4698
 X117.9190 Y113.8598
 X117.8890 Y113.2328
 Y84.2427
 X117.6150 Y84.3971
 X117.3290 Y84.5681
 X117.1270 Y84.6890
 X116.9170 Y84.8124
 X116.6980 Y84.9366
 X116.4700 Y85.0602
 X116.2300 Y85.1820
 X115.9770 Y85.3004
 X115.7110 Y85.4143
 X115.4300 Y85.5221
 X115.1320 Y85.6224
 X114.8160 Y85.7138
 X114.4810 Y85.7950
 X114.1260 Y85.8646
 X113.7490 Y85.9211
 X113.3490 Y85.9632
 X112.9250 Y85.9895
 X112.4760 Y85.9985
 X112.0260 Y85.9895
 X111.6020 Y85.9632
 X111.2030 Y85.9211
 X110.8260 Y85.8646
 X110.4710 Y85.7950
 X110.1360 Y85.7138
 X109.8200 Y85.6224
 X109.5220 Y85.5221
 X109.2410 Y85.4143
 X108.9740 Y85.3004
 X108.7220 Y85.1820
 X108.4820 Y85.0602
 X108.2530 Y84.9366
 X108.0350 Y84.8124
 X107.8250 Y84.6890
 X107.6220 Y84.5681
 X107.3220 Y84.3892
 X107.0360 Y84.2282
 X106.7520 Y84.0867
 X106.4580 Y83.9668
 X106.1430 Y83.8703
 X105.7930 Y83.7989
 X105.3980 Y83.7547
 X104.9451 Y83.7396
 X104.4933 Y83.7547
 X104.0994 Y83.7989
 X103.7512 Y83.8702
 X103.4369 Y83.9665
 X103.1444 Y84.0864
 X102.8617 Y84.2275
 X102.5765 Y84.3882
 X102.2771 Y84.5666
 X102.0054 Y84.7285
 X101.7200 Y84.8935
 X101.4175 Y85.0584
 X101.0951 Y85.2200
 X100.7497 Y85.3749
 X100.3781 Y85.5199
 X99.9774 Y85.6516
 X99.5444 Y85.7667
 Y113.2328
 X99.5147 Y113.8598
 X99.4276 Y114.4698
 X99.2864 Y115.0608
 X99.0940 Y115.6318
 X118.3390
G0 Z5.0000
 X99.5444 Y81.2593
G1 Z0.0000
 X99.8140 Y81.1065
 X100.0969 Y80.9382
 X100.2992 Y80.8171
 X100.5087 Y80.6935
 X100.7271 Y80.5692
 X100.9554 Y80.4453
 X101.1950 Y80.3234
 X101.4471 Y80.2047
 X101.7131 Y80.0909
 X101.9943 Y79.9829
 X102.2919 Y79.8827
 X102.6074 Y79.7911
 X102.9418 Y79.7099
 X103.2967 Y79.6403
 X103.6731 Y79.5838
 X104.0724 Y79.5417
 X104.4960 Y79.5154
 X104.9451 Y79.5063
 X105.3950 Y79.5154
 X105.8190 Y79.5417
 X106.2190 Y79.5838
 X106.5960 Y79.6403
 X106.9510 Y79.7099
 X107.2860 Y79.7910
 X107.6020 Y79.8825
 X107.9000 Y79.9828
 X108.1820 Y80.0906
 X108.4480 Y80.2045
 X108.7000 Y80.3229
 X108.9400 Y80.4447
 X109.1690 Y80.5684
 X109.3870 Y80.6925
 X109.5970 Y80.8159
 X109.8000 Y80.9368
 X110.1000 Y81.1157
 X110.3860 Y81.2767
 X110.6700 Y81.4182
 X110.9630 Y81.5381
 X111.2780 Y81.6346
 X111.6280 Y81.7060
 X112.0230 Y81.7500
 X112.4760 Y81.7652
 X112.9290 Y81.7500
 X113.3240 Y81.7060
 X113.6730 Y81.6346
 X113.9890 Y81.5381
 X114.2820 Y81.4182
 X114.5660 Y81.2767
 X114.8520 Y81.1157
 X115.1520 Y80.9368
 X115.4240 Y80.7750
 X115.7100 Y80.6100
 X116.0120 Y80.4450
 X116.3360 Y80.2835
 X116.6820 Y80.1285
 X117.0540 Y79.9836
 X117.4550 Y79.8520
 X117.8890 Y79.7367
 Y76.9667
 X99.5444
 Y81.2593
G0 Z5.0000
 Y72.7334
G1 Z0.0000
 X117.8890
 Y34.2104
 X117.8770 Y33.7392
 X117.8410 Y33.2739
 X117.7830 Y32.8154
 X117.7020 Y32.3642
 X117.6000 Y31.9209
 X117.4760 Y31.4860
 X117.3310 Y31.0600
 X117.1670 Y30.6436
 X116.9830 Y30.2375
 X116.7800 Y29.8421
 X116.5590 Y29.4579
 X116.3200 Y29.0857
 X116.0640 Y28.7260
 X115.7920 Y28.3795
 X115.5030 Y28.0464
 X115.1990 Y27.7278
 X114.8810 Y27.4239
 X114.5480 Y27.1353
 X114.2010 Y26.8628
 X113.8410 Y26.6068
 X113.4690 Y26.3681
 X113.0850 Y26.1470
 X112.6900 Y25.9440
 X112.2830 Y25.7602
 X111.8670 Y25.5957
 X111.4410 Y25.4513
 X111.0060 Y25.3275
 X110.5630 Y25.2249
 X110.1120 Y25.1440
 X109.6530 Y25.0857
 X109.1880 Y25.0502
 X108.7170 Y25.0382
 X108.2450 Y25.0502
 X107.7800 Y25.0857
 X107.3220 Y25.1440
 X106.8710 Y25.2249
 X106.4270 Y25.3275
 X105.9920 Y25.4513
 X105.5660 Y25.5957
 X105.1500 Y25.7602
 X104.7437 Y25.9440
 X104.3482 Y26.1470
 X103.9642 Y26.3681
 X103.5919 Y26.6068
 X103.2324 Y26.8628
 X102.8857 Y27.1353
 X102.5528 Y27.4239
 X102.2340 Y27.7278
 X101.9300 Y28.0464
 X101.6415 Y28.3795
 X101.3690 Y28.7260
 X101.1131 Y29.0857
 X100.8743 Y29.4579
 X100.6531 Y29.8421
 X100.4503 Y30.2375
 X100.2664 Y30.6436
 X100.1019 Y31.0600
 X99.9575 Y31.4860
 X99.8336 Y31.9209
 X99.7311 Y32.3642
 X99.6503 Y32.8154
 X99.5918 Y33.2739
 X99.5564 Y33.7392
 X99.5444 Y34.2104
 Y72.7334
G0 Z5.0000
 X61.1619 Y60.9386
G1 Z0.0000
 X61.4315 Y60.7859
 X61.7147 Y60.6175
 X61.9168 Y60.4964
 X62.1264 Y60.3731
 X62.3447 Y60.2488
 X62.5731 Y60.1250
 X62.8126 Y60.0032
 X63.0647 Y59.8847
 X63.3308 Y59.7710
 X63.6121 Y59.6632
 X63.9099 Y59.5631
 X64.2253 Y59.4718
 X64.5599 Y59.3907
 X64.9149 Y59.3211
 X65.2914 Y59.2647
 X65.6908 Y59.2227
 X66.1146 Y59.1964
 X66.5640 Y59.1874
 X67.0135 Y59.1964
 X67.4375 Y59.2227
 X67.8374 Y59.2647
 X68.2140 Y59.3211
 X68.5692 Y59.3907
 X68.9040 Y59.4718
 X69.2197 Y59.5631
 X69.5178 Y59.6632
 X69.7993 Y59.7710
 X70.0656 Y59.8847
 X70.3181 Y60.0032
 X70.5579 Y60.1250
 X70.7865 Y60.2488
 X71.0050 Y60.3731
 X71.2150 Y60.4964
 X71.4175 Y60.6175
 X71.7178 Y60.7960
 X72.0038 Y60.9567
 X72.2874 Y61.0978
 X72.5807 Y61.2175
 X72.8960 Y61.3140
 X73.2450 Y61.3853
 X73.6401 Y61.4295
 X74.0933 Y61.4445
 X74.5465 Y61.4295
 X74.9417 Y61.3853
 X75.2908 Y61.3140
 X75.6061 Y61.2175
 X75.8996 Y61.0978
 X76.1832 Y60.9567
 X76.4692 Y60.7960
 X76.7694 Y60.6175
 X77.0411 Y60.4553
 X77.3269 Y60.2902
 X77.6299 Y60.1253
 X77.9529 Y59.9638
 X78.2992 Y59.8090
 X78.6714 Y59.6643
 X79.0728 Y59.5327
 X79.5063 Y59.4174
 Y34.2104
 X79.4943 Y33.7392
 X79.4589 Y33.2739
 X79.4004 Y32.8154
 X79.3196 Y32.3642
 X79.2171 Y31.9209
 X79.0932 Y31.4860
 X78.9488 Y31.0600
 X78.7843 Y30.6436
 X78.6004 Y30.2375
 X78.3976 Y29.8421
 X78.1764 Y29.4579
 X77.9376 Y29.0857
 X77.6817 Y28.7260
 X77.4092 Y28.3795
 X77.1206 Y28.0464
 X76.8167 Y27.7278
 X76.4981 Y27.4239
 X76.1650 Y27.1353
 X75.8185 Y26.8628
 X75.4587 Y26.6068
 X75.0865 Y26.3681
 X74.7024 Y26.1470
 X74.3069 Y25.9440
 X73.9008 Y25.7602
 X73.4844 Y25.5957
 X73.0585 Y25.4513
 X72.6236 Y25.3275
 X72.1803 Y25.2249
 X71.7290 Y25.1440
 X71.2706 Y25.0857
 X70.8053 Y25.0502
 X70.3340 Y25.0382
 X69.8628 Y25.0502
 X69.3976 Y25.0857
 X68.9392 Y25.1440
 X68.4879 Y25.2249
 X68.0446 Y25.3275
 X67.6096 Y25.4513
 X67.1836 Y25.5957
 X66.7674 Y25.7602
 X66.3611 Y25.9440
 X65.9657 Y26.1470
 X65.5817 Y26.3681
 X65.2094 Y26.6068
 X64.8497 Y26.8628
 X64.5032 Y27.1353
 X64.1701 Y27.4239
 X63.8514 Y27.7278
 X63.5475 Y28.0464
 X63.2590 Y28.3795
 X62.9865 Y28.7260
 X62.7306 Y29.0857
 X62.4917 Y29.4579
 X62.2706 Y29.8421
 X62.0678 Y30.2375
 X61.8839 Y30.6436
 X61.7193 Y31.0600
 X61.5749 Y31.4860
 X61.4511 Y31.9209
 X61.3485 Y32.3642
 X61.2678 Y32.8154
 X61.2093 Y33.2739
 X61.1739 Y33.7392
 X61.1619 Y34.2104
 Y60.9386
G0 Z5.0000
 X79.5063 Y63.9220
G1 Z0.0000
 X79.2338 Y64.0770
 X78.9468 Y64.2472
 X78.7443 Y64.3685
 X78.5344 Y64.4920
 X78.3160 Y64.6163
 X78.0875 Y64.7400
 X77.8476 Y64.8618
 X77.5951 Y64.9803
 X77.3289 Y65.0942
 X77.0474 Y65.2018
 X76.7493 Y65.3021
 X76.4336 Y65.3935
 X76.0987 Y65.4746
 X75.7436 Y65.5440
 X75.3668 Y65.6004
 X74.9669 Y65.6425
 X74.5429 Y65.6688
 X74.0933 Y65.6778
 X73.6438 Y65.6688
 X73.2197 Y65.6425
 X72.8200 Y65.6004
 X72.4432 Y65.5440
 X72.0881 Y65.4746
 X71.7532 Y65.3935
 X71.4375 Y65.3021
 X71.1396 Y65.2018
 X70.8581 Y65.0942
 X70.5918 Y64.9803
 X70.3393 Y64.8618
 X70.0994 Y64.7400
 X69.8710 Y64.6163
 X69.6524 Y64.4920
 X69.4425 Y64.3685
 X69.2401 Y64.2472
 X68.9397 Y64.0685
 X68.6536 Y63.9077
 X68.3700 Y63.7665
 X68.0767 Y63.6470
 X67.7614 Y63.5507
 X67.4124 Y63.4797
 X67.0171 Y63.4359
 X66.5640 Y63.4207
 X66.1121 Y63.4359
 X65.7181 Y63.4797
 X65.3697 Y63.5507
 X65.0551 Y63.6468
 X64.7624 Y63.7663
 X64.4792 Y63.9071
 X64.1939 Y64.0677
 X63.8944 Y64.2459
 X63.6233 Y64.4081
 X63.3381 Y64.5734
 X63.0357 Y64.7384
 X62.7132 Y64.8999
 X62.3676 Y65.0546
 X61.9958 Y65.1995
 X61.5950 Y65.3311
 X61.1619 Y65.4464
 Y72.7334
 X79.5063
 Y63.9220
G0 Z5.0000
 X60.7114 Y115.6318
G1 Z0.0000
 X79.9572
 X79.7646 Y115.0608
 X79.6231 Y114.4698
 X79.5360 Y113.8598
 X79.5063 Y113.2328
 Y76.9667
 X61.1619
 Y113.2328
 X61.1322 Y113.8598
 X61.0451 Y114.4698
 X60.9038 Y115.0608
 X60.7114 Y115.6318
G0 Z5.0000
 X22.3288
G1 Z0.0000
 X41.5760
 X41.3825 Y115.0608
 X41.2407 Y114.4698
 X41.1535 Y113.8598
 X41.1237 Y113.2328
 Y76.9667
 X22.7793
 Y113.2328
 X22.7497 Y113.8598
 X22.6631 Y114.4698
 X22.5218 Y115.0608
 X22.3288 Y115.6318
G0 Z5.0000
 X41.1237 Y68.4379
G1 Z0.0000
 X40.8514 Y68.5929
 X40.5643 Y68.7632
 X40.3618 Y68.8842
 X40.1519 Y69.0075
 X39.9333 Y69.1317
 X39.7049 Y69.2553
 X39.4650 Y69.3771
 X39.2125 Y69.4956
 X38.9462 Y69.6095
 X38.6649 Y69.7172
 X38.3668 Y69.8175
 X38.0511 Y69.9091
 X37.7163 Y69.9902
 X37.3611 Y70.0597
 X36.9844 Y70.1163
 X36.5846 Y70.1584
 X36.1606 Y70.1846
 X35.7111 Y70.1938
 X35.2614 Y70.1846
 X34.8375 Y70.1584
 X34.4378 Y70.1163
 X34.0610 Y70.0597
 X33.7057 Y69.9902
 X33.3710 Y69.9091
 X33.0553 Y69.8175
 X32.7572 Y69.7172
 X32.4757 Y69.6095
 X32.2094 Y69.4956
 X31.9569 Y69.3771
 X31.7171 Y69.2553
 X31.4885 Y69.1317
 X31.2699 Y69.0075
 X31.0600 Y68.8842
 X30.8575 Y68.7632
 X30.5571 Y68.5845
 X30.2711 Y68.4234
 X29.9875 Y68.2820
 X29.6940 Y68.1620
 X29.3789 Y68.0654
 X29.0297 Y67.9942
 X28.6346 Y67.9500
 X28.1814 Y67.9349
 X27.7296 Y67.9500
 X27.3356 Y67.9942
 X26.9875 Y68.0654
 X26.6731 Y68.1618
 X26.3804 Y68.2816
 X26.0974 Y68.4227
 X25.8119 Y68.5834
 X25.5122 Y68.7617
 X25.2411 Y68.9241
 X24.9558 Y69.0893
 X24.6533 Y69.2543
 X24.3308 Y69.4157
 X23.9851 Y69.5706
 X23.6133 Y69.7154
 X23.2124 Y69.8471
 X22.7793 Y69.9622
 Y72.7334
 X41.1237
 Y68.4379
G0 Z5.0000
 X22.7793 Y65.4545
G1 Z0.0000
 X23.0489 Y65.3018
 X23.3321 Y65.1335
 X23.5343 Y65.0122
 X23.7439 Y64.8888
 X23.9622 Y64.7643
 X24.1906 Y64.6404
 X24.4301 Y64.5186
 X24.6824 Y64.3999
 X24.9485 Y64.2860
 X25.2297 Y64.1782
 X25.5274 Y64.0778
 X25.8428 Y63.9864
 X26.1774 Y63.9052
 X26.5322 Y63.8356
 X26.9088 Y63.7790
 X27.3083 Y63.7370
 X27.7321 Y63.7107
 X28.1814 Y63.7016
 X28.6310 Y63.7107
 X29.0549 Y63.7370
 X29.4547 Y63.7790
 X29.8315 Y63.8356
 X30.1867 Y63.9052
 X30.5214 Y63.9863
 X30.8372 Y64.0777
 X31.1351 Y64.1781
 X31.4167 Y64.2859
 X31.6831 Y64.3996
 X31.9354 Y64.5181
 X32.1753 Y64.6399
 X32.4039 Y64.7636
 X32.6225 Y64.8878
 X32.8324 Y65.0110
 X33.0349 Y65.1320
 X33.3351 Y65.3109
 X33.6211 Y65.4720
 X33.9047 Y65.6134
 X34.1982 Y65.7334
 X34.5135 Y65.8299
 X34.8626 Y65.9011
 X35.2578 Y65.9453
 X35.7111 Y65.9604
 X36.1642 Y65.9453
 X36.5593 Y65.9011
 X36.9083 Y65.8299
 X37.2236 Y65.7334
 X37.5171 Y65.6134
 X37.8007 Y65.4720
 X38.0868 Y65.3109
 X38.3872 Y65.1320
 X38.6592 Y64.9703
 X38.9451 Y64.8053
 X39.2481 Y64.6404
 X39.5710 Y64.4791
 X39.9169 Y64.3243
 X40.2890 Y64.1796
 X40.6903 Y64.0482
 X41.1237 Y63.9334
 Y34.2104
 X41.1118 Y33.7392
 X41.0763 Y33.2739
 X41.0179 Y32.8154
 X40.9371 Y32.3642
 X40.8344 Y31.9209
 X40.7107 Y31.4860
 X40.5663 Y31.0600
 X40.4018 Y30.6436
 X40.2178 Y30.2375
 X40.0150 Y29.8421
 X39.7939 Y29.4579
 X39.5550 Y29.0857
 X39.2992 Y28.7260
 X39.0265 Y28.3795
 X38.7381 Y28.0464
 X38.4342 Y27.7278
 X38.1154 Y27.4239
 X37.7825 Y27.1353
 X37.4358 Y26.8628
 X37.0761 Y26.6068
 X36.7039 Y26.3681
 X36.3199 Y26.1470
 X35.9244 Y25.9440
 X35.5182 Y25.7602
 X35.1019 Y25.5957
 X34.6760 Y25.4513
 X34.2410 Y25.3275
 X33.7976 Y25.2249
 X33.3464 Y25.1440
 X32.8879 Y25.0857
 X32.4228 Y25.0502
 X31.9515 Y25.0382
 X31.4801 Y25.0502
 X31.0150 Y25.0857
 X30.5565 Y25.1440
 X30.1053 Y25.2249
 X29.6619 Y25.3275
 X29.2269 Y25.4513
 X28.8011 Y25.5957
 X28.3847 Y25.7602
 X27.9786 Y25.9440
 X27.5831 Y26.1470
 X27.1990 Y26.3681
 X26.8268 Y26.6068
 X26.4671 Y26.8628
 X26.1206 Y27.1353
 X25.7875 Y27.4239
 X25.4689 Y27.7278
 X25.1650 Y28.0464
 X24.8764 Y28.3795
 X24.6039 Y28.7260
 X24.3479 Y29.0857
 X24.1092 Y29.4579
 X23.8879 Y29.8421
 X23.6851 Y30.2375
 X23.5012 Y30.6436
 X23.3368 Y31.0600
 X23.1924 Y31.4860
 X23.0685 Y31.9209
 X22.9660 Y32.3642
 X22.8851 Y32.8154
 X22.8267 Y33.2739
 X22.7912 Y33.7392
 X22.7793 Y34.2104
 Y65.4545
G0 Z5.0000
 X106.4600 Y63.7016
G1 Z0.0000
 X106.6670 Y63.7121
 X106.8720 Y63.7431
 X107.0730 Y63.7940
 X107.2680 Y63.8640
 X107.4550 Y63.9527
 X107.6330 Y64.0592
 X107.8000 Y64.1829
 X107.9550 Y64.3231
 X108.0950 Y64.4774
 X108.2190 Y64.6443
 X108.3250 Y64.8224
 X108.4140 Y65.0097
 X108.4840 Y65.2047
 X108.5350 Y65.4056
 X108.5660 Y65.6107
 X108.5760 Y65.8182
 X108.5660 Y66.0264
 X108.5350 Y66.2318
 X108.4840 Y66.4329
 X108.4140 Y66.6281
 X108.3250 Y66.8156
 X108.2190 Y66.9936
 X108.0950 Y67.1607
 X107.9550 Y67.3150
 X107.8000 Y67.4552
 X107.6330 Y67.5788
 X107.4550 Y67.6850
 X107.2680 Y67.7732
 X107.0730 Y67.8431
 X106.8720 Y67.8936
 X106.6670 Y67.9245
 X106.4600 Y67.9349
 X106.2510 Y67.9245
 X106.0460 Y67.8936
 X105.8450 Y67.8431
 X105.6500 Y67.7732
 X105.4620 Y67.6850
 X105.2840 Y67.5788
 X105.1170 Y67.4552
 X104.9628 Y67.3150
 X104.8226 Y67.1607
 X104.6990 Y66.9936
 X104.5928 Y66.8156
 X104.5044 Y66.6281
 X104.4347 Y66.4329
 X104.3842 Y66.2318
 X104.3533 Y66.0264
 X104.3429 Y65.8182
 X104.3533 Y65.6107
 X104.3842 Y65.4056
 X104.4347 Y65.2047
 X104.5044 Y65.0097
 X104.5928 Y64.8224
 X104.6990 Y64.6443
 X104.8226 Y64.4774
 X104.9628 Y64.3231
 X105.1170 Y64.1829
 X105.2840 Y64.0592
 X105.4620 Y63.9527
 X105.6500 Y63.8640
 X105.8450 Y63.7940
 X106.0460 Y63.7431
 X106.2510 Y63.7121
 X106.4600 Y63.7016
G0 Z5.0000
 X110.9740 Y56.9285
G1 Z0.0000
 X111.1820 Y56.9390
 X111.3870 Y56.9700
 X111.5880 Y57.0210
 X111.7840 Y57.0911
 X111.9710 Y57.1797
 X112.1490 Y57.2863
 X112.3160 Y57.4099
 X112.4710 Y57.5502
 X112.6110 Y57.7039
 X112.7340 Y57.8707
 X112.8400 Y58.0488
 X112.9290 Y58.2361
 X112.9980 Y58.4314
 X113.0490 Y58.6324
 X113.0800 Y58.8377
 X113.0900 Y59.0452
 X113.0800 Y59.2534
 X113.0490 Y59.4586
 X112.9980 Y59.6599
 X112.9290 Y59.8550
 X112.8400 Y60.0425
 X112.7340 Y60.2206
 X112.6110 Y60.3875
 X112.4710 Y60.5417
 X112.3160 Y60.6817
 X112.1490 Y60.8050
 X111.9710 Y60.9113
 X111.7840 Y60.9997
 X111.5880 Y61.0697
 X111.3870 Y61.1204
 X111.1820 Y61.1514
 X110.9740 Y61.1618
 X110.7660 Y61.1514
 X110.5610 Y61.1204
 X110.3600 Y61.0697
 X110.1650 Y60.9997
 X109.9780 Y60.9113
 X109.8000 Y60.8050
 X109.6330 Y60.6817
 X109.4790 Y60.5417
 X109.3380 Y60.3875
 X109.2150 Y60.2206
 X109.1080 Y60.0425
 X109.0200 Y59.8550
 X108.9490 Y59.6599
 X108.8990 Y59.4586
 X108.8680 Y59.2534
 X108.8570 Y59.0452
 X108.8680 Y58.8377
 X108.8990 Y58.6324
 X108.9490 Y58.4314
 X109.0200 Y58.2361
 X109.1080 Y58.0488
 X109.2150 Y57.8707
 X109.3380 Y57.7039
 X109.4790 Y57.5502
 X109.6330 Y57.4099
 X109.8000 Y57.2863
 X109.9780 Y57.1797
 X110.1650 Y57.0911
 X110.3600 Y57.0210
 X110.5610 Y56.9700
 X110.7660 Y56.9390
 X110.9740 Y56.9285
G0 Z5.0000
 X106.4600 Y45.6397
G1 Z0.0000
 X106.6670 Y45.6502
 X106.8720 Y45.6813
 X107.0730 Y45.7321
 X107.2680 Y45.8022
 X107.4550 Y45.8909
 X107.6330 Y45.9974
 X107.8000 Y46.1210
 X107.9550 Y46.2613
 X108.0950 Y46.4150
 X108.2190 Y46.5818
 X108.3250 Y46.7599
 X108.4140 Y46.9472
 X108.4840 Y47.1424
 X108.5350 Y47.3435
 X108.5660 Y47.5488
 X108.5760 Y47.7563
 X108.5660 Y47.9643
 X108.5350 Y48.1697
 X108.4840 Y48.3710
 X108.4140 Y48.5661
 X108.3250 Y48.7535
 X108.2190 Y48.9317
 X108.0950 Y49.0986
 X107.9550 Y49.2528
 X107.8000 Y49.3927
 X107.6330 Y49.5161
 X107.4550 Y49.6224
 X107.2680 Y49.7109
 X107.0730 Y49.7809
 X106.8720 Y49.8316
 X106.6670 Y49.8625
 X106.4600 Y49.8729
 X106.2510 Y49.8625
 X106.0460 Y49.8316
 X105.8450 Y49.7809
 X105.6500 Y49.7109
 X105.4620 Y49.6224
 X105.2840 Y49.5161
 X105.1170 Y49.3927
 X104.9628 Y49.2528
 X104.8226 Y49.0986
 X104.6990 Y48.9317
 X104.5928 Y48.7535
 X104.5044 Y48.5661
 X104.4347 Y48.3710
 X104.3842 Y48.1697
 X104.3533 Y47.9643
 X104.3429 Y47.7563
 X104.3533 Y47.5488
 X104.3842 Y47.3435
 X104.4347 Y47.1424
 X104.5044 Y46.9472
 X104.5928 Y46.7599
 X104.6990 Y46.5818
 X104.8226 Y46.4150
 X104.9628 Y46.2613
 X105.1170 Y46.1210
 X105.2840 Y45.9974
 X105.4620 Y45.8909
 X105.6500 Y45.8022
 X105.8450 Y45.7321
 X106.0460 Y45.6813
 X106.2510 Y45.6502
 X106.4600 Y45.6397
G0 Z5.0000
 X110.9740 Y36.6096
G1 Z0.0000
 X111.1820 Y36.6200
 X111.3870 Y36.6509
 X111.5880 Y36.7014
 X111.7840 Y36.7713
 X111.9710 Y36.8596
 X112.1490 Y36.9657
 X112.3160 Y37.0893
 X112.4710 Y37.2295
 X112.6110 Y37.3838
 X112.7340 Y37.5509
 X112.8400 Y37.7289
 X112.9290 Y37.9164
 X112.9980 Y38.1116
 X113.0490 Y38.3127
 X113.0800 Y38.5182
 X113.0900 Y38.7263
 X113.0800 Y38.9339
 X113.0490 Y39.1389
 X112.9980 Y39.3399
 X112.9290 Y39.5347
 X112.8400 Y39.7222
 X112.7340 Y39.9002
 X112.6110 Y40.0671
 X112.4710 Y40.2213
 X112.3160 Y40.3617
 X112.1490 Y40.4853
 X111.9710 Y40.5918
 X111.7840 Y40.6804
 X111.5880 Y40.7506
 X111.3870 Y40.8014
 X111.1820 Y40.8325
 X110.9740 Y40.8429
 X110.7650 Y40.8325
 X110.5600 Y40.8014
 X110.3590 Y40.7506
 X110.1640 Y40.6804
 X109.9770 Y40.5918
 X109.7990 Y40.4853
 X109.6330 Y40.3617
 X109.4790 Y40.2213
 X109.3380 Y40.0671
 X109.2150 Y39.9002
 X109.1080 Y39.7222
 X109.0200 Y39.5347
 X108.9490 Y39.3399
 X108.8990 Y39.1389
 X108.8680 Y38.9339
 X108.8570 Y38.7263
 X108.8680 Y38.5182
 X108.8990 Y38.3127
 X108.9490 Y38.1116
 X109.0200 Y37.9164
 X109.1080 Y37.7289
 X109.2150 Y37.5509
 X109.3380 Y37.3838
 X109.4790 Y37.2295
 X109.6330 Y37.0893
 X109.8000 Y36.9657
 X109.9780 Y36.8596
 X110.1650 Y36.7713
 X110.3600 Y36.7014
 X110.5610 Y36.6509
 X110.7660 Y36.6200
 X110.9740 Y36.6096
G0 Z5.0000
 X72.5929 Y50.1556
G1 Z0.0000
 X72.8004 Y50.1661
 X73.0056 Y50.1971
 X73.2064 Y50.2481
 X73.4014 Y50.3181
 X73.5888 Y50.4067
 X73.7668 Y50.5132
 X73.9338 Y50.6370
 X74.0881 Y50.7771
 X74.2282 Y50.9309
 X74.3519 Y51.0971
 X74.4585 Y51.2746
 X74.5471 Y51.4617
 X74.6171 Y51.6566
 X74.6681 Y51.8577
 X74.6990 Y52.0634
 X74.7096 Y52.2722
 X74.6990 Y52.4799
 X74.6681 Y52.6852
 X74.6171 Y52.8861
 X74.5471 Y53.0813
 X74.4585 Y53.2688
 X74.3519 Y53.4468
 X74.2282 Y53.6135
 X74.0881 Y53.7672
 X73.9338 Y53.9075
 X73.7668 Y54.0313
 X73.5888 Y54.1378
 X73.4014 Y54.2264
 X73.2064 Y54.2966
 X73.0056 Y54.3474
 X72.8004 Y54.3785
 X72.5929 Y54.3889
 X72.3847 Y54.3785
 X72.1793 Y54.3474
 X71.9782 Y54.2966
 X71.7831 Y54.2264
 X71.5956 Y54.1378
 X71.4174 Y54.0313
 X71.2504 Y53.9075
 X71.0961 Y53.7672
 X70.9558 Y53.6135
 X70.8324 Y53.4468
 X70.7263 Y53.2688
 X70.6379 Y53.0813
 X70.5681 Y52.8861
 X70.5175 Y52.6852
 X70.4867 Y52.4799
 X70.4763 Y52.2722
 X70.4867 Y52.0634
 X70.5175 Y51.8577
 X70.5681 Y51.6566
 X70.6379 Y51.4617
 X70.7263 Y51.2746
 X70.8324 Y51.0971
 X70.9558 Y50.9309
 X71.0961 Y50.7771
 X71.2504 Y50.6370
 X71.4174 Y50.5132
 X71.5956 Y50.4067
 X71.7831 Y50.3181
 X71.9782 Y50.2481
 X72.1793 Y50.1971
 X72.3847 Y50.1661
 X72.5929 Y50.1556
G0 Z5.0000
 X70.3340 Y38.8667
G1 Z0.0000
 X70.5421 Y38.8772
 X70.7475 Y38.9082
 X70.9486 Y38.9592
 X71.1439 Y39.0292
 X71.3313 Y39.1178
 X71.5094 Y39.2243
 X71.6764 Y39.3481
 X71.8306 Y39.4882
 X71.9704 Y39.6421
 X72.0939 Y39.8089
 X72.2001 Y39.9870
 X72.2885 Y40.1743
 X72.3585 Y40.3695
 X72.4093 Y40.5706
 X72.4403 Y40.7759
 X72.4507 Y40.9834
 X72.4403 Y41.1910
 X72.4093 Y41.3963
 X72.3585 Y41.5972
 X72.2885 Y41.7925
 X72.2001 Y41.9799
 X72.0939 Y42.1579
 X71.9704 Y42.3247
 X71.8306 Y42.4785
 X71.6764 Y42.6188
 X71.5094 Y42.7424
 X71.3313 Y42.8489
 X71.1439 Y42.9375
 X70.9486 Y43.0077
 X70.7475 Y43.0585
 X70.5421 Y43.0896
 X70.3340 Y43.1000
 X70.1265 Y43.0896
 X69.9213 Y43.0585
 X69.7201 Y43.0077
 X69.5250 Y42.9375
 X69.3375 Y42.8489
 X69.1596 Y42.7424
 X68.9928 Y42.6188
 X68.8390 Y42.4785
 X68.6988 Y42.3249
 X68.5750 Y42.1585
 X68.4685 Y41.9810
 X68.3800 Y41.7940
 X68.3099 Y41.5992
 X68.2589 Y41.3981
 X68.2279 Y41.1922
 X68.2175 Y40.9834
 X68.2279 Y40.7746
 X68.2589 Y40.5688
 X68.3099 Y40.3677
 X68.3800 Y40.1728
 X68.4685 Y39.9857
 X68.5750 Y39.8084
 X68.6988 Y39.6420
 X68.8390 Y39.4882
 X68.9928 Y39.3481
 X69.1596 Y39.2243
 X69.3375 Y39.1178
 X69.5250 Y39.0292
 X69.7201 Y38.9592
 X69.9213 Y38.9082
 X70.1265 Y38.8772
 X70.3340 Y38.8667
G0 Z5.0000
 X34.2103
G1 Z0.0000
 X34.4179 Y38.8772
 X34.6232 Y38.9082
 X34.8242 Y38.9592
 X35.0193 Y39.0292
 X35.2068 Y39.1178
 X35.3849 Y39.2243
 X35.5515 Y39.3481
 X35.7054 Y39.4882
 X35.8457 Y39.6421
 X35.9693 Y39.8089
 X36.0758 Y39.9870
 X36.1644 Y40.1743
 X36.2346 Y40.3695
 X36.2854 Y40.5706
 X36.3165 Y40.7759
 X36.3271 Y40.9834
 X36.3165 Y41.1922
 X36.2854 Y41.3981
 X36.2346 Y41.5992
 X36.1644 Y41.7940
 X36.0758 Y41.9810
 X35.9693 Y42.1585
 X35.8457 Y42.3249
 X35.7054 Y42.4785
 X35.5515 Y42.6188
 X35.3849 Y42.7424
 X35.2068 Y42.8489
 X35.0193 Y42.9375
 X34.8242 Y43.0077
 X34.6232 Y43.0585
 X34.4179 Y43.0896
 X34.2103 Y43.1000
 X34.0022 Y43.0896
 X33.7969 Y43.0585
 X33.5957 Y43.0077
 X33.4006 Y42.9375
 X33.2131 Y42.8489
 X33.0350 Y42.7424
 X32.8681 Y42.6188
 X32.7139 Y42.4785
 X32.5739 Y42.3249
 X32.4506 Y42.1585
 X32.3443 Y41.9810
 X32.2558 Y41.7940
 X32.1858 Y41.5992
 X32.1351 Y41.3981
 X32.1042 Y41.1922
 X32.0938 Y40.9834
 X32.1042 Y40.7759
 X32.1351 Y40.5706
 X32.1858 Y40.3695
 X32.2558 Y40.1743
 X32.3443 Y39.9870
 X32.4506 Y39.8089
 X32.5739 Y39.6421
 X32.7139 Y39.4882
 X32.8681 Y39.3481
 X33.0350 Y39.2243
 X33.2131 Y39.1178
 X33.4006 Y39.0292
 X33.5957 Y38.9592
 X33.7969 Y38.9082
 X34.0022 Y38.8772
 X34.2103 Y38.8667
G0 Z5.0000
 X27.4374 Y47.8985
G1 Z0.0000
 X27.6449 Y47.9089
 X27.8500 Y47.9397
 X28.0508 Y47.9904
 X28.2458 Y48.0602
 X28.4332 Y48.1485
 X28.6113 Y48.2546
 X28.7782 Y48.3782
 X28.9325 Y48.5184
 X29.0726 Y48.6727
 X29.1964 Y48.8397
 X29.3029 Y49.0178
 X29.3915 Y49.2053
 X29.4615 Y49.4004
 X29.5125 Y49.6016
 X29.5435 Y49.8071
 X29.5540 Y50.0152
 X29.5435 Y50.2228
 X29.5125 Y50.4278
 X29.4615 Y50.6288
 X29.3915 Y50.8238
 X29.3029 Y51.0111
 X29.1964 Y51.1891
 X29.0726 Y51.3560
 X28.9325 Y51.5103
 X28.7782 Y51.6506
 X28.6113 Y51.7742
 X28.4332 Y51.8807
 X28.2458 Y51.9693
 X28.0508 Y52.0395
 X27.8500 Y52.0903
 X27.6449 Y52.1214
 X27.4374 Y52.1318
 X27.2292 Y52.1214
 X27.0237 Y52.0903
 X26.8226 Y52.0395
 X26.6275 Y51.9693
 X26.4400 Y51.8807
 X26.2619 Y51.7742
 X26.0949 Y51.6506
 X25.9406 Y51.5103
 X25.8004 Y51.3560
 X25.6768 Y51.1891
 X25.5706 Y51.0111
 X25.4824 Y50.8238
 X25.4125 Y50.6288
 X25.3619 Y50.4278
 X25.3311 Y50.2228
 X25.3207 Y50.0152
 X25.3311 Y49.8071
 X25.3619 Y49.6016
 X25.4125 Y49.4004
 X25.4824 Y49.2053
 X25.5706 Y49.0178
 X25.6768 Y48.8397
 X25.8004 Y48.6727
 X25.9406 Y48.5184
 X26.0949 Y48.3782
 X26.2619 Y48.2546
 X26.4400 Y48.1485
 X26.6275 Y48.0602
 X26.8226 Y47.9904
 X27.0237 Y47.9397
 X27.2292 Y47.9089
 X27.4374 Y47.8985
G0 Z5.0000
 X34.2103 Y56.9285
G1 Z0.0000
 X34.4179 Y56.9390
 X34.6232 Y56.9700
 X34.8242 Y57.0210
 X35.0193 Y57.0911
 X35.2068 Y57.1797
 X35.3849 Y57.2863
 X35.5515 Y57.4099
 X35.7054 Y57.5502
 X35.8457 Y57.7039
 X35.9693 Y57.8704
 X36.0758 Y58.0479
 X36.1644 Y58.2352
 X36.2346 Y58.4302
 X36.2854 Y58.6313
 X36.3165 Y58.8368
 X36.3271 Y59.0452
 X36.3165 Y59.2534
 X36.2854 Y59.4586
 X36.2346 Y59.6599
 X36.1644 Y59.8550
 X36.0758 Y60.0425
 X35.9693 Y60.2206
 X35.8457 Y60.3875
 X35.7054 Y60.5417
 X35.5515 Y60.6817
 X35.3849 Y60.8050
 X35.2068 Y60.9113
 X35.0193 Y60.9997
 X34.8242 Y61.0697
 X34.6232 Y61.1204
 X34.4179 Y61.1514
 X34.2103 Y61.1618
 X34.0022 Y61.1514
 X33.7969 Y61.1204
 X33.5957 Y61.0697
 X33.4006 Y60.9997
 X33.2131 Y60.9113
 X33.0350 Y60.8050
 X32.8681 Y60.6817
 X32.7139 Y60.5417
 X32.5739 Y60.3875
 X32.4506 Y60.2206
 X32.3443 Y60.0425
 X32.2558 Y59.8550
 X32.1858 Y59.6599
 X32.1351 Y59.4586
 X32.1042 Y59.2534
 X32.0938 Y59.0452
 X32.1042 Y58.8368
 X32.1351 Y58.6313
 X32.1858 Y58.4302
 X32.2558 Y58.2352
 X32.3443 Y58.0479
 X32.4506 Y57.8704
 X32.5739 Y57.7039
 X32.7139 Y57.5502
 X32.8681 Y57.4099
 X33.0350 Y57.2863
 X33.2131 Y57.1797
 X33.4006 Y57.0911
 X33.5957 Y57.0210
 X33.7969 Y56.9700
 X34.0022 Y56.9390
 X34.2103 Y56.9285
G0 Z5.0000
 X126.7780 Y76.9667
G1 Z0.0000
 X122.1220
 Y113.2328
 X122.1350 Y113.4778
 X122.1710 Y113.7158
 X122.2300 Y113.9448
 X122.3110 Y114.1658
 X122.4120 Y114.3758
 X122.5320 Y114.5728
 X122.6710 Y114.7578
 X122.8260 Y114.9288
 X122.9960 Y115.0828
 X123.1810 Y115.2218
 X123.3790 Y115.3418
 X123.5880 Y115.4428
 X123.8090 Y115.5238
 X124.0380 Y115.5828
 X124.2770 Y115.6198
 X124.5220 Y115.6318
 X124.7380 Y115.6428
 X124.9480 Y115.6748
 X125.1510 Y115.7268
 X125.3450 Y115.7978
 X125.5300 Y115.8868
 X125.7050 Y115.9928
 X125.8680 Y116.1148
 X126.0180 Y116.2518
 X126.1550 Y116.4018
 X126.2770 Y116.5648
 X126.3830 Y116.7388
 X126.4720 Y116.9238
 X126.5430 Y117.1188
 X126.5950 Y117.3218
 X126.6270 Y117.5318
 X126.6380 Y117.7488
 X126.6270 Y117.9648
 X126.5950 Y118.1748
 X126.5430 Y118.3778
 X126.4720 Y118.5718
 X126.3830 Y118.7568
 X126.2770 Y118.9318
 X126.1550 Y119.0948
 X126.0180 Y119.2448
 X125.8680 Y119.3818
 X125.7050 Y119.5038
 X125.5300 Y119.6098
 X125.3450 Y119.6988
 X125.1510 Y119.7698
 X124.9480 Y119.8218
 X124.7380 Y119.8538
 X124.5220 Y119.8648
 X92.9119
 X92.6956 Y119.8538
 X92.4854 Y119.8218
 X92.2826 Y119.7698
 X92.0882 Y119.6988
 X91.9032 Y119.6098
 X91.7286 Y119.5038
 X91.5657 Y119.3818
 X91.4154 Y119.2448
 X91.2787 Y119.0948
 X91.1568 Y118.9318
 X91.0508 Y118.7568
 X90.9615 Y118.5718
 X90.8904 Y118.3778
 X90.8382 Y118.1748
 X90.8061 Y117.9648
 X90.7951 Y117.7488
 X90.8061 Y117.5318
 X90.8382 Y117.3218
 X90.8904 Y117.1188
 X90.9615 Y116.9238
 X91.0508 Y116.7388
 X91.1568 Y116.5648
 X91.2787 Y116.4018
 X91.4154 Y116.2518
 X91.5657 Y116.1148
 X91.7286 Y115.9928
 X91.9032 Y115.8868
 X92.0882 Y115.7978
 X92.2826 Y115.7268
 X92.4854 Y115.6748
 X92.6956 Y115.6428
 X92.9119 Y115.6318
 X93.1568 Y115.6198
 X93.3949 Y115.5828
 X93.6244 Y115.5238
 X93.8449 Y115.4428
 X94.0546 Y115.3418
 X94.2524 Y115.2218
 X94.4371 Y115.0828
 X94.6076 Y114.9288
 X94.7625 Y114.7578
 X94.9008 Y114.5728
 X95.0211 Y114.3758
 X95.1222 Y114.1658
 X95.2031 Y113.9448
 X95.2622 Y113.7158
 X95.2986 Y113.4778
 X95.3111 Y113.2328
 Y76.9667
 X83.7396
 Y113.2328
 X83.7519 Y113.4778
 X83.7885 Y113.7158
 X83.8476 Y113.9448
 X83.9285 Y114.1658
 X84.0296 Y114.3758
 X84.1500 Y114.5728
 X84.2882 Y114.7578
 X84.4432 Y114.9288
 X84.6136 Y115.0828
 X84.7983 Y115.2218
 X84.9963 Y115.3418
 X85.2058 Y115.4428
 X85.4262 Y115.5238
 X85.6560 Y115.5828
 X85.8939 Y115.6198
 X86.1389 Y115.6318
 X86.3551 Y115.6428
 X86.5653 Y115.6748
 X86.7681 Y115.7268
 X86.9625 Y115.7978
 X87.1475 Y115.8868
 X87.3221 Y115.9928
 X87.4850 Y116.1148
 X87.6354 Y116.2518
 X87.7719 Y116.4018
 X87.8939 Y116.5648
 X88.0000 Y116.7388
 X88.0890 Y116.9238
 X88.1603 Y117.1188
 X88.2125 Y117.3218
 X88.2446 Y117.5318
 X88.2556 Y117.7488
 X88.2446 Y117.9648
 X88.2125 Y118.1748
 X88.1603 Y118.3778
 X88.0890 Y118.5718
 X88.0000 Y118.7568
 X87.8939 Y118.9318
 X87.7719 Y119.0948
 X87.6354 Y119.2448
 X87.4850 Y119.3818
 X87.3221 Y119.5038
 X87.1475 Y119.6098
 X86.9625 Y119.6988
 X86.7681 Y119.7698
 X86.5653 Y119.8218
 X86.3551 Y119.8538
 X86.1389 Y119.8648
 X54.5293
 X54.3129 Y119.8538
 X54.1029 Y119.8218
 X53.9000 Y119.7698
 X53.7056 Y119.6988
 X53.5206 Y119.6098
 X53.3461 Y119.5038
 X53.1831 Y119.3818
 X53.0328 Y119.2448
 X52.8961 Y119.0948
 X52.7743 Y118.9318
 X52.6682 Y118.7568
 X52.5790 Y118.5718
 X52.5078 Y118.3778
 X52.4557 Y118.1748
 X52.4236 Y117.9648
 X52.4126 Y117.7488
 X52.4236 Y117.5318
 X52.4557 Y117.3218
 X52.5078 Y117.1188
 X52.5790 Y116.9238
 X52.6682 Y116.7388
 X52.7743 Y116.5648
 X52.8961 Y116.4018
 X53.0328 Y116.2518
 X53.1831 Y116.1148
 X53.3461 Y115.9928
 X53.5206 Y115.8868
 X53.7056 Y115.7978
 X53.9000 Y115.7268
 X54.1029 Y115.6748
 X54.3129 Y115.6428
 X54.5293 Y115.6318
 X54.7743 Y115.6198
 X55.0122 Y115.5828
 X55.2419 Y115.5238
 X55.4622 Y115.4428
 X55.6719 Y115.3418
 X55.8697 Y115.2218
 X56.0546 Y115.0828
 X56.2250 Y114.9288
 X56.3800 Y114.7578
 X56.5182 Y114.5728
 X56.6385 Y114.3758
 X56.7397 Y114.1658
 X56.8204 Y113.9448
 X56.8797 Y113.7158
 X56.9161 Y113.4778
 X56.9286 Y113.2328
 Y76.9667
 X45.3571
 Y113.2328
 X45.3694 Y113.4778
 X45.4060 Y113.7158
 X45.4651 Y113.9448
 X45.5458 Y114.1658
 X45.6471 Y114.3758
 X45.7674 Y114.5728
 X45.9056 Y114.7578
 X46.0606 Y114.9288
 X46.2310 Y115.0828
 X46.4158 Y115.2218
 X46.6136 Y115.3418
 X46.8233 Y115.4428
 X47.0436 Y115.5238
 X47.2733 Y115.5828
 X47.5114 Y115.6198
 X47.7562 Y115.6318
 X47.9726 Y115.6428
 X48.1828 Y115.6748
 X48.3857 Y115.7268
 X48.5801 Y115.7978
 X48.7651 Y115.8868
 X48.9396 Y115.9928
 X49.1026 Y116.1148
 X49.2529 Y116.2518
 X49.3896 Y116.4018
 X49.5114 Y116.5648
 X49.6175 Y116.7388
 X49.7067 Y116.9238
 X49.7778 Y117.1188
 X49.8300 Y117.3218
 X49.8621 Y117.5318
 X49.8731 Y117.7488
 X49.8621 Y117.9648
 X49.8300 Y118.1748
 X49.7778 Y118.3778
 X49.7067 Y118.5718
 X49.6175 Y118.7568
 X49.5114 Y118.9318
 X49.3896 Y119.0948
 X49.2529 Y119.2448
 X49.1026 Y119.3818
 X48.9396 Y119.5038
 X48.7651 Y119.6098
 X48.5801 Y119.6988
 X48.3857 Y119.7698
 X48.1828 Y119.8218
 X47.9726 Y119.8538
 X47.7562 Y119.8648
 X16.1485
 X15.9319 Y119.8538
 X15.7215 Y119.8218
 X15.5186 Y119.7698
 X15.3241 Y119.6988
 X15.1390 Y119.6098
 X14.9645 Y119.5038
 X14.8015 Y119.3818
 X14.6513 Y119.2448
 X14.5148 Y119.0948
 X14.3930 Y118.9318
 X14.2870 Y118.7568
 X14.1979 Y118.5718
 X14.1268 Y118.3778
 X14.0747 Y118.1748
 X14.0427 Y117.9648
 X14.0318 Y117.7488
 X14.0427 Y117.5318
 X14.0747 Y117.3218
 X14.1268 Y117.1188
 X14.1979 Y116.9238
 X14.2870 Y116.7388
 X14.3930 Y116.5648
 X14.5148 Y116.4018
 X14.6513 Y116.2518
 X14.8015 Y116.1148
 X14.9645 Y115.9928
 X15.1390 Y115.8868
 X15.3241 Y115.7978
 X15.5186 Y115.7268
 X15.7215 Y115.6748
 X15.9319 Y115.6428
 X16.1485 Y115.6318
 X16.3932 Y115.6198
 X16.6309 Y115.5828
 X16.8605 Y115.5238
 X17.0806 Y115.4428
 X17.2901 Y115.3418
 X17.4878 Y115.2218
 X17.6724 Y115.0828
 X17.8428 Y114.9288
 X17.9976 Y114.7578
 X18.1358 Y114.5728
 X18.2560 Y114.3758
 X18.3572 Y114.1658
 X18.4379 Y113.9448
 X18.4971 Y113.7158
 X18.5335 Y113.4778
 X18.5460 Y113.2328
 Y76.9667
 X13.8896
 X13.4329 Y76.9552
 X12.9820 Y76.9207
 X12.5377 Y76.8640
 X12.1004 Y76.7857
 X11.6707 Y76.6864
 X11.2491 Y76.5663
 X10.8363 Y76.4264
 X10.4328 Y76.2670
 X10.0391 Y76.0886
 X9.6559 Y75.8921
 X9.2836 Y75.6778
 X8.9229 Y75.4464
 X8.5743 Y75.1982
 X8.2383 Y74.9341
 X7.9156 Y74.6545
 X7.6068 Y74.3600
 X7.3122 Y74.0510
 X7.0326 Y73.7284
 X6.7684 Y73.3924
 X6.5204 Y73.0438
 X6.2889 Y72.6831
 X6.0745 Y72.3109
 X5.8780 Y71.9275
 X5.6997 Y71.5339
 X5.5403 Y71.1303
 X5.4003 Y70.7175
 X5.2803 Y70.2960
 X5.1809 Y69.8663
 X5.1026 Y69.4289
 X5.0460 Y68.9846
 X5.0116 Y68.5338
 X5.0000 Y68.0770
 Y18.4056
 X5.0116 Y17.9488
 X5.0460 Y17.4979
 X5.1026 Y17.0536
 X5.1809 Y16.6163
 X5.2803 Y16.1866
 X5.4003 Y15.7650
 X5.5403 Y15.3521
 X5.6997 Y14.9486
 X5.8780 Y14.5549
 X6.0745 Y14.1717
 X6.2889 Y13.7995
 X6.5204 Y13.4388
 X6.7684 Y13.0902
 X7.0326 Y12.7542
 X7.3122 Y12.4316
 X7.6068 Y12.1227
 X7.9156 Y11.8281
 X8.2383 Y11.5485
 X8.5743 Y11.2843
 X8.9229 Y11.0363
 X9.2836 Y10.8047
 X9.6559 Y10.5905
 X10.0391 Y10.3939
 X10.4328 Y10.2156
 X10.8363 Y10.0562
 X11.2491 Y9.9163
 X11.6707 Y9.7963
 X12.1004 Y9.6969
 X12.5377 Y9.6186
 X12.9820 Y9.5619
 X13.4329 Y9.5275
 X13.8896 Y9.5159
 X14.0318
 Y7.1167
 X14.0427 Y6.9003
 X14.0747 Y6.6902
 X14.1268 Y6.4874
 X14.1979 Y6.2929
 X14.2870 Y6.1079
 X14.3930 Y5.9334
 X14.5148 Y5.7704
 X14.6513 Y5.6200
 X14.8015 Y5.4835
 X14.9645 Y5.3616
 X15.1390 Y5.2555
 X15.3241 Y5.1664
 X15.5186 Y5.0952
 X15.7215 Y5.0430
 X15.9319 Y5.0110
 X16.1485 Y5.0000
 X16.3648 Y5.0110
 X16.5749 Y5.0430
 X16.7777 Y5.0952
 X16.9721 Y5.1664
 X17.1571 Y5.2555
 X17.3317 Y5.3616
 X17.4946 Y5.4835
 X17.6450 Y5.6200
 X17.7816 Y5.7704
 X17.9035 Y5.9334
 X18.0096 Y6.1079
 X18.0987 Y6.2929
 X18.1699 Y6.4874
 X18.2221 Y6.6902
 X18.2542 Y6.9003
 X18.2651 Y7.1167
 Y9.5159
 X122.4050
 Y7.1167
 X122.4160 Y6.9003
 X122.4480 Y6.6902
 X122.5000 Y6.4874
 X122.5710 Y6.2929
 X122.6600 Y6.1079
 X122.7660 Y5.9334
 X122.8880 Y5.7704
 X123.0250 Y5.6200
 X123.1750 Y5.4835
 X123.3380 Y5.3616
 X123.5130 Y5.2555
 X123.6980 Y5.1664
 X123.8920 Y5.0952
 X124.0950 Y5.0430
 X124.3050 Y5.0110
 X124.5220 Y5.0000
 X124.7380 Y5.0110
 X124.9480 Y5.0430
 X125.1510 Y5.0952
 X125.3450 Y5.1664
 X125.5300 Y5.2555
 X125.7050 Y5.3616
 X125.8680 Y5.4835
 X126.0180 Y5.6200
 X126.1550 Y5.7704
 X126.2770 Y5.9334
 X126.3830 Y6.1079
 X126.4720 Y6.2929
 X126.5430 Y6.4874
 X126.5950 Y6.6902
 X126.6270 Y6.9003
 X126.6380 Y7.1167
 Y9.5159
 X126.7780
 X127.2350 Y9.5275
 X127.6860 Y9.5619
 X128.1310 Y9.6186
 X128.5680 Y9.6969
 X128.9980 Y9.7963
 X129.4190 Y9.9163
 X129.8320 Y10.0562
 X130.2360 Y10.2156
 X130.6290 Y10.3939
 X131.0120 Y10.5905
 X131.3850 Y10.8047
 X131.7450 Y11.0363
 X132.0940 Y11.2843
 X132.4300 Y11.5485
 X132.7530 Y11.8281
 X133.0620 Y12.1227
 X133.3560 Y12.4316
 X133.6360 Y12.7542
 X133.9000 Y13.0902
 X134.1480 Y13.4388
 X134.3790 Y13.7995
 X134.5940 Y14.1717
 X134.7900 Y14.5549
 X134.9680 Y14.9486
 X135.1280 Y15.3521
 X135.2680 Y15.7650
 X135.3880 Y16.1866
 X135.4870 Y16.6163
 X135.5660 Y17.0536
 X135.6220 Y17.4979
 X135.6570 Y17.9488
 X135.6680 Y18.4056
 Y68.0770
 X135.6570 Y68.5338
 X135.6220 Y68.9846
 X135.5660 Y69.4289
 X135.4870 Y69.8663
 X135.3880 Y70.2960
 X135.2680 Y70.7175
 X135.1280 Y71.1303
 X134.9680 Y71.5339
 X134.7900 Y71.9275
 X134.5940 Y72.3109
 X134.3790 Y72.6831
 X134.1480 Y73.0438
 X133.9000 Y73.3924
 X133.6360 Y73.7284
 X133.3560 Y74.0510
 X133.0620 Y74.3600
 X132.7530 Y74.6545
 X132.4300 Y74.9341
 X132.0940 Y75.1982
 X131.7450 Y75.4464
 X131.3850 Y75.6778
 X131.0120 Y75.8921
 X130.6290 Y76.0886
 X130.2360 Y76.2670
 X129.8320 Y76.4264
 X129.4190 Y76.5663
 X128.9980 Y76.6864
 X128.5680 Y76.7857
 X128.1310 Y76.8640
 X127.6860 Y76.9207
 X127.2350 Y76.9552
 X126.7780 Y76.9667
G0 Z5.0000
G0 Z5.0000
M2 (end program)
