$X
$H
G10 P0 L20 X0 Y0 Z0
G40 (disable tool radius compensation)
G49 (disable tool length compensation)
G80 (cancel modal motion)
G54 (select coordinate system 1)
G90 (disable incremental moves)
G21 (metric)
F300.00000
S250.00000
G61 (exact path mode)
;PYCAM_TOOLPATH_SETTINGS: START
;[Bounds]
;maxz = 0.0
;maxx = 126.999
;maxy = 126.954
;minx = 0.00189888
;miny = 0.0479601
;minz = 0.0
;
;[Tool]
;torus_radius = 0.125
;shape = CylindricalCutter
;tool_radius = 1.5875
;feedrate = 300.0
;
;[Process]
;engrave_offset = 0.0
;step_down = 3.0
;generator = EngraveCutter
;postprocessor = SimpleCutter
;overlap_percent = 0
;milling_style = ignore
;material_allowance = 0.0
;pocketing_type = none
;path_direction = x
;
;PYCAM_TOOLPATH_SETTINGS: END
G0 Z-25.0000
M3 (start spindle)
G04 P3 (wait for 3 seconds)
 X63.50000 Y120.19800
G1 Z-41.5000
 X83.35750 Y80.48120
 X43.64110
 X63.50000 Y120.19800
G0 Z-25.0000
 X41.52440 Y76.24810
G1 Z-41.5000
 X85.47420
 X102.40700 Y42.38120
 X76.84350
 X80.11080 Y47.60940
 X80.14880 Y47.66990
 X80.24610 Y47.86140
 X80.34490 Y48.12560
 X80.40710 Y48.39810
 X80.43280 Y48.67560
 X80.42190 Y48.95390
 X80.37430 Y49.22970
 X80.28990 Y49.49890
 X80.20320 Y49.69540
 X80.16870 Y49.75790
 X80.13400 Y49.82010
 X80.01310 Y49.99780
 X79.82920 Y50.21190
 X79.62060 Y50.39830
 X79.39010 Y50.55510
 X79.14120 Y50.68040
 X78.87720 Y50.77220
 X78.60130 Y50.82870
 X78.38780 Y50.84790
 X66.75750
 X73.90130 Y66.92130
 X73.92830 Y66.98210
 X73.99400 Y67.17150
 X74.05400 Y67.42820
 X74.08150 Y67.68820
 X74.07680 Y67.94860
 X74.04030 Y68.20650
 X73.97190 Y68.45890
 X73.87220 Y68.70250
 X73.77760 Y68.87880
 X73.74150 Y68.93460
 X73.70540 Y68.99030
 X73.58310 Y69.14850
 X73.40110 Y69.33860
 X73.19820 Y69.50350
 X72.97710 Y69.64150
 X72.74070 Y69.75150
 X72.49150 Y69.83190
 X72.23260 Y69.88130
 X72.03320 Y69.89790
 X52.86930
 X52.72750 Y69.88960
 X52.54250 Y69.86490
 X52.36240 Y69.82430
 X52.18810 Y69.76890
 X52.02030 Y69.69890
 X51.85990 Y69.61530
 X51.70750 Y69.51860
 X51.56430 Y69.40960
 X51.43070 Y69.28880
 X51.30780 Y69.15680
 X51.19610 Y69.01460
 X51.09670 Y68.86250
 X51.01030 Y68.70130
 X50.93760 Y68.53170
 X50.87960 Y68.35430
 X50.84560 Y68.21620
 X50.83710 Y68.16970
 X46.00150 Y42.38120
 X24.59110
 X41.52440 Y76.24810
G0 Z-25.0000
 X58.49080 Y37.66720
G1 Z-41.5000
 X58.42040 Y37.72500
 X58.18900 Y37.87420
 X57.85920 Y38.02490
 X57.51010 Y38.11680
 X57.24000 Y38.14790
 X57.09790
 X56.94190 Y38.13810
 X56.76930 Y38.11290
 X56.73510 Y38.10530
 X49.22490 Y36.60460
 X54.67240 Y65.66470
 X68.70920
 X61.56540 Y49.58960
 X61.53820 Y49.52890
 X61.47220 Y49.33960
 X61.41190 Y49.08310
 X61.38420 Y48.82330
 X61.38860 Y48.56310
 X61.42510 Y48.30540
 X61.49330 Y48.05330
 X61.59290 Y47.80970
 X61.68750 Y47.63350
 X61.72370 Y47.57780
 X61.75990 Y47.52190
 X61.88250 Y47.36350
 X62.06470 Y47.17320
 X62.26780 Y47.00850
 X62.48890 Y46.87040
 X62.72530 Y46.76070
 X62.97440 Y46.68040
 X63.23350 Y46.63140
 X63.43330 Y46.61460
 X74.49540
 X59.26670 Y22.24540
 Y36.09040
 X59.25330 Y36.26750
 X59.21430 Y36.49830
 X59.15010 Y36.72190
 X59.06220 Y36.93650
 X58.95140 Y37.14010
 X58.81850 Y37.33110
 X58.66470 Y37.50740
 X58.53640 Y37.62970
 X58.49080 Y37.66720
G0 Z-25.0000
 X5.54107 Y4.28131
G1 Z-41.5000
 X22.47440 Y38.14790
 X45.20780
 X44.48600 Y34.30310
 X44.47380 Y34.23920
 X44.45290 Y34.04420
 X44.45210 Y33.78600
 X44.48280 Y33.53130
 X44.54400 Y33.28280
 X44.63490 Y33.04330
 X44.75430 Y32.81570
 X44.90150 Y32.60260
 X45.02920 Y32.45290
 X45.07540 Y32.40680
 X45.12210 Y32.36110
 X45.27310 Y32.23510
 X45.48780 Y32.09040
 X45.71680 Y31.97350
 X45.95740 Y31.88530
 X46.20670 Y31.82680
 X46.46180 Y31.79880
 X46.72010 Y31.80220
 X46.91490 Y31.82500
 X46.97870 Y31.83780
 X55.03330 Y33.44860
 Y14.82080
 X55.04060 Y14.68920
 X55.06190 Y14.51690
 X55.09690 Y14.34870
 X55.14530 Y14.18510
 X55.20610 Y14.02710
 X55.27900 Y13.87480
 X55.36370 Y13.72940
 X55.45960 Y13.59130
 X55.56600 Y13.46110
 X55.68260 Y13.33970
 X55.80890 Y13.22750
 X55.94430 Y13.12540
 X56.08830 Y13.03410
 X56.24040 Y12.95400
 X56.40030 Y12.88590
 X56.52500 Y12.84260
 X56.56720 Y12.83050
 X56.61470 Y12.81680
 X56.85650 Y12.76870
 X57.07670 Y12.74800
 X57.21650
 X57.41630 Y12.76490
 X57.67650 Y12.81470
 X57.92810 Y12.89640
 X58.16750 Y13.00870
 X58.39180 Y13.15070
 X58.59820 Y13.32110
 X58.78330 Y13.51890
 X58.90780 Y13.68450
 X58.94420 Y13.74280
 X74.19760 Y38.14790
 X104.52400
 X121.45800 Y4.28131
 X5.54107
G0 Z-25.0000
 X126.77700 Y3.10975
G1 Z-41.5000
 X65.39330 Y125.87600
 X65.36040 Y125.94200
 X65.24010 Y126.12900
 X65.05360 Y126.34800
 X64.83860 Y126.53300
 X64.59960 Y126.68400
 X64.34150 Y126.80200
 X64.06920 Y126.88600
 X63.78720 Y126.93700
 X63.50060 Y126.95400
 X63.21380 Y126.93700
 X62.93180 Y126.88600
 X62.65940 Y126.80200
 X62.40130 Y126.68400
 X62.16210 Y126.53300
 X61.94680 Y126.34800
 X61.76000 Y126.12900
 X61.63960 Y125.94200
 X61.60670 Y125.87600
 X0.22331 Y3.10975
 X0.19287 Y3.04893
 X0.11724 Y2.85861
 X0.04508 Y2.59924
 X0.00667 Y2.33479
 X0.00190 Y2.06862
 X0.03060 Y1.80393
 X0.09277 Y1.54400
 X0.18815 Y1.29205
 X0.28087 Y1.10916
 X0.31679 Y1.05127
 X0.35254 Y0.99349
 X0.47477 Y0.82932
 X0.65755 Y0.63173
 X0.86220 Y0.46007
 X1.08599 Y0.31603
 X1.32612 Y0.20117
 X1.57981 Y0.11713
 X1.84424 Y0.06554
 X2.04850 Y0.04796
 X124.95100
 X125.15600 Y0.06554
 X125.42000 Y0.11713
 X125.67400 Y0.20117
 X125.91400 Y0.31603
 X126.13800 Y0.46007
 X126.34300 Y0.63173
 X126.52600 Y0.82932
 X126.64800 Y0.99349
 X126.68400 Y1.05127
 X126.72000 Y1.10916
 X126.81300 Y1.29205
 X126.90800 Y1.54400
 X126.97000 Y1.80393
 X126.99900 Y2.06862
 X126.99400 Y2.33479
 X126.95500 Y2.59924
 X126.88300 Y2.85861
 X126.80700 Y3.04893
 X126.77700 Y3.10975
G0 Z-25.0000
M5 (stop spindle)
G04 P3 (wait for 3 seconds)
G0 Z-25.0000
M2 (end program)
