$X
$H
G10 P0 L20 X0 Y0 Z0
G40 (disable tool radius compensation)
G49 (disable tool length compensation)
G80 (cancel modal motion)
G54 (select coordinate system 1)
G90 (disable incremental moves)
G21 (metric)
F300.00000
S250.00000
G61 (exact path mode)
;PYCAM_TOOLPATH_SETTINGS: START
;[Bounds]
;maxz = 0.0
;maxx = 114.925
;maxy = 126.997
;minx = 12.0731
;miny = 0.000705296
;minz = 0.0
;
;[Tool]
;torus_radius = 0.125
;shape = CylindricalCutter
;tool_radius = 1.5875
;feedrate = 300.0
;
;[Process]
;engrave_offset = 0.0
;step_down = 3.0
;generator = EngraveCutter
;postprocessor = SimpleCutter
;overlap_percent = 0
;milling_style = ignore
;material_allowance = 0.0
;pocketing_type = none
;path_direction = x
;
;PYCAM_TOOLPATH_SETTINGS: END
G0 Z-25.0000
M3 (start spindle)
G04 P3 (wait for 3 seconds)
 X64.98990 Y4.23406
G1 Z-41.5000
 X48.05640
 Y29.63400
 X64.98990
 Y4.23406
G0 Z-25.0000
 X84.03970 Y71.96740
G1 Z-41.5000
 Y55.39290
 X84.05530 Y55.20060
 X84.10110 Y54.95060
 X84.17610 Y54.70940
 X84.27870 Y54.47970
 X84.40820 Y54.26380
 X84.56290 Y54.06420
 X84.74180 Y53.88320
 X84.89080 Y53.76010
 X84.94360 Y53.72350
 X95.83560 Y46.09750
 X95.88830 Y46.06070
 X96.03750 Y45.93720
 X96.21650 Y45.75600
 X96.37130 Y45.55580
 X96.50070 Y45.33970
 X96.60350 Y45.11000
 X96.67830 Y44.86900
 X96.72420 Y44.61960
 X96.73990 Y44.42780
 Y42.28000
 X96.72890 Y42.11760
 X96.69670 Y41.90750
 X96.64460 Y41.70470
 X96.57330 Y41.51030
 X96.48420 Y41.32530
 X96.37810 Y41.15080
 X96.25630 Y40.98780
 X96.11960 Y40.83750
 X95.96930 Y40.70080
 X95.80620 Y40.57900
 X95.63170 Y40.47290
 X95.44670 Y40.38370
 X95.25220 Y40.31260
 X95.04940 Y40.26040
 X94.83940 Y40.22830
 X94.67710 Y40.21740
 X90.33560
 X90.17310 Y40.20650
 X89.96280 Y40.17440
 X89.75990 Y40.12240
 X89.56540 Y40.05120
 X89.38030 Y39.96210
 X89.20580 Y39.85610
 X89.04290 Y39.73430
 X88.89260 Y39.59780
 X88.75610 Y39.44750
 X88.63430 Y39.28460
 X88.52830 Y39.11000
 X88.43930 Y38.92500
 X88.36820 Y38.73040
 X88.31600 Y38.52750
 X88.28400 Y38.31720
 X88.27310 Y38.15490
 Y6.29660
 X88.26220 Y6.13433
 X88.23000 Y5.92421
 X88.17790 Y5.72140
 X88.10670 Y5.52696
 X88.01750 Y5.34190
 X87.91150 Y5.16743
 X87.78960 Y5.00444
 X87.65290 Y4.85411
 X87.50260 Y4.71750
 X87.33960 Y4.59565
 X87.16510 Y4.48958
 X86.98010 Y4.40044
 X86.78570 Y4.32926
 X86.58280 Y4.27707
 X86.37280 Y4.24501
 X86.21060 Y4.23406
 X69.22320
 Y31.80490
 X69.21220 Y31.96720
 X69.18010 Y32.17760
 X69.12810 Y32.38040
 X69.05690 Y32.57500
 X68.96780 Y32.76000
 X68.86180 Y32.93460
 X68.74000 Y33.09750
 X68.60350 Y33.24780
 X68.45320 Y33.38430
 X68.29030 Y33.50610
 X68.11570 Y33.61210
 X67.93070 Y33.70110
 X67.73610 Y33.77240
 X67.53320 Y33.82440
 X67.32290 Y33.85640
 X67.16060 Y33.86740
 X45.88560
 X45.72320 Y33.85640
 X45.51290 Y33.82440
 X45.30990 Y33.77240
 X45.11540 Y33.70110
 X44.93030 Y33.61210
 X44.75580 Y33.50610
 X44.59290 Y33.38430
 X44.44260 Y33.24780
 X44.30610 Y33.09750
 X44.18430 Y32.93460
 X44.07830 Y32.76000
 X43.98930 Y32.57500
 X43.91820 Y32.38040
 X43.86610 Y32.17760
 X43.83400 Y31.96720
 X43.82320 Y31.80490
 Y4.23406
 X26.83560
 X26.67330 Y4.24501
 X26.46320 Y4.27707
 X26.26040 Y4.32926
 X26.06600 Y4.40044
 X25.88100 Y4.48958
 X25.70640 Y4.59565
 X25.54350 Y4.71750
 X25.39310 Y4.85411
 X25.25650 Y5.00444
 X25.13470 Y5.16743
 X25.02860 Y5.34190
 X24.93940 Y5.52696
 X24.86830 Y5.72140
 X24.81610 Y5.92421
 X24.78400 Y6.13433
 X24.77310 Y6.29660
 Y38.15490
 X24.76220 Y38.31720
 X24.73010 Y38.52750
 X24.67810 Y38.73040
 X24.60690 Y38.92500
 X24.51780 Y39.11000
 X24.41180 Y39.28460
 X24.29000 Y39.44750
 X24.15350 Y39.59780
 X24.00320 Y39.73430
 X23.84030 Y39.85610
 X23.66570 Y39.96210
 X23.48070 Y40.05120
 X23.28620 Y40.12240
 X23.08330 Y40.17440
 X22.87310 Y40.20650
 X22.71060 Y40.21740
 X18.36900
 X18.20670 Y40.22830
 X17.99650 Y40.26040
 X17.79380 Y40.31260
 X17.59930 Y40.38370
 X17.41430 Y40.47290
 X17.23970 Y40.57900
 X17.07680 Y40.70080
 X16.92640 Y40.83750
 X16.78990 Y40.98780
 X16.66790 Y41.15080
 X16.56190 Y41.32530
 X16.47280 Y41.51030
 X16.40150 Y41.70470
 X16.34940 Y41.90750
 X16.31740 Y42.11760
 X16.30640 Y42.28000
 Y44.42790
 X16.32190 Y44.62000
 X16.36780 Y44.86960
 X16.44250 Y45.11040
 X16.54510 Y45.33990
 X16.67420 Y45.55560
 X16.82830 Y45.75490
 X17.00650 Y45.93540
 X17.15500 Y46.05810
 X17.20750 Y46.09470
 X56.52310 Y73.61560
 X68.01030 Y65.57470
 X68.07010 Y65.53260
 X68.26150 Y65.42290
 X68.52720 Y65.30890
 X68.80320 Y65.23290
 X69.08570 Y65.19510
 X69.37070 Y65.19600
 X69.65420 Y65.23560
 X69.93240 Y65.31430
 X70.13650 Y65.39850
 X70.20140 Y65.43250
 X70.26610 Y65.46620
 X70.45130 Y65.58530
 X70.67440 Y65.76820
 X70.86920 Y65.97810
 X71.03310 Y66.21120
 X71.16420 Y66.46460
 X71.26030 Y66.73430
 X71.31960 Y67.01710
 X71.33970 Y67.23650
 Y71.96740
 X84.03970
G0 Z-25.0000
 X67.55560 Y86.60060
G1 Z-41.5000
 X67.27070 Y86.59750
 X66.41610 Y86.59990
 X65.27030 Y86.62670
 X64.11530 Y86.68720
 X63.24000 Y86.75750
 X62.94890 Y86.78790
 X62.53350 Y86.83010
 X61.28920 Y86.97930
 X59.68510 Y87.21070
 X58.13720 Y87.48210
 X56.64540 Y87.79330
 X55.21030 Y88.14420
 X53.83210 Y88.53470
 X52.51080 Y88.96470
 X51.24710 Y89.43430
 X50.04100 Y89.94310
 X48.89280 Y90.49100
 X47.80280 Y91.07810
 X46.77140 Y91.70400
 X45.79860 Y92.36900
 X44.88500 Y93.07260
 X44.03070 Y93.81500
 X43.42850 Y94.39470
 X43.07390 Y94.76570
 X42.61180 Y95.29860
 X42.03750 Y96.04440
 X41.51140 Y96.83060
 X41.03170 Y97.65360
 X40.59650 Y98.51010
 X40.20430 Y99.39710
 X39.85290 Y100.31100
 X39.54080 Y101.24900
 X39.26610 Y102.20800
 X39.02710 Y103.18300
 X38.82190 Y104.17300
 X38.64870 Y105.17400
 X38.50580 Y106.18300
 X38.39140 Y107.19500
 X38.30360 Y108.20900
 X38.24070 Y109.22100
 X38.20080 Y110.22700
 X38.18240 Y111.22400
 X38.18330 Y112.21000
 X38.20190 Y113.18000
 X38.23650 Y114.13200
 X38.28530 Y115.06200
 X38.34620 Y115.96700
 X38.41780 Y116.84400
 X38.49810 Y117.68900
 X38.58530 Y118.50000
 X38.67760 Y119.27300
 X38.77330 Y120.00400
 X38.87070 Y120.69200
 X38.96780 Y121.33100
 X39.06280 Y121.91900
 X39.13070 Y122.32000
 X39.15400 Y122.45300
 X39.28880 Y122.42800
 X39.69250 Y122.35200
 X40.25750 Y122.24100
 X40.84720 Y122.12200
 X41.45930 Y121.99300
 X42.09180 Y121.85500
 X42.74260 Y121.70900
 X43.40970 Y121.55300
 X44.09100 Y121.38900
 X44.78440 Y121.21600
 X45.48780 Y121.03300
 X46.19900 Y120.84300
 X46.91610 Y120.64300
 X47.63690 Y120.43500
 X48.35940 Y120.21800
 X49.08170 Y119.99300
 X49.80140 Y119.75900
 X50.51640 Y119.51700
 X51.22490 Y119.26700
 X51.92460 Y119.00800
 X52.61350 Y118.74000
 X53.28960 Y118.46500
 X53.95070 Y118.18100
 X54.59460 Y117.88900
 X55.21940 Y117.58800
 X55.82320 Y117.28000
 X56.40360 Y116.96400
 X56.95860 Y116.63900
 X57.48620 Y116.30700
 X57.98430 Y115.96700
 X58.45070 Y115.61800
 X58.88350 Y115.26300
 X59.18390 Y114.99300
 X59.28040 Y114.89900
 X59.45680 Y114.72700
 X59.97510 Y114.20200
 X60.63760 Y113.49300
 X61.26860 Y112.77300
 X61.86890 Y112.04300
 X62.43920 Y111.30400
 X62.98010 Y110.55800
 X63.49260 Y109.80400
 X63.97740 Y109.04400
 X64.43500 Y108.27900
 X64.86640 Y107.51100
 X65.27220 Y106.73900
 X65.65320 Y105.96500
 X66.01010 Y105.19000
 X66.34360 Y104.41500
 X66.65460 Y103.64100
 X66.94380 Y102.86900
 X67.21170 Y102.10000
 X67.45930 Y101.33400
 X67.68720 Y100.57300
 X67.89620 Y99.81860
 X68.08710 Y99.07060
 X68.26060 Y98.33030
 X68.41740 Y97.59870
 X68.55820 Y96.87690
 X68.68380 Y96.16580
 X68.79490 Y95.46650
 X68.89240 Y94.77970
 X68.97680 Y94.10680
 X69.04900 Y93.44850
 X69.10960 Y92.80580
 X69.15960 Y92.17970
 X69.19060 Y91.72350
 X69.19940 Y91.57120
 X68.99240 Y91.84960
 X68.36170 Y92.67740
 X67.50500 Y93.76940
 X66.62970 Y94.84720
 X65.73570 Y95.91080
 X64.82320 Y96.95990
 X63.89240 Y97.99430
 X62.94310 Y99.01390
 X61.97570 Y100.01900
 X60.99010 Y101.00800
 X59.98670 Y101.98300
 X58.96510 Y102.94200
 X57.92600 Y103.88600
 X56.86900 Y104.81400
 X55.79460 Y105.72600
 X54.70260 Y106.62200
 X53.87240 Y107.28500
 X53.59330 Y107.50300
 X50.99010 Y104.16400
 X51.29310 Y103.92800
 X52.19290 Y103.20800
 X53.37430 Y102.23200
 X54.53370 Y101.23700
 X55.67130 Y100.22200
 X56.78670 Y99.18820
 X57.87990 Y98.13530
 X58.95070 Y97.06350
 X59.99900 Y95.97290
 X61.02460 Y94.86400
 X62.02720 Y93.73680
 X63.00690 Y92.59150
 X63.96360 Y91.42830
 X64.89690 Y90.24750
 X65.80680 Y89.04920
 X66.69310 Y87.83330
 X67.34290 Y86.91080
 X67.55560 Y86.60060
G0 Z-25.0000
 X109.63700 Y96.13930
G1 Z-41.5000
 X109.59500 Y96.05040
 X109.46900 Y95.78440
 X109.28700 Y95.41510
 X109.09200 Y95.03280
 X108.88200 Y94.63890
 X108.65800 Y94.23460
 X108.42000 Y93.82150
 X108.16700 Y93.40110
 X107.89800 Y92.97470
 X107.61500 Y92.54360
 X107.31600 Y92.10960
 X107.00100 Y91.67360
 X106.67000 Y91.23750
 X106.32400 Y90.80250
 X105.96000 Y90.36990
 X105.58000 Y89.94130
 X105.18400 Y89.51810
 X104.77000 Y89.10150
 X104.33900 Y88.69320
 X103.89000 Y88.29440
 X103.42400 Y87.90680
 X102.93900 Y87.53140
 X102.43700 Y87.17000
 X101.91600 Y86.82390
 X101.37600 Y86.49430
 X100.81700 Y86.18290
 X100.23900 Y85.89100
 X99.64220 Y85.62000
 X99.02540 Y85.37140
 X98.38890 Y85.14650
 X97.73220 Y84.94680
 X97.05540 Y84.77380
 X96.53310 Y84.66100
 X96.35810 Y84.62860
 X96.19900 Y84.59940
 X95.71970 Y84.52500
 X95.09080 Y84.44920
 X94.47180 Y84.39920
 X93.86360 Y84.37380
 X93.26640 Y84.37110
 X92.68120 Y84.39000
 X92.10830 Y84.42860
 X91.54850 Y84.48570
 X91.00220 Y84.55940
 X90.47030 Y84.64850
 X89.95310 Y84.75110
 X89.45130 Y84.86580
 X88.96560 Y84.99130
 X88.49640 Y85.12570
 X88.04440 Y85.26780
 X87.71830 Y85.37750
 X87.61030 Y85.41570
 X87.72630 Y85.53030
 X88.07960 Y85.86920
 X88.55250 Y86.30610
 X89.02860 Y86.72670
 X89.50710 Y87.13140
 X89.98750 Y87.52030
 X90.46930 Y87.89400
 X90.95170 Y88.25250
 X91.43400 Y88.59630
 X91.91610 Y88.92560
 X92.39690 Y89.24080
 X92.87610 Y89.54210
 X93.35310 Y89.82970
 X93.82710 Y90.10420
 X94.29760 Y90.36560
 X94.76420 Y90.61430
 X95.22600 Y90.85070
 X95.68250 Y91.07510
 X96.13310 Y91.28760
 X96.57740 Y91.48870
 X97.01440 Y91.67860
 X97.44400 Y91.85760
 X97.86530 Y92.02610
 X98.27780 Y92.18430
 X98.68080 Y92.33240
 X99.07380 Y92.47100
 X99.45610 Y92.60000
 X99.82720 Y92.72010
 X100.18700 Y92.83140
 X100.53300 Y92.93420
 X100.86700 Y93.02870
 X101.18800 Y93.11560
 X101.41700 Y93.17540
 X101.49400 Y93.19470
 X100.45600 Y97.29820
 X100.30100 Y97.25890
 X99.83570 Y97.13470
 X99.16710 Y96.94330
 X98.45400 Y96.72250
 X97.70030 Y96.47030
 X96.90920 Y96.18510
 X96.08460 Y95.86510
 X95.23000 Y95.50850
 X94.34920 Y95.11330
 X93.44560 Y94.67810
 X92.52290 Y94.20080
 X91.58470 Y93.67990
 X90.63490 Y93.11320
 X89.67670 Y92.49930
 X88.71390 Y91.83640
 X87.75010 Y91.12250
 X87.02570 Y90.55180
 X86.78900 Y90.35600
 X86.83530 Y90.56370
 X86.98470 Y91.18490
 X87.20720 Y92.03010
 X87.45810 Y92.88960
 X87.73900 Y93.76110
 X88.05170 Y94.64260
 X88.39750 Y95.53180
 X88.77830 Y96.42670
 X89.19570 Y97.32490
 X89.65130 Y98.22460
 X90.14680 Y99.12330
 X90.68360 Y100.01900
 X91.26360 Y100.91000
 X91.88820 Y101.79300
 X92.55930 Y102.66700
 X93.27830 Y103.53000
 X93.85060 Y104.17100
 X94.04710 Y104.37900
 X94.11990 Y104.45600
 X94.34650 Y104.68000
 X94.67420 Y104.97700
 X95.02850 Y105.27200
 X95.40760 Y105.56400
 X95.81030 Y105.85200
 X96.23490 Y106.13600
 X96.67990 Y106.41700
 X97.14360 Y106.69400
 X97.62460 Y106.96600
 X98.12130 Y107.23500
 X98.63220 Y107.49900
 X99.15570 Y107.75800
 X99.69030 Y108.01200
 X100.23400 Y108.26100
 X100.78600 Y108.50500
 X101.34500 Y108.74400
 X101.90800 Y108.97700
 X102.47500 Y109.20400
 X103.04300 Y109.42500
 X103.61200 Y109.64100
 X104.17900 Y109.84900
 X104.74400 Y110.05200
 X105.30400 Y110.24700
 X105.85800 Y110.43600
 X106.40500 Y110.61800
 X106.94200 Y110.79200
 X107.46900 Y110.95900
 X107.98400 Y111.11900
 X108.48500 Y111.27000
 X108.97100 Y111.41400
 X109.44000 Y111.55000
 X109.77800 Y111.64500
 X109.89000 Y111.67700
 X109.90700 Y111.57200
 X109.95800 Y111.25800
 X110.02400 Y110.82200
 X110.09100 Y110.37100
 X110.15500 Y109.90400
 X110.21900 Y109.42500
 X110.28000 Y108.93400
 X110.33800 Y108.43200
 X110.39300 Y107.92100
 X110.44500 Y107.40200
 X110.49300 Y106.87500
 X110.53700 Y106.34400
 X110.57500 Y105.80800
 X110.60900 Y105.26800
 X110.63600 Y104.72700
 X110.65800 Y104.18600
 X110.67200 Y103.64600
 X110.68000 Y103.10700
 Y102.57200
 X110.67200 Y102.04100
 X110.65600 Y101.51700
 X110.63100 Y100.99900
 X110.59600 Y100.49000
 X110.55200 Y99.99010
 X110.49700 Y99.50150
 X110.43200 Y99.02510
 X110.35500 Y98.56220
 X110.26700 Y98.11420
 X110.16700 Y97.68210
 X110.05400 Y97.26720
 X109.92800 Y96.87100
 X109.78900 Y96.49460
 X109.67700 Y96.22690
 X109.63700 Y96.13930
G0 Z-25.0000
 X113.62600 Y114.74000
G1 Z-41.5000
 X113.61500 Y114.79200
 X113.57200 Y114.94600
 X113.49700 Y115.14400
 X113.40400 Y115.33200
 X113.29300 Y115.50900
 X113.16500 Y115.67500
 X113.02100 Y115.82700
 X112.86200 Y115.96500
 X112.73400 Y116.05900
 X112.68900 Y116.08800
 X112.64400 Y116.11600
 X112.50400 Y116.19300
 X112.31000 Y116.27700
 X112.11100 Y116.34200
 X111.90600 Y116.38600
 X111.69800 Y116.41000
 X111.48900 Y116.41400
 X111.27900 Y116.39700
 X111.12200 Y116.37100
 X111.07000 Y116.36000
 X111.04600 Y116.35400
 X110.97400 Y116.33700
 X110.80100 Y116.29400
 X110.55700 Y116.23300
 X110.24500 Y116.15400
 X109.86900 Y116.05600
 X109.43400 Y115.94000
 X108.94400 Y115.80600
 X108.40200 Y115.65400
 X107.81400 Y115.48500
 X107.18300 Y115.29800
 X106.51400 Y115.09500
 X105.81000 Y114.87500
 X105.07600 Y114.63800
 X104.31600 Y114.38400
 X103.53500 Y114.11500
 X102.73600 Y113.83000
 X101.92300 Y113.52900
 X101.10100 Y113.21200
 X100.27400 Y112.88100
 X99.44670 Y112.53400
 X98.62220 Y112.17300
 X97.80530 Y111.79700
 X97.00000 Y111.40600
 X96.21060 Y111.00200
 X95.44110 Y110.58300
 X94.69580 Y110.15100
 X93.97900 Y109.70600
 X93.29470 Y109.24700
 X92.64720 Y108.77600
 X92.04060 Y108.29100
 X91.47920 Y107.79400
 X91.09070 Y107.41600
 X90.96690 Y107.28500
 X90.81900 Y107.12800
 X90.38370 Y106.65000
 X89.82510 Y106.00800
 X89.29060 Y105.36000
 X88.77970 Y104.70600
 X88.29180 Y104.04800
 X87.82640 Y103.38600
 X87.38310 Y102.72100
 X86.96130 Y102.05300
 X86.56030 Y101.38300
 X86.17990 Y100.71200
 X85.81940 Y100.04000
 X85.47830 Y99.36830
 X85.15630 Y98.69750
 X84.85240 Y98.02820
 X84.56650 Y97.36100
 X84.29790 Y96.69670
 X84.04610 Y96.03600
 X83.81070 Y95.37940
 X83.59100 Y94.72780
 X83.38650 Y94.08180
 X83.19690 Y93.44210
 X83.02140 Y92.80930
 X82.85970 Y92.18430
 X82.71110 Y91.56760
 X82.57530 Y90.95990
 X82.45150 Y90.36190
 X82.33940 Y89.77440
 X82.23850 Y89.19790
 X82.14820 Y88.63330
 X82.06790 Y88.08110
 X81.99710 Y87.54210
 X81.95000 Y87.14830
 X81.93540 Y87.01680
 X81.93330 Y86.99720
 X81.92310 Y86.83740
 Y85.41570
 X81.74060 Y85.19170
 X81.19880 Y84.51500
 X80.52640 Y83.65400
 X79.90400 Y82.82930
 X79.33000 Y82.03790
 X78.80250 Y81.27680
 X78.31940 Y80.54290
 X77.87940 Y79.83290
 X77.57720 Y79.31780
 X77.48030 Y79.14390
 X77.37130 Y79.32080
 X77.03880 Y79.84790
 X76.58400 Y80.55060
 X76.11430 Y81.25860
 X75.75030 Y81.79920
 X75.62820 Y81.97890
 X75.50030 Y82.16720
 X75.11860 Y82.73350
 X74.58570 Y83.53400
 X74.03100 Y84.38350
 X73.59870 Y85.05860
 X73.45640 Y85.28470
 Y86.72860
 X73.46000 Y86.79890
 X73.47000 Y87.00990
 X73.48210 Y87.30360
 X73.49260 Y87.60960
 X73.50120 Y87.92760
 X73.50790 Y88.25740
 X73.51220 Y88.59850
 X73.51390 Y88.95070
 X73.51290 Y89.31370
 X73.50890 Y89.68740
 X73.50180 Y90.07120
 X73.49130 Y90.46500
 X73.47690 Y90.86830
 X73.45890 Y91.28130
 X73.43680 Y91.70310
 X73.41040 Y92.13370
 X73.37940 Y92.57290
 X73.34380 Y93.02030
 X73.30310 Y93.47540
 X73.25720 Y93.93830
 X73.20600 Y94.40860
 X73.14900 Y94.88580
 X73.08630 Y95.36990
 X73.01750 Y95.86030
 X72.94250 Y96.35690
 X72.86080 Y96.85940
 X72.77250 Y97.36750
 X72.67710 Y97.88080
 X72.57470 Y98.39920
 X72.46470 Y98.92240
 X72.34720 Y99.44970
 X72.22190 Y99.98140
 X72.08850 Y100.51700
 X71.94670 Y101.05600
 X71.79650 Y101.59800
 X71.63750 Y102.14300
 X71.46960 Y102.69100
 X71.29250 Y103.24200
 X71.10600 Y103.79400
 X70.90990 Y104.34800
 X70.70390 Y104.90400
 X70.48790 Y105.46100
 X70.26170 Y106.01800
 X70.02490 Y106.57700
 X69.77720 Y107.13500
 X69.51880 Y107.69400
 X69.24900 Y108.25300
 X68.96810 Y108.81100
 X68.67540 Y109.36800
 X68.37080 Y109.92400
 X68.05430 Y110.47900
 X67.72540 Y111.03200
 X67.38420 Y111.58300
 X67.03000 Y112.13200
 X66.66310 Y112.67800
 X66.28280 Y113.22100
 X65.88930 Y113.76100
 X65.48210 Y114.29800
 X65.06100 Y114.83100
 X64.62600 Y115.36000
 X64.17670 Y115.88500
 X63.71280 Y116.40500
 X63.23420 Y116.92000
 X62.74070 Y117.43000
 X62.36060 Y117.81000
 X62.23210 Y117.93400
 X62.15510 Y118.00900
 X61.91920 Y118.22800
 X61.59120 Y118.51600
 X61.24890 Y118.79900
 X60.89280 Y119.07700
 X60.52330 Y119.34900
 X60.14140 Y119.61600
 X59.74760 Y119.87700
 X59.34240 Y120.13400
 X58.92650 Y120.38500
 X58.50060 Y120.63100
 X58.06510 Y120.87200
 X57.62100 Y121.10800
 X57.16850 Y121.33800
 X56.70850 Y121.56400
 X56.24140 Y121.78400
 X55.76810 Y122.00000
 X55.28900 Y122.21000
 X54.80490 Y122.41600
 X54.31630 Y122.61600
 X53.82380 Y122.81200
 X53.32810 Y123.00300
 X52.82960 Y123.18800
 X52.32930 Y123.37000
 X51.82760 Y123.54600
 X51.32510 Y123.71800
 X50.82260 Y123.88400
 X50.32060 Y124.04600
 X49.81970 Y124.20400
 X49.32040 Y124.35600
 X48.82360 Y124.50400
 X48.32990 Y124.64800
 X47.83960 Y124.78700
 X47.35360 Y124.92100
 X46.87250 Y125.05100
 X46.39680 Y125.17600
 X45.92720 Y125.29700
 X45.46440 Y125.41300
 X45.00890 Y125.52600
 X44.56140 Y125.63300
 X44.12250 Y125.73600
 X43.69280 Y125.83500
 X43.27280 Y125.93000
 X42.86330 Y126.02000
 X42.46500 Y126.10600
 X42.07830 Y126.18800
 X41.70400 Y126.26600
 X41.34260 Y126.33900
 X40.99490 Y126.40800
 X40.66110 Y126.47400
 X40.34220 Y126.53500
 X40.03890 Y126.59200
 X39.75150 Y126.64500
 X39.48080 Y126.69400
 X39.22750 Y126.73900
 X38.99190 Y126.78000
 X38.77500 Y126.81700
 X38.57720 Y126.85100
 X38.39930 Y126.88000
 X38.24170 Y126.90600
 X38.10510 Y126.92800
 X37.99030 Y126.94500
 X37.89760 Y126.96000
 X37.82790 Y126.97000
 X37.79330 Y126.97500
 X37.78180 Y126.97700
 X37.73100 Y126.98400
 X37.57690 Y126.99700
 X37.37470
 X37.17650 Y126.97900
 X36.98310 Y126.94300
 X36.79540 Y126.88900
 X36.61490 Y126.81900
 X36.44210 Y126.73300
 X36.27820 Y126.63300
 X36.12430 Y126.51700
 X35.98140 Y126.38800
 X35.85040 Y126.24600
 X35.73250 Y126.09200
 X35.62880 Y125.92600
 X35.53990 Y125.74900
 X35.46710 Y125.56300
 X35.42310 Y125.41600
 X35.41150 Y125.36600
 X35.40810 Y125.35100
 X35.39760 Y125.30700
 X35.37720 Y125.21700
 X35.35060 Y125.09700
 X35.31820 Y124.94800
 X35.28040 Y124.77100
 X35.23790 Y124.56700
 X35.19110 Y124.33600
 X35.14040 Y124.07900
 X35.08620 Y123.79700
 X35.02900 Y123.49100
 X34.96930 Y123.16100
 X34.90750 Y122.80800
 X34.84400 Y122.43300
 X34.77960 Y122.03600
 X34.71430 Y121.61900
 X34.64870 Y121.18200
 X34.58330 Y120.72600
 X34.51880 Y120.25200
 X34.45530 Y119.76000
 X34.39330 Y119.25100
 X34.33330 Y118.72700
 X34.27600 Y118.18600
 X34.22150 Y117.63200
 X34.17060 Y117.06300
 X34.12330 Y116.48200
 X34.08040 Y115.88800
 X34.04240 Y115.28200
 X34.00960 Y114.66600
 X33.98250 Y114.04000
 X33.96150 Y113.40400
 X33.94720 Y112.76000
 X33.93990 Y112.10800
 X33.94010 Y111.44900
 X33.94830 Y110.78400
 X33.96500 Y110.11400
 X33.99060 Y109.43800
 X34.02540 Y108.75900
 X34.07010 Y108.07600
 X34.12530 Y107.39100
 X34.19100 Y106.70400
 X34.26790 Y106.01700
 X34.35640 Y105.32900
 X34.45710 Y104.64100
 X34.57030 Y103.95500
 X34.69640 Y103.27100
 X34.83610 Y102.59000
 X34.98990 Y101.91200
 X35.15780 Y101.23900
 X35.34070 Y100.57000
 X35.53880 Y99.90790
 X35.75280 Y99.25190
 X35.98280 Y98.60350
 X36.22960 Y97.96310
 X36.49360 Y97.33140
 X36.77500 Y96.70940
 X37.07460 Y96.09790
 X37.39260 Y95.49740
 X37.72960 Y94.90880
 X38.08610 Y94.33290
 X38.46240 Y93.77030
 X38.85890 Y93.22180
 X39.27640 Y92.68830
 X39.71500 Y92.17040
 X40.05780 Y91.79190
 X40.17540 Y91.66890
 X40.28810 Y91.55120
 X40.63310 Y91.20460
 X41.10670 Y90.75170
 X41.59610 Y90.31010
 X42.10140 Y89.88030
 X42.62280 Y89.46170
 X43.15990 Y89.05490
 X43.71280 Y88.65930
 X44.28170 Y88.27540
 X44.86640 Y87.90320
 X45.46680 Y87.54240
 X46.08320 Y87.19320
 X46.71530 Y86.85570
 X47.36310 Y86.52970
 X48.02680 Y86.21530
 X48.70630 Y85.91260
 X49.40140 Y85.62150
 X50.11220 Y85.34210
 X50.83890 Y85.07440
 X51.58110 Y84.81830
 X52.33920 Y84.57390
 X53.11290 Y84.34120
 X53.90220 Y84.12040
 X54.70720 Y83.91120
 X55.52790 Y83.71380
 X56.36430 Y83.52810
 X57.21620 Y83.35420
 X58.08370 Y83.19210
 X58.96680 Y83.04180
 X59.86560 Y82.90330
 X60.77990 Y82.77670
 X61.70970 Y82.66180
 X62.41860 Y82.58290
 X62.65510 Y82.55880
 X62.93180 Y82.53070
 X63.76320 Y82.46030
 X64.87470 Y82.39010
 X65.98860 Y82.34810
 X66.82490 Y82.33400
 X67.29850
 X67.88320 Y82.34850
 X68.66180 Y82.38540
 X69.43990 Y82.43610
 X70.02330 Y82.47780
 X70.21790 Y82.49140
 X70.34220 Y82.29740
 X70.71820 Y81.71680
 X71.20460 Y80.97560
 X71.67430 Y80.26990
 X72.01190 Y79.76820
 X72.12500 Y79.60140
 X72.27490 Y79.38030
 X72.72220 Y78.71510
 X73.28350 Y77.86390
 X73.81080 Y77.03130
 X74.18600 Y76.41030
 X74.30670 Y76.20070
 X69.16890
 X69.00650 Y76.18970
 X68.79610 Y76.15780
 X68.59320 Y76.10570
 X68.39870 Y76.03440
 X68.21360 Y75.94540
 X68.03920 Y75.83940
 X67.87620 Y75.71760
 X67.72600 Y75.58110
 X67.58940 Y75.43080
 X67.46760 Y75.26790
 X67.36170 Y75.09330
 X67.27260 Y74.90830
 X67.20150 Y74.71380
 X67.14930 Y74.51100
 X67.11740 Y74.30060
 X67.10640 Y74.13820
 Y71.37610
 X57.73560 Y77.93570
 X57.66850 Y77.98260
 X57.45240 Y78.10250
 X57.15190 Y78.22170
 X56.84000 Y78.29320
 X56.52250 Y78.31690
 X56.20500 Y78.29320
 X55.89330 Y78.22170
 X55.59320 Y78.10250
 X55.37740 Y77.98260
 X55.31030 Y77.93570
 X14.78070 Y49.56460
 X14.70170 Y49.50920
 X14.47130 Y49.33320
 X14.17820 Y49.08500
 X13.90210 Y48.82100
 X13.64320 Y48.54190
 X13.40230 Y48.24900
 X13.17980 Y47.94280
 X12.97620 Y47.62460
 X12.79190 Y47.29500
 X12.62740 Y46.95510
 X12.48330 Y46.60580
 X12.36000 Y46.24810
 X12.25800 Y45.88260
 X12.17780 Y45.51070
 X12.12000 Y45.13290
 X12.08490 Y44.75040
 X12.07310 Y44.46060
 Y42.25250
 X12.08140 Y42.00780
 X12.10600 Y41.68570
 X12.14640 Y41.36830
 X12.20230 Y41.05580
 X12.27330 Y40.74890
 X12.35910 Y40.44780
 X12.45900 Y40.15280
 X12.57290 Y39.86460
 X12.70020 Y39.58330
 X12.84060 Y39.30960
 X12.99370 Y39.04370
 X13.15900 Y38.78610
 X13.33620 Y38.53710
 X13.52480 Y38.29710
 X13.72460 Y38.06650
 X13.93500 Y37.84600
 X14.15560 Y37.63560
 X14.38610 Y37.43580
 X14.62610 Y37.24720
 X14.87510 Y37.07000
 X15.13280 Y36.90460
 X15.39860 Y36.75150
 X15.67240 Y36.61110
 X15.95360 Y36.48390
 X16.24180 Y36.37000
 X16.53680 Y36.27000
 X16.83790 Y36.18430
 X17.14490 Y36.11330
 X17.45740 Y36.05740
 X17.77470 Y36.01690
 X18.09680 Y35.99240
 X18.34150 Y35.98400
 X20.53970
 Y6.26915
 X20.54810 Y6.02442
 X20.57260 Y5.70236
 X20.61310 Y5.38493
 X20.66890 Y5.07249
 X20.74000 Y4.76551
 X20.82570 Y4.46442
 X20.92570 Y4.16949
 X21.03940 Y3.88124
 X21.16680 Y3.60004
 X21.30720 Y3.32628
 X21.46030 Y3.06039
 X21.62570 Y2.80274
 X21.80280 Y2.55371
 X21.99150 Y2.31375
 X22.19130 Y2.08322
 X22.40170 Y1.86257
 X22.62220 Y1.65218
 X22.85280 Y1.45247
 X23.09280 Y1.26383
 X23.34180 Y1.08659
 X23.59940 Y0.92128
 X23.86530 Y0.76823
 X24.13920 Y0.62782
 X24.42030 Y0.50049
 X24.70860 Y0.38666
 X25.00350 Y0.28668
 X25.30460 Y0.20096
 X25.61150 Y0.12994
 X25.92390 Y0.07400
 X26.24140 Y0.03358
 X26.56350 Y0.00901
 X26.80820 Y0.00071
 X86.23810
 X86.48260 Y0.00901
 X86.80470 Y0.03358
 X87.12220 Y0.07400
 X87.43460 Y0.12994
 X87.74150 Y0.20096
 X88.04260 Y0.28668
 X88.33750 Y0.38666
 X88.62570 Y0.50049
 X88.90690 Y0.62782
 X89.18070 Y0.76823
 X89.44670 Y0.92128
 X89.70430 Y1.08659
 X89.95330 Y1.26383
 X90.19320 Y1.45247
 X90.42370 Y1.65218
 X90.64440 Y1.86257
 X90.85490 Y2.08322
 X91.05460 Y2.31375
 X91.24320 Y2.55371
 X91.42040 Y2.80274
 X91.58580 Y3.06039
 X91.73890 Y3.32628
 X91.87930 Y3.60004
 X92.00670 Y3.88124
 X92.12060 Y4.16949
 X92.22040 Y4.46442
 X92.30610 Y4.76551
 X92.37720 Y5.07249
 X92.43310 Y5.38493
 X92.47360 Y5.70236
 X92.49820 Y6.02442
 X92.50640 Y6.26915
 Y35.98400
 X94.70460
 X94.94930 Y35.99240
 X95.27140 Y36.01690
 X95.58880 Y36.05740
 X95.90130 Y36.11330
 X96.20820 Y36.18430
 X96.50930 Y36.27000
 X96.80420 Y36.37000
 X97.09240 Y36.48390
 X97.37360 Y36.61110
 X97.64740 Y36.75150
 X97.91320 Y36.90460
 X98.17100 Y37.07000
 X98.41990 Y37.24720
 X98.66000 Y37.43580
 X98.89040 Y37.63560
 X99.11110 Y37.84600
 X99.32150 Y38.06650
 X99.52120 Y38.29710
 X99.70990 Y38.53710
 X99.88710 Y38.78610
 X100.05200 Y39.04370
 X100.20600 Y39.30960
 X100.34600 Y39.58330
 X100.47300 Y39.86460
 X100.58700 Y40.15280
 X100.68700 Y40.44780
 X100.77300 Y40.74890
 X100.84400 Y41.05580
 X100.90000 Y41.36830
 X100.94000 Y41.68570
 X100.96500 Y42.00780
 X100.97300 Y42.25250
 Y44.46060
 X100.96100 Y44.75040
 X100.92600 Y45.13290
 X100.86800 Y45.51070
 X100.78800 Y45.88260
 X100.68600 Y46.24810
 X100.56300 Y46.60600
 X100.41900 Y46.95530
 X100.25400 Y47.29510
 X100.07000 Y47.62470
 X99.86630 Y47.94320
 X99.64380 Y48.24940
 X99.40280 Y48.54250
 X99.14400 Y48.82170
 X98.86780 Y49.08600
 X98.57470 Y49.33430
 X98.34430 Y49.51040
 X98.26510 Y49.56600
 X98.26380
 X88.27310 Y56.55940
 Y74.13820
 X88.26220 Y74.30060
 X88.23010 Y74.51100
 X88.17810 Y74.71380
 X88.10690 Y74.90830
 X88.01780 Y75.09330
 X87.91180 Y75.26790
 X87.79000 Y75.43080
 X87.65350 Y75.58110
 X87.50320 Y75.71760
 X87.34030 Y75.83940
 X87.16570 Y75.94540
 X86.98070 Y76.03440
 X86.78620 Y76.10570
 X86.58330 Y76.15780
 X86.37310 Y76.18970
 X86.21060 Y76.20070
 X80.71600
 X80.75380 Y76.27860
 X80.87040 Y76.51100
 X81.03560 Y76.82610
 X81.21150 Y77.14670
 X81.39860 Y77.47320
 X81.59740 Y77.80610
 X81.80790 Y78.14600
 X82.03060 Y78.49330
 X82.26580 Y78.84860
 X82.51390 Y79.21240
 X82.77500 Y79.58510
 X83.04970 Y79.96750
 X83.33820 Y80.35970
 X83.64070 Y80.76250
 X83.95780 Y81.17640
 X84.28940 Y81.60180
 X84.54920 Y81.93010
 X84.63640 Y82.03920
 X84.73990 Y81.99420
 X85.05210 Y81.86290
 X85.48890 Y81.68760
 X85.94620 Y81.51470
 X86.42330 Y81.34570
 X86.91960 Y81.18180
 X87.43470 Y81.02460
 X87.96810 Y80.87560
 X88.51900 Y80.73610
 X89.08710 Y80.60760
 X89.67150 Y80.49150
 X90.27180 Y80.38940
 X90.88760 Y80.30260
 X91.51820 Y80.23260
 X92.16310 Y80.18080
 X92.82150 Y80.14880
 X93.32530 Y80.13760
 X93.71330
 X94.37400 Y80.15680
 X95.27380 Y80.21600
 X96.19060 Y80.31850
 X96.89080 Y80.42430
 X97.12290 Y80.46680
 X97.28610 Y80.49690
 X97.77400 Y80.59810
 X98.41810 Y80.75060
 X99.05490 Y80.92390
 X99.68420 Y81.11830
 X100.30600 Y81.33330
 X100.92000 Y81.56890
 X101.52500 Y81.82490
 X102.12300 Y82.10100
 X102.71200 Y82.39710
 X103.29200 Y82.71320
 X103.86400 Y83.04890
 X104.42600 Y83.40430
 X104.98000 Y83.77890
 X105.52400 Y84.17280
 X106.05800 Y84.58570
 X106.58200 Y85.01740
 X107.09700 Y85.46790
 X107.60100 Y85.93690
 X108.09500 Y86.42430
 X108.57800 Y86.93000
 X109.05000 Y87.45360
 X109.51200 Y87.99500
 X109.96200 Y88.55430
 X110.40100 Y89.13100
 X110.82800 Y89.72510
 X111.24400 Y90.33650
 X111.64700 Y90.96490
 X112.03900 Y91.61010
 X112.41800 Y92.27210
 X112.78400 Y92.95060
 X113.13800 Y93.64540
 X113.39600 Y94.17760
 X113.47900 Y94.35640
 X113.55000 Y94.51000
 X113.74400 Y94.98000
 X113.97800 Y95.63580
 X114.18300 Y96.32080
 X114.36000 Y97.03180
 X114.50900 Y97.76570
 X114.63300 Y98.51920
 X114.73400 Y99.28930
 X114.81100 Y100.07300
 X114.86800 Y100.86700
 X114.90500 Y101.66800
 X114.92300 Y102.47300
 X114.92500 Y103.27800
 X114.91100 Y104.08200
 X114.88400 Y104.88000
 X114.84300 Y105.67000
 X114.79200 Y106.44800
 X114.73100 Y107.21100
 X114.66200 Y107.95600
 X114.58600 Y108.68000
 X114.50400 Y109.38000
 X114.41900 Y110.05200
 X114.33100 Y110.69400
 X114.24200 Y111.30200
 X114.15300 Y111.87300
 X114.06600 Y112.40400
 X113.98200 Y112.89200
 X113.90300 Y113.33400
 X113.83000 Y113.72700
 X113.76400 Y114.06700
 X113.70800 Y114.35100
 X113.66100 Y114.57700
 X113.63500 Y114.69900
 X113.62600 Y114.74000
G0 Z-25.0000
M5 (stop spindle)
G04 P3 (wait for 3 seconds)
G0 Z-25.0000
M2 (end program)
