;PYCAM-META-DATA: Filename: /media/martoio/MARTOIO/ME43/std_lib/svg/019-technology.svg
;PYCAM-META-DATA: Timestamp: 2017-12-06 02:03:51.639168
;PYCAM-META-DATA: Version: 0.5.1
;Estimated machine time: 13 minutes
G40 (disable tool radius compensation)
G49 (disable tool length compensation)
G80 (cancel modal motion)
G54 (select coordinate system 1)
G90 (disable incremental moves)
G21 (metric)
G61 (exact path mode)
F400.00000
S1.00000
;PYCAM_TOOLPATH_SETTINGS: START
;[Bounds]
;maxz = 0.0
;maxx = 148.548234
;maxy = 153.5137
;minx = -7.595294
;miny = -8.0467
;minz = 0.0
;
;[Tool]
;torus_radius = 0.25
;speed = 1.0
;shape = CylindricalCutter
;tool_radius = 0.5
;feedrate = 400.0
;
;[Process]
;engrave_offset = 0.0
;step_down = 1.0
;generator = EngraveCutter
;postprocessor = SimpleCutter
;overlap_percent = 0
;milling_style = conventional
;material_allowance = 0.0
;pocketing_type = none
;path_direction = x
;
;PYCAM_TOOLPATH_SETTINGS: END
T1 M6
G0 Z5.0000
 X38.8666 Y9.5159
G1 Z0.0000
 X65.9604
 Y5.0000
 X38.8666
 Y9.5159
G0 Z5.0000
 X61.5851 Y18.5460
G1 Z0.0000
 X43.5233
 X43.5350 Y19.0101
 X43.5700 Y19.4685
 X43.6275 Y19.9200
 X43.7069 Y20.3644
 X43.8080 Y20.8011
 X43.9298 Y21.2294
 X44.0721 Y21.6489
 X44.2339 Y22.0590
 X44.4150 Y22.4589
 X44.6146 Y22.8483
 X44.8322 Y23.2265
 X45.0673 Y23.5931
 X45.3193 Y23.9472
 X45.5876 Y24.2885
 X45.8715 Y24.6164
 X46.1707 Y24.9301
 X46.4844 Y25.2293
 X46.8123 Y25.5133
 X47.1535 Y25.7817
 X47.5076 Y26.0338
 X47.8740 Y26.2689
 X48.2522 Y26.4865
 X48.6415 Y26.6861
 X49.0414 Y26.8672
 X49.4512 Y27.0290
 X49.8707 Y27.1712
 X50.2989 Y27.2931
 X50.7355 Y27.3942
 X51.1797 Y27.4736
 X51.6312 Y27.5311
 X52.0893 Y27.5661
 X52.5533 Y27.5778
 X53.0175 Y27.5661
 X53.4757 Y27.5311
 X53.9272 Y27.4736
 X54.3717 Y27.3942
 X54.8083 Y27.2931
 X55.2367 Y27.1712
 X55.6561 Y27.0290
 X56.0661 Y26.8672
 X56.4661 Y26.6861
 X56.8555 Y26.4865
 X57.2337 Y26.2689
 X57.6003 Y26.0338
 X57.9544 Y25.7817
 X58.2957 Y25.5133
 X58.6236 Y25.2293
 X58.9373 Y24.9301
 X59.2365 Y24.6164
 X59.5207 Y24.2885
 X59.7889 Y23.9472
 X60.0410 Y23.5931
 X60.2761 Y23.2265
 X60.4937 Y22.8483
 X60.6935 Y22.4589
 X60.8744 Y22.0590
 X61.0364 Y21.6489
 X61.1786 Y21.2294
 X61.3004 Y20.8011
 X61.4014 Y20.3644
 X61.4810 Y19.9200
 X61.5385 Y19.4685
 X61.5735 Y19.0101
 X61.5851 Y18.5460
G0 Z5.0000
 X74.9922 Y9.5159
G1 Z0.0000
 X102.0858
 Y5.0000
 X74.9922
 Y9.5159
G0 Z5.0000
 X97.5700 Y18.5460
G1 Z0.0000
 X79.5080
 X79.5197 Y19.0101
 X79.5547 Y19.4685
 X79.6122 Y19.9200
 X79.6918 Y20.3644
 X79.7928 Y20.8011
 X79.9146 Y21.2294
 X80.0568 Y21.6489
 X80.2186 Y22.0590
 X80.3997 Y22.4589
 X80.5993 Y22.8483
 X80.8169 Y23.2265
 X81.0521 Y23.5931
 X81.3040 Y23.9472
 X81.5723 Y24.2885
 X81.8562 Y24.6164
 X82.1555 Y24.9301
 X82.4693 Y25.2293
 X82.7971 Y25.5133
 X83.1382 Y25.7817
 X83.4923 Y26.0338
 X83.8587 Y26.2689
 X84.2369 Y26.4865
 X84.6262 Y26.6861
 X85.0261 Y26.8672
 X85.4361 Y27.0290
 X85.8554 Y27.1712
 X86.2836 Y27.2931
 X86.7203 Y27.3942
 X87.1646 Y27.4736
 X87.6160 Y27.5311
 X88.0740 Y27.5661
 X88.5380 Y27.5778
 X89.0023 Y27.5661
 X89.4604 Y27.5311
 X89.9121 Y27.4736
 X90.3564 Y27.3942
 X90.7930 Y27.2931
 X91.2214 Y27.1712
 X91.6410 Y27.0290
 X92.0510 Y26.8672
 X92.4510 Y26.6861
 X92.8403 Y26.4865
 X93.2185 Y26.2689
 X93.5850 Y26.0338
 X93.9391 Y25.7817
 X94.2804 Y25.5133
 X94.6083 Y25.2293
 X94.9221 Y24.9301
 X95.2214 Y24.6164
 X95.5054 Y24.2885
 X95.7736 Y23.9472
 X96.0257 Y23.5931
 X96.2608 Y23.2265
 X96.4785 Y22.8483
 X96.6782 Y22.4589
 X96.8592 Y22.0590
 X97.0211 Y21.6489
 X97.1633 Y21.2294
 X97.2851 Y20.8011
 X97.3861 Y20.3644
 X97.4657 Y19.9200
 X97.5232 Y19.4685
 X97.5582 Y19.0101
 X97.5700 Y18.5460
G0 Z5.0000
 X102.0858 Y45.6396
G1 Z0.0000
 X38.8666
 Y81.7651
 X102.0858
 Y45.6396
G0 Z5.0000
 X74.9922 Y95.3111
G1 Z0.0000
 Y86.2793
 X65.9604
 Y95.3111
 X74.9922
G0 Z5.0000
 X61.4444 Y108.8570
G1 Z0.0000
 X79.5078
 Y104.3425
 X61.4444
 Y108.8570
G0 Z5.0000
 X34.3525 Y122.4050
G1 Z0.0000
 X38.8669
 Y108.8570
 X34.3525
 Y122.4050
G0 Z5.0000
 X16.2889 Y99.8271
G1 Z0.0000
 X20.8047
 Y94.1825
 X16.2889
 Y99.8271
G0 Z5.0000
 X61.4444 Y140.4670
G1 Z0.0000
 X79.5078
 Y135.9510
 X61.4444
 Y140.4670
G0 Z5.0000
 X63.8385 Y117.8890
G1 Z0.0000
 X63.8151 Y117.4270
 X63.7467 Y116.9790
 X63.6353 Y116.5460
 X63.4835 Y116.1310
 X63.2933 Y115.7360
 X63.0671 Y115.3640
 X62.8072 Y115.0160
 X62.5157 Y114.6960
 X62.1950 Y114.4040
 X61.8473 Y114.1440
 X61.4750 Y113.9180
 X61.0803 Y113.7280
 X60.6653 Y113.5760
 X60.2325 Y113.4650
 X59.7842 Y113.3960
 X59.3225 Y113.3730
 X58.8608 Y113.3960
 X58.4126 Y113.4650
 X57.9800 Y113.5760
 X57.5653 Y113.7280
 X57.1707 Y113.9180
 X56.7985 Y114.1440
 X56.4508 Y114.4040
 X56.1303 Y114.6960
 X55.8389 Y115.0160
 X55.5790 Y115.3640
 X55.3528 Y115.7360
 X55.1628 Y116.1310
 X55.0110 Y116.5460
 X54.8997 Y116.9790
 X54.8312 Y117.4270
 X54.8079 Y117.8890
 X54.8312 Y118.3510
 X54.8997 Y118.7990
 X55.0110 Y119.2320
 X55.1628 Y119.6470
 X55.3528 Y120.0420
 X55.5790 Y120.4140
 X55.8389 Y120.7620
 X56.1303 Y121.0820
 X56.4508 Y121.3740
 X56.7985 Y121.6340
 X57.1707 Y121.8600
 X57.5653 Y122.0500
 X57.9800 Y122.2020
 X58.4126 Y122.3130
 X58.8608 Y122.3820
 X59.3225 Y122.4050
 X59.7842 Y122.3820
 X60.2325 Y122.3130
 X60.6653 Y122.2020
 X61.0803 Y122.0500
 X61.4750 Y121.8600
 X61.8473 Y121.6340
 X62.1950 Y121.3740
 X62.5157 Y121.0820
 X62.8072 Y120.7620
 X63.0671 Y120.4140
 X63.2933 Y120.0420
 X63.4835 Y119.6470
 X63.6353 Y119.2320
 X63.7467 Y118.7990
 X63.8151 Y118.3510
 X63.8385 Y117.8890
G0 Z5.0000
 X86.4161
G1 Z0.0000
 X86.3928 Y117.4270
 X86.3243 Y116.9790
 X86.2130 Y116.5460
 X86.0612 Y116.1310
 X85.8711 Y115.7360
 X85.6448 Y115.3640
 X85.3850 Y115.0160
 X85.0935 Y114.6960
 X84.7728 Y114.4040
 X84.4251 Y114.1440
 X84.0528 Y113.9180
 X83.6580 Y113.7280
 X83.2432 Y113.5760
 X82.8104 Y113.4650
 X82.3619 Y113.3960
 X81.9003 Y113.3730
 X81.4386 Y113.3960
 X80.9904 Y113.4650
 X80.5579 Y113.5760
 X80.1430 Y113.7280
 X79.7485 Y113.9180
 X79.3762 Y114.1440
 X79.0286 Y114.4040
 X78.7080 Y114.6960
 X78.4166 Y115.0160
 X78.1568 Y115.3640
 X77.9307 Y115.7360
 X77.7405 Y116.1310
 X77.5887 Y116.5460
 X77.4775 Y116.9790
 X77.4090 Y117.4270
 X77.3858 Y117.8890
 X77.4090 Y118.3510
 X77.4775 Y118.7990
 X77.5887 Y119.2320
 X77.7405 Y119.6470
 X77.9307 Y120.0420
 X78.1568 Y120.4140
 X78.4166 Y120.7620
 X78.7080 Y121.0820
 X79.0286 Y121.3740
 X79.3762 Y121.6340
 X79.7485 Y121.8600
 X80.1430 Y122.0500
 X80.5579 Y122.2020
 X80.9904 Y122.3130
 X81.4386 Y122.3820
 X81.9003 Y122.4050
 X82.3619 Y122.3820
 X82.8104 Y122.3130
 X83.2432 Y122.2020
 X83.6580 Y122.0500
 X84.0528 Y121.8600
 X84.4251 Y121.6340
 X84.7728 Y121.3740
 X85.0935 Y121.0820
 X85.3850 Y120.7620
 X85.6448 Y120.4140
 X85.8711 Y120.0420
 X86.0612 Y119.6470
 X86.2130 Y119.2320
 X86.3243 Y118.7990
 X86.3928 Y118.3510
 X86.4161 Y117.8890
G0 Z5.0000
 X47.8985 Y99.8271
G1 Z0.0000
 Y126.9210
 X93.0540
 Y99.8271
 X47.8985
G0 Z5.0000
 X102.0858 Y122.4050
G1 Z0.0000
 X106.5999
 Y108.8570
 X102.0858
 Y122.4050
G0 Z5.0000
 X120.1479 Y99.8271
G1 Z0.0000
 X124.6639
 Y94.1825
 X120.1479
 Y99.8271
G0 Z5.0000
 X70.4762 Y74.9904
G1 Z0.0000
 X69.5469 Y74.9669
 X68.6297 Y74.8972
 X67.7258 Y74.7824
 X66.8365 Y74.6235
 X65.9626 Y74.4218
 X65.1057 Y74.1785
 X64.2665 Y73.8944
 X63.4462 Y73.5711
 X62.6462 Y73.2094
 X61.8673 Y72.8106
 X61.1110 Y72.3757
 X60.3782 Y71.9058
 X59.6700 Y71.4024
 X58.9876 Y70.8661
 X58.3323 Y70.2985
 X57.7050 Y69.7004
 X57.1069 Y69.0732
 X56.5392 Y68.4178
 X56.0029 Y67.7356
 X55.4994 Y67.0274
 X55.0294 Y66.2946
 X54.5946 Y65.5382
 X54.1957 Y64.7594
 X53.8339 Y63.9593
 X53.5104 Y63.1390
 X53.2265 Y62.2999
 X52.9830 Y61.4428
 X52.7814 Y60.5689
 X52.6225 Y59.6793
 X52.5076 Y58.7754
 X52.4379 Y57.8581
 X52.4143 Y56.9286
 X56.9303
 X56.9479 Y57.6246
 X57.0004 Y58.3115
 X57.0867 Y58.9887
 X57.2060 Y59.6551
 X57.3575 Y60.3100
 X57.5403 Y60.9524
 X57.7536 Y61.5814
 X57.9965 Y62.1964
 X58.2682 Y62.7964
 X58.5676 Y63.3804
 X58.8941 Y63.9476
 X59.2469 Y64.4975
 X59.6250 Y65.0287
 X60.0275 Y65.5407
 X60.4535 Y66.0325
 X60.9023 Y66.5033
 X61.3730 Y66.9522
 X61.8648 Y67.3783
 X62.3766 Y67.7810
 X62.9079 Y68.1590
 X63.4576 Y68.5119
 X64.0248 Y68.8385
 X64.6087 Y69.1381
 X65.2087 Y69.4097
 X65.8236 Y69.6528
 X66.4526 Y69.8661
 X67.0950 Y70.0489
 X67.7497 Y70.2004
 X68.4161 Y70.3199
 X69.0932 Y70.4063
 X69.7803 Y70.4586
 X70.4762 Y70.4763
 X71.3698 Y70.4390
 X72.2435 Y70.3350
 X73.0990 Y70.1751
 X73.9391 Y69.9704
 X77.5290 Y73.5603
 X76.7062 Y73.8860
 X75.8643 Y74.1721
 X75.0044 Y74.4172
 X74.1278 Y74.6206
 X73.2354 Y74.7806
 X72.3286 Y74.8964
 X71.4085 Y74.9668
 X70.4762 Y74.9904
G0 Z5.0000
 X84.6728 Y67.9338
G1 Z0.0000
 X87.8794 Y71.1388
 X84.6865 Y74.3318
 X71.5787 Y61.2225
 X71.3082 Y61.2957
 X71.0373 Y61.3676
 X70.7615 Y61.4226
 X70.4762 Y61.4444
 X70.0147 Y61.4211
 X69.5665 Y61.3526
 X69.1337 Y61.2414
 X68.7190 Y61.0894
 X68.3243 Y60.8993
 X67.9519 Y60.6729
 X67.6043 Y60.4129
 X67.2835 Y60.1214
 X66.9919 Y59.8007
 X66.7319 Y59.4531
 X66.5057 Y59.0807
 X66.3154 Y58.6860
 X66.1635 Y58.2711
 X66.0522 Y57.8383
 X65.9837 Y57.3901
 X65.9604 Y56.9286
 X65.9837 Y56.4671
 X66.0522 Y56.0189
 X66.1635 Y55.5861
 X66.3154 Y55.1714
 X66.5057 Y54.7765
 X66.7319 Y54.4043
 X66.9919 Y54.0565
 X67.2835 Y53.7358
 X67.6043 Y53.4443
 X67.9519 Y53.1843
 X68.3243 Y52.9579
 X68.7190 Y52.7676
 X69.1337 Y52.6158
 X69.5665 Y52.5044
 X70.0147 Y52.4360
 X70.4762 Y52.4126
 X70.9378 Y52.4360
 X71.3860 Y52.5044
 X71.8186 Y52.6158
 X72.2335 Y52.7676
 X72.6282 Y52.9579
 X73.0005 Y53.1843
 X73.3482 Y53.4443
 X73.6690 Y53.7358
 X73.9604 Y54.0565
 X74.2205 Y54.4043
 X74.4468 Y54.7765
 X74.6371 Y55.1714
 X74.7890 Y55.5861
 X74.9003 Y56.0189
 X74.9687 Y56.4671
 X74.9922 Y56.9286
 X74.9703 Y57.2140
 X74.9153 Y57.4903
 X74.8433 Y57.7611
 X74.7703 Y58.0310
 X81.4717 Y64.7324
 X81.7621 Y64.3135
 X82.0373 Y63.8837
 X82.2969 Y63.4438
 X82.5404 Y62.9936
 X82.7672 Y62.5338
 X82.9768 Y62.0644
 X83.1689 Y61.5862
 X83.3428 Y61.0992
 X83.4979 Y60.6036
 X83.6341 Y60.1001
 X83.7507 Y59.5889
 X83.8471 Y59.0703
 X83.9229 Y58.5446
 X83.9778 Y58.0122
 X84.0110 Y57.4735
 X84.0222 Y56.9286
 X88.5380
 X88.5208 Y57.7064
 X88.4697 Y58.4744
 X88.3857 Y59.2324
 X88.2694 Y59.9799
 X88.1218 Y60.7160
 X87.9436 Y61.4406
 X87.7360 Y62.1531
 X87.4994 Y62.8528
 X87.2350 Y63.5394
 X86.9435 Y64.2124
 X86.6255 Y64.8710
 X86.2825 Y65.5150
 X85.9147 Y66.1438
 X85.5233 Y66.7569
 X85.1090 Y67.3538
 X84.6728 Y67.9338
G0 Z5.0000
 X131.4369 Y99.8271
G1 Z0.0000
 Y90.7951
 X120.1479
 Y88.4567
 X125.5699 Y84.1033
 X125.4469 Y83.2147
 X125.2849 Y82.3393
 X125.0829 Y81.4779
 X124.8439 Y80.6317
 X124.5679 Y79.8015
 X124.2559 Y78.9886
 X123.9079 Y78.1938
 X123.5269 Y77.4179
 X123.1129 Y76.6621
 X122.6659 Y75.9274
 X122.1889 Y75.2147
 X121.6809 Y74.5251
 X121.1429 Y73.8594
 X120.5769 Y73.2189
 X119.9839 Y72.6042
 X119.3639 Y72.0167
 X118.7189 Y71.4569
 X118.0479 Y70.9261
 X117.3539 Y70.4254
 X116.6379 Y69.9556
 X115.8989 Y69.5176
 X115.1399 Y69.1125
 X114.3599 Y68.7414
 X113.5609 Y68.4050
 X112.7449 Y68.1047
 X111.9109 Y67.8411
 X111.0609 Y67.6154
 X110.1959 Y67.4285
 X109.3159 Y67.2814
 X108.4229 Y67.1751
 X107.5169 Y67.1106
 X106.5999 Y67.0889
 Y86.2793
 X79.5080
 Y95.3111
 X97.5700
 Y131.4350
 X43.3825
 Y95.3111
 X61.4444
 Y86.2793
 X34.3525
 Y67.0889
 X33.4354 Y67.1106
 X32.5298 Y67.1751
 X31.6367 Y67.2814
 X30.7569 Y67.4285
 X29.8916 Y67.6154
 X29.0415 Y67.8411
 X28.2078 Y68.1047
 X27.3911 Y68.4050
 X26.5926 Y68.7414
 X25.8130 Y69.1125
 X25.0535 Y69.5176
 X24.3148 Y69.9556
 X23.5982 Y70.4254
 X22.9041 Y70.9261
 X22.2340 Y71.4569
 X21.5885 Y72.0167
 X20.9686 Y72.6042
 X20.3753 Y73.2189
 X19.8094 Y73.8594
 X19.2719 Y74.5251
 X18.7639 Y75.2147
 X18.2861 Y75.9274
 X17.8396 Y76.6621
 X17.4253 Y77.4179
 X17.0441 Y78.1938
 X16.6971 Y78.9886
 X16.3849 Y79.8015
 X16.1087 Y80.6317
 X15.8694 Y81.4779
 X15.6679 Y82.3393
 X15.5052 Y83.2147
 X15.3822 Y84.1033
 X20.8047 Y88.4567
 Y90.7951
 X9.5159
 Y99.8271
 X5.0000
 Y88.4567
 X10.7715 Y83.8554
 X10.8885 Y83.8596
 X11.0296 Y82.7497
 X11.2208 Y81.6560
 X11.4609 Y80.5797
 X11.7487 Y79.5222
 X12.0831 Y78.4846
 X12.4628 Y77.4683
 X12.8866 Y76.4744
 X13.3534 Y75.5042
 X13.8620 Y74.5590
 X14.4112 Y73.6400
 X14.9998 Y72.7483
 X15.6266 Y71.8854
 X16.2904 Y71.0525
 X16.9900 Y70.2507
 X17.7243 Y69.4814
 X18.4919 Y68.7458
 X19.2919 Y68.0450
 X20.1229 Y67.3804
 X20.9837 Y66.7533
 X21.8733 Y66.1649
 X22.7905 Y65.6164
 X23.7339 Y65.1089
 X24.7023 Y64.6439
 X25.6947 Y64.2226
 X26.7098 Y63.8461
 X27.7467 Y63.5158
 X28.8036 Y63.2329
 X29.8798 Y62.9988
 X30.9740 Y62.8143
 X32.0850 Y62.6811
 X33.2115 Y62.6001
 X34.3525 Y62.5729
 Y41.1237
 X47.8985
 Y31.2213
 X47.4172 Y31.0340
 X46.9451 Y30.8293
 X46.4825 Y30.6076
 X46.0296 Y30.3693
 X45.5869 Y30.1150
 X45.1548 Y29.8447
 X44.7339 Y29.5592
 X44.3244 Y29.2585
 X43.9268 Y28.9432
 X43.5415 Y28.6136
 X43.1689 Y28.2703
 X42.8094 Y27.9135
 X42.4635 Y27.5435
 X42.1314 Y27.1608
 X41.8137 Y26.7658
 X41.5108 Y26.3590
 X41.2230 Y25.9407
 X40.9510 Y25.5111
 X40.6948 Y25.0710
 X40.4550 Y24.6203
 X40.2321 Y24.1597
 X40.0264 Y23.6894
 X39.8383 Y23.2101
 X39.6683 Y22.7219
 X39.5168 Y22.2254
 X39.3840 Y21.7207
 X39.2707 Y21.2085
 X39.1769 Y20.6889
 X39.1035 Y20.1625
 X39.0503 Y19.6296
 X39.0182 Y19.0907
 X39.0073 Y18.5460
 Y14.0318
 X66.1011
 Y18.5460
 X66.0898 Y19.1004
 X66.0565 Y19.6487
 X66.0015 Y20.1907
 X65.9253 Y20.7260
 X65.8280 Y21.2540
 X65.7105 Y21.7744
 X65.5730 Y22.2869
 X65.4161 Y22.7910
 X65.2401 Y23.2862
 X65.0454 Y23.7721
 X64.8325 Y24.2485
 X64.6019 Y24.7149
 X64.3539 Y25.1707
 X64.0890 Y25.6158
 X63.8076 Y26.0496
 X63.5104 Y26.4717
 X63.1975 Y26.8817
 X62.8694 Y27.2793
 X62.5265 Y27.6640
 X62.1694 Y28.0354
 X61.7986 Y28.3932
 X61.4143 Y28.7368
 X61.0171 Y29.0660
 X60.6072 Y29.3801
 X60.1854 Y29.6790
 X59.7518 Y29.9621
 X59.3071 Y30.2292
 X58.8515 Y30.4797
 X58.3857 Y30.7132
 X57.9098 Y30.9293
 X57.4246 Y31.1278
 X56.9303 Y31.3081
 Y41.1237
 X84.0222
 Y31.2625
 X83.5343 Y31.0788
 X83.0554 Y30.8772
 X82.5860 Y30.6582
 X82.1264 Y30.4224
 X81.6772 Y30.1699
 X81.2387 Y29.9013
 X80.8115 Y29.6169
 X80.3958 Y29.3171
 X79.9921 Y29.0024
 X79.6008 Y28.6731
 X79.2223 Y28.3296
 X78.8572 Y27.9722
 X78.5058 Y27.6017
 X78.1685 Y27.2181
 X77.8457 Y26.8217
 X77.5378 Y26.4133
 X77.2454 Y25.9931
 X76.9687 Y25.5615
 X76.7083 Y25.1189
 X76.4646 Y24.6657
 X76.2379 Y24.2024
 X76.0287 Y23.7292
 X75.8375 Y23.2465
 X75.6646 Y22.7550
 X75.5104 Y22.2549
 X75.3754 Y21.7464
 X75.2600 Y21.2301
 X75.1647 Y20.7067
 X75.0898 Y20.1760
 X75.0358 Y19.6387
 X75.0030 Y19.0953
 X74.9922 Y18.5460
 Y14.0318
 X102.0858
 Y18.5460
 X102.0748 Y19.0953
 X102.0421 Y19.6387
 X101.9880 Y20.1760
 X101.9132 Y20.7067
 X101.8178 Y21.2301
 X101.7023 Y21.7464
 X101.5673 Y22.2549
 X101.4132 Y22.7550
 X101.2401 Y23.2465
 X101.0489 Y23.7292
 X100.8396 Y24.2024
 X100.6129 Y24.6657
 X100.3690 Y25.1189
 X100.1086 Y25.5615
 X99.8318 Y25.9931
 X99.5393 Y26.4133
 X99.2315 Y26.8217
 X98.9086 Y27.2181
 X98.5711 Y27.6017
 X98.2196 Y27.9722
 X97.8544 Y28.3296
 X97.4760 Y28.6731
 X97.0846 Y29.0024
 X96.6808 Y29.3171
 X96.2650 Y29.6169
 X95.8376 Y29.9013
 X95.3992 Y30.1699
 X94.9498 Y30.4224
 X94.4904 Y30.6582
 X94.0210 Y30.8772
 X93.5419 Y31.0788
 X93.0540 Y31.2625
 Y41.1237
 X106.5999
 Y62.5729
 X107.7409 Y62.6001
 X108.8679 Y62.6811
 X109.9789 Y62.8143
 X111.0729 Y62.9988
 X112.1489 Y63.2329
 X113.2059 Y63.5158
 X114.2429 Y63.8461
 X115.2579 Y64.2226
 X116.2499 Y64.6439
 X117.2189 Y65.1089
 X118.1619 Y65.6164
 X119.0789 Y66.1649
 X119.9689 Y66.7533
 X120.8299 Y67.3804
 X121.6609 Y68.0450
 X122.4609 Y68.7458
 X123.2279 Y69.4814
 X123.9629 Y70.2507
 X124.6619 Y71.0525
 X125.3259 Y71.8854
 X125.9529 Y72.7483
 X126.5409 Y73.6400
 X127.0899 Y74.5590
 X127.5989 Y75.5042
 X128.0659 Y76.4744
 X128.4899 Y77.4683
 X128.8699 Y78.4846
 X129.2039 Y79.5222
 X129.4919 Y80.5797
 X129.7319 Y81.6560
 X129.9229 Y82.7497
 X130.0639 Y83.8596
 X130.1809 Y83.8554
 X135.9529 Y88.4567
 Y99.8271
 X131.4369
G0 Z5.0000
G0 Z5.0000
M2 (end program)
