$X
$H
G10 P0 L20 X0 Y0 Z0
G40 (disable tool radius compensation)
G49 (disable tool length compensation)
G80 (cancel modal motion)
G54 (select coordinate system 1)
G90 (disable incremental moves)
G21 (metric)
F300.00000
S250.00000
G61 (exact path mode)
;PYCAM_TOOLPATH_SETTINGS: START
;[Bounds]
;maxz = 0.0
;maxx = 123.486
;maxy = 123.146
;minx = 0.0
;miny = 0.340767
;minz = 0.0
;
;[Tool]
;torus_radius = 0.125
;shape = CylindricalCutter
;tool_radius = 1.5875
;feedrate = 300.0
;
;[Process]
;engrave_offset = 0.0
;step_down = 3.0
;generator = EngraveCutter
;postprocessor = SimpleCutter
;overlap_percent = 0
;milling_style = ignore
;material_allowance = 0.0
;pocketing_type = none
;path_direction = x
;
;PYCAM_TOOLPATH_SETTINGS: END
G0 Z-25.0000
M3 (start spindle)
G04 P3 (wait for 3 seconds)
 X66.31940 Y10.04890
G1 Z-53.0000
 X66.27780 Y10.01140
 X66.16100 Y9.89035
 X66.02140 Y9.71744
 X65.90100 Y9.53185
 X65.80070 Y9.33529
 X65.72130 Y9.12939
 X65.66380 Y8.91585
 X65.62850 Y8.69640
 X65.61670 Y8.52860
 Y6.63678
 X65.60570 Y6.47467
 X65.57360 Y6.26471
 X65.52140 Y6.06201
 X65.45010 Y5.86762
 X65.36110 Y5.68261
 X65.25500 Y5.50808
 X65.13310 Y5.34511
 X64.99650 Y5.19472
 X64.84610 Y5.05800
 X64.68320 Y4.93608
 X64.50860 Y4.82997
 X64.32360 Y4.74072
 X64.12920 Y4.66943
 X63.92640 Y4.61719
 X63.71620 Y4.58507
 X63.55400 Y4.57411
 X16.87920
 X16.71690 Y4.58507
 X16.50690 Y4.61719
 X16.30400 Y4.66943
 X16.10960 Y4.74072
 X15.92460 Y4.82997
 X15.75010 Y4.93608
 X15.58710 Y5.05800
 X15.43680 Y5.19472
 X15.30010 Y5.34511
 X15.17830 Y5.50808
 X15.07220 Y5.68261
 X14.98310 Y5.86762
 X14.91180 Y6.06201
 X14.85970 Y6.26471
 X14.82760 Y6.47467
 X14.81670 Y6.63678
 Y8.52860
 X14.80470 Y8.69640
 X14.76960 Y8.91585
 X14.71190 Y9.12939
 X14.63260 Y9.33529
 X14.53240 Y9.53185
 X14.41190 Y9.71744
 X14.27220 Y9.89035
 X14.15540 Y10.01140
 X14.11390 Y10.04890
 X13.97930 Y10.16950
 X13.58150 Y10.53800
 X13.06240 Y11.03850
 X12.55680 Y11.55030
 X12.06460 Y12.07300
 X11.58620 Y12.60630
 X11.12150 Y13.15000
 X10.67080 Y13.70380
 X10.23420 Y14.26720
 X9.81168 Y14.84030
 X9.40354 Y15.42250
 X9.00988 Y16.01360
 X8.63075 Y16.61330
 X8.26639 Y17.22150
 X7.91683 Y17.83750
 X7.58225 Y18.46140
 X7.26275 Y19.09280
 X6.95850 Y19.73130
 X6.66954 Y20.37670
 X6.39615 Y21.02870
 X6.13829 Y21.68690
 X5.89621 Y22.35140
 X5.67003 Y23.02140
 X5.45979 Y23.69690
 X5.26574 Y24.37760
 X5.08789 Y25.06320
 X4.92649 Y25.75330
 X4.78157 Y26.44780
 X4.65326 Y27.14610
 X4.54178 Y27.84830
 X4.44715 Y28.55390
 X4.36957 Y29.26260
 X4.32210 Y29.79610
 X4.30919 Y29.97420
 X76.12420
 X76.11110 Y29.79610
 X76.06370 Y29.26260
 X75.98610 Y28.55390
 X75.89150 Y27.84830
 X75.78000 Y27.14610
 X75.65180 Y26.44780
 X75.50680 Y25.75330
 X75.34540 Y25.06320
 X75.16750 Y24.37760
 X74.97350 Y23.69690
 X74.76320 Y23.02140
 X74.53710 Y22.35140
 X74.29500 Y21.68690
 X74.03720 Y21.02870
 X73.76380 Y20.37670
 X73.47490 Y19.73130
 X73.17060 Y19.09280
 X72.85110 Y18.46140
 X72.51640 Y17.83750
 X72.16690 Y17.22150
 X71.80250 Y16.61330
 X71.42330 Y16.01360
 X71.02970 Y15.42250
 X70.62150 Y14.84030
 X70.19920 Y14.26720
 X69.76250 Y13.70380
 X69.31180 Y13.15000
 X68.84710 Y12.60630
 X68.36860 Y12.07300
 X67.87650 Y11.55030
 X67.37080 Y11.03850
 X66.85170 Y10.53800
 X66.45390 Y10.16950
 X66.31940 Y10.04890
G0 Z-25.0000
 X117.40100 Y65.69820
G1 Z-53.0000
 X95.50640 Y43.80830
 X95.39500 Y43.69680
 X95.03680 Y43.38640
 X94.53060 Y43.02060
 X93.99280 Y42.71110
 X93.42900 Y42.45790
 X92.84420 Y42.26100
 X92.24370 Y42.12040
 X91.63280 Y42.03600
 X91.01670 Y42.00780
 X90.40040 Y42.03600
 X89.78960 Y42.12040
 X89.18900 Y42.26100
 X88.60430 Y42.45790
 X88.04040 Y42.71110
 X87.50280 Y43.02060
 X86.99650 Y43.38640
 X86.63820 Y43.69680
 X86.52680 Y43.80830
 X52.30070 Y78.03310
 X52.26360 Y78.07000
 X52.14510 Y78.17360
 X51.97810 Y78.29740
 X51.80070 Y78.40370
 X51.61430 Y78.49190
 X51.42030 Y78.56170
 X51.21970 Y78.61210
 X51.01390 Y78.64290
 X50.85670 Y78.65320
 X50.80430
 X39.85010 Y78.65460
 X39.79100
 X39.61330 Y78.66600
 X39.39470 Y78.69830
 X39.19360 Y78.74920
 X39.00930 Y78.81600
 X38.84130 Y78.89640
 X38.68900 Y78.98780
 X38.55170 Y79.08780
 X38.42890 Y79.19390
 X38.32000 Y79.30350
 X38.22430 Y79.41420
 X38.14140 Y79.52360
 X38.07030 Y79.62900
 X38.01070 Y79.72820
 X37.96210 Y79.81830
 X37.92360 Y79.89740
 X37.90150 Y79.94600
 X37.89470 Y79.96240
 X37.88790 Y79.97890
 X37.86880 Y80.02870
 X37.83990 Y80.11170
 X37.81040 Y80.20970
 X37.78240 Y80.32180
 X37.75790 Y80.44640
 X37.73930 Y80.58240
 X37.72870 Y80.72820
 X37.72830 Y80.88250
 X37.74030 Y81.04420
 X37.76680 Y81.21180
 X37.81000 Y81.38400
 X37.87220 Y81.55960
 X37.95540 Y81.73690
 X38.06190 Y81.91510
 X38.19400 Y82.09250
 X38.31170 Y82.22600
 X38.35360 Y82.26780
 X69.59350 Y113.50500
 X69.70490 Y113.61700
 X70.06320 Y113.92700
 X70.56940 Y114.29300
 X71.10710 Y114.60200
 X71.67100 Y114.85600
 X72.25570 Y115.05300
 X72.85620 Y115.19300
 X73.46710 Y115.27800
 X74.08330 Y115.30600
 X74.69940 Y115.27800
 X75.31040 Y115.19300
 X75.91080 Y115.05300
 X76.49570 Y114.85600
 X77.05960 Y114.60200
 X77.59720 Y114.29300
 X78.10350 Y113.92700
 X78.46180 Y113.61700
 X78.57320 Y113.50500
 X83.87570 Y108.20500
 X110.33400 Y81.74710
 Y81.74680
 X110.33800 Y81.74370
 Y81.74280
 X117.39900 Y74.68170
 X117.51400 Y74.56710
 X117.83400 Y74.19990
 X118.21200 Y73.68630
 X118.53100 Y73.14530
 X118.79200 Y72.58170
 X118.99500 Y71.99970
 X119.14000 Y71.40400
 X119.22800 Y70.79930
 X119.25700 Y70.19000
 X119.22800 Y69.58080
 X119.14100 Y68.97600
 X118.99600 Y68.38040
 X118.79300 Y67.79830
 X118.53200 Y67.23460
 X118.21300 Y66.69360
 X117.83600 Y66.18000
 X117.51500 Y65.81280
 X117.40100 Y65.69820
G0 Z-25.0000
 X92.27330 Y114.93800
G1 Z-53.0000
 X92.36110 Y115.04800
 X92.63610 Y115.36800
 X93.01930 Y115.77600
 X93.42210 Y116.16100
 X93.84320 Y116.52400
 X94.28170 Y116.86300
 X94.73650 Y117.17800
 X95.20650 Y117.46900
 X95.69070 Y117.73500
 X96.18820 Y117.97500
 X96.69760 Y118.18900
 X97.21820 Y118.37600
 X97.74880 Y118.53700
 X98.28830 Y118.66900
 X98.83580 Y118.77300
 X99.39010 Y118.84800
 X99.81010 Y118.88700
 X99.95040 Y118.89500
 X100.09100 Y118.90300
 X100.51500 Y118.91200
 X101.07600 Y118.89900
 X101.63300 Y118.85700
 X102.18500 Y118.78500
 X102.73100 Y118.68400
 X103.26900 Y118.55600
 X103.79900 Y118.39900
 X104.32000 Y118.21500
 X104.83000 Y118.00300
 X105.32800 Y117.76600
 X105.81500 Y117.50200
 X106.28700 Y117.21300
 X106.74500 Y116.89800
 X107.18700 Y116.55900
 X107.61300 Y116.19600
 X107.92100 Y115.90900
 X108.02000 Y115.80900
 X109.98300 Y113.84800
 X110.09900 Y113.73200
 X110.43900 Y113.37400
 X110.87600 Y112.88600
 X111.29300 Y112.38500
 X111.68900 Y111.87100
 X112.06500 Y111.34500
 X112.42000 Y110.80700
 X112.75500 Y110.25800
 X113.06900 Y109.70000
 X113.36200 Y109.13100
 X113.63400 Y108.55400
 X113.88400 Y107.96800
 X114.11400 Y107.37500
 X114.32200 Y106.77400
 X114.50800 Y106.16700
 X114.67200 Y105.55400
 X114.81500 Y104.93500
 X114.93600 Y104.31200
 X115.03400 Y103.68500
 X115.11100 Y103.05400
 X115.16500 Y102.42100
 X115.19600 Y101.78500
 X115.20500 Y101.14800
 X115.19100 Y100.51000
 X115.15400 Y99.87170
 X115.09400 Y99.23350
 X115.01000 Y98.59610
 X114.90400 Y97.96040
 X114.77400 Y97.32680
 X114.62000 Y96.69580
 X114.44300 Y96.06830
 X114.24100 Y95.44490
 X114.07500 Y94.97960
 X114.01600 Y94.82600
 X111.02300 Y87.04260
 X88.20820 Y109.85900
 X92.27330 Y114.93800
G0 Z-25.0000
 X10.82710 Y64.82470
G1 Z-53.0000
 X10.65500 Y64.49680
 X10.15570 Y63.50420
 X9.51824 Y62.16610
 X8.91525 Y60.81190
 X8.34722 Y59.44280
 X7.81451 Y58.05960
 X7.31754 Y56.66350
 X6.85672 Y55.25570
 X6.53401 Y54.19330
 X6.43257 Y53.83740
 X6.29904 Y53.36930
 X5.93044 Y51.95600
 X5.49283 Y50.05930
 X5.12001 Y48.14920
 X4.81212 Y46.22710
 X4.56928 Y44.29490
 X4.39176 Y42.35430
 X4.27968 Y40.40690
 X4.23671 Y38.94280
 X4.23335 Y38.45460
 X8.46669 Y38.42560
 X8.46989 Y38.87790
 X8.51004 Y40.23440
 X8.61421 Y42.03850
 X8.77892 Y43.83620
 X9.00390 Y45.62630
 X9.28907 Y47.40690
 X9.63417 Y49.17650
 X10.03900 Y50.93390
 X10.37980 Y52.24350
 X10.50330 Y52.67710
 X10.59710 Y53.00680
 X10.89570 Y53.99100
 X11.32230 Y55.29510
 X11.78260 Y56.58860
 X12.27630 Y57.87010
 X12.80280 Y59.13880
 X13.36180 Y60.39320
 X13.95280 Y61.63250
 X14.41580 Y62.55180
 X14.57540 Y62.85540
 X10.82710 Y64.82470
G0 Z-25.0000
 X35.45830 Y70.91010
G1 Z-53.0000
 X32.27500 Y73.69780
 X32.08750 Y73.48400
 X31.53600 Y72.83350
 X30.82100 Y71.95390
 X30.13010 Y71.05920
 X29.46330 Y70.14940
 X28.82070 Y69.22510
 X28.20260 Y68.28620
 X27.60900 Y67.33330
 X27.04000 Y66.36610
 X26.49580 Y65.38530
 X25.97650 Y64.39080
 X25.48210 Y63.38290
 X25.01290 Y62.36190
 X24.56890 Y61.32810
 X24.15030 Y60.28140
 X23.75710 Y59.22220
 X23.47810 Y58.41990
 X23.38960 Y58.15080
 X23.23500 Y57.68150
 X22.81280 Y56.26000
 X22.32110 Y54.35070
 X21.91470 Y52.42460
 X21.59380 Y50.48330
 X21.35850 Y48.52880
 X21.20920 Y46.56240
 X21.14610 Y44.58600
 X21.15280 Y43.09690
 X21.16940 Y42.60110
 X25.39720 Y42.74150
 X25.38240 Y43.19060
 X25.37680 Y44.53920
 X25.43440 Y46.32930
 X25.57000 Y48.11040
 X25.78320 Y49.88100
 X26.07400 Y51.63920
 X26.44220 Y53.38370
 X26.88780 Y55.11290
 X27.27040 Y56.40010
 X27.41040 Y56.82510
 X27.49060 Y57.06860
 X27.74330 Y57.79530
 X28.09930 Y58.75430
 X28.47830 Y59.70190
 X28.88040 Y60.63820
 X29.30530 Y61.56280
 X29.75290 Y62.47540
 X30.22330 Y63.37610
 X30.71630 Y64.26440
 X31.23150 Y65.14060
 X31.76920 Y66.00400
 X32.32900 Y66.85470
 X32.91110 Y67.69240
 X33.51510 Y68.51690
 X34.14110 Y69.32820
 X34.78890 Y70.12600
 X35.28860 Y70.71620
 X35.45830 Y70.91010
G0 Z-25.0000
 X44.40740 Y50.71640
G1 Z-53.0000
 X44.47400 Y51.04500
 X44.70390 Y52.02500
 X45.05780 Y53.31490
 X45.46880 Y54.58470
 X45.93620 Y55.83360
 X46.45970 Y57.06060
 X47.03890 Y58.26460
 X47.67320 Y59.44460
 X48.18380 Y60.31470
 X48.36240 Y60.59940
 X44.77390 Y62.84690
 X44.57010 Y62.52190
 X43.98790 Y61.52850
 X43.26440 Y60.18100
 X42.60390 Y58.80600
 X42.00670 Y57.40460
 X41.47320 Y55.97810
 X41.00420 Y54.52780
 X40.59990 Y53.05500
 X40.33710 Y51.93610
 X40.26070 Y51.56100
 X40.17540 Y51.14210
 X39.96080 Y49.87670
 X39.74680 Y48.18690
 X39.61820 Y46.49330
 X39.57530 Y44.79720
 X39.61790 Y43.10010
 X39.74610 Y41.40380
 X39.96000 Y39.70960
 X40.17420 Y38.43940
 X40.25930 Y38.01890
 X44.41010 Y38.85960
 X44.33530 Y39.22790
 X44.14740 Y40.34010
 X43.95960 Y41.82380
 X43.84690 Y43.30930
 X43.80920 Y44.79530
 X43.84640 Y46.28030
 X43.95850 Y47.76310
 X44.14540 Y49.24220
 X44.33280 Y50.34970
 X44.40740 Y50.71640
G0 Z-25.0000
 X78.31670 Y34.20750
G1 Z-53.0000
 X2.06250
 X1.90007 Y34.19650
 X1.68978 Y34.16440
 X1.48688 Y34.11220
 X1.29237 Y34.04110
 X1.10731 Y33.95190
 X0.93283 Y33.84580
 X0.76991 Y33.72400
 X0.61963 Y33.58740
 X0.48307 Y33.43690
 X0.36122 Y33.27400
 X0.25526 Y33.09940
 X0.16618 Y32.91440
 X0.09505 Y32.72000
 X0.04297 Y32.51720
 X0.01090 Y32.30710
 X0.00000 Y32.14490
 Y31.87400
 X0.01123 Y31.22380
 X0.04476 Y30.35930
 X0.10053 Y29.49780
 X0.17828 Y28.63960
 X0.27789 Y27.78500
 X0.39909 Y26.93470
 X0.54183 Y26.08880
 X0.70584 Y25.24780
 X0.89100 Y24.41210
 X1.09711 Y23.58210
 X1.32400 Y22.75810
 X1.57150 Y21.94040
 X1.83946 Y21.12970
 X2.12765 Y20.32630
 X2.43599 Y19.53040
 X2.76421 Y18.74260
 X3.11219 Y17.96320
 X3.47971 Y17.19250
 X3.86669 Y16.43110
 X4.27285 Y15.67920
 X4.69808 Y14.93720
 X5.14214 Y14.20570
 X5.60499 Y13.48480
 X6.08632 Y12.77510
 X6.58599 Y12.07700
 X7.10389 Y11.39070
 X7.63976 Y10.71670
 X8.19347 Y10.05550
 X8.76486 Y9.40733
 X9.35379 Y8.77263
 X9.95996 Y8.15181
 X10.42560 Y7.69482
 X10.58330 Y7.54519
 Y6.60926
 X10.59160 Y6.36453
 X10.61620 Y6.04249
 X10.65660 Y5.72504
 X10.71250 Y5.41260
 X10.78350 Y5.10563
 X10.86930 Y4.80453
 X10.96920 Y4.50960
 X11.08310 Y4.22136
 X11.21040 Y3.94015
 X11.35080 Y3.66639
 X11.50380 Y3.40050
 X11.66920 Y3.14279
 X11.84640 Y2.89382
 X12.03500 Y2.65386
 X12.23470 Y2.42333
 X12.44520 Y2.20269
 X12.66580 Y1.99229
 X12.89630 Y1.79258
 X13.13630 Y1.60389
 X13.38530 Y1.42671
 X13.64300 Y1.26134
 X13.90890 Y1.10829
 X14.18260 Y0.96788
 X14.46380 Y0.84055
 X14.75210 Y0.72672
 X15.04690 Y0.62674
 X15.34810 Y0.54102
 X15.65500 Y0.47000
 X15.96750 Y0.41406
 X16.28500 Y0.37364
 X16.60690 Y0.34907
 X16.85170 Y0.34077
 X63.58150
 X63.82630 Y0.34907
 X64.14830 Y0.37364
 X64.46580 Y0.41406
 X64.77820 Y0.47000
 X65.08510 Y0.54102
 X65.38630 Y0.62674
 X65.68120 Y0.72672
 X65.96940 Y0.84055
 X66.25070 Y0.96788
 X66.52440 Y1.10829
 X66.79030 Y1.26134
 X67.04790 Y1.42671
 X67.29690 Y1.60389
 X67.53690 Y1.79258
 X67.76750 Y1.99229
 X67.98810 Y2.20269
 X68.19850 Y2.42333
 X68.39820 Y2.65386
 X68.58680 Y2.89382
 X68.76420 Y3.14279
 X68.92940 Y3.40050
 X69.08250 Y3.66639
 X69.22290 Y3.94015
 X69.35010 Y4.22136
 X69.46400 Y4.50960
 X69.56400 Y4.80453
 X69.64970 Y5.10563
 X69.72070 Y5.41260
 X69.77670 Y5.72504
 X69.81710 Y6.04249
 X69.84170 Y6.36453
 X69.85000 Y6.60926
 Y7.54519
 X70.00760 Y7.69482
 X70.47330 Y8.15181
 X71.07960 Y8.77257
 X71.66850 Y9.40722
 X72.23990 Y10.05540
 X72.79350 Y10.71660
 X73.32940 Y11.39050
 X73.84720 Y12.07670
 X74.34690 Y12.77470
 X74.82830 Y13.48440
 X75.29110 Y14.20510
 X75.73530 Y14.93650
 X76.16040 Y15.67850
 X76.56670 Y16.43030
 X76.95360 Y17.19170
 X77.32110 Y17.96220
 X77.66900 Y18.74150
 X77.99720 Y19.52930
 X78.30560 Y20.32510
 X78.59380 Y21.12860
 X78.86180 Y21.93930
 X79.10930 Y22.75680
 X79.33610 Y23.58080
 X79.54220 Y24.41080
 X79.72750 Y25.24650
 X79.89140 Y26.08760
 X80.03420 Y26.93360
 X80.15540 Y27.78420
 X80.25500 Y28.63880
 X80.33280 Y29.49710
 X80.38850 Y30.35890
 X80.42210 Y31.22350
 X80.43330 Y31.87400
 Y32.14490
 X80.42240 Y32.30710
 X80.39030 Y32.51720
 X80.33820 Y32.72000
 X80.26710 Y32.91440
 X80.17810 Y33.09940
 X80.07210 Y33.27400
 X79.95010 Y33.43690
 X79.81360 Y33.58740
 X79.66330 Y33.72400
 X79.50040 Y33.84580
 X79.32600 Y33.95190
 X79.14080 Y34.04110
 X78.94640 Y34.11220
 X78.74350 Y34.16440
 X78.53320 Y34.19650
 X78.37080 Y34.20750
 X78.31670
G0 Z-25.0000
 X120.39400 Y77.67210
G1 Z-53.0000
 X114.30000 Y83.76710
 X117.96800 Y93.30580
 X118.04100 Y93.49600
 X118.24700 Y94.07170
 X118.49500 Y94.84310
 X118.71500 Y95.61940
 X118.90500 Y96.40000
 X119.06500 Y97.18400
 X119.19700 Y97.97060
 X119.30000 Y98.75920
 X119.37400 Y99.54870
 X119.42000 Y100.33900
 X119.43800 Y101.12800
 X119.42700 Y101.91700
 X119.38800 Y102.70300
 X119.32100 Y103.48700
 X119.22700 Y104.26700
 X119.10500 Y105.04300
 X118.95500 Y105.81400
 X118.77900 Y106.57900
 X118.57500 Y107.33800
 X118.34500 Y108.08900
 X118.08700 Y108.83300
 X117.80400 Y109.56700
 X117.49300 Y110.29200
 X117.15700 Y111.00600
 X116.79400 Y111.71000
 X116.40600 Y112.40100
 X115.99200 Y113.08000
 X115.55200 Y113.74600
 X115.08700 Y114.39700
 X114.59600 Y115.03300
 X114.08000 Y115.65300
 X113.54000 Y116.25800
 X113.11800 Y116.70000
 X112.97400 Y116.84400
 X111.01300 Y118.80400
 X110.87400 Y118.94300
 X110.44300 Y119.34600
 X109.84700 Y119.85400
 X109.22800 Y120.32800
 X108.58600 Y120.76800
 X107.92400 Y121.17300
 X107.24300 Y121.54200
 X106.54400 Y121.87500
 X105.82900 Y122.17000
 X105.10000 Y122.42800
 X104.35800 Y122.64700
 X103.60400 Y122.82700
 X102.84000 Y122.96800
 X102.06800 Y123.06800
 X101.28900 Y123.12800
 X100.50500 Y123.14600
 X99.91290 Y123.13300
 X99.71610 Y123.12100
 X99.51970 Y123.11000
 X98.93180 Y123.05700
 X98.15570 Y122.95100
 X97.38900 Y122.80600
 X96.63350 Y122.62000
 X95.89040 Y122.39600
 X95.16120 Y122.13400
 X94.44760 Y121.83400
 X93.75110 Y121.49800
 X93.07290 Y121.12700
 X92.41460 Y120.72000
 X91.77780 Y120.27900
 X91.16380 Y119.80400
 X90.57420 Y119.29600
 X90.01040 Y118.75700
 X89.47390 Y118.18600
 X89.08900 Y117.73800
 X88.96620 Y117.58400
 X85.19580 Y112.87100
 X81.56610 Y116.50100
 X81.47280 Y116.59400
 X81.18400 Y116.86500
 X80.78720 Y117.20800
 X80.37640 Y117.52900
 X79.95220 Y117.82800
 X79.51540 Y118.10500
 X79.06670 Y118.36000
 X78.60670 Y118.59100
 X78.13640 Y118.80000
 X77.65630 Y118.98500
 X77.16720 Y119.14600
 X76.66970 Y119.28400
 X76.16470 Y119.39700
 X75.65280 Y119.48500
 X75.13490 Y119.54900
 X74.61140 Y119.58700
 X74.21530 Y119.60000
 X73.95130
 X73.55510 Y119.58700
 X73.03180 Y119.54900
 X72.51380 Y119.48500
 X72.00190 Y119.39600
 X71.49690 Y119.28300
 X70.99940 Y119.14600
 X70.51040 Y118.98400
 X70.03030 Y118.79800
 X69.55990 Y118.59000
 X69.10000 Y118.35800
 X68.65130 Y118.10300
 X68.21440 Y117.82600
 X67.79010 Y117.52600
 X67.37930 Y117.20500
 X66.98260 Y116.86200
 X66.69380 Y116.59200
 X66.60060 Y116.49800
 X35.36040 Y85.26110
 X35.27440 Y85.17510
 X35.02920 Y84.90510
 X34.72920 Y84.53190
 X34.46080 Y84.14290
 X34.22440 Y83.73970
 X34.02010 Y83.32390
 X33.84830 Y82.89670
 X33.70940 Y82.45990
 X33.60360 Y82.01490
 X33.53110 Y81.56310
 X33.49240 Y81.10620
 X33.48760 Y80.64580
 X33.51740 Y80.18320
 X33.58150 Y79.72000
 X33.68080 Y79.25760
 X33.81510 Y78.79760
 X33.93860 Y78.45400
 X33.98510 Y78.34170
 X34.03170 Y78.22940
 X34.18740 Y77.89890
 X34.41750 Y77.47850
 X34.67430 Y77.08140
 X34.95640 Y76.70830
 X35.26260 Y76.36010
 X35.59150 Y76.03790
 X35.94190 Y75.74210
 X36.31250 Y75.47400
 X36.70210 Y75.23400
 X37.10920 Y75.02330
 X37.53260 Y74.84280
 X37.97120 Y74.69290
 X38.42350 Y74.57500
 X38.88830 Y74.48960
 X39.36430 Y74.43760
 X39.72860 Y74.41990
 X39.85010
 X49.92760 Y74.41710
 X83.53390 Y40.81360
 X83.62710 Y40.72030
 X83.91600 Y40.44940
 X84.31260 Y40.10670
 X84.72350 Y39.78540
 X85.14780 Y39.48600
 X85.58460 Y39.20880
 X86.03330 Y38.95400
 X86.49320 Y38.72210
 X86.96360 Y38.51330
 X87.44380 Y38.32790
 X87.93280 Y38.16620
 X88.43030 Y38.02860
 X88.93530 Y37.91530
 X89.44710 Y37.82670
 X89.96510 Y37.76290
 X90.48850 Y37.72440
 X90.88460 Y37.71150
 X91.14860
 X91.54470 Y37.72440
 X92.06820 Y37.76290
 X92.58610 Y37.82670
 X93.09810 Y37.91530
 X93.60310 Y38.02860
 X94.10040 Y38.16620
 X94.58960 Y38.32790
 X95.06970 Y38.51330
 X95.54000 Y38.72210
 X96.00000 Y38.95400
 X96.44880 Y39.20880
 X96.88560 Y39.48600
 X97.30970 Y39.78540
 X97.72060 Y40.10670
 X98.11740 Y40.44940
 X98.40630 Y40.72030
 X98.49940 Y40.81360
 X120.39400 Y62.70510
 X120.49000 Y62.80140
 X120.76800 Y63.09970
 X121.11800 Y63.50830
 X121.44400 Y63.93030
 X121.74700 Y64.36460
 X122.02400 Y64.81010
 X122.27800 Y65.26610
 X122.50800 Y65.73150
 X122.71300 Y66.20560
 X122.89400 Y66.68710
 X123.05100 Y67.17530
 X123.18400 Y67.66900
 X123.29300 Y68.16760
 X123.37700 Y68.66990
 X123.43800 Y69.17510
 X123.47400 Y69.68220
 X123.48600 Y70.19010
 X123.47400 Y70.69820
 X123.43800 Y71.20510
 X123.37700 Y71.71030
 X123.29300 Y72.21250
 X123.18400 Y72.71100
 X123.05100 Y73.20470
 X122.89400 Y73.69280
 X122.71300 Y74.17400
 X122.50800 Y74.64780
 X122.27800 Y75.11310
 X122.02400 Y75.56890
 X121.74700 Y76.01420
 X121.44400 Y76.44820
 X121.11800 Y76.86970
 X120.76800 Y77.27810
 X120.49000 Y77.57610
 X120.39400 Y77.67210
G0 Z-25.0000
M5 (stop spindle)
G04 P3 (wait for 3 seconds)
G0 Z-25.0000
M2 (end program)
