;PYCAM-META-DATA: Filename: /media/martoio/MARTOIO/ME43/std_lib/svg/020-medical.svg
;PYCAM-META-DATA: Timestamp: 2017-12-06 02:05:43.025991
;PYCAM-META-DATA: Version: 0.5.1
;Estimated machine time: 9 minutes
G40 (disable tool radius compensation)
G49 (disable tool length compensation)
G80 (cancel modal motion)
G54 (select coordinate system 1)
G90 (disable incremental moves)
G21 (metric)
G61 (exact path mode)
F400.00000
S1.00000
;PYCAM_TOOLPATH_SETTINGS: START
;[Bounds]
;maxz = 0.0
;maxx = 110.99122
;maxy = 140.067717752
;minx = -4.18102
;miny = -6.8243379775
;minz = 0.0
;
;[Tool]
;torus_radius = 0.25
;speed = 1.0
;shape = CylindricalCutter
;tool_radius = 0.5
;feedrate = 400.0
;
;[Process]
;engrave_offset = 0.0
;step_down = 1.0
;generator = EngraveCutter
;postprocessor = SimpleCutter
;overlap_percent = 0
;milling_style = conventional
;material_allowance = 0.0
;pocketing_type = none
;path_direction = x
;
;PYCAM_TOOLPATH_SETTINGS: END
T1 M6
G0 Z5.0000
 X28.9463 Y42.6093
G1 Z0.0000
 X22.5603 Y48.9939
 X22.3886 Y49.1490
 X22.2060 Y49.2833
 X22.0136 Y49.3969
 X21.8132 Y49.4900
 X21.6064 Y49.5623
 X21.3949 Y49.6140
 X21.1801 Y49.6450
 X20.9638 Y49.6554
 X20.7472 Y49.6450
 X20.5325 Y49.6140
 X20.3210 Y49.5623
 X20.1142 Y49.4900
 X19.9138 Y49.3969
 X19.7214 Y49.2833
 X19.5388 Y49.1490
 X19.3672 Y48.9939
 X19.2122 Y48.8223
 X19.0778 Y48.6397
 X18.9642 Y48.4473
 X18.8711 Y48.2469
 X18.7988 Y48.0401
 X18.7471 Y47.8286
 X18.7161 Y47.6139
 X18.7058 Y47.3975
 X18.7161 Y47.1810
 X18.7471 Y46.9662
 X18.7988 Y46.7547
 X18.8711 Y46.5479
 X18.9642 Y46.3475
 X19.0778 Y46.1551
 X19.2122 Y45.9725
 X19.3672 Y45.8010
 X25.7532 Y39.4164
 X24.1576 Y37.8193
 X11.3857 Y50.5910
 X17.7717 Y56.9783
 X30.5432 Y44.2068
 X28.9463 Y42.6093
G0 Z5.0000
 X45.0872 Y33.0568
G1 Z0.0000
 X45.5676 Y33.4932
 X46.0826 Y33.8760
 X46.6286 Y34.2040
 X47.2022 Y34.4757
 X47.7997 Y34.6896
 X48.4176 Y34.8442
 X49.0525 Y34.9380
 X49.7008 Y34.9696
 X50.3489 Y34.9380
 X50.9839 Y34.8442
 X51.6018 Y34.6896
 X52.1993 Y34.4757
 X52.7729 Y34.2040
 X53.3189 Y33.8760
 X53.8340 Y33.4932
 X54.3145 Y33.0568
 X64.3093 Y23.0619
 X35.0924
 X45.0872 Y33.0568
G0 Z5.0000
 X81.4604 Y9.5159
G1 Z0.0000
 X18.2429
 Y14.0315
 X18.2663 Y14.4933
 X18.3346 Y14.9417
 X18.4458 Y15.3746
 X18.5978 Y15.7895
 X18.7879 Y16.1843
 X19.0140 Y16.5566
 X19.2740 Y16.9043
 X19.5654 Y17.2250
 X19.8861 Y17.5164
 X20.2338 Y17.7763
 X20.6061 Y18.0025
 X21.0008 Y18.1926
 X21.4158 Y18.3445
 X21.8486 Y18.4557
 X22.2971 Y18.5242
 X22.7589 Y18.5474
 X76.9444
 X77.4063 Y18.5242
 X77.8546 Y18.4557
 X78.2875 Y18.3445
 X78.7024 Y18.1926
 X79.0972 Y18.0025
 X79.4695 Y17.7763
 X79.8172 Y17.5164
 X80.1379 Y17.2250
 X80.4293 Y16.9043
 X80.6892 Y16.5566
 X80.9154 Y16.1843
 X81.1056 Y15.7895
 X81.2574 Y15.3746
 X81.3686 Y14.9417
 X81.4371 Y14.4933
 X81.4604 Y14.0315
 Y9.5159
G0 Z5.0000
 X55.2363 Y62.5137
G1 Z0.0000
 X46.2049
 X36.0786 Y72.6410
 Y81.6714
 X37.9488 Y83.5414
 X57.1064 Y64.3839
 X55.2363 Y62.5137
G0 Z5.0000
 X88.8260 Y66.9330
G1 Z0.0000
 X89.4240 Y65.5801
 X89.9672 Y64.2239
 X90.4565 Y62.8651
 X90.8926 Y61.5050
 X91.2767 Y60.1444
 X91.6093 Y58.7844
 X91.8912 Y57.4260
 X92.1242 Y56.0700
 X92.3082 Y54.7175
 X92.4452 Y53.3694
 X92.5352 Y52.0269
 X92.5782 Y50.6907
 X92.5772 Y49.3619
 X92.5312 Y48.0415
 X92.4432 Y46.7304
 X92.3122 Y45.4297
 X92.1392 Y44.1403
 X91.9262 Y42.8630
 X91.6732 Y41.5992
 X91.3815 Y40.3494
 X91.0520 Y39.1150
 X90.6854 Y37.8967
 X90.2828 Y36.6955
 X89.8450 Y35.5126
 X89.3728 Y34.3489
 X88.8671 Y33.2051
 X88.3289 Y32.0825
 X87.7590 Y30.9818
 X87.1585 Y29.9043
 X86.5281 Y28.8508
 X85.8686 Y27.8223
 X85.1811 Y26.8197
 X84.7326 Y26.1586
 X84.3140 Y25.4837
 X83.9250 Y24.7958
 X83.5647 Y24.0957
 X83.2332 Y23.3836
 X82.9294 Y22.6603
 X82.6533 Y21.9262
 X82.4045 Y21.1823
 X81.8179 Y21.5971
 X81.2001 Y21.9666
 X80.5528 Y22.2882
 X79.8779 Y22.5583
 X79.1778 Y22.7739
 X78.4540 Y22.9318
 X77.7090 Y23.0289
 X76.9444 Y23.0619
 X70.7078
 X69.6575 Y24.1146
 X70.2795 Y24.5426
 X70.8949 Y24.9821
 X71.5028 Y25.4343
 X72.1021 Y25.9007
 X72.6920 Y26.3830
 X73.2713 Y26.8825
 X73.8389 Y27.4005
 X74.3939 Y27.9387
 X75.3290 Y28.9094
 X76.2092 Y29.8953
 X77.0351 Y30.8954
 X77.8076 Y31.9086
 X78.5274 Y32.9344
 X79.1953 Y33.9716
 X79.8122 Y35.0194
 X80.3788 Y36.0769
 X80.8958 Y37.1432
 X81.3642 Y38.2173
 X81.7846 Y39.2985
 X82.1579 Y40.3858
 X82.4849 Y41.4782
 X82.7663 Y42.5748
 X83.0029 Y43.6750
 X83.1956 Y44.7775
 X83.3451 Y45.8816
 X83.4522 Y46.9864
 X83.5178 Y48.0910
 X83.5426 Y49.1944
 X83.5274 Y50.2958
 X83.4728 Y51.3943
 X83.3799 Y52.4889
 X83.2494 Y53.5787
 X83.0819 Y54.6630
 X82.8785 Y55.7408
 X82.6399 Y56.8111
 X82.3667 Y57.8729
 X82.0597 Y58.9257
 X81.7200 Y59.9682
 X81.3482 Y60.9997
 X80.9450 Y62.0192
 X81.6004 Y62.2029
 X82.2274 Y62.4037
 X82.8274 Y62.6214
 X83.4017 Y62.8560
 X83.9518 Y63.1071
 X84.4793 Y63.3748
 X84.9856 Y63.6590
 X85.4721 Y63.9594
 X85.9401 Y64.2760
 X86.3914 Y64.6086
 X86.8272 Y64.9571
 X87.2490 Y65.3212
 X87.6585 Y65.7011
 X88.0568 Y66.0964
 X88.4454 Y66.5071
 X88.8260 Y66.9330
G0 Z5.0000
 X81.4604 Y77.2493
G1 Z0.0000
 X81.4371 Y76.7875
 X81.3686 Y76.3390
 X81.2574 Y75.9062
 X81.1056 Y75.4914
 X80.9154 Y75.0965
 X80.6893 Y74.7243
 X80.4294 Y74.3766
 X80.1381 Y74.0560
 X79.8174 Y73.7644
 X79.4699 Y73.5046
 X79.0976 Y73.2783
 X78.7031 Y73.0882
 X78.2882 Y72.9364
 X77.8556 Y72.8251
 X77.4074 Y72.7567
 X76.9458 Y72.7333
 X76.4840 Y72.7567
 X76.0357 Y72.8251
 X75.6029 Y72.9364
 X75.1879 Y73.0882
 X74.7932 Y73.2783
 X74.4208 Y73.5046
 X74.0732 Y73.7644
 X73.7526 Y74.0560
 X73.4611 Y74.3766
 X73.2011 Y74.7243
 X72.9749 Y75.0965
 X72.7847 Y75.4914
 X72.6329 Y75.9062
 X72.5217 Y76.3390
 X72.4532 Y76.7875
 X72.4300 Y77.2493
 X72.4532 Y77.7110
 X72.5217 Y78.1594
 X72.6329 Y78.5922
 X72.7847 Y79.0071
 X72.9749 Y79.4018
 X73.2011 Y79.7742
 X73.4611 Y80.1217
 X73.7526 Y80.4423
 X74.0732 Y80.7337
 X74.4208 Y80.9937
 X74.7932 Y81.2198
 X75.1879 Y81.4100
 X75.6029 Y81.5619
 X76.0357 Y81.6732
 X76.4840 Y81.7415
 X76.9458 Y81.7648
 X77.4074 Y81.7415
 X77.8556 Y81.6732
 X78.2882 Y81.5619
 X78.7031 Y81.4100
 X79.0976 Y81.2198
 X79.4699 Y80.9937
 X79.8174 Y80.7337
 X80.1381 Y80.4423
 X80.4294 Y80.1217
 X80.6893 Y79.7742
 X80.9154 Y79.4018
 X81.1056 Y79.0071
 X81.2574 Y78.5922
 X81.3686 Y78.1594
 X81.4371 Y77.7110
 X81.4604 Y77.2493
G0 Z5.0000
 X88.2333 Y77.2507
G1 Z0.0000
 X88.2189 Y76.6700
 X88.1756 Y76.0968
 X88.1042 Y75.5319
 X88.0051 Y74.9760
 X87.8793 Y74.4298
 X87.7275 Y73.8942
 X87.5503 Y73.3696
 X87.3485 Y72.8569
 X87.1228 Y72.3568
 X86.8738 Y71.8700
 X86.6021 Y71.3972
 X86.3088 Y70.9390
 X85.9942 Y70.4964
 X85.6593 Y70.0698
 X85.3046 Y69.6601
 X84.9310 Y69.2679
 X84.5390 Y68.8940
 X84.1295 Y68.5392
 X83.7031 Y68.2039
 X83.2604 Y67.8890
 X82.8024 Y67.5954
 X82.3296 Y67.3235
 X81.8426 Y67.0742
 X81.3424 Y66.8480
 X80.8295 Y66.6460
 X80.3046 Y66.4685
 X79.7686 Y66.3164
 X79.2219 Y66.1904
 X78.6656 Y66.0914
 X78.1000 Y66.0197
 X77.5260 Y65.9764
 X76.9444 Y65.9618
 X76.3819 Y65.9765
 X75.8249 Y66.0211
 X75.2738 Y66.0948
 X74.7297 Y66.1971
 X74.1935 Y66.3268
 X73.6658 Y66.4833
 X73.1475 Y66.6657
 X72.6394 Y66.8732
 X72.1425 Y67.1050
 X71.6574 Y67.3601
 X71.1850 Y67.6380
 X70.7261 Y67.9376
 X70.2817 Y68.2583
 X69.8524 Y68.5991
 X69.4390 Y68.9593
 X69.0425 Y69.3379
 X68.6636 Y69.7344
 X68.3032 Y70.1478
 X67.9621 Y70.5771
 X67.6411 Y71.0218
 X67.3410 Y71.4808
 X67.0626 Y71.9536
 X66.8070 Y72.4391
 X66.5746 Y72.9365
 X66.3665 Y73.4453
 X66.1835 Y73.9642
 X66.0263 Y74.4928
 X65.8957 Y75.0298
 X65.7926 Y75.5750
 X65.7181 Y76.1271
 X65.6725 Y76.6855
 X65.6570 Y77.2493
 X65.6714 Y77.8301
 X65.7144 Y78.4035
 X65.7860 Y78.9685
 X65.8849 Y79.5243
 X66.0106 Y80.0705
 X66.1624 Y80.6064
 X66.3396 Y81.1310
 X66.5414 Y81.6437
 X66.7671 Y82.1439
 X67.0161 Y82.6307
 X67.2878 Y83.1036
 X67.5811 Y83.5617
 X67.8957 Y84.0044
 X68.2307 Y84.4310
 X68.5853 Y84.8408
 X68.9590 Y85.2329
 X69.3510 Y85.6068
 X69.7606 Y85.9617
 X70.1871 Y86.2969
 X70.6297 Y86.6118
 X71.0878 Y86.9054
 X71.5607 Y87.1772
 X72.0476 Y87.4265
 X72.5479 Y87.6526
 X73.0608 Y87.8547
 X73.5857 Y88.0321
 X74.1218 Y88.1840
 X74.6683 Y88.3100
 X75.2247 Y88.4090
 X75.7903 Y88.4805
 X76.3642 Y88.5239
 X76.9458 Y88.5382
 X77.5275 Y88.5232
 X78.1015 Y88.4794
 X78.6671 Y88.4073
 X79.2236 Y88.3079
 X79.7703 Y88.1816
 X80.3063 Y88.0294
 X80.8311 Y87.8517
 X81.3440 Y87.6494
 X81.8442 Y87.4233
 X82.3311 Y87.1739
 X82.8039 Y86.9019
 X83.2618 Y86.6082
 X83.7043 Y86.2935
 X84.1307 Y85.9582
 X84.5401 Y85.6035
 X84.9321 Y85.2297
 X85.3056 Y84.8376
 X85.6601 Y84.4280
 X85.9950 Y84.0016
 X86.3095 Y83.5592
 X86.6028 Y83.1014
 X86.8742 Y82.6287
 X87.1232 Y82.1422
 X87.3489 Y81.6422
 X87.5506 Y81.1298
 X87.7278 Y80.6055
 X87.8795 Y80.0701
 X88.0051 Y79.5243
 X88.1042 Y78.9687
 X88.1756 Y78.4041
 X88.2189 Y77.8312
 X88.2333 Y77.2507
G0 Z5.0000
 X89.0176 Y96.2950
G1 Z0.0000
 X88.9593 Y96.2369
 X88.8821 Y96.1596
 X88.7868 Y96.0644
 X88.6750 Y95.9526
 X88.5478 Y95.8255
 X88.4067 Y95.6843
 X88.2526 Y95.5303
 X88.0871 Y95.3647
 X87.7264 Y95.0042
 X87.5339 Y94.8117
 X87.3347 Y94.6128
 X87.1306 Y94.4085
 X86.7115 Y93.9896
 X86.4994 Y93.7775
 X86.2871 Y93.5651
 X86.0758 Y93.3540
 X85.8671 Y93.1453
 X85.6620 Y92.9401
 X85.2678 Y92.5461
 X85.0814 Y92.3596
 X84.9038 Y92.1818
 X84.3057 Y91.5837
 X84.1908 Y91.4686
 X84.0922 Y91.3700
 X84.0113 Y91.2889
 X83.9492 Y91.2267
 X83.1354 Y91.6275
 X82.3018 Y91.9855
 X81.4493 Y92.2976
 X80.5795 Y92.5604
 X79.6929 Y92.7707
 X78.7911 Y92.9251
 X77.8750 Y93.0205
 X76.9458 Y93.0537
 X76.1319 Y93.0336
 X75.3289 Y92.9729
 X74.5374 Y92.8728
 X73.7586 Y92.7340
 X72.9938 Y92.5579
 X72.2433 Y92.3453
 X71.5088 Y92.0971
 X70.7908 Y91.8143
 X70.0906 Y91.4980
 X69.4090 Y91.1492
 X68.7471 Y90.7687
 X68.1058 Y90.3578
 X67.4861 Y89.9173
 X66.8892 Y89.4482
 X66.3157 Y88.9515
 X65.7668 Y88.4282
 X65.2436 Y87.8794
 X64.7470 Y87.3060
 X64.2781 Y86.7087
 X63.8375 Y86.0892
 X63.4265 Y85.4478
 X63.0463 Y84.7858
 X62.6974 Y84.1042
 X62.3811 Y83.4039
 X62.0983 Y82.6860
 X61.8501 Y81.9514
 X61.6374 Y81.2011
 X61.4611 Y80.4361
 X61.3224 Y79.6575
 X61.2222 Y78.8661
 X61.1614 Y78.0630
 X61.1411 Y77.2493
 X61.1710 Y76.3130
 X61.2593 Y75.3892
 X61.4038 Y74.4786
 X61.6020 Y73.5826
 X61.8520 Y72.7022
 X62.1511 Y71.8386
 X62.4975 Y70.9928
 X62.8888 Y70.1658
 X62.6640 Y69.9401
 X60.2993 Y67.5768
 X41.1418 Y86.7340
 X69.8779 Y115.4714
 X70.7222 Y114.6274
 X71.5350 Y113.8144
 X72.3167 Y113.0334
 X73.0683 Y112.2814
 X73.7904 Y111.5594
 X75.1488 Y110.2014
 X75.7865 Y109.5634
 X76.3975 Y108.9534
 X76.9824 Y108.3684
 X77.5419 Y107.8084
 X78.0768 Y107.2744
 X78.5876 Y106.7634
 X79.0753 Y106.2764
 X79.9833 Y105.3684
 X80.4051 Y104.9464
 X80.8065 Y104.5453
 X81.5503 Y103.8015
 X81.8942 Y103.4578
 X82.2201 Y103.1318
 X82.8220 Y102.5301
 X83.3607 Y101.9912
 X83.6083 Y101.7435
 X83.8424 Y101.5094
 X84.0633 Y101.2883
 X84.2722 Y101.0793
 X84.4695 Y100.8818
 X84.6558 Y100.6951
 X84.8321 Y100.5187
 X84.9988 Y100.3517
 X85.1567 Y100.1933
 X85.3065 Y100.0430
 X85.4490 Y99.9003
 X85.5847 Y99.7640
 X85.7144 Y99.6337
 X85.8388 Y99.5089
 X85.9585 Y99.3885
 X86.0742 Y99.2719
 X86.1867 Y99.1587
 X86.2967 Y99.0480
 X86.4046 Y98.9391
 X86.5114 Y98.8312
 X86.6178 Y98.7239
 X86.7243 Y98.6164
 X86.8317 Y98.5078
 X86.9407 Y98.3976
 X87.0518 Y98.2851
 X87.1661 Y98.1696
 X87.2839 Y98.0503
 X87.4060 Y97.9266
 X87.5332 Y97.7979
 X87.6660 Y97.6633
 X87.8053 Y97.5222
 X87.9517 Y97.3740
 X88.1058 Y97.2179
 X88.2685 Y97.0532
 X88.4403 Y96.8793
 X88.6220 Y96.6954
 X88.8142 Y96.5010
 X89.0176 Y96.2950
G0 Z5.0000
 X85.8150 Y105.9204
G1 Z0.0000
 X79.4581 Y112.2774
 X85.8440 Y118.6644
 X92.2022 Y112.3064
 X85.8150 Y105.9204
G0 Z5.0000
 X98.6182 Y105.8904
G1 Z0.0000
 X101.8102 Y109.0834
 X82.6496 Y128.2434
 X79.4581 Y125.0504
 X82.6510 Y121.8574
 X76.2653 Y115.4714
 X73.0724 Y118.6644
 X72.7293 Y118.9744
 X72.3638 Y119.2434
 X71.9790 Y119.4704
 X71.5782 Y119.6574
 X71.1646 Y119.8014
 X70.7414 Y119.9054
 X70.3117 Y119.9674
 X69.8789 Y119.9874
 X69.4460 Y119.9674
 X69.0164 Y119.9054
 X68.5932 Y119.8014
 X68.1797 Y119.6574
 X67.7790 Y119.4704
 X67.3944 Y119.2434
 X67.0292 Y118.9744
 X66.6864 Y118.6644
 X65.7738 Y117.7524
 X64.8972 Y116.8754
 X64.0558 Y116.0344
 X63.2485 Y115.2274
 X62.4736 Y114.4524
 X61.7306 Y113.7094
 X61.0178 Y112.9964
 X60.3343 Y112.3134
 X59.6790 Y111.6574
 X59.0504 Y111.0294
 X58.4478 Y110.4264
 X57.8696 Y109.8484
 X57.3149 Y109.2934
 X56.7824 Y108.7614
 X56.2708 Y108.2494
 X55.7795 Y107.7584
 X55.3067 Y107.2854
 X54.8514 Y106.8304
 X54.4126 Y106.3914
 X53.9892 Y105.9674
 X53.5797 Y105.5584
 X53.1832 Y105.1614
 X52.7983 Y104.7769
 X52.4242 Y104.4026
 X51.7028 Y103.6812
 X51.3533 Y103.3318
 X51.0099 Y102.9882
 X50.0031 Y101.9814
 X49.6715 Y101.6497
 X49.0075 Y100.9857
 X48.6728 Y100.6508
 X48.3346 Y100.3126
 X47.9918 Y99.9697
 X47.2876 Y99.2657
 X46.5514 Y98.5293
 X45.3658 Y97.3437
 X44.9445 Y96.9222
 X44.0550 Y96.0329
 X43.5849 Y95.5626
 X43.0961 Y95.0739
 X42.5875 Y94.5653
 X41.5067 Y93.4843
 X40.9318 Y92.9096
 X39.0564 Y91.0342
 X38.3770 Y90.3547
 X37.6685 Y89.6462
 X36.9297 Y88.9075
 X36.1595 Y88.1373
 X35.3568 Y87.3347
 X33.6489 Y85.6268
 X32.7414 Y84.7194
 X32.4743 Y84.4246
 X32.2393 Y84.1071
 X32.0372 Y83.7696
 X31.8696 Y83.4147
 X31.7371 Y83.0451
 X31.6413 Y82.6636
 X31.5828 Y82.2728
 X31.5632 Y81.8753
 Y72.4357
 X31.5828 Y72.0378
 X31.6413 Y71.6468
 X31.7371 Y71.2651
 X31.8696 Y70.8955
 X32.0372 Y70.5407
 X32.2393 Y70.2030
 X32.4743 Y69.8854
 X32.7414 Y69.5901
 X43.1565 Y59.1761
 X43.4518 Y58.9087
 X43.7696 Y58.6733
 X44.1071 Y58.4711
 X44.4618 Y58.3032
 X44.8313 Y58.1707
 X45.2126 Y58.0746
 X45.6033 Y58.0162
 X46.0010 Y57.9964
 X55.4401
 X55.8382 Y58.0162
 X56.2293 Y58.0746
 X56.6108 Y58.1707
 X56.9803 Y58.3032
 X57.3350 Y58.4711
 X57.6724 Y58.6733
 X57.9897 Y58.9087
 X58.2846 Y59.1761
 X59.6836 Y60.5751
 X60.3385 Y61.2301
 X60.9620 Y61.8536
 X61.5526 Y62.4443
 X62.1092 Y63.0008
 X63.1146 Y64.0062
 X63.5607 Y64.4525
 X63.9675 Y64.8593
 X64.3336 Y65.2253
 X64.6575 Y65.5491
 X64.9379 Y65.8296
 X65.1736 Y66.0654
 X65.3633 Y66.2550
 X65.5057 Y66.3972
 X66.0831 Y65.8173
 X66.6771 Y65.2757
 X67.2871 Y64.7719
 X67.9124 Y64.3054
 X68.5522 Y63.8761
 X69.2058 Y63.4836
 X69.8728 Y63.1273
 X70.5522 Y62.8072
 X71.2435 Y62.5228
 X71.9460 Y62.2736
 X72.6589 Y62.0596
 X73.3817 Y61.8801
 X74.1136 Y61.7351
 X74.8540 Y61.6240
 X75.6021 Y61.5465
 X76.3574 Y61.5023
 X76.8253 Y60.4582
 X77.2458 Y59.4111
 X77.6197 Y58.3618
 X77.9478 Y57.3114
 X78.2306 Y56.2607
 X78.4688 Y55.2105
 X78.6631 Y54.1621
 X78.8140 Y53.1160
 X78.9225 Y52.0733
 X78.9890 Y51.0350
 X79.0143 Y50.0019
 X78.9989 Y48.9748
 X78.9436 Y47.9550
 X78.8492 Y46.9429
 X78.7163 Y45.9398
 X78.5453 Y44.9465
 X78.3371 Y43.9639
 X78.0922 Y42.9929
 X77.8117 Y42.0344
 X77.4957 Y41.0894
 X77.1453 Y40.1589
 X76.7610 Y39.2435
 X76.3435 Y38.3443
 X75.8933 Y37.4622
 X75.4114 Y36.5982
 X74.8982 Y35.7532
 X74.3544 Y34.9280
 X73.7807 Y34.1235
 X73.1779 Y33.3407
 X72.5465 Y32.5805
 X71.8874 Y31.8439
 X71.2008 Y31.1316
 X70.6410 Y30.5919
 X70.0670 Y30.0762
 X69.4799 Y29.5828
 X68.8811 Y29.1098
 X68.2718 Y28.6557
 X67.6532 Y28.2185
 X67.0265 Y27.7964
 X66.3929 Y27.3876
 X20.9646 Y72.9429
 X17.7717 Y69.7498
 X48.1821 Y39.3394
 X47.7521 Y39.2715
 X47.3245 Y39.1873
 X46.8997 Y39.0871
 X46.4785 Y38.9704
 X46.0613 Y38.8372
 X45.6486 Y38.6875
 X45.2411 Y38.5210
 X44.8392 Y38.3378
 X44.4435 Y38.1373
 X44.0546 Y37.9200
 X43.6731 Y37.6854
 X43.2993 Y37.4335
 X42.9340 Y37.1642
 X42.5778 Y36.8771
 X42.2308 Y36.5723
 X41.8942 Y36.2498
 X38.5993 Y32.9548
 X32.1392 Y39.4153
 X36.9293 Y44.2053
 X17.7717 Y63.3625
 X5.0000 Y50.5910
 X24.1576 Y31.4322
 X28.9463 Y36.2237
 X35.4063 Y29.7633
 X28.7063 Y23.0619
 X22.7589
 X22.2940 Y23.0503
 X21.8353 Y23.0154
 X21.3832 Y22.9580
 X20.9385 Y22.8786
 X20.5015 Y22.7778
 X20.0731 Y22.6561
 X19.6533 Y22.5143
 X19.2433 Y22.3526
 X18.8433 Y22.1718
 X18.4539 Y21.9725
 X18.0758 Y21.7551
 X17.7093 Y21.5203
 X17.3554 Y21.2685
 X17.0142 Y21.0004
 X16.6865 Y20.7165
 X16.3729 Y20.4175
 X16.0738 Y20.1039
 X15.7899 Y19.7761
 X15.5218 Y19.4350
 X15.2699 Y19.0808
 X15.0349 Y18.7143
 X14.8174 Y18.3361
 X14.6179 Y17.9466
 X14.4369 Y17.5465
 X14.2753 Y17.1364
 X14.1332 Y16.7168
 X14.0115 Y16.2882
 X13.9106 Y15.8513
 X13.8311 Y15.4066
 X13.7736 Y14.9546
 X13.7388 Y14.4961
 X13.7271 Y14.0315
 Y5.0000
 X85.9763
 X85.9749 Y6.0371
 X85.9714 Y7.0277
 X85.9665 Y7.9738
 X85.9610 Y8.8773
 X85.9558 Y9.7399
 X85.9517 Y10.5634
 X85.9493 Y11.3497
 X85.9497 Y12.1004
 X85.9536 Y12.8176
 X85.9618 Y13.5030
 X85.9750 Y14.1584
 X85.9943 Y14.7855
 X86.0201 Y15.3864
 X86.0536 Y15.9627
 X86.0954 Y16.5162
 X86.1464 Y17.0488
 X86.2072 Y17.5624
 X86.2789 Y18.0586
 X86.3621 Y18.5394
 X86.4578 Y19.0064
 X86.5665 Y19.4616
 X86.6893 Y19.9069
 X86.8269 Y20.3439
 X86.9803 Y20.7746
 X87.1500 Y21.2005
 X87.3368 Y21.6239
 X87.5419 Y22.0462
 X87.7657 Y22.4694
 X88.0092 Y22.8953
 X88.2732 Y23.3255
 X88.5585 Y23.7623
 X88.8658 Y24.2071
 X89.7204 Y25.4572
 X90.5310 Y26.7337
 X91.2971 Y28.0358
 X92.0182 Y29.3619
 X92.6932 Y30.7110
 X93.3232 Y32.0816
 X93.9052 Y33.4728
 X94.4402 Y34.8832
 X94.9282 Y36.3116
 X95.3662 Y37.7568
 X95.7562 Y39.2176
 X96.0962 Y40.6929
 X96.3862 Y42.1811
 X96.6252 Y43.6812
 X96.8132 Y45.1921
 X96.9482 Y46.7123
 X97.0322 Y48.2410
 X97.0622 Y49.7765
 X97.0382 Y51.3178
 X96.9612 Y52.8637
 X96.8282 Y54.4129
 X96.6412 Y55.9643
 X96.3972 Y57.5165
 X96.0972 Y59.0685
 X95.7402 Y60.6187
 X95.3252 Y62.1664
 X94.8522 Y63.7100
 X94.3202 Y65.2483
 X93.7282 Y66.7803
 X93.0772 Y68.3044
 X92.3662 Y69.8198
 X91.5932 Y71.3251
 X91.8582 Y72.0287
 X92.0912 Y72.7447
 X92.2892 Y73.4721
 X92.4522 Y74.2103
 X92.5812 Y74.9580
 X92.6732 Y75.7147
 X92.7292 Y76.4792
 X92.7482 Y77.2507
 X92.7252 Y78.0644
 X92.6582 Y78.8697
 X92.5462 Y79.6653
 X92.3922 Y80.4500
 X92.1962 Y81.2226
 X91.9602 Y81.9821
 X91.6858 Y82.7271
 X91.3738 Y83.4564
 X91.0257 Y84.1689
 X90.6429 Y84.8632
 X90.2267 Y85.5383
 X89.7785 Y86.1929
 X89.2994 Y86.8258
 X88.7911 Y87.4358
 X88.2549 Y88.0216
 X87.6918 Y88.5822
 X88.5925 Y89.4833
 X88.8299 Y89.7205
 X89.0743 Y89.9653
 X89.3276 Y90.2186
 X89.5910 Y90.4819
 X89.8654 Y90.7567
 X90.1525 Y91.0437
 X90.4533 Y91.3447
 X90.7694 Y91.6608
 X91.4519 Y92.3435
 X91.8212 Y92.7128
 X92.2102 Y93.1021
 X92.5212 Y93.4454
 X92.7902 Y93.8114
 X93.0182 Y94.1971
 X93.2052 Y94.5989
 X93.3512 Y95.0139
 X93.4562 Y95.4386
 X93.5202 Y95.8698
 X93.5422 Y96.3044
 X93.5232 Y96.7389
 X93.4632 Y97.1701
 X93.3612 Y97.5948
 X93.2182 Y98.0096
 X93.0332 Y98.4114
 X92.8072 Y98.7968
 X92.5392 Y99.1628
 X92.2292 Y99.5057
 X89.0370 Y102.6987
 X89.0095 Y102.7276
 X95.3952 Y109.1134
 X98.6182 Y105.8904
G0 Z5.0000
G0 Z5.0000
M2 (end program)
