;PYCAM-META-DATA: Filename: /media/martoio/MARTOIO/ME43/std_lib/svg/025-nature-1.svg
;PYCAM-META-DATA: Timestamp: 2017-12-06 02:10:59.067186
;PYCAM-META-DATA: Version: 0.5.1
;Estimated machine time: 14 minutes
G40 (disable tool radius compensation)
G49 (disable tool length compensation)
G80 (cancel modal motion)
G54 (select coordinate system 1)
G90 (disable incremental moves)
G21 (metric)
G61 (exact path mode)
F400.00000
S1.00000
;PYCAM_TOOLPATH_SETTINGS: START
;[Bounds]
;maxz = 0.0
;maxx = 157.726348
;maxy = 163.445924174
;minx = -8.429668
;miny = -8.9496294704
;minz = 0.0
;
;[Tool]
;torus_radius = 0.25
;speed = 1.0
;shape = CylindricalCutter
;tool_radius = 0.5
;feedrate = 400.0
;
;[Process]
;engrave_offset = 0.0
;step_down = 1.0
;generator = EngraveCutter
;postprocessor = SimpleCutter
;overlap_percent = 0
;milling_style = conventional
;material_allowance = 0.0
;pocketing_type = none
;path_direction = x
;
;PYCAM_TOOLPATH_SETTINGS: END
T1 M6
G0 Z5.0000
 X100.3340 Y129.0483
G1 Z0.0000
 X106.2417 Y131.9693
 X106.6667 Y125.3923
 X98.0921 Y117.8513
 X100.3340 Y129.0483
G0 Z5.0000
 X76.9543 Y98.6985
G1 Z0.0000
 X92.1636 Y107.5853
 X92.0726 Y89.9700
 X82.7078 Y84.5626
 X76.9543 Y87.8837
 Y98.6985
G0 Z5.0000
 X72.3436
G1 Z0.0000
 Y87.8851
 X66.5901 Y84.5640
 X57.2248 Y89.9715
 X57.1339 Y107.5853
 X72.3436 Y98.6985
G0 Z5.0000
 X42.6315 Y125.3923
G1 Z0.0000
 X43.0546 Y131.9693
 X48.9636 Y129.0483
 X51.2058 Y117.8513
 X42.6315 Y125.3923
G0 Z5.0000
 X16.9461 Y73.5921
G1 Z0.0000
 X11.4619 Y77.2478
 X16.9461 Y80.9040
 X27.7626 Y77.2478
 X16.9461 Y73.5921
G0 Z5.0000
 X54.9196 Y68.5194
G1 Z0.0000
 X39.6178 Y77.2478
 X54.9196 Y85.9762
 X64.2847 Y80.5689
 Y73.9268
 X54.9196 Y68.5194
G0 Z5.0000
 X74.6490 Y70.6057
G1 Z0.0000
 X68.8955 Y73.9268
 Y80.5689
 X74.6490 Y83.8914
 X80.4007 Y80.5689
 Y73.9268
 X74.6490 Y70.6057
G0 Z5.0000
 X48.9636 Y25.4487
G1 Z0.0000
 X43.0546 Y22.5274
 X42.6315 Y29.1046
 X51.2058 Y36.6442
 X48.9636 Y25.4487
G0 Z5.0000
 X57.1339 Y46.9104
G1 Z0.0000
 X57.2248 Y64.5260
 X66.5901 Y69.9333
 X72.3422 Y66.6124
 Y55.7975
 X72.3436
 X57.1339 Y46.9104
G0 Z5.0000
 X76.9543 Y55.7975
G1 Z0.0000
 Y66.6124
 X82.7064 Y69.9333
 X92.0726 Y64.5260
 X92.1636 Y46.9104
 X76.9543 Y55.7975
G0 Z5.0000
 X106.6667 Y29.1046
G1 Z0.0000
 X106.2417 Y22.5274
 X100.3340 Y25.4487
 X98.0921 Y36.6442
 X106.6667 Y29.1046
G0 Z5.0000
 X132.3517 Y73.5921
G1 Z0.0000
 X121.5337 Y77.2478
 X132.3517 Y80.9040
 X137.8347 Y77.2478
 X132.3517 Y73.5921
G0 Z5.0000
 X143.2707 Y79.1662
G1 Z0.0000
 X133.9647 Y85.3701
 X133.7357 Y85.5050
 X133.4947 Y85.6114
 X133.2447 Y85.6890
 X132.9887 Y85.7378
 X132.7287 Y85.7572
 X132.4667 Y85.7469
 X132.2057 Y85.7067
 X131.9497 Y85.6362
 X114.5747 Y79.7642
 X109.4997 Y82.6594
 X109.2887 Y82.7660
 X109.0727 Y82.8492
 X108.8527 Y82.9093
 X108.6297 Y82.9469
 X108.4067 Y82.9626
 X108.1837 Y82.9565
 X107.9637 Y82.9292
 X107.7477 Y82.8811
 X107.5377 Y82.8128
 X107.3347 Y82.7243
 X107.1397 Y82.6165
 X106.9557 Y82.4896
 X106.7837 Y82.3440
 X106.6247 Y82.1801
 X106.4807 Y81.9986
 X106.3537 Y81.7997
 X106.2467 Y81.5890
 X106.1637 Y81.3728
 X106.1037 Y81.1526
 X106.0657 Y80.9301
 X106.0507 Y80.7068
 X106.0567 Y80.4844
 X106.0847 Y80.2644
 X106.1327 Y80.0486
 X106.2007 Y79.8382
 X106.2897 Y79.6350
 X106.3977 Y79.4406
 X106.5247 Y79.2565
 X106.6697 Y79.0843
 X106.8337 Y78.9257
 X107.0157 Y78.7821
 X107.2147 Y78.6550
 X109.6787 Y77.2478
 X94.3783 Y68.5194
 X85.0132 Y73.9268
 Y80.5689
 X94.3783 Y85.9762
 X99.2026 Y83.2246
 X99.4133 Y83.1180
 X99.6296 Y83.0350
 X99.8498 Y82.9747
 X100.0723 Y82.9371
 X100.2955 Y82.9214
 X100.5180 Y82.9275
 X100.7380 Y82.9547
 X100.9540 Y83.0028
 X101.1644 Y83.0712
 X101.3678 Y83.1596
 X101.5622 Y83.2675
 X101.7465 Y83.3944
 X101.9189 Y83.5400
 X102.0778 Y83.7037
 X102.2215 Y83.8854
 X102.3487 Y84.0843
 X102.4547 Y84.2951
 X102.5377 Y84.5114
 X102.5977 Y84.7315
 X102.6357 Y84.9540
 X102.6507 Y85.1774
 X102.6447 Y85.3997
 X102.6177 Y85.6197
 X102.5697 Y85.8357
 X102.5007 Y86.0462
 X102.4127 Y86.2494
 X102.3044 Y86.4440
 X102.1775 Y86.6282
 X102.0319 Y86.8005
 X101.8682 Y86.9594
 X101.6865 Y87.1032
 X101.4876 Y87.2304
 X99.0029 Y88.6471
 X111.1677 Y95.6710
 X126.1347 Y91.6610
 X126.4347 Y91.6007
 X126.7327 Y91.5808
 X126.9227 Y91.5887
 X127.1097 Y91.6121
 X127.2927 Y91.6504
 X127.4717 Y91.7032
 X127.6447 Y91.7699
 X127.8127 Y91.8503
 X127.9727 Y91.9436
 X128.1247 Y92.0494
 X128.2677 Y92.1675
 X128.4017 Y92.2969
 X128.5257 Y92.4378
 X128.6377 Y92.5890
 X128.7387 Y92.7505
 X128.8257 Y92.9217
 X128.8997 Y93.1021
 X128.9587 Y93.2911
 X129.0077 Y93.5221
 X129.0337 Y93.7522
 X129.0357 Y93.9804
 X129.0157 Y94.2051
 X128.9747 Y94.4249
 X128.9117 Y94.6385
 X128.8297 Y94.8442
 X128.7287 Y95.0408
 X128.6087 Y95.2269
 X128.4717 Y95.4010
 X128.3177 Y95.5618
 X128.1487 Y95.7076
 X127.9637 Y95.8374
 X127.7657 Y95.9493
 X127.5527 Y96.0422
 X127.3287 Y96.1147
 X116.8167 Y98.9314
 X124.7007 Y103.4829
 X132.2517 Y101.4600
 X132.5527 Y101.3999
 X132.8507 Y101.3800
 X133.0397 Y101.3879
 X133.2267 Y101.4112
 X133.4097 Y101.4494
 X133.5887 Y101.5022
 X133.7617 Y101.5690
 X133.9297 Y101.6493
 X134.0897 Y101.7426
 X134.2417 Y101.8486
 X134.3847 Y101.9665
 X134.5187 Y102.0961
 X134.6427 Y102.2368
 X134.7547 Y102.3882
 X134.8557 Y102.5496
 X134.9427 Y102.7208
 X135.0167 Y102.9011
 X135.0757 Y103.0903
 X135.1257 Y103.3211
 X135.1517 Y103.5514
 X135.1537 Y103.7796
 X135.1337 Y104.0043
 X135.0917 Y104.2240
 X135.0297 Y104.4376
 X134.9477 Y104.6435
 X134.8457 Y104.8401
 X134.7267 Y105.0263
 X134.5897 Y105.2003
 X134.4357 Y105.3613
 X134.2657 Y105.5073
 X134.0817 Y105.6373
 X133.8827 Y105.7493
 X133.6707 Y105.8423
 X133.4457 Y105.9153
 X130.3487 Y106.7453
 X136.3737 Y110.2233
 X136.5717 Y110.3513
 X136.7527 Y110.4963
 X136.9157 Y110.6553
 X137.0607 Y110.8283
 X137.1867 Y111.0133
 X137.2927 Y111.2083
 X137.3807 Y111.4123
 X137.4477 Y111.6233
 X137.4947 Y111.8393
 X137.5207 Y112.0593
 X137.5257 Y112.2813
 X137.5087 Y112.5043
 X137.4707 Y112.7263
 X137.4087 Y112.9463
 X137.3247 Y113.1623
 X137.2177 Y113.3723
 X137.0887 Y113.5703
 X136.9447 Y113.7513
 X136.7847 Y113.9143
 X136.6117 Y114.0593
 X136.4267 Y114.1853
 X136.2317 Y114.2923
 X136.0277 Y114.3793
 X135.8167 Y114.4473
 X135.6007 Y114.4943
 X135.3807 Y114.5203
 X135.1577 Y114.5253
 X134.9347 Y114.5083
 X134.7127 Y114.4693
 X134.4927 Y114.4083
 X134.2767 Y114.3243
 X134.0667 Y114.2163
 X128.0417 Y110.7383
 X128.8717 Y113.8343
 X128.9217 Y114.0653
 X128.9467 Y114.2963
 X128.9497 Y114.5243
 X128.9297 Y114.7483
 X128.8877 Y114.9683
 X128.8257 Y115.1823
 X128.7437 Y115.3883
 X128.6427 Y115.5843
 X128.5227 Y115.7703
 X128.3857 Y115.9443
 X128.2317 Y116.1053
 X128.0617 Y116.2513
 X127.8777 Y116.3813
 X127.6787 Y116.4933
 X127.4667 Y116.5863
 X127.2417 Y116.6583
 X127.0107 Y116.7083
 X126.7807 Y116.7343
 X126.5527 Y116.7363
 X126.3277 Y116.7163
 X126.1077 Y116.6753
 X125.8947 Y116.6123
 X125.6887 Y116.5303
 X125.4917 Y116.4293
 X125.3057 Y116.3093
 X125.1317 Y116.1723
 X124.9707 Y116.0183
 X124.8247 Y115.8483
 X124.6957 Y115.6643
 X124.5837 Y115.4653
 X124.4907 Y115.2533
 X124.4177 Y115.0283
 X122.3937 Y107.4763
 X114.5117 Y102.9261
 X117.3277 Y113.4363
 X117.3777 Y113.6673
 X117.4037 Y113.8973
 X117.4057 Y114.1263
 X117.3857 Y114.3513
 X117.3447 Y114.5703
 X117.2817 Y114.7843
 X117.1997 Y114.9903
 X117.0987 Y115.1873
 X116.9787 Y115.3733
 X116.8417 Y115.5473
 X116.6877 Y115.7083
 X116.5177 Y115.8543
 X116.3337 Y115.9843
 X116.1347 Y116.0963
 X115.9227 Y116.1893
 X115.6977 Y116.2613
 X115.4667 Y116.3113
 X115.2367 Y116.3363
 X115.0087 Y116.3383
 X114.7837 Y116.3183
 X114.5637 Y116.2773
 X114.3507 Y116.2143
 X114.1447 Y116.1323
 X113.9477 Y116.0313
 X113.7617 Y115.9113
 X113.5877 Y115.7743
 X113.4277 Y115.6203
 X113.2817 Y115.4513
 X113.1517 Y115.2663
 X113.0397 Y115.0673
 X112.9467 Y114.8563
 X112.8737 Y114.6313
 X108.8637 Y99.6644
 X96.6990 Y92.6405
 X96.7911 Y110.5673
 X110.5627 Y122.6783
 X110.7527 Y122.8653
 X110.9177 Y123.0703
 X111.0567 Y123.2923
 X111.1707 Y123.5273
 X111.2567 Y123.7733
 X111.3137 Y124.0293
 X111.3427 Y124.2913
 X111.3407 Y124.5573
 X110.6217 Y135.7183
 X110.5847 Y136.0023
 X110.5147 Y136.2773
 X110.4117 Y136.5393
 X110.2787 Y136.7863
 X110.1167 Y137.0153
 X109.9267 Y137.2233
 X109.7117 Y137.4083
 X109.4737 Y137.5663
 X109.2167 Y137.6943
 X108.9487 Y137.7883
 X108.6737 Y137.8483
 X108.3947 Y137.8743
 X108.1137 Y137.8663
 X107.8357 Y137.8243
 X107.5627 Y137.7473
 X107.2987 Y137.6363
 X97.2736 Y132.6793
 X97.0421 Y132.5483
 X96.8293 Y132.3923
 X96.6369 Y132.2143
 X96.4664 Y132.0163
 X96.3193 Y131.8003
 X96.1973 Y131.5683
 X96.1019 Y131.3233
 X96.0347 Y131.0663
 X92.4339 Y113.0833
 X76.9543 Y104.0399
 Y118.0863
 X87.9112 Y129.0433
 X88.0696 Y129.2183
 X88.2069 Y129.4043
 X88.3230 Y129.6003
 X88.4180 Y129.8053
 X88.4919 Y130.0163
 X88.5447 Y130.2323
 X88.5764 Y130.4513
 X88.5869 Y130.6723
 X88.5764 Y130.8933
 X88.5447 Y131.1133
 X88.4919 Y131.3293
 X88.4180 Y131.5403
 X88.3230 Y131.7453
 X88.2069 Y131.9413
 X88.0696 Y132.1283
 X87.9112 Y132.3033
 X87.7362 Y132.4613
 X87.5497 Y132.5983
 X87.3533 Y132.7143
 X87.1487 Y132.8093
 X86.9375 Y132.8833
 X86.7214 Y132.9363
 X86.5019 Y132.9673
 X86.2810 Y132.9783
 X86.0598 Y132.9673
 X85.8404 Y132.9363
 X85.6243 Y132.8833
 X85.4130 Y132.8093
 X85.2085 Y132.7143
 X85.0121 Y132.5983
 X84.8255 Y132.4613
 X84.6505 Y132.3033
 X76.9543 Y124.6093
 Y133.7133
 X82.4830 Y139.2403
 X82.6412 Y139.4153
 X82.7783 Y139.6023
 X82.8944 Y139.7983
 X82.9893 Y140.0033
 X83.0632 Y140.2143
 X83.1158 Y140.4313
 X83.1475 Y140.6503
 X83.1580 Y140.8713
 X83.1475 Y141.0923
 X83.1158 Y141.3113
 X83.0632 Y141.5273
 X82.9893 Y141.7393
 X82.8944 Y141.9433
 X82.7783 Y142.1403
 X82.6412 Y142.3273
 X82.4830 Y142.5023
 X82.3078 Y142.6603
 X82.1211 Y142.7973
 X81.9246 Y142.9133
 X81.7198 Y143.0083
 X81.5086 Y143.0823
 X81.2925 Y143.1353
 X81.0730 Y143.1663
 X80.8521 Y143.1773
 X80.6309 Y143.1663
 X80.4116 Y143.1353
 X80.1955 Y143.0823
 X79.9843 Y143.0083
 X79.7797 Y142.9133
 X79.5832 Y142.7973
 X79.3965 Y142.6603
 X79.2214 Y142.5023
 X76.9543 Y140.2343
 Y147.1923
 X76.9423 Y147.4273
 X76.9075 Y147.6563
 X76.8507 Y147.8773
 X76.7732 Y148.0893
 X76.6761 Y148.2913
 X76.5605 Y148.4813
 X76.4279 Y148.6573
 X76.2790 Y148.8213
 X76.1153 Y148.9703
 X75.9379 Y149.1033
 X75.7478 Y149.2183
 X75.5462 Y149.3163
 X75.3344 Y149.3933
 X75.1135 Y149.4503
 X74.8846 Y149.4853
 X74.6490 Y149.4963
 X74.4132 Y149.4853
 X74.1841 Y149.4503
 X73.9632 Y149.3933
 X73.7514 Y149.3163
 X73.5498 Y149.2183
 X73.3598 Y149.1033
 X73.1823 Y148.9703
 X73.0186 Y148.8213
 X72.8698 Y148.6573
 X72.7372 Y148.4813
 X72.6216 Y148.2913
 X72.5247 Y148.0893
 X72.4471 Y147.8773
 X72.3904 Y147.6563
 X72.3554 Y147.4273
 X72.3436 Y147.1923
 Y140.2343
 X70.0751 Y142.5023
 X69.8998 Y142.6603
 X69.7132 Y142.7973
 X69.5166 Y142.9133
 X69.3121 Y143.0083
 X69.1008 Y143.0823
 X68.8847 Y143.1353
 X68.6654 Y143.1663
 X68.4444 Y143.1773
 X68.2235 Y143.1663
 X68.0041 Y143.1353
 X67.7882 Y143.0823
 X67.5771 Y143.0083
 X67.3726 Y142.9133
 X67.1762 Y142.7973
 X66.9897 Y142.6603
 X66.8148 Y142.5023
 X66.6564 Y142.3273
 X66.5190 Y142.1403
 X66.4029 Y141.9433
 X66.3078 Y141.7393
 X66.2339 Y141.5273
 X66.1810 Y141.3113
 X66.1493 Y141.0923
 X66.1387 Y140.8713
 X66.1493 Y140.6503
 X66.1810 Y140.4313
 X66.2339 Y140.2143
 X66.3078 Y140.0033
 X66.4029 Y139.7983
 X66.5190 Y139.6023
 X66.6564 Y139.4153
 X66.8148 Y139.2403
 X72.3436 Y133.7133
 Y124.6093
 X64.6485 Y132.3053
 X64.4732 Y132.4633
 X64.2864 Y132.6003
 X64.0898 Y132.7163
 X63.8853 Y132.8113
 X63.6740 Y132.8843
 X63.4579 Y132.9373
 X63.2385 Y132.9693
 X63.0175 Y132.9793
 X62.7965 Y132.9693
 X62.5771 Y132.9373
 X62.3609 Y132.8843
 X62.1497 Y132.8113
 X61.9451 Y132.7163
 X61.7486 Y132.6003
 X61.5619 Y132.4633
 X61.3866 Y132.3053
 X61.2284 Y132.1293
 X61.0914 Y131.9423
 X60.9753 Y131.7463
 X60.8804 Y131.5413
 X60.8065 Y131.3303
 X60.7539 Y131.1143
 X60.7222 Y130.8953
 X60.7116 Y130.6743
 X60.7222 Y130.4533
 X60.7539 Y130.2333
 X60.8065 Y130.0173
 X60.8804 Y129.8063
 X60.9753 Y129.6023
 X61.0914 Y129.4053
 X61.2284 Y129.2193
 X61.3866 Y129.0443
 X72.3436 Y118.0873
 Y104.0399
 X56.8640 Y113.0833
 X53.2632 Y131.0663
 X53.1958 Y131.3233
 X53.1004 Y131.5693
 X52.9783 Y131.8013
 X52.8312 Y132.0173
 X52.6607 Y132.2143
 X52.4683 Y132.3923
 X52.2557 Y132.5483
 X52.0243 Y132.6793
 X41.9990 Y137.6363
 X41.7347 Y137.7473
 X41.4618 Y137.8243
 X41.1834 Y137.8663
 X40.9030 Y137.8743
 X40.6236 Y137.8483
 X40.3486 Y137.7883
 X40.0811 Y137.6953
 X39.8246 Y137.5673
 X39.5853 Y137.4093
 X39.3701 Y137.2243
 X39.1807 Y137.0163
 X39.0185 Y136.7873
 X38.8853 Y136.5403
 X38.7829 Y136.2773
 X38.7128 Y136.0023
 X38.6765 Y135.7183
 X37.9572 Y124.5593
 X37.9551 Y124.2923
 X37.9835 Y124.0303
 X38.0412 Y123.7743
 X38.1272 Y123.5283
 X38.2407 Y123.2923
 X38.3803 Y123.0713
 X38.5453 Y122.8653
 X38.7344 Y122.6793
 X52.5065 Y110.5683
 X52.5989 Y92.6419
 X40.4334 Y99.6658
 X36.4233 Y114.6313
 X36.3508 Y114.8563
 X36.2580 Y115.0683
 X36.1459 Y115.2673
 X36.0164 Y115.4513
 X35.8705 Y115.6213
 X35.7098 Y115.7753
 X35.5357 Y115.9123
 X35.3497 Y116.0323
 X35.1530 Y116.1333
 X34.9472 Y116.2153
 X34.7337 Y116.2783
 X34.5139 Y116.3193
 X34.2891 Y116.3393
 X34.0610 Y116.3373
 X33.8307 Y116.3113
 X33.5997 Y116.2613
 X33.3750 Y116.1893
 X33.1629 Y116.0963
 X32.9640 Y115.9843
 X32.7794 Y115.8543
 X32.6098 Y115.7083
 X32.4560 Y115.5473
 X32.3189 Y115.3733
 X32.1991 Y115.1873
 X32.0979 Y114.9913
 X32.0155 Y114.7853
 X31.9533 Y114.5713
 X31.9118 Y114.3523
 X31.8918 Y114.1273
 X31.8941 Y113.8993
 X31.9198 Y113.6683
 X31.9696 Y113.4383
 X34.7851 Y102.9261
 X26.9012 Y107.4783
 X24.8783 Y115.0293
 X24.8058 Y115.2543
 X24.7128 Y115.4663
 X24.6007 Y115.6653
 X24.4710 Y115.8503
 X24.3250 Y116.0193
 X24.1641 Y116.1733
 X23.9898 Y116.3103
 X23.8037 Y116.4303
 X23.6069 Y116.5313
 X23.4009 Y116.6133
 X23.1873 Y116.6763
 X22.9675 Y116.7173
 X22.7428 Y116.7373
 X22.5144 Y116.7353
 X22.2841 Y116.7093
 X22.0533 Y116.6603
 X21.8287 Y116.5873
 X21.6168 Y116.4943
 X21.4182 Y116.3823
 X21.2337 Y116.2523
 X21.0641 Y116.1063
 X20.9105 Y115.9453
 X20.7735 Y115.7713
 X20.6537 Y115.5853
 X20.5523 Y115.3883
 X20.4700 Y115.1823
 X20.4076 Y114.9693
 X20.3659 Y114.7493
 X20.3460 Y114.5253
 X20.3482 Y114.2973
 X20.3736 Y114.0663
 X20.4232 Y113.8363
 X21.2525 Y110.7383
 X15.2292 Y114.2163
 X15.0188 Y114.3243
 X14.8029 Y114.4083
 X14.5830 Y114.4693
 X14.3606 Y114.5083
 X14.1373 Y114.5253
 X13.9148 Y114.5203
 X13.6946 Y114.4943
 X13.4784 Y114.4473
 X13.2675 Y114.3793
 X13.0639 Y114.2923
 X12.8688 Y114.1853
 X12.6840 Y114.0593
 X12.5111 Y113.9153
 X12.3515 Y113.7523
 X12.2071 Y113.5713
 X12.0792 Y113.3733
 X11.9716 Y113.1633
 X11.8874 Y112.9473
 X11.8261 Y112.7273
 X11.7873 Y112.5053
 X11.7705 Y112.2813
 X11.7754 Y112.0593
 X11.8016 Y111.8393
 X11.8486 Y111.6233
 X11.9159 Y111.4123
 X12.0032 Y111.2083
 X12.1100 Y111.0133
 X12.2359 Y110.8283
 X12.3806 Y110.6553
 X12.5435 Y110.4963
 X12.7242 Y110.3513
 X12.9224 Y110.2233
 X18.9471 Y106.7453
 X15.8508 Y105.9153
 X15.6260 Y105.8423
 X15.4139 Y105.7493
 X15.2150 Y105.6373
 X15.0303 Y105.5073
 X14.8607 Y105.3613
 X14.7069 Y105.2003
 X14.5697 Y105.0263
 X14.4499 Y104.8401
 X14.3485 Y104.6435
 X14.2661 Y104.4376
 X14.2037 Y104.2240
 X14.1620 Y104.0043
 X14.1419 Y103.7796
 X14.1442 Y103.5514
 X14.1696 Y103.3211
 X14.2191 Y103.0903
 X14.2786 Y102.9014
 X14.3526 Y102.7212
 X14.4402 Y102.5501
 X14.5407 Y102.3887
 X14.6532 Y102.2374
 X14.7769 Y102.0968
 X14.9109 Y101.9671
 X15.0544 Y101.8490
 X15.2066 Y101.7430
 X15.3666 Y101.6497
 X15.5336 Y101.5693
 X15.7068 Y101.5025
 X15.8853 Y101.4496
 X16.0683 Y101.4112
 X16.2550 Y101.3879
 X16.4446 Y101.3800
 X16.7437 Y101.3999
 X17.0443 Y101.4600
 X24.5958 Y103.4829
 X32.4797 Y98.9314
 X21.9679 Y96.1147
 X21.7432 Y96.0422
 X21.5309 Y95.9493
 X21.3321 Y95.8374
 X21.1475 Y95.7076
 X20.9778 Y95.5618
 X20.8240 Y95.4010
 X20.6868 Y95.2269
 X20.5672 Y95.0408
 X20.4658 Y94.8442
 X20.3836 Y94.6385
 X20.3214 Y94.4249
 X20.2797 Y94.2051
 X20.2598 Y93.9804
 X20.2623 Y93.7522
 X20.2880 Y93.5221
 X20.3378 Y93.2911
 X20.3969 Y93.1021
 X20.4707 Y92.9217
 X20.5582 Y92.7505
 X20.6585 Y92.5890
 X20.7708 Y92.4378
 X20.8944 Y92.2969
 X21.0285 Y92.1675
 X21.1719 Y92.0494
 X21.3240 Y91.9436
 X21.4841 Y91.8503
 X21.6512 Y91.7699
 X21.8246 Y91.7032
 X22.0032 Y91.6504
 X22.1864 Y91.6121
 X22.3733 Y91.5887
 X22.5630 Y91.5808
 X22.8611 Y91.6007
 X23.1614 Y91.6610
 X38.1266 Y95.6710
 X50.2921 Y88.6471
 X34.7215 Y79.7642
 X17.3472 Y85.6362
 X17.0903 Y85.7067
 X16.8297 Y85.7469
 X16.5679 Y85.7572
 X16.3075 Y85.7378
 X16.0510 Y85.6890
 X15.8008 Y85.6114
 X15.5595 Y85.5050
 X15.3297 Y85.3701
 X6.0266 Y79.1662
 X5.7981 Y78.9929
 X5.5953 Y78.7949
 X5.4196 Y78.5750
 X5.2725 Y78.3364
 X5.1555 Y78.0814
 X5.0701 Y77.8132
 X5.0177 Y77.5344
 X5.0000 Y77.2478
 X5.0177 Y76.9618
 X5.0701 Y76.6833
 X5.1555 Y76.4153
 X5.2725 Y76.1603
 X5.4196 Y75.9214
 X5.5953 Y75.7014
 X5.7981 Y75.5033
 X6.0266 Y75.3297
 X15.3311 Y69.1258
 X15.6294 Y68.9578
 X15.9460 Y68.8365
 X16.2751 Y68.7632
 X16.6114 Y68.7385
 X16.9825 Y68.7686
 X17.3486 Y68.8599
 X34.7229 Y74.7314
 X50.2950 Y65.8489
 X38.1294 Y58.8251
 X23.1625 Y62.8365
 X22.9315 Y62.8857
 X22.7012 Y62.9110
 X22.4732 Y62.9131
 X22.2484 Y62.8929
 X22.0287 Y62.8512
 X21.8151 Y62.7887
 X21.6094 Y62.7064
 X21.4128 Y62.6050
 X21.2266 Y62.4854
 X21.0526 Y62.3483
 X20.8919 Y62.1946
 X20.7461 Y62.0251
 X20.6165 Y61.8406
 X20.5044 Y61.6418
 X20.4116 Y61.4296
 X20.3391 Y61.2049
 X20.2894 Y60.9743
 X20.2637 Y60.7442
 X20.2612 Y60.5160
 X20.2811 Y60.2914
 X20.3228 Y60.0715
 X20.3850 Y59.8581
 X20.4672 Y59.6522
 X20.5686 Y59.4556
 X20.6882 Y59.2694
 X20.8254 Y59.0953
 X20.9791 Y58.9344
 X21.1489 Y58.7885
 X21.3334 Y58.6587
 X21.5323 Y58.5467
 X21.7446 Y58.4537
 X21.9694 Y58.3812
 X32.4811 Y55.5643
 X24.5972 Y51.0128
 X17.0443 Y53.0357
 X16.8135 Y53.0851
 X16.5834 Y53.1107
 X16.3553 Y53.1130
 X16.1306 Y53.0931
 X15.9108 Y53.0515
 X15.6973 Y52.9892
 X15.4914 Y52.9071
 X15.2948 Y52.8057
 X15.1086 Y52.6861
 X14.9344 Y52.5490
 X14.7737 Y52.3954
 X14.6277 Y52.2258
 X14.4980 Y52.0412
 X14.3859 Y51.8424
 X14.2930 Y51.6303
 X14.2206 Y51.4054
 X14.1710 Y51.1749
 X14.1455 Y50.9447
 X14.1432 Y50.7168
 X14.1632 Y50.4921
 X14.2048 Y50.2724
 X14.2671 Y50.0589
 X14.3494 Y49.8530
 X14.4506 Y49.6562
 X14.5703 Y49.4701
 X14.7073 Y49.2960
 X14.8610 Y49.1353
 X15.0306 Y48.9892
 X15.2151 Y48.8594
 X15.4139 Y48.7474
 X15.6260 Y48.6543
 X15.8508 Y48.5818
 X18.9486 Y47.7525
 X12.9238 Y44.2740
 X12.7254 Y44.1460
 X12.5445 Y44.0012
 X12.3813 Y43.8415
 X12.2365 Y43.6685
 X12.1105 Y43.4835
 X12.0035 Y43.2885
 X11.9161 Y43.0846
 X11.8487 Y42.8739
 X11.8017 Y42.6576
 X11.7755 Y42.4375
 X11.7706 Y42.2150
 X11.7873 Y41.9918
 X11.8261 Y41.7696
 X11.8874 Y41.5499
 X11.9716 Y41.3342
 X12.0792 Y41.1240
 X12.2550 Y40.8621
 X12.4597 Y40.6317
 X12.6894 Y40.4339
 X12.9403 Y40.2697
 X13.2084 Y40.1404
 X13.4901 Y40.0467
 X13.7814 Y39.9897
 X14.0784 Y39.9705
 X14.3725 Y39.9893
 X14.6648 Y40.0464
 X14.9516 Y40.1428
 X15.2292 Y40.2792
 X21.2539 Y43.7590
 X20.4246 Y40.6610
 X20.3750 Y40.4303
 X20.3496 Y40.2003
 X20.3472 Y39.9722
 X20.3673 Y39.7476
 X20.4090 Y39.5278
 X20.4714 Y39.3143
 X20.5536 Y39.1085
 X20.6550 Y38.9118
 X20.7747 Y38.7257
 X20.9116 Y38.5514
 X21.0654 Y38.3907
 X21.2350 Y38.2446
 X21.4194 Y38.1149
 X21.6182 Y38.0028
 X21.8301 Y37.9097
 X22.0547 Y37.8372
 X22.3547 Y37.7781
 X22.6526 Y37.7590
 X22.8425 Y37.7669
 X23.0294 Y37.7903
 X23.2126 Y37.8285
 X23.3914 Y37.8812
 X23.5647 Y37.9479
 X23.7318 Y38.0282
 X23.8921 Y38.1215
 X24.0443 Y38.2274
 X24.1879 Y38.3453
 X24.3219 Y38.4747
 X24.4455 Y38.6153
 X24.5582 Y38.7664
 X24.6586 Y38.9276
 X24.7462 Y39.0986
 X24.8203 Y39.2787
 X24.8797 Y39.4675
 X26.9026 Y47.0194
 X34.7865 Y51.5710
 X31.9696 Y41.0592
 X31.9200 Y40.8283
 X31.8947 Y40.5981
 X31.8923 Y40.3700
 X31.9125 Y40.1453
 X31.9541 Y39.9254
 X32.0165 Y39.7119
 X32.0989 Y39.5061
 X32.2003 Y39.3096
 X32.3198 Y39.1235
 X32.4571 Y38.9493
 X32.6107 Y38.7886
 X32.7801 Y38.6428
 X32.9647 Y38.5131
 X33.1633 Y38.4011
 X33.3753 Y38.3080
 X33.5997 Y38.2356
 X33.9000 Y38.1757
 X34.1980 Y38.1558
 X34.3878 Y38.1637
 X34.5747 Y38.1871
 X34.7579 Y38.2253
 X34.9365 Y38.2781
 X35.1098 Y38.3449
 X35.2769 Y38.4251
 X35.4369 Y38.5185
 X35.5891 Y38.6244
 X35.7326 Y38.7424
 X35.8666 Y38.8719
 X35.9903 Y39.0126
 X36.1026 Y39.1639
 X36.2029 Y39.3253
 X36.2904 Y39.4964
 X36.3641 Y39.6768
 X36.4233 Y39.8657
 X40.4334 Y54.8312
 X52.6004 Y61.8551
 X52.5065 Y43.9283
 X38.7358 Y31.8196
 X38.5461 Y31.6324
 X38.3808 Y31.4267
 X38.2410 Y31.2049
 X38.1273 Y30.9694
 X38.0412 Y30.7228
 X37.9836 Y30.4671
 X37.9551 Y30.2049
 X37.9572 Y29.9386
 X38.6765 Y18.7791
 X38.7128 Y18.4943
 X38.7830 Y18.2195
 X38.8857 Y17.9573
 X39.0190 Y17.7103
 X39.1812 Y17.4815
 X39.3707 Y17.2733
 X39.5857 Y17.0886
 X39.8246 Y16.9299
 X40.0993 Y16.7951
 X40.3857 Y16.6986
 X40.6798 Y16.6406
 X40.9778 Y16.6212
 X41.2397 Y16.6362
 X41.4990 Y16.6809
 X41.7532 Y16.7555
 X42.0004 Y16.8597
 X52.0243 Y21.8162
 X52.2557 Y21.9479
 X52.4683 Y22.1037
 X52.6607 Y22.2817
 X52.8312 Y22.4796
 X52.9783 Y22.6954
 X53.1004 Y22.9272
 X53.1958 Y23.1728
 X53.2632 Y23.4301
 X56.8654 Y41.4119
 X72.3436 Y50.4561
 Y36.4100
 X61.3866 Y25.4531
 X61.2284 Y25.2780
 X61.0914 Y25.0915
 X60.9753 Y24.8951
 X60.8804 Y24.6906
 X60.8065 Y24.4793
 X60.7539 Y24.2632
 X60.7222 Y24.0439
 X60.7116 Y23.8228
 X60.7222 Y23.6018
 X60.7539 Y23.3825
 X60.8065 Y23.1664
 X60.8804 Y22.9551
 X60.9753 Y22.7505
 X61.0914 Y22.5542
 X61.2284 Y22.3676
 X61.3866 Y22.1926
 X61.5619 Y22.0344
 X61.7486 Y21.8974
 X61.9451 Y21.7812
 X62.1497 Y21.6862
 X62.3609 Y21.6124
 X62.5771 Y21.5596
 X62.7965 Y21.5278
 X63.0175 Y21.5172
 X63.2385 Y21.5276
 X63.4579 Y21.5593
 X63.6740 Y21.6119
 X63.8853 Y21.6858
 X64.0898 Y21.7808
 X64.2864 Y21.8969
 X64.4732 Y22.0343
 X64.6485 Y22.1926
 X72.3436 Y29.8875
 Y20.7843
 X66.8148 Y15.2556
 X66.6566 Y15.0806
 X66.5196 Y14.8940
 X66.4035 Y14.6976
 X66.3086 Y14.4931
 X66.2348 Y14.2819
 X66.1821 Y14.0657
 X66.1504 Y13.8463
 X66.1398 Y13.6253
 X66.1504 Y13.4042
 X66.1821 Y13.1848
 X66.2348 Y12.9687
 X66.3086 Y12.7575
 X66.4035 Y12.5529
 X66.5196 Y12.3565
 X66.6566 Y12.1700
 X66.8148 Y11.9949
 X66.9900 Y11.8368
 X67.1766 Y11.6998
 X67.3732 Y11.5838
 X67.5778 Y11.4889
 X67.7890 Y11.4151
 X68.0051 Y11.3624
 X68.2246 Y11.3307
 X68.4455 Y11.3202
 X68.6665 Y11.3307
 X68.8859 Y11.3624
 X69.1021 Y11.4151
 X69.3133 Y11.4889
 X69.5180 Y11.5838
 X69.7146 Y11.6998
 X69.9012 Y11.8368
 X70.0765 Y11.9949
 X72.3436 Y14.2618
 Y7.3058
 X72.3554 Y7.0700
 X72.3904 Y6.8411
 X72.4471 Y6.6201
 X72.5247 Y6.4083
 X72.6216 Y6.2067
 X72.7372 Y6.0166
 X72.8698 Y5.8391
 X73.0186 Y5.6753
 X73.1823 Y5.5265
 X73.3598 Y5.3938
 X73.5498 Y5.2783
 X73.7514 Y5.1812
 X73.9632 Y5.1037
 X74.1841 Y5.0469
 X74.4132 Y5.0119
 X74.6490 Y5.0000
 X74.8846 Y5.0119
 X75.1135 Y5.0469
 X75.3344 Y5.1037
 X75.5462 Y5.1812
 X75.7478 Y5.2783
 X75.9379 Y5.3938
 X76.1153 Y5.5265
 X76.2790 Y5.6753
 X76.4279 Y5.8391
 X76.5605 Y6.0166
 X76.6761 Y6.2067
 X76.7732 Y6.4083
 X76.8507 Y6.6201
 X76.9075 Y6.8411
 X76.9423 Y7.0700
 X76.9543 Y7.3058
 Y14.2618
 X79.2214 Y11.9949
 X79.3965 Y11.8366
 X79.5833 Y11.6994
 X79.7800 Y11.5833
 X79.9848 Y11.4883
 X80.1962 Y11.4145
 X80.4125 Y11.3618
 X80.6318 Y11.3302
 X80.8529 Y11.3197
 X81.0737 Y11.3302
 X81.2930 Y11.3618
 X81.5090 Y11.4145
 X81.7201 Y11.4883
 X81.9247 Y11.5833
 X82.1211 Y11.6994
 X82.3078 Y11.8366
 X82.4830 Y11.9949
 X82.6415 Y12.1700
 X82.7787 Y12.3565
 X82.8948 Y12.5529
 X82.9898 Y12.7575
 X83.0637 Y12.9687
 X83.1165 Y13.1848
 X83.1482 Y13.4042
 X83.1589 Y13.6253
 X83.1482 Y13.8463
 X83.1165 Y14.0657
 X83.0637 Y14.2819
 X82.9898 Y14.4931
 X82.8948 Y14.6976
 X82.7787 Y14.8940
 X82.6415 Y15.0806
 X82.4830 Y15.2556
 X76.9543 Y20.7843
 Y29.8875
 X84.6491 Y22.1926
 X84.8244 Y22.0342
 X85.0111 Y21.8969
 X85.2076 Y21.7808
 X85.4123 Y21.6860
 X85.6234 Y21.6122
 X85.8394 Y21.5596
 X86.0587 Y21.5279
 X86.2797 Y21.5174
 X86.5010 Y21.5279
 X86.7204 Y21.5596
 X86.9366 Y21.6122
 X87.1480 Y21.6860
 X87.3526 Y21.7808
 X87.5491 Y21.8969
 X87.7360 Y22.0342
 X87.9112 Y22.1926
 X88.0693 Y22.3676
 X88.2064 Y22.5542
 X88.3223 Y22.7505
 X88.4172 Y22.9551
 X88.4909 Y23.1664
 X88.5437 Y23.3825
 X88.5754 Y23.6018
 X88.5860 Y23.8228
 X88.5754 Y24.0439
 X88.5437 Y24.2632
 X88.4909 Y24.4793
 X88.4172 Y24.6906
 X88.3223 Y24.8951
 X88.2064 Y25.0915
 X88.0693 Y25.2780
 X87.9112 Y25.4531
 X76.9543 Y36.4085
 Y50.4561
 X92.4325 Y41.4119
 X96.0347 Y23.4301
 X96.1019 Y23.1728
 X96.1973 Y22.9272
 X96.3193 Y22.6954
 X96.4664 Y22.4796
 X96.6369 Y22.2817
 X96.8293 Y22.1037
 X97.0421 Y21.9479
 X97.2736 Y21.8162
 X107.2977 Y16.8597
 X107.5447 Y16.7549
 X107.7997 Y16.6804
 X108.0587 Y16.6360
 X108.3197 Y16.6212
 X108.6177 Y16.6406
 X108.9127 Y16.6986
 X109.1987 Y16.7951
 X109.4737 Y16.9299
 X109.7117 Y17.0886
 X109.9267 Y17.2733
 X110.1167 Y17.4814
 X110.2787 Y17.7102
 X110.4117 Y17.9569
 X110.5147 Y18.2189
 X110.5847 Y18.4934
 X110.6217 Y18.7777
 X111.3407 Y29.9386
 X111.3427 Y30.2046
 X111.3137 Y30.4665
 X111.2557 Y30.7221
 X111.1697 Y30.9687
 X111.0567 Y31.2042
 X110.9167 Y31.4258
 X110.7517 Y31.6312
 X110.5617 Y31.8182
 X96.7911 Y43.9283
 X96.6976 Y61.8551
 X108.8637 Y54.8312
 X112.8737 Y39.8657
 X112.9337 Y39.6768
 X113.0077 Y39.4964
 X113.0947 Y39.3253
 X113.1947 Y39.1639
 X113.3077 Y39.0126
 X113.4307 Y38.8719
 X113.5647 Y38.7424
 X113.7087 Y38.6244
 X113.8607 Y38.5185
 X114.0207 Y38.4251
 X114.1877 Y38.3449
 X114.3617 Y38.2781
 X114.5397 Y38.2253
 X114.7227 Y38.1871
 X114.9097 Y38.1637
 X115.0997 Y38.1558
 X115.3977 Y38.1749
 X115.6977 Y38.2342
 X115.9227 Y38.3067
 X116.1347 Y38.3997
 X116.3327 Y38.5118
 X116.5177 Y38.6415
 X116.6867 Y38.7875
 X116.8407 Y38.9485
 X116.9777 Y39.1226
 X117.0977 Y39.3089
 X117.1987 Y39.5055
 X117.2807 Y39.7115
 X117.3437 Y39.9251
 X117.3847 Y40.1450
 X117.4057 Y40.3699
 X117.4027 Y40.5981
 X117.3777 Y40.8283
 X117.3277 Y41.0592
 X114.5117 Y51.5710
 X122.3957 Y47.0194
 X124.4177 Y39.4675
 X124.4777 Y39.2785
 X124.5507 Y39.0982
 X124.6387 Y38.9271
 X124.7387 Y38.7655
 X124.8517 Y38.6143
 X124.9757 Y38.4736
 X125.1097 Y38.3440
 X125.2527 Y38.2261
 X125.4047 Y38.1203
 X125.5657 Y38.0268
 X125.7327 Y37.9467
 X125.9057 Y37.8799
 X126.0847 Y37.8271
 X126.2677 Y37.7887
 X126.4537 Y37.7654
 X126.6437 Y37.7575
 X126.9427 Y37.7771
 X127.2427 Y37.8358
 X127.4677 Y37.9086
 X127.6797 Y38.0018
 X127.8777 Y38.1140
 X128.0627 Y38.2439
 X128.2327 Y38.3899
 X128.3857 Y38.5507
 X128.5227 Y38.7249
 X128.6427 Y38.9111
 X128.7437 Y39.1078
 X128.8267 Y39.3136
 X128.8887 Y39.5271
 X128.9307 Y39.7469
 X128.9507 Y39.9717
 X128.9477 Y40.1999
 X128.9227 Y40.4301
 X128.8737 Y40.6610
 X128.0437 Y43.7576
 X134.0687 Y40.2792
 X134.3457 Y40.1428
 X134.6327 Y40.0464
 X134.9257 Y39.9893
 X135.2187 Y39.9705
 X135.5167 Y39.9897
 X135.8077 Y40.0467
 X136.0887 Y40.1403
 X136.3577 Y40.2696
 X136.6077 Y40.4335
 X136.8377 Y40.6310
 X137.0417 Y40.8611
 X137.2177 Y41.1226
 X137.3247 Y41.3331
 X137.4087 Y41.5489
 X137.4707 Y41.7687
 X137.5087 Y41.9911
 X137.5257 Y42.2143
 X137.5207 Y42.4367
 X137.4947 Y42.6568
 X137.4477 Y42.8730
 X137.3807 Y43.0837
 X137.2927 Y43.2875
 X137.1867 Y43.4825
 X137.0607 Y43.6674
 X136.9157 Y43.8404
 X136.7527 Y44.0001
 X136.5717 Y44.1449
 X136.3737 Y44.2730
 X130.3487 Y47.7511
 X133.4467 Y48.5807
 X133.6717 Y48.6535
 X133.8837 Y48.7465
 X134.0817 Y48.8587
 X134.2667 Y48.9886
 X134.4357 Y49.1346
 X134.5897 Y49.2954
 X134.7267 Y49.4696
 X134.8467 Y49.6557
 X134.9477 Y49.8524
 X135.0307 Y50.0582
 X135.0927 Y50.2717
 X135.1347 Y50.4915
 X135.1547 Y50.7162
 X135.1517 Y50.9444
 X135.1267 Y51.1746
 X135.0777 Y51.4054
 X135.0047 Y51.6303
 X134.9117 Y51.8424
 X134.7997 Y52.0411
 X134.6697 Y52.2256
 X134.5237 Y52.3951
 X134.3627 Y52.5486
 X134.1887 Y52.6857
 X134.0027 Y52.8051
 X133.8057 Y52.9064
 X133.5997 Y52.9886
 X133.3867 Y53.0508
 X133.1667 Y53.0925
 X132.9417 Y53.1125
 X132.7137 Y53.1103
 X132.4827 Y53.0850
 X132.2517 Y53.0357
 X124.7007 Y51.0128
 X116.8167 Y55.5643
 X127.3287 Y58.3812
 X127.5527 Y58.4537
 X127.7657 Y58.5467
 X127.9637 Y58.6586
 X128.1487 Y58.7882
 X128.3187 Y58.9342
 X128.4727 Y59.0949
 X128.6097 Y59.2689
 X128.7287 Y59.4550
 X128.8307 Y59.6517
 X128.9127 Y59.8575
 X128.9747 Y60.0710
 X129.0167 Y60.2907
 X129.0367 Y60.5155
 X129.0337 Y60.7437
 X129.0087 Y60.9740
 X128.9587 Y61.2049
 X128.8867 Y61.4296
 X128.7937 Y61.6418
 X128.6817 Y61.8406
 X128.5517 Y62.0251
 X128.4057 Y62.1946
 X128.2447 Y62.3483
 X128.0707 Y62.4853
 X127.8847 Y62.6049
 X127.6877 Y62.7061
 X127.4827 Y62.7885
 X127.2687 Y62.8507
 X127.0487 Y62.8924
 X126.8247 Y62.9124
 X126.5957 Y62.9100
 X126.3657 Y62.8846
 X126.1347 Y62.8351
 X111.1677 Y58.8251
 X99.0029 Y65.8489
 X114.5747 Y74.7314
 X131.9497 Y68.8599
 X132.3147 Y68.7686
 X132.6867 Y68.7385
 X133.0227 Y68.7629
 X133.3507 Y68.8360
 X133.6667 Y68.9571
 X133.9647 Y69.1258
 X143.2707 Y75.3297
 X143.4997 Y75.5032
 X143.7007 Y75.7012
 X143.8777 Y75.9210
 X144.0247 Y76.1597
 X144.1417 Y76.4146
 X144.2277 Y76.6828
 X144.2807 Y76.9614
 X144.2967 Y77.2478
 X144.2807 Y77.5344
 X144.2277 Y77.8132
 X144.1417 Y78.0814
 X144.0247 Y78.3364
 X143.8777 Y78.5750
 X143.7007 Y78.7949
 X143.4997 Y78.9929
 X143.2707 Y79.1662
G0 Z5.0000
G0 Z5.0000
M2 (end program)
