;PYCAM-META-DATA: Filename: /media/martoio/MARTOIO/ME43/std_lib/svg/027-present.svg
;PYCAM-META-DATA: Timestamp: 2017-12-06 02:12:21.515338
;PYCAM-META-DATA: Version: 0.5.1
;Estimated machine time: 10 minutes
G40 (disable tool radius compensation)
G49 (disable tool length compensation)
G80 (cancel modal motion)
G54 (select coordinate system 1)
G90 (disable incremental moves)
G21 (metric)
G61 (exact path mode)
F400.00000
S1.00000
;PYCAM_TOOLPATH_SETTINGS: START
;[Bounds]
;maxz = 0.0
;maxx = 138.880063125
;maxy = 134.161825528
;minx = -6.716369375
;miny = -6.28743868437
;minz = 0.0
;
;[Tool]
;torus_radius = 0.25
;speed = 1.0
;shape = CylindricalCutter
;tool_radius = 0.5
;feedrate = 400.0
;
;[Process]
;engrave_offset = 0.0
;step_down = 1.0
;generator = EngraveCutter
;postprocessor = SimpleCutter
;overlap_percent = 0
;milling_style = conventional
;material_allowance = 0.0
;pocketing_type = none
;path_direction = x
;
;PYCAM_TOOLPATH_SETTINGS: END
T1 M6
G0 Z5.0000
 X9.2917 Y73.5749
G1 Z0.0000
 Y95.0061
 X65.0022
 Y73.5749
 X9.2917
G0 Z5.0000
 X65.0022 Y69.2939
G1 Z0.0000
 Y43.5735
 X20.0071
 Y69.2939
 X65.0022
G0 Z5.0000
 X20.0071 Y39.2929
G1 Z0.0000
 X65.0022
 Y9.2810
 X20.0071
 Y39.2929
G0 Z5.0000
 X69.2939 Y9.2810
G1 Z0.0000
 Y39.2929
 X114.3014
 Y9.2810
 X69.2939
G0 Z5.0000
 X114.3014 Y43.5735
G1 Z0.0000
 X69.2939
 Y69.2939
 X114.3014
 Y43.5735
G0 Z5.0000
 X122.8717 Y73.5749
G1 Z0.0000
 X69.2939
 Y95.0061
 X122.8717
 Y73.5749
G0 Z5.0000
 X74.5900 Y115.4644
G1 Z0.0000
 X76.2709 Y116.8343
 X78.1352 Y117.8132
 X80.1218 Y118.3994
 X82.1692 Y118.5961
 X84.2150 Y118.3994
 X86.2007 Y117.8132
 X88.0627 Y116.8343
 X89.7417 Y115.4644
 X91.0828 Y113.8317
 X92.0639 Y111.9948
 X92.6653 Y109.9969
 X92.8711 Y107.8866
 X92.6653 Y105.7717
 X92.0639 Y103.7731
 X91.0828 Y101.9369
 X89.7417 Y100.3103
 X88.7370 Y99.2950
 X58.4199
 X68.5301 Y109.3947
 X74.5900 Y115.4644
G0 Z5.0000
 X41.2483 Y100.3103
G1 Z0.0000
 X39.9130 Y101.9369
 X38.9354 Y103.7731
 X38.3344 Y105.7717
 X38.1299 Y107.8866
 X38.3344 Y109.9969
 X38.9354 Y111.9948
 X39.9130 Y113.8317
 X41.2483 Y115.4644
 X42.9300 Y116.8343
 X44.7950 Y117.8132
 X46.7825 Y118.3994
 X48.8305 Y118.5961
 X50.8785 Y118.3994
 X52.8651 Y117.8132
 X54.7298 Y116.8343
 X56.4111 Y115.4644
 X62.4706 Y109.3947
 X54.8945 Y101.8184
 X54.2485 Y101.1160
 X53.6491 Y100.3422
 X53.3034 Y99.8494
 X52.9174 Y99.2950
 X42.2634
 X41.2483 Y100.3103
G0 Z5.0000
 X127.1637 Y99.2950
G1 Z0.0000
 X94.4620
 X95.6139 Y101.2527
 X96.4561 Y103.3562
 X96.9732 Y105.5758
 X97.1494 Y107.8866
 X97.0773 Y109.3803
 X96.8631 Y110.8428
 X96.5100 Y112.2644
 X96.0217 Y113.6389
 X95.4013 Y114.9564
 X94.6511 Y116.2094
 X93.7755 Y117.3894
 X92.7769 Y118.4875
 X91.6386 Y119.5157
 X90.4259 Y120.4064
 X89.1479 Y121.1612
 X87.8167 Y121.7778
 X86.4422 Y122.2578
 X85.0358 Y122.6003
 X83.6082 Y122.8060
 X82.1700 Y122.8744
 X80.7316 Y122.8060
 X79.3040 Y122.6003
 X77.8979 Y122.2578
 X76.5239 Y121.7778
 X75.1931 Y121.1612
 X73.9160 Y120.4064
 X72.7031 Y119.5157
 X71.5657 Y118.4875
 X65.4950 Y112.4299
 X59.4355 Y118.4875
 X58.2976 Y119.5157
 X57.0847 Y120.4064
 X55.8074 Y121.1612
 X54.4763 Y121.7778
 X53.1024 Y122.2578
 X51.6963 Y122.6003
 X50.2688 Y122.8060
 X48.8305 Y122.8744
 X47.3919 Y122.8060
 X45.9643 Y122.6003
 X44.5577 Y122.2578
 X43.1838 Y121.7778
 X41.8527 Y121.1612
 X40.5751 Y120.4064
 X39.3618 Y119.5157
 X38.2239 Y118.4875
 X37.2248 Y117.3894
 X36.3478 Y116.2094
 X35.5963 Y114.9564
 X34.9733 Y113.6389
 X34.4830 Y112.2644
 X34.1288 Y110.8428
 X33.9133 Y109.3803
 X33.8411 Y107.8866
 X34.0167 Y105.5758
 X34.5350 Y103.3562
 X35.3804 Y101.2527
 X36.5388 Y99.2950
 X5.0000
 Y69.2939
 X15.7158
 Y5.0000
 X118.5805
 Y69.2939
 X127.1637
 Y99.2950
G0 Z5.0000
G0 Z5.0000
M2 (end program)
