;PYCAM-META-DATA: Filename: /media/martoio/MARTOIO/ME43/std_lib/svg/004-boat.svg
;PYCAM-META-DATA: Timestamp: 2017-12-06 01:47:55.504645
;PYCAM-META-DATA: Version: 0.5.1
;Estimated machine time: 11 minutes
G40 (disable tool radius compensation)
G49 (disable tool length compensation)
G80 (cancel modal motion)
G54 (select coordinate system 1)
G90 (disable incremental moves)
G21 (metric)
G61 (exact path mode)
F400.00000
S1.00000
;PYCAM_TOOLPATH_SETTINGS: START
;[Bounds]
;maxz = 0.0
;maxx = 163.443041927
;maxy = 112.61009
;minx = -8.9493674479
;miny = -4.32819
;minz = 0.0
;
;[Tool]
;torus_radius = 0.25
;speed = 1.0
;shape = CylindricalCutter
;tool_radius = 0.5
;feedrate = 400.0
;
;[Process]
;engrave_offset = 0.0
;step_down = 1.0
;generator = EngraveCutter
;postprocessor = SimpleCutter
;overlap_percent = 0
;milling_style = conventional
;material_allowance = 0.0
;pocketing_type = none
;path_direction = x
;
;PYCAM_TOOLPATH_SETTINGS: END
T1 M6
G0 Z5.0000
 X66.8487 Y68.5193
G1 Z0.0000
 X117.9207
 Y65.3718
 X66.8487
 Y68.5193
G0 Z5.0000
 X75.0536 Y61.0793
G1 Z0.0000
 Y53.7837
 X66.8487
 Y61.0793
 X75.0536
G0 Z5.0000
 X66.8487 Y49.4912
G1 Z0.0000
 X117.9207
 Y42.3379
 X81.6739
 X80.7036 Y42.3520
 X79.7368 Y42.3944
 X78.7739 Y42.4648
 X77.8155 Y42.5632
 X76.8621 Y42.6890
 X75.9141 Y42.8426
 X74.9723 Y43.0236
 X74.0369 Y43.2316
 X73.1085 Y43.4669
 X72.1876 Y43.7290
 X71.2747 Y44.0179
 X70.3704 Y44.3333
 X69.4751 Y44.6751
 X68.5894 Y45.0432
 X67.7137 Y45.4375
 X66.8487 Y45.8576
 Y49.4912
G0 Z5.0000
 X90.2396 Y61.0793
G1 Z0.0000
 Y53.7837
 X79.3448
 Y61.0793
 X90.2396
G0 Z5.0000
 X105.4247
G1 Z0.0000
 Y53.7837
 X94.5308
 Y61.0793
 X105.4247
G0 Z5.0000
 X110.1947 Y81.8229
G1 Z0.0000
 X95.6029
 Y90.4069
 X110.1947
 Y81.8229
G0 Z5.0000
 X95.6029 Y98.9909
G1 Z0.0000
 X110.1947
 Y94.6979
 X95.6029
 Y98.9909
G0 Z5.0000
 X117.9207 Y61.0793
G1 Z0.0000
 Y53.7837
 X109.7167
 Y61.0793
 X117.9207
G0 Z5.0000
 X143.5847 Y32.8954
G1 Z0.0000
 X127.0757
 X126.8567 Y32.8844
 X126.6437 Y32.8519
 X126.4387 Y32.7990
 X126.2417 Y32.7269
 X126.0537 Y32.6366
 X125.8767 Y32.5291
 X125.7117 Y32.4057
 X125.5597 Y32.2672
 X125.4207 Y32.1148
 X125.2967 Y31.9497
 X125.1897 Y31.7727
 X125.0987 Y31.5852
 X125.0267 Y31.3880
 X124.9737 Y31.1825
 X124.9417 Y30.9693
 X124.9307 Y30.7498
 X124.9417 Y30.5305
 X124.9737 Y30.3175
 X125.0267 Y30.1118
 X125.0987 Y29.9145
 X125.1897 Y29.7268
 X125.2967 Y29.5498
 X125.4207 Y29.3845
 X125.5597 Y29.2320
 X125.7117 Y29.0934
 X125.8767 Y28.9698
 X126.0537 Y28.8622
 X126.2417 Y28.7716
 X126.4387 Y28.6994
 X126.6437 Y28.6465
 X126.8567 Y28.6140
 X127.0757 Y28.6029
 X142.6617
 X138.5037 Y9.2911
 X45.5321
 X19.6510 Y40.1923
 X39.7691
 X40.9723 Y40.1704
 X42.1723 Y40.1050
 X43.3680 Y39.9959
 X44.5585 Y39.8436
 X45.7425 Y39.6479
 X46.9191 Y39.4093
 X48.0872 Y39.1276
 X49.2458 Y38.8031
 X50.3925 Y38.4363
 X51.5234 Y38.0288
 X52.6375 Y37.5809
 X53.7339 Y37.0933
 X54.8115 Y36.5661
 X55.8696 Y35.9997
 X56.9072 Y35.3948
 X57.9235 Y34.7518
 X59.0798 Y34.0198
 X60.2583 Y33.3327
 X61.4576 Y32.6907
 X62.6766 Y32.0941
 X63.9143 Y31.5433
 X65.1694 Y31.0386
 X66.4410 Y30.5804
 X67.7276 Y30.1690
 X69.0283 Y29.8047
 X70.3421 Y29.4879
 X71.6676 Y29.2188
 X73.0040 Y28.9980
 X74.3498 Y28.8257
 X75.7043 Y28.7022
 X77.0660 Y28.6277
 X78.4340 Y28.6029
 X117.0617
 X117.2807 Y28.6140
 X117.4937 Y28.6465
 X117.6997 Y28.6994
 X117.8967 Y28.7716
 X118.0847 Y28.8622
 X118.2617 Y28.9698
 X118.4267 Y29.0934
 X118.5787 Y29.2320
 X118.7177 Y29.3845
 X118.8407 Y29.5498
 X118.9487 Y29.7268
 X119.0387 Y29.9145
 X119.1107 Y30.1118
 X119.1637 Y30.3175
 X119.1957 Y30.5305
 X119.2077 Y30.7498
 X119.1957 Y30.9693
 X119.1637 Y31.1825
 X119.1107 Y31.3880
 X119.0387 Y31.5852
 X118.9487 Y31.7727
 X118.8407 Y31.9497
 X118.7177 Y32.1148
 X118.5787 Y32.2672
 X118.4267 Y32.4057
 X118.2617 Y32.5291
 X118.0847 Y32.6366
 X117.8967 Y32.7269
 X117.6997 Y32.7990
 X117.4937 Y32.8519
 X117.2807 Y32.8844
 X117.0617 Y32.8954
 X78.4340
 X77.2234 Y32.9175
 X76.0186 Y32.9832
 X74.8201 Y33.0926
 X73.6291 Y33.2450
 X72.4465 Y33.4404
 X71.2734 Y33.6783
 X70.1109 Y33.9586
 X68.9598 Y34.2809
 X67.8212 Y34.6450
 X66.6961 Y35.0504
 X65.5854 Y35.4969
 X64.4903 Y35.9843
 X63.4114 Y36.5122
 X62.3501 Y37.0802
 X61.3072 Y37.6883
 X60.2839 Y38.3359
 X59.1360 Y39.0629
 X57.9634 Y39.7466
 X56.7676 Y40.3868
 X55.5496 Y40.9826
 X54.3103 Y41.5337
 X53.0508 Y42.0398
 X51.7725 Y42.5001
 X50.4762 Y42.9140
 X49.1673 Y43.2807
 X47.8476 Y43.5990
 X46.5183 Y43.8688
 X45.1807 Y44.0901
 X43.8357 Y44.2626
 X42.4847 Y44.3859
 X41.1287 Y44.4601
 X39.7691 Y44.4850
 X16.0557
 X11.7423 Y49.6347
 X43.0087
 X44.2196 Y49.6127
 X45.4250 Y49.5470
 X46.6239 Y49.4377
 X47.8151 Y49.2852
 X48.9979 Y49.0898
 X50.1711 Y48.8519
 X51.3337 Y48.5716
 X52.4850 Y48.2493
 X53.6237 Y47.8854
 X54.7487 Y47.4800
 X55.8594 Y47.0334
 X56.9546 Y46.5459
 X58.0332 Y46.0181
 X59.0943 Y45.4500
 X60.1371 Y44.8419
 X61.1601 Y44.1943
 X62.3166 Y43.4623
 X63.4953 Y42.7751
 X64.6946 Y42.1332
 X65.9136 Y41.5366
 X67.1512 Y40.9859
 X68.4065 Y40.4813
 X69.6780 Y40.0233
 X70.9648 Y39.6119
 X72.2657 Y39.2479
 X73.5797 Y38.9311
 X74.9054 Y38.6623
 X76.2421 Y38.4415
 X77.5883 Y38.2694
 X78.9432 Y38.1459
 X80.3053 Y38.0715
 X81.6739 Y38.0466
 X144.6937
 X143.5847 Y32.8954
G0 Z5.0000
 X35.6403 Y35.4341
G1 Z0.0000
 X35.4835 Y35.7357
 X35.2844 Y36.0052
 X35.0485 Y36.2397
 X34.7807 Y36.4348
 X34.4866 Y36.5875
 X34.1716 Y36.6937
 X33.8411 Y36.7501
 X33.5003 Y36.7527
 X33.1708 Y36.7022
 X32.8579 Y36.6019
 X32.5660 Y36.4559
 X32.3001 Y36.2686
 X32.0648 Y36.0437
 X31.8651 Y35.7857
 X31.7058 Y35.4984
 X31.5918 Y35.1861
 X31.5300 Y34.8751
 X31.5157 Y34.5609
 X31.5471 Y34.2494
 X31.6223 Y33.9461
 X31.7400 Y33.6568
 X31.8983 Y33.3869
 X32.0957 Y33.1423
 X32.3304 Y32.9286
 X32.6254 Y32.7355
 X32.9426 Y32.5954
 X33.2751 Y32.5083
 X33.6155 Y32.4747
 X33.9572 Y32.4947
 X34.2929 Y32.5684
 X34.6155 Y32.6961
 X34.9184 Y32.8777
 X35.1941 Y33.1161
 X35.4201 Y33.3929
 X35.5946 Y33.7005
 X35.7160 Y34.0313
 X35.7829 Y34.3777
 X35.7936 Y34.7322
 X35.7465 Y35.0868
 X35.6403 Y35.4341
G0 Z5.0000
 X42.7939
G1 Z0.0000
 X42.6407 Y35.7301
 X42.4469 Y35.9956
 X42.2175 Y36.2275
 X41.9571 Y36.4220
 X41.6710 Y36.5757
 X41.3637 Y36.6851
 X41.0405 Y36.7468
 X40.7061 Y36.7570
 X40.3753 Y36.7141
 X40.0597 Y36.6212
 X39.7646 Y36.4823
 X39.4943 Y36.3013
 X39.2540 Y36.0823
 X39.0483 Y35.8293
 X38.8821 Y35.5461
 X38.7601 Y35.2369
 X38.7141 Y35.0623
 X38.6833 Y34.8898
 X38.6672 Y34.7198
 X38.6651 Y34.5527
 X38.6765 Y34.3891
 X38.7010 Y34.2291
 X38.7376 Y34.0734
 X38.7861 Y33.9223
 X38.8457 Y33.7763
 X38.9159 Y33.6358
 X38.9961 Y33.5012
 X39.0858 Y33.3730
 X39.1843 Y33.2515
 X39.2909 Y33.1373
 X39.4053 Y33.0307
 X39.5268 Y32.9320
 X39.6547 Y32.8420
 X39.7886 Y32.7609
 X39.9278 Y32.6891
 X40.0718 Y32.6272
 X40.2200 Y32.5754
 X40.3716 Y32.5343
 X40.5264 Y32.5041
 X40.6834 Y32.4855
 X40.8425 Y32.4788
 X41.0026 Y32.4845
 X41.1635 Y32.5030
 X41.3244 Y32.5347
 X41.4848 Y32.5800
 X41.6443 Y32.6394
 X41.8019 Y32.7131
 X41.9573 Y32.8019
 X42.1161 Y32.9116
 X42.2618 Y33.0337
 X42.3943 Y33.1670
 X42.5132 Y33.3106
 X42.6185 Y33.4633
 X42.7096 Y33.6241
 X42.7865 Y33.7919
 X42.8489 Y33.9655
 X42.8965 Y34.1438
 X42.9290 Y34.3259
 X42.9464 Y34.5105
 X42.9480 Y34.6966
 X42.9339 Y34.8832
 X42.9036 Y35.0690
 X42.8571 Y35.2530
 X42.7939 Y35.4341
G0 Z5.0000
 X148.4467 Y42.0402
G1 Z0.0000
 X148.1787 Y42.1745
 X147.8937 Y42.2672
 X147.5987 Y42.3207
 X147.2987 Y42.3379
 X122.2127
 Y79.6773
 X122.2017 Y79.8968
 X122.1697 Y80.1098
 X122.1167 Y80.3154
 X122.0437 Y80.5125
 X121.9537 Y80.7001
 X121.8457 Y80.8770
 X121.7227 Y81.0422
 X121.5837 Y81.1945
 X121.4317 Y81.3330
 X121.2657 Y81.4565
 X121.0887 Y81.5640
 X120.9017 Y81.6544
 X120.7037 Y81.7265
 X120.4987 Y81.7793
 X120.2857 Y81.8118
 X120.0657 Y81.8229
 X114.4857
 Y101.1359
 X114.4747 Y101.3559
 X114.4427 Y101.5689
 X114.3897 Y101.7739
 X114.3177 Y101.9709
 X114.2267 Y102.1589
 X114.1197 Y102.3359
 X113.9967 Y102.5009
 X113.8577 Y102.6529
 X113.7057 Y102.7919
 X113.5407 Y102.9149
 X113.3637 Y103.0229
 X113.1757 Y103.1129
 X112.9787 Y103.1849
 X112.7727 Y103.2379
 X112.5597 Y103.2709
 X112.3407 Y103.2819
 X93.4560
 X93.2365 Y103.2709
 X93.0235 Y103.2379
 X92.8179 Y103.1849
 X92.6207 Y103.1129
 X92.4332 Y103.0229
 X92.2562 Y102.9149
 X92.0911 Y102.7919
 X91.9387 Y102.6529
 X91.8003 Y102.5009
 X91.6768 Y102.3359
 X91.5693 Y102.1589
 X91.4789 Y101.9709
 X91.4066 Y101.7739
 X91.3539 Y101.5689
 X91.3214 Y101.3559
 X91.3103 Y101.1359
 Y81.8229
 X81.1543
 X80.9348 Y81.8118
 X80.7218 Y81.7793
 X80.5161 Y81.7265
 X80.3190 Y81.6544
 X80.1314 Y81.5640
 X79.9546 Y81.4565
 X79.7894 Y81.3330
 X79.6371 Y81.1945
 X79.4985 Y81.0422
 X79.3750 Y80.8770
 X79.2676 Y80.7001
 X79.1772 Y80.5125
 X79.1050 Y80.3154
 X79.0522 Y80.1098
 X79.0197 Y79.8968
 X79.0086 Y79.6773
 X79.0197 Y79.4579
 X79.0522 Y79.2448
 X79.1050 Y79.0393
 X79.1772 Y78.8420
 X79.2676 Y78.6545
 X79.3750 Y78.4776
 X79.4985 Y78.3125
 X79.6371 Y78.1600
 X79.7894 Y78.0216
 X79.9546 Y77.8982
 X80.1314 Y77.7907
 X80.3190 Y77.7002
 X80.5161 Y77.6281
 X80.7218 Y77.5754
 X80.9348 Y77.5429
 X81.1543 Y77.5318
 X117.9207
 Y72.8119
 X60.0482
 X57.8007 Y77.5318
 X71.1385
 X71.3579 Y77.5429
 X71.5711 Y77.5754
 X71.7768 Y77.6281
 X71.9740 Y77.7002
 X72.1616 Y77.7907
 X72.3387 Y77.8982
 X72.5040 Y78.0216
 X72.6565 Y78.1600
 X72.7951 Y78.3125
 X72.9187 Y78.4776
 X73.0262 Y78.6545
 X73.1166 Y78.8420
 X73.1890 Y79.0393
 X73.2418 Y79.2448
 X73.2744 Y79.4579
 X73.2855 Y79.6773
 X73.2744 Y79.8968
 X73.2418 Y80.1098
 X73.1890 Y80.3154
 X73.1166 Y80.5125
 X73.0262 Y80.7001
 X72.9187 Y80.8770
 X72.7951 Y81.0422
 X72.6565 Y81.1945
 X72.5040 Y81.3330
 X72.3387 Y81.4565
 X72.1616 Y81.5640
 X71.9740 Y81.6544
 X71.7768 Y81.7265
 X71.5711 Y81.7793
 X71.3579 Y81.8118
 X71.1385 Y81.8229
 X54.4560
 X54.0739 Y81.7932
 X53.7033 Y81.7033
 X53.3550 Y81.5519
 X53.0396 Y81.3379
 X52.7728 Y81.0748
 X52.5605 Y80.7804
 X52.4036 Y80.4618
 X52.3023 Y80.1261
 X52.2572 Y79.7802
 X52.2687 Y79.4316
 X52.3373 Y79.0872
 X52.4634 Y78.7541
 X56.7561 Y69.7432
 X56.9075 Y69.4759
 X57.0923 Y69.2366
 X57.3069 Y69.0276
 X57.5475 Y68.8509
 X57.8103 Y68.7095
 X58.0914 Y68.6055
 X58.3871 Y68.5412
 X58.6936 Y68.5193
 X62.5561
 Y48.3887
 X61.4430 Y49.0483
 X60.3111 Y49.6673
 X59.1611 Y50.2458
 X57.9940 Y50.7833
 X56.8109 Y51.2794
 X55.6126 Y51.7340
 X54.4003 Y52.1468
 X53.1746 Y52.5172
 X51.9366 Y52.8452
 X50.6873 Y53.1306
 X49.4278 Y53.3729
 X48.1587 Y53.5718
 X46.8811 Y53.7269
 X45.5961 Y53.8381
 X44.3046 Y53.9051
 X43.0073 Y53.9273
 X7.2074
 X6.9578 Y53.9144
 X6.7123 Y53.8755
 X6.4735 Y53.8112
 X6.2439 Y53.7219
 X6.0260 Y53.6079
 X5.8227 Y53.4698
 X5.6363 Y53.3077
 X5.4696 Y53.1223
 X5.2578 Y52.8008
 X5.1095 Y52.4582
 X5.0240 Y52.1025
 X5.0000 Y51.7416
 X5.0366 Y51.3833
 X5.1328 Y51.0352
 X5.2875 Y50.7056
 X5.4999 Y50.4020
 X42.8848 Y5.7676
 X43.0466 Y5.5950
 X43.2247 Y5.4425
 X43.4171 Y5.3109
 X43.6222 Y5.2013
 X43.8379 Y5.1145
 X44.0625 Y5.0515
 X44.2939 Y5.0130
 X44.5303 Y5.0000
 X140.2367
 X140.4247 Y5.0082
 X140.6077 Y5.0322
 X140.7877 Y5.0716
 X140.9607 Y5.1256
 X141.1277 Y5.1937
 X141.2887 Y5.2754
 X141.4407 Y5.3698
 X141.5847 Y5.4763
 X141.7197 Y5.5947
 X141.8437 Y5.7238
 X141.9577 Y5.8634
 X142.0587 Y6.0127
 X142.1487 Y6.1712
 X142.2247 Y6.3382
 X142.2877 Y6.5129
 X142.3347 Y6.6950
 X149.4497 Y39.7418
 X149.4937 Y40.0715
 X149.4867 Y40.4006
 X149.4317 Y40.7234
 X149.3257 Y41.0341
 X149.1737 Y41.3269
 X148.9747 Y41.5961
 X148.7327 Y41.8357
 X148.4467 Y42.0402
G0 Z5.0000
G0 Z5.0000
M2 (end program)
