;PYCAM-META-DATA: Filename: /media/martoio/MARTOIO/ME43/std_lib/svg/005-owl.svg
;PYCAM-META-DATA: Timestamp: 2017-12-06 01:49:13.777913
;PYCAM-META-DATA: Version: 0.5.1
;Estimated machine time: 17 minutes
G40 (disable tool radius compensation)
G49 (disable tool length compensation)
G80 (cancel modal motion)
G54 (select coordinate system 1)
G90 (disable incremental moves)
G21 (metric)
G61 (exact path mode)
F400.00000
S1.00000
;PYCAM_TOOLPATH_SETTINGS: START
;[Bounds]
;maxz = 0.0
;maxx = 163.4489
;maxy = 163.448482248
;minx = -8.9499
;miny = -8.9498620225
;minz = 0.0
;
;[Tool]
;torus_radius = 0.25
;speed = 1.0
;shape = CylindricalCutter
;tool_radius = 0.5
;feedrate = 400.0
;
;[Process]
;engrave_offset = 0.0
;step_down = 1.0
;generator = EngraveCutter
;postprocessor = SimpleCutter
;overlap_percent = 0
;milling_style = conventional
;material_allowance = 0.0
;pocketing_type = none
;path_direction = x
;
;PYCAM_TOOLPATH_SETTINGS: END
T1 M6
G0 Z5.0000
 X16.0201 Y67.6621
G1 Z0.0000
 Y72.7247
 X16.0091 Y72.9413
 X15.9771 Y73.1514
 X15.9250 Y73.3542
 X15.8539 Y73.5486
 X15.7648 Y73.7336
 X15.6589 Y73.9082
 X15.5371 Y74.0711
 X15.4006 Y74.2215
 X15.2503 Y74.3581
 X15.0873 Y74.4800
 X14.9128 Y74.5860
 X14.7278 Y74.6752
 X14.5333 Y74.7464
 X14.3303 Y74.7985
 X14.1200 Y74.8306
 X13.9034 Y74.8415
 X9.3367
 X9.4301 Y75.7825
 X9.5504 Y76.7740
 X9.6957 Y77.8109
 X9.8640 Y78.8875
 X10.0533 Y79.9990
 X10.2616 Y81.1399
 X10.4871 Y82.3049
 X10.7277 Y83.4886
 X10.9813 Y84.6860
 X11.2462 Y85.8917
 X11.5204 Y87.1003
 X11.8018 Y88.3065
 X12.0885 Y89.5053
 X12.3785 Y90.6911
 X12.6699 Y91.8588
 X12.9608 Y93.0028
 X13.2852 Y91.8445
 X13.6470 Y90.7020
 X14.0455 Y89.5761
 X14.4799 Y88.4677
 X14.9495 Y87.3772
 X15.4536 Y86.3057
 X15.9916 Y85.2536
 X16.5627 Y84.2217
 X17.1661 Y83.2107
 X17.8013 Y82.2213
 X18.4674 Y81.2542
 X19.1637 Y80.3102
 X19.8899 Y79.3899
 X20.6447 Y78.4939
 X21.4278 Y77.6232
 X22.2382 Y76.7782
 X23.0754 Y75.9599
 X23.9387 Y75.1688
 X24.8274 Y74.4056
 X25.7406 Y73.6711
 X26.6778 Y72.9660
 X27.6382 Y72.2909
 X28.6210 Y71.6465
 X29.6257 Y71.0338
 X30.6515 Y70.4532
 X31.6978 Y69.9054
 X32.7636 Y69.3913
 X33.8485 Y68.9114
 X34.9517 Y68.4667
 X36.0724 Y68.0575
 X37.2099 Y67.6849
 X38.3636 Y67.3492
 X37.4229 Y67.2118
 X36.4906 Y67.0900
 X35.5672 Y66.9832
 X34.6538 Y66.8908
 X33.7507 Y66.8124
 X32.8590 Y66.7470
 X31.9793 Y66.6942
 X31.1122 Y66.6533
 X30.2588 Y66.6238
 X29.4193 Y66.6050
 X28.5949 Y66.5963
 X27.7860 Y66.5971
 X26.9936 Y66.6068
 X26.2182 Y66.6249
 X25.4607 Y66.6504
 X24.7218 Y66.6831
 X24.0021 Y66.7222
 X23.3025 Y66.7671
 X22.6236 Y66.8172
 X21.9662 Y66.8718
 X21.3311 Y66.9306
 X20.7190 Y66.9925
 X20.1304 Y67.0574
 X19.5664 Y67.1242
 X19.0274 Y67.1925
 X18.5143 Y67.2618
 X18.0278 Y67.3314
 X17.5687 Y67.4007
 X17.1376 Y67.4690
 X16.7353 Y67.5357
 X16.3625 Y67.6003
 X16.0201 Y67.6621
G0 Z5.0000
 X77.2493 Y16.0214
G1 Z0.0000
 X75.8574 Y16.0603
 X74.4751 Y16.1764
 X73.1036 Y16.3693
 X71.7440 Y16.6385
 X70.3976 Y16.9834
 X69.0651 Y17.4036
 X67.7481 Y17.8984
 X66.4472 Y18.4673
 X65.1640 Y19.1099
 X63.8994 Y19.8256
 X62.6546 Y20.6138
 X61.4306 Y21.4740
 X60.2286 Y22.4059
 X59.0497 Y23.4086
 X57.8951 Y24.4820
 X56.7658 Y25.6252
 X56.2178 Y26.2158
 X55.6789 Y26.8218
 X55.1493 Y27.4424
 X54.6290 Y28.0775
 X54.1185 Y28.7268
 X53.6175 Y29.3900
 X53.1265 Y30.0668
 X52.6454 Y30.7568
 X52.1746 Y31.4599
 X51.7140 Y32.1757
 X51.2639 Y32.9038
 X50.8243 Y33.6440
 X50.3956 Y34.3960
 X49.9776 Y35.1596
 X49.5708 Y35.9343
 X49.1751 Y36.7199
 X48.7910 Y37.5161
 X48.4182 Y38.3227
 X48.0569 Y39.1392
 X47.7076 Y39.9654
 X47.3701 Y40.8011
 X47.0447 Y41.6459
 X46.7317 Y42.4993
 X46.4308 Y43.3614
 X46.1426 Y44.2317
 X45.8669 Y45.1100
 X45.6042 Y45.9959
 X45.3544 Y46.8889
 X45.1178 Y47.7890
 X44.8943 Y48.6960
 X44.6843 Y49.6093
 X44.4879 Y50.5288
 X44.4335 Y50.7386
 X44.3596 Y50.9381
 X44.2676 Y51.1263
 X44.1586 Y51.3024
 X44.0340 Y51.4657
 X43.8949 Y51.6153
 X43.7425 Y51.7503
 X43.5785 Y51.8700
 X43.4036 Y51.9736
 X43.2194 Y52.0602
 X43.0271 Y52.1288
 X42.8279 Y52.1786
 X42.6232 Y52.2092
 X42.4142 Y52.2193
 X42.2019 Y52.2085
 X41.9881 Y52.1754
 X41.7783 Y52.1211
 X41.5789 Y52.0475
 X41.3907 Y51.9554
 X41.2144 Y51.8465
 X41.0512 Y51.7221
 X40.9017 Y51.5831
 X40.7665 Y51.4309
 X40.6468 Y51.2668
 X40.5433 Y51.0921
 X40.4568 Y50.9079
 X40.3882 Y50.7156
 X40.3381 Y50.5165
 X40.3075 Y50.3115
 X40.2974 Y50.1024
 X40.3083 Y49.8900
 X40.3413 Y49.6757
 X40.5531 Y48.6849
 X40.7797 Y47.7004
 X41.0211 Y46.7227
 X41.2771 Y45.7518
 X41.5474 Y44.7884
 X41.8318 Y43.8324
 X42.1304 Y42.8845
 X42.4429 Y41.9447
 X42.7690 Y41.0136
 X43.1088 Y40.0914
 X43.4619 Y39.1785
 X43.8283 Y38.2752
 X44.2078 Y37.3815
 X44.6003 Y36.4983
 X45.0056 Y35.6256
 X45.4233 Y34.7636
 X45.8536 Y33.9129
 X46.2961 Y33.0738
 X46.7508 Y32.2463
 X47.2175 Y31.4310
 X47.6960 Y30.6282
 X48.1861 Y29.8382
 X48.6878 Y29.0614
 X49.2007 Y28.2979
 X49.7247 Y27.5484
 X50.2599 Y26.8128
 X50.8058 Y26.0915
 X51.3625 Y25.3852
 X51.9297 Y24.6938
 X52.5072 Y24.0178
 X53.0950 Y23.3575
 X53.6929 Y22.7132
 X54.7575 Y21.6307
 X55.8426 Y20.6020
 X54.8914 Y21.0415
 X53.9489 Y21.5006
 X53.0153 Y21.9786
 X52.0908 Y22.4759
 X51.1760 Y22.9921
 X50.2708 Y23.5272
 X49.3758 Y24.0810
 X48.4913 Y24.6536
 X47.6171 Y25.2446
 X46.7540 Y25.8542
 X45.9021 Y26.4820
 X45.0615 Y27.1281
 X44.2328 Y27.7924
 X43.4161 Y28.4746
 X42.6117 Y29.1747
 X41.8197 Y29.8927
 X40.9626 Y30.7036
 X40.1260 Y31.5314
 X39.3099 Y32.3756
 X38.5144 Y33.2359
 X37.7401 Y34.1118
 X36.9868 Y35.0032
 X36.2550 Y35.9096
 X35.5444 Y36.8306
 X34.8557 Y37.7658
 X34.1886 Y38.7150
 X33.5436 Y39.6778
 X32.9208 Y40.6536
 X32.3204 Y41.6424
 X31.7425 Y42.6435
 X31.1872 Y43.6568
 X30.6549 Y44.6818
 X30.1457 Y45.7182
 X29.6596 Y46.7656
 X29.1969 Y47.8236
 X28.7579 Y48.8920
 X28.3428 Y49.9702
 X27.9514 Y51.0579
 X27.5842 Y52.1549
 X27.2413 Y53.2607
 X26.9229 Y54.3749
 X26.6290 Y55.4974
 X26.3601 Y56.6274
 X26.1161 Y57.7649
 X25.8974 Y58.9095
 X25.7039 Y60.0606
 X25.5360 Y61.2181
 X25.3937 Y62.3814
 X26.7897 Y62.3399
 X28.2407 Y62.3249
 X29.4786 Y62.3354
 X30.7493 Y62.3679
 X32.0504 Y62.4246
 X33.3797 Y62.5071
 X34.7356 Y62.6174
 X36.1156 Y62.7574
 X37.5176 Y62.9289
 X38.9397 Y63.1338
 X38.9839 Y61.0679
 X39.0871 Y59.0120
 X39.1107 Y58.8054
 X39.1533 Y58.6057
 X39.2143 Y58.4140
 X39.2922 Y58.2310
 X39.3863 Y58.0575
 X39.4954 Y57.8946
 X39.6186 Y57.7431
 X39.7550 Y57.6038
 X39.9035 Y57.4775
 X40.0629 Y57.3653
 X40.2325 Y57.2679
 X40.4113 Y57.1864
 X40.5981 Y57.1213
 X40.7919 Y57.0738
 X40.9918 Y57.0446
 X41.1968 Y57.0347
 X41.3375 Y57.0389
 X41.5528 Y57.0640
 X41.7604 Y57.1099
 X41.9596 Y57.1752
 X42.1490 Y57.2590
 X42.3279 Y57.3602
 X42.4950 Y57.4772
 X42.6497 Y57.6096
 X42.7908 Y57.7557
 X42.9174 Y57.9146
 X43.0283 Y58.0852
 X43.1228 Y58.2661
 X43.1997 Y58.4564
 X43.2582 Y58.6552
 X43.2971 Y58.8607
 X43.3154 Y59.0725
 X43.3124 Y59.2889
 X43.2497 Y60.3799
 X43.2049 Y61.4771
 X43.1778 Y62.5770
 X43.1687 Y63.6754
 X43.1701 Y63.9385
 X45.0621 Y64.3961
 X46.9690 Y64.9239
 X48.8869 Y65.5261
 X50.8114 Y66.2070
 X52.1993 Y66.3468
 X53.5754 Y66.5393
 X54.9386 Y66.7839
 X56.2876 Y67.0802
 X57.6211 Y67.4275
 X58.9382 Y67.8254
 X60.2375 Y68.2736
 X61.5178 Y68.7714
 X62.7781 Y69.3184
 X64.0168 Y69.9139
 X65.2333 Y70.5577
 X66.4260 Y71.2492
 X67.5939 Y71.9878
 X68.7356 Y72.7732
 X69.8501 Y73.6047
 X70.9363 Y74.4820
 X75.2676 Y62.9328
 X75.4056 Y62.6363
 X75.5839 Y62.3692
 X75.7982 Y62.1346
 X76.0439 Y61.9356
 X76.3164 Y61.7754
 X76.6111 Y61.6571
 X76.9236 Y61.5839
 X77.2493 Y61.5586
 X77.5749 Y61.5839
 X77.8874 Y61.6571
 X78.1821 Y61.7754
 X78.4544 Y61.9356
 X78.7000 Y62.1346
 X78.9143 Y62.3692
 X79.0928 Y62.6363
 X79.2308 Y62.9328
 X83.5618 Y74.4820
 X84.6481 Y73.6047
 X85.7626 Y72.7732
 X86.9046 Y71.9879
 X88.0725 Y71.2493
 X89.2653 Y70.5579
 X90.4817 Y69.9143
 X91.7207 Y69.3188
 X92.9810 Y68.7720
 X94.2613 Y68.2742
 X95.5604 Y67.8261
 X96.8772 Y67.4282
 X98.2107 Y67.0807
 X99.5593 Y66.7845
 X100.9221 Y66.5397
 X102.2979 Y66.3471
 X103.6853 Y66.2070
 X105.6110 Y65.5261
 X107.5290 Y64.9239
 X109.4360 Y64.3961
 X111.3280 Y63.9385
 X111.3290 Y63.6754
 X111.3180 Y62.4474
 X111.2850 Y61.2268
 X111.2300 Y60.0143
 X111.1530 Y58.8100
 X111.0550 Y57.6145
 X110.9360 Y56.4279
 X110.7960 Y55.2509
 X110.6360 Y54.0836
 X110.4550 Y52.9265
 X110.2540 Y51.7800
 X110.0340 Y50.6445
 X109.7950 Y49.5203
 X109.5360 Y48.4078
 X109.2580 Y47.3072
 X108.9620 Y46.2193
 X108.6470 Y45.1442
 X108.3140 Y44.0822
 X107.9640 Y43.0338
 X107.5950 Y41.9995
 X107.2100 Y40.9795
 X106.8080 Y39.9740
 X106.3880 Y38.9839
 X105.9530 Y38.0090
 X105.5010 Y37.0502
 X105.0330 Y36.1075
 X104.5500 Y35.1814
 X104.0512 Y34.2724
 X103.5375 Y33.3806
 X103.0087 Y32.5065
 X102.4654 Y31.6507
 X101.9079 Y30.8133
 X101.3363 Y29.9949
 X100.7510 Y29.1956
 X100.1521 Y28.4158
 X99.5400 Y27.6563
 X98.9150 Y26.9170
 X98.2772 Y26.1984
 X97.6271 Y25.5010
 X96.9647 Y24.8252
 X96.2907 Y24.1711
 X95.6049 Y23.5393
 X94.9078 Y22.9303
 X94.1996 Y22.3442
 X93.4806 Y21.7815
 X92.7511 Y21.2427
 X92.0114 Y20.7278
 X91.2617 Y20.2377
 X90.5022 Y19.7722
 X89.7332 Y19.3322
 X88.9551 Y18.9178
 X88.1682 Y18.5294
 X87.3725 Y18.1675
 X86.5685 Y17.8323
 X85.7564 Y17.5243
 X84.9365 Y17.2439
 X84.1090 Y16.9914
 X83.2742 Y16.7671
 X82.4324 Y16.5715
 X81.5839 Y16.4050
 X80.7288 Y16.2679
 X79.8675 Y16.1607
 X79.0003 Y16.0836
 X78.1275 Y16.0370
 X77.2493 Y16.0214
G0 Z5.0000
 X112.6780 Y29.8927
G1 Z0.0000
 X111.8880 Y29.1761
 X111.0850 Y28.4772
 X110.2700 Y27.7963
 X109.4430 Y27.1334
 X108.6050 Y26.4885
 X107.7540 Y25.8617
 X106.8930 Y25.2534
 X106.0210 Y24.6634
 X105.1380 Y24.0918
 X104.2453 Y23.5388
 X103.3422 Y23.0046
 X102.4293 Y22.4890
 X101.5069 Y21.9925
 X100.5754 Y21.5149
 X99.6349 Y21.0564
 X98.6858 Y20.6171
 X99.4643 Y21.3493
 X100.2307 Y22.1090
 X100.9847 Y22.8963
 X101.7260 Y23.7107
 X102.4540 Y24.5522
 X103.1687 Y25.4207
 X103.8696 Y26.3157
 X104.5564 Y27.2372
 X105.2040 Y28.1492
 X105.8330 Y29.0789
 X106.4440 Y30.0259
 X107.0360 Y30.9897
 X107.6090 Y31.9702
 X108.1640 Y32.9664
 X108.7000 Y33.9785
 X109.2160 Y35.0057
 X109.7130 Y36.0478
 X110.1910 Y37.1042
 X110.6500 Y38.1746
 X111.0890 Y39.2585
 X111.5080 Y40.3556
 X111.9070 Y41.4653
 X112.2870 Y42.5872
 X112.6460 Y43.7211
 X112.9850 Y44.8664
 X113.3040 Y46.0228
 X113.6020 Y47.1897
 X113.8790 Y48.3668
 X114.1360 Y49.5536
 X114.3720 Y50.7499
 X114.5870 Y51.9550
 X114.7820 Y53.1688
 X114.9540 Y54.3904
 X115.1060 Y55.6199
 X115.2360 Y56.8565
 X115.3440 Y58.1000
 X115.4310 Y59.3499
 X115.4950 Y60.6057
 X115.5380 Y61.8672
 X115.5590 Y63.1338
 X116.9810 Y62.9290
 X118.3830 Y62.7577
 X119.7630 Y62.6179
 X121.1190 Y62.5078
 X122.4480 Y62.4256
 X123.7500 Y62.3692
 X125.0210 Y62.3367
 X126.2590 Y62.3263
 X127.7090 Y62.3406
 X129.1060 Y62.3814
 X128.9640 Y61.2181
 X128.7960 Y60.0606
 X128.6020 Y58.9095
 X128.3830 Y57.7649
 X128.1390 Y56.6274
 X127.8700 Y55.4974
 X127.5760 Y54.3749
 X127.2580 Y53.2607
 X126.9150 Y52.1549
 X126.5470 Y51.0579
 X126.1560 Y49.9702
 X125.7410 Y48.8920
 X125.3020 Y47.8236
 X124.8390 Y46.7656
 X124.3530 Y45.7182
 X123.8430 Y44.6818
 X123.3110 Y43.6568
 X122.7560 Y42.6435
 X122.1780 Y41.6424
 X121.5780 Y40.6536
 X120.9550 Y39.6778
 X120.3100 Y38.7150
 X119.6430 Y37.7658
 X118.9540 Y36.8306
 X118.2430 Y35.9096
 X117.5110 Y35.0032
 X116.7580 Y34.1118
 X115.9840 Y33.2359
 X115.1880 Y32.3756
 X114.3720 Y31.5314
 X113.5350 Y30.7036
 X112.6780 Y29.8927
G0 Z5.0000
 X140.5950 Y74.8415
G1 Z0.0000
 X140.3780 Y74.8306
 X140.1680 Y74.7985
 X139.9650 Y74.7464
 X139.7700 Y74.6752
 X139.5850 Y74.5860
 X139.4110 Y74.4800
 X139.2480 Y74.3581
 X139.0980 Y74.2215
 X138.9610 Y74.0711
 X138.8390 Y73.9082
 X138.7330 Y73.7336
 X138.6440 Y73.5486
 X138.5730 Y73.3542
 X138.5210 Y73.1514
 X138.4890 Y72.9413
 X138.4780 Y72.7247
 Y67.6593
 X138.1360 Y67.5971
 X137.7630 Y67.5321
 X137.3610 Y67.4650
 X136.9300 Y67.3963
 X136.4710 Y67.3267
 X135.9850 Y67.2567
 X135.4720 Y67.1870
 X134.9330 Y67.1182
 X134.3690 Y67.0510
 X133.7810 Y66.9860
 X133.1690 Y66.9236
 X132.5340 Y66.8647
 X131.8770 Y66.8097
 X131.1980 Y66.7595
 X130.4980 Y66.7143
 X129.7780 Y66.6752
 X129.0390 Y66.6424
 X128.2820 Y66.6167
 X127.5060 Y66.5986
 X126.7130 Y66.5890
 X125.9040 Y66.5882
 X125.0790 Y66.5971
 X124.2390 Y66.6161
 X123.3850 Y66.6458
 X122.5170 Y66.6870
 X121.6370 Y66.7402
 X120.7440 Y66.8061
 X119.8400 Y66.8852
 X118.9250 Y66.9781
 X118.0010 Y67.0856
 X117.0670 Y67.2082
 X116.1250 Y67.3464
 X117.2790 Y67.6818
 X118.4170 Y68.0543
 X119.5380 Y68.4632
 X120.6420 Y68.9079
 X121.7270 Y69.3877
 X122.7930 Y69.9017
 X123.8400 Y70.4493
 X124.8660 Y71.0299
 X125.8710 Y71.6427
 X126.8540 Y72.2871
 X127.8150 Y72.9621
 X128.7520 Y73.6672
 X129.6660 Y74.4018
 X130.5550 Y75.1652
 X131.4190 Y75.9564
 X132.2560 Y76.7749
 X133.0670 Y77.6199
 X133.8500 Y78.4909
 X134.6060 Y79.3870
 X135.3320 Y80.3074
 X136.0290 Y81.2515
 X136.6950 Y82.2189
 X137.3300 Y83.2085
 X137.9340 Y84.2197
 X138.5050 Y85.2518
 X139.0430 Y86.3042
 X139.5480 Y87.3760
 X140.0180 Y88.4665
 X140.4520 Y89.5753
 X140.8510 Y90.7014
 X141.2130 Y91.8442
 X141.5370 Y93.0028
 X141.8280 Y91.8588
 X142.1200 Y90.6910
 X142.4100 Y89.5052
 X142.6970 Y88.3064
 X142.9780 Y87.1000
 X143.2530 Y85.8913
 X143.5170 Y84.6856
 X143.7710 Y83.4882
 X144.0110 Y82.3043
 X144.2370 Y81.1392
 X144.4460 Y79.9984
 X144.6350 Y78.8870
 X144.8030 Y77.8103
 X144.9490 Y76.7736
 X145.0680 Y75.7822
 X145.1610 Y74.8415
 X140.5950
G0 Z5.0000
 X113.5920 Y99.8725
G1 Z0.0000
 X113.5830 Y99.5163
 X113.5560 Y99.1647
 X113.5120 Y98.8181
 X113.4510 Y98.4771
 X113.3730 Y98.1420
 X113.2800 Y97.8132
 X113.1710 Y97.4911
 X113.0460 Y97.1765
 X112.9070 Y96.8695
 X112.7540 Y96.5706
 X112.5870 Y96.2803
 X112.4060 Y95.9989
 X112.2130 Y95.7271
 X112.0070 Y95.4650
 X111.7890 Y95.2134
 X111.5590 Y94.9724
 X111.3180 Y94.7427
 X111.0670 Y94.5246
 X110.8050 Y94.3186
 X110.5330 Y94.1252
 X110.2510 Y93.9446
 X109.9610 Y93.7774
 X109.6620 Y93.6240
 X109.3550 Y93.4852
 X109.0410 Y93.3607
 X108.7190 Y93.2515
 X108.3900 Y93.1581
 X108.0550 Y93.0804
 X107.7140 Y93.0195
 X107.3670 Y92.9753
 X107.0150 Y92.9484
 X106.6590 Y92.9393
 X106.3030 Y92.9484
 X105.9520 Y92.9753
 X105.6050 Y93.0195
 X105.2640 Y93.0804
 X104.9293 Y93.1581
 X104.6006 Y93.2515
 X104.2787 Y93.3607
 X103.9642 Y93.4852
 X103.6572 Y93.6240
 X103.3583 Y93.7774
 X103.0681 Y93.9446
 X102.7868 Y94.1252
 X102.5150 Y94.3186
 X102.2531 Y94.5246
 X102.0015 Y94.7427
 X101.7606 Y94.9724
 X101.5308 Y95.2134
 X101.3128 Y95.4650
 X101.1069 Y95.7271
 X100.9135 Y95.9989
 X100.7329 Y96.2803
 X100.5658 Y96.5706
 X100.4125 Y96.8695
 X100.2735 Y97.1765
 X100.1492 Y97.4911
 X100.0400 Y97.8132
 X99.9465 Y98.1420
 X99.8689 Y98.4771
 X99.8079 Y98.8181
 X99.7636 Y99.1647
 X99.7368 Y99.5163
 X99.7279 Y99.8725
 Y104.3979
 X99.7368 Y104.7542
 X99.7636 Y105.1056
 X99.8079 Y105.4526
 X99.8689 Y105.7936
 X99.9465 Y106.1286
 X100.0400 Y106.4566
 X100.1492 Y106.7786
 X100.2735 Y107.0936
 X100.4125 Y107.4006
 X100.5658 Y107.6996
 X100.7329 Y107.9896
 X100.9135 Y108.2706
 X101.1069 Y108.5426
 X101.3128 Y108.8046
 X101.5308 Y109.0566
 X101.7606 Y109.2966
 X102.0015 Y109.5266
 X102.2531 Y109.7446
 X102.5150 Y109.9506
 X102.7868 Y110.1446
 X103.0681 Y110.3246
 X103.3583 Y110.4916
 X103.6572 Y110.6446
 X103.9642 Y110.7836
 X104.2787 Y110.9076
 X104.6006 Y111.0176
 X104.9293 Y111.1106
 X105.2640 Y111.1886
 X105.6050 Y111.2496
 X105.9520 Y111.2936
 X106.3030 Y111.3206
 X106.6590 Y111.3296
 X107.0150 Y111.3206
 X107.3670 Y111.2936
 X107.7140 Y111.2496
 X108.0550 Y111.1886
 X108.3900 Y111.1106
 X108.7190 Y111.0176
 X109.0410 Y110.9076
 X109.3550 Y110.7836
 X109.6620 Y110.6446
 X109.9610 Y110.4916
 X110.2510 Y110.3246
 X110.5330 Y110.1446
 X110.8050 Y109.9506
 X111.0670 Y109.7446
 X111.3180 Y109.5266
 X111.5590 Y109.2966
 X111.7890 Y109.0566
 X112.0070 Y108.8046
 X112.2130 Y108.5426
 X112.4060 Y108.2706
 X112.5870 Y107.9896
 X112.7540 Y107.6996
 X112.9070 Y107.4006
 X113.0460 Y107.0936
 X113.1710 Y106.7786
 X113.2800 Y106.4566
 X113.3730 Y106.1286
 X113.4510 Y105.7936
 X113.5120 Y105.4526
 X113.5560 Y105.1056
 X113.5830 Y104.7542
 X113.5920 Y104.3979
 Y99.8725
G0 Z5.0000
 X81.5761 Y81.2413
G1 Z0.0000
 X77.2493 Y69.7029
 X72.9221 Y81.2413
 X75.5461 Y83.8652
 X75.7289 Y84.0302
 X75.9237 Y84.1731
 X76.1290 Y84.2940
 X76.3428 Y84.3931
 X76.5635 Y84.4700
 X76.7894 Y84.5250
 X77.0188 Y84.5581
 X77.2497 Y84.5690
 X77.4807 Y84.5581
 X77.7100 Y84.5250
 X77.9358 Y84.4700
 X78.1565 Y84.3931
 X78.3701 Y84.2940
 X78.5751 Y84.1731
 X78.7699 Y84.0302
 X78.9525 Y83.8652
 X81.5761 Y81.2413
G0 Z5.0000
 X54.7721 Y99.8725
G1 Z0.0000
 X54.7629 Y99.5163
 X54.7361 Y99.1647
 X54.6919 Y98.8181
 X54.6310 Y98.4771
 X54.5533 Y98.1420
 X54.4599 Y97.8132
 X54.3507 Y97.4911
 X54.2263 Y97.1765
 X54.0872 Y96.8695
 X53.9340 Y96.5706
 X53.7668 Y96.2803
 X53.5864 Y95.9989
 X53.3929 Y95.7271
 X53.1868 Y95.4650
 X52.9688 Y95.2134
 X52.7390 Y94.9724
 X52.4982 Y94.7427
 X52.2465 Y94.5246
 X51.9846 Y94.3186
 X51.7126 Y94.1252
 X51.4313 Y93.9446
 X51.1410 Y93.7774
 X50.8421 Y93.6240
 X50.5351 Y93.4852
 X50.2204 Y93.3607
 X49.8985 Y93.2515
 X49.5697 Y93.1581
 X49.2346 Y93.0804
 X48.8936 Y93.0195
 X48.5469 Y92.9753
 X48.1954 Y92.9484
 X47.8392 Y92.9393
 X47.4829 Y92.9484
 X47.1314 Y92.9753
 X46.7847 Y93.0195
 X46.4437 Y93.0804
 X46.1086 Y93.1581
 X45.7799 Y93.2515
 X45.4579 Y93.3607
 X45.1432 Y93.4852
 X44.8361 Y93.6240
 X44.5372 Y93.7774
 X44.2469 Y93.9446
 X43.9656 Y94.1252
 X43.6937 Y94.3186
 X43.4317 Y94.5246
 X43.1800 Y94.7427
 X42.9392 Y94.9724
 X42.7093 Y95.2134
 X42.4914 Y95.4650
 X42.2853 Y95.7271
 X42.0918 Y95.9989
 X41.9113 Y96.2803
 X41.7442 Y96.5706
 X41.5908 Y96.8695
 X41.4518 Y97.1765
 X41.3275 Y97.4911
 X41.2183 Y97.8132
 X41.1247 Y98.1420
 X41.0472 Y98.4771
 X40.9861 Y98.8181
 X40.9419 Y99.1647
 X40.9151 Y99.5163
 X40.9061 Y99.8725
 Y104.3979
 X40.9151 Y104.7542
 X40.9419 Y105.1056
 X40.9861 Y105.4526
 X41.0472 Y105.7936
 X41.1247 Y106.1286
 X41.2183 Y106.4566
 X41.3275 Y106.7786
 X41.4518 Y107.0936
 X41.5908 Y107.4006
 X41.7442 Y107.6996
 X41.9113 Y107.9896
 X42.0918 Y108.2706
 X42.2853 Y108.5426
 X42.4914 Y108.8046
 X42.7093 Y109.0566
 X42.9392 Y109.2966
 X43.1800 Y109.5266
 X43.4317 Y109.7446
 X43.6937 Y109.9506
 X43.9656 Y110.1446
 X44.2469 Y110.3246
 X44.5372 Y110.4916
 X44.8361 Y110.6446
 X45.1432 Y110.7836
 X45.4579 Y110.9076
 X45.7799 Y111.0176
 X46.1086 Y111.1106
 X46.4437 Y111.1886
 X46.7847 Y111.2496
 X47.1314 Y111.2936
 X47.4829 Y111.3206
 X47.8392 Y111.3296
 X48.1954 Y111.3206
 X48.5469 Y111.2936
 X48.8936 Y111.2496
 X49.2346 Y111.1886
 X49.5697 Y111.1106
 X49.8985 Y111.0176
 X50.2204 Y110.9076
 X50.5351 Y110.7836
 X50.8421 Y110.6446
 X51.1410 Y110.4916
 X51.4313 Y110.3246
 X51.7126 Y110.1446
 X51.9846 Y109.9506
 X52.2465 Y109.7446
 X52.4982 Y109.5266
 X52.7390 Y109.2966
 X52.9688 Y109.0566
 X53.1868 Y108.8046
 X53.3929 Y108.5426
 X53.5864 Y108.2706
 X53.7668 Y107.9896
 X53.9340 Y107.6996
 X54.0872 Y107.4006
 X54.2263 Y107.0936
 X54.3507 Y106.7786
 X54.4599 Y106.4566
 X54.5533 Y106.1286
 X54.6310 Y105.7936
 X54.6919 Y105.4526
 X54.7361 Y105.1056
 X54.7629 Y104.7542
 X54.7721 Y104.3979
 Y99.8725
G0 Z5.0000
 X26.8461 Y126.0426
G1 Z0.0000
 X27.8532 Y125.6636
 X28.8861 Y125.3076
 X29.9446 Y124.9736
 X31.0285 Y124.6616
 X32.1374 Y124.3716
 X33.2714 Y124.1046
 X34.4299 Y123.8596
 X35.6131 Y123.6366
 X34.9201 Y123.2256
 X34.2418 Y122.7936
 X33.5787 Y122.3406
 X32.9313 Y121.8656
 X32.2999 Y121.3716
 X31.6851 Y120.8576
 X31.0875 Y120.3236
 X30.5074 Y119.7716
 X29.9451 Y119.2016
 X29.4017 Y118.6126
 X28.8769 Y118.0076
 X28.3719 Y117.3846
 X27.8867 Y116.7456
 X27.4219 Y116.0916
 X26.9782 Y115.4206
 X26.5558 Y114.7356
 X26.1553 Y114.0366
 X25.7771 Y113.3226
 X25.4217 Y112.5956
 X25.0897 Y111.8556
 X24.7815 Y111.1036
 X24.4975 Y110.3386
 X24.2383 Y109.5626
 X24.0044 Y108.7756
 X23.7961 Y107.9776
 X23.6142 Y107.1696
 X23.4589 Y106.3516
 X23.3307 Y105.5246
 X23.2301 Y104.6892
 X23.1578 Y103.8454
 X23.1140 Y102.9939
 X23.0993 Y102.1352
 X23.1074 Y101.4977
 X23.1315 Y100.8640
 X23.1715 Y100.2346
 X23.2272 Y99.6093
 X23.2983 Y98.9886
 X23.3849 Y98.3727
 X23.4864 Y97.7617
 X23.6028 Y97.1556
 X23.7339 Y96.5549
 X23.8794 Y95.9597
 X24.0394 Y95.3702
 X24.2135 Y94.7865
 X24.4014 Y94.2090
 X24.6029 Y93.6378
 X24.8181 Y93.0728
 X25.0467 Y92.5147
 X25.2882 Y91.9634
 X25.5426 Y91.4192
 X25.8100 Y90.8821
 X26.0897 Y90.3525
 X26.3818 Y89.8306
 X26.6861 Y89.3165
 X27.0024 Y88.8104
 X27.3304 Y88.3127
 X27.6699 Y87.8232
 X28.0208 Y87.3425
 X28.3828 Y86.8704
 X28.7558 Y86.4075
 X29.1396 Y85.9538
 X29.5340 Y85.5095
 X29.9387 Y85.0747
 X30.3537 Y84.6497
 X30.7787 Y84.2347
 X31.2135 Y83.8300
 X31.6578 Y83.4356
 X32.1115 Y83.0518
 X32.5744 Y82.6788
 X33.0464 Y82.3168
 X33.5272 Y81.9658
 X34.0167 Y81.6264
 X34.5144 Y81.2983
 X35.0206 Y80.9821
 X35.5346 Y80.6778
 X36.0565 Y80.3857
 X36.5861 Y80.1060
 X37.1231 Y79.8386
 X37.6674 Y79.5842
 X38.2188 Y79.3427
 X38.7768 Y79.1140
 X39.3417 Y78.8989
 X39.9129 Y78.6974
 X40.4906 Y78.5095
 X41.0742 Y78.3354
 X41.6638 Y78.1754
 X42.2589 Y78.0299
 X42.8596 Y77.8988
 X43.4656 Y77.7824
 X44.0767 Y77.6808
 X44.6926 Y77.5943
 X45.3133 Y77.5232
 X45.9385 Y77.4675
 X46.5681 Y77.4275
 X47.2017 Y77.4033
 X47.8392 Y77.3952
 X48.4767 Y77.4033
 X49.1103 Y77.4275
 X49.7399 Y77.4675
 X50.3650 Y77.5232
 X50.9857 Y77.5943
 X51.6017 Y77.6808
 X52.2128 Y77.7824
 X52.8187 Y77.8988
 X53.4194 Y78.0299
 X54.0146 Y78.1754
 X54.6042 Y78.3354
 X55.1878 Y78.5095
 X55.7654 Y78.6974
 X56.3367 Y78.8989
 X56.9015 Y79.1140
 X57.4596 Y79.3427
 X58.0110 Y79.5842
 X58.5551 Y79.8386
 X59.0922 Y80.1060
 X59.6218 Y80.3857
 X60.1436 Y80.6778
 X60.6578 Y80.9821
 X61.1638 Y81.2983
 X61.6617 Y81.6264
 X62.1510 Y81.9658
 X62.6318 Y82.3168
 X63.1038 Y82.6788
 X63.5667 Y83.0518
 X64.0204 Y83.4356
 X64.4647 Y83.8300
 X64.8996 Y84.2347
 X65.3244 Y84.6497
 X65.7393 Y85.0747
 X66.1442 Y85.5095
 X66.5385 Y85.9538
 X66.9224 Y86.4075
 X67.2954 Y86.8704
 X67.6574 Y87.3425
 X68.0083 Y87.8232
 X68.3478 Y88.3127
 X68.6758 Y88.8104
 X68.9921 Y89.3165
 X69.2963 Y89.8306
 X69.5885 Y90.3525
 X69.8682 Y90.8821
 X70.1354 Y91.4192
 X70.3900 Y91.9634
 X70.6315 Y92.5147
 X70.8600 Y93.0728
 X71.0751 Y93.6378
 X71.2768 Y94.2090
 X71.4647 Y94.7865
 X71.6386 Y95.3702
 X71.7986 Y95.9597
 X71.9442 Y96.5549
 X72.0753 Y97.1556
 X72.1917 Y97.7617
 X72.2932 Y98.3727
 X72.3797 Y98.9886
 X72.4508 Y99.6093
 X72.5065 Y100.2346
 X72.5465 Y100.8640
 X72.5707 Y101.4977
 X72.5789 Y102.1352
 X72.5707 Y102.7728
 X72.5465 Y103.4064
 X72.5065 Y104.0358
 X72.4508 Y104.6610
 X72.3797 Y105.2816
 X72.2932 Y105.8976
 X72.1917 Y106.5086
 X72.0753 Y107.1146
 X71.9442 Y107.7156
 X71.7986 Y108.3106
 X71.6386 Y108.9006
 X71.4647 Y109.4836
 X71.2768 Y110.0616
 X71.0751 Y110.6326
 X70.8600 Y111.1976
 X70.6315 Y111.7556
 X70.3900 Y112.3066
 X70.1354 Y112.8516
 X69.8682 Y113.3886
 X69.5885 Y113.9176
 X69.2963 Y114.4396
 X68.9921 Y114.9536
 X68.6758 Y115.4596
 X68.3478 Y115.9576
 X68.0083 Y116.4466
 X67.6574 Y116.9276
 X67.2954 Y117.3996
 X66.9224 Y117.8626
 X66.5385 Y118.3166
 X66.1442 Y118.7606
 X65.7393 Y119.1956
 X65.3244 Y119.6206
 X64.8996 Y120.0356
 X64.4647 Y120.4406
 X64.0204 Y120.8346
 X63.5667 Y121.2186
 X63.1038 Y121.5916
 X62.6318 Y121.9536
 X62.1510 Y122.3046
 X61.6617 Y122.6436
 X61.1638 Y122.9716
 X60.6578 Y123.2876
 X60.1436 Y123.5926
 X59.6218 Y123.8846
 X59.0922 Y124.1646
 X58.5551 Y124.4316
 X58.0110 Y124.6856
 X57.4596 Y124.9276
 X56.9015 Y125.1556
 X56.3367 Y125.3716
 X55.7654 Y125.5726
 X55.1878 Y125.7606
 X54.6042 Y125.9346
 X54.0146 Y126.0946
 X53.4194 Y126.2406
 X52.8187 Y126.3716
 X52.2128 Y126.4876
 X51.6017 Y126.5896
 X50.9857 Y126.6756
 X50.3650 Y126.7466
 X49.7399 Y126.8026
 X49.1103 Y126.8426
 X48.4767 Y126.8666
 X47.8392 Y126.8746
 X46.5382 Y126.8856
 X45.2590 Y126.9166
 X44.0017 Y126.9686
 X42.7664 Y127.0416
 X41.5535 Y127.1346
 X40.3629 Y127.2486
 X39.1953 Y127.3826
 X38.0504 Y127.5376
 X36.9288 Y127.7126
 X35.8303 Y127.9086
 X34.7554 Y128.1236
 X33.7043 Y128.3596
 X32.6771 Y128.6156
 X31.6742 Y128.8916
 X30.6954 Y129.1876
 X29.7413 Y129.5026
 X28.8118 Y129.8376
 X27.9075 Y130.1926
 X27.0282 Y130.5676
 X26.1743 Y130.9616
 X25.3460 Y131.3756
 X24.5435 Y131.8086
 X23.7669 Y132.2616
 X23.0165 Y132.7336
 X22.2926 Y133.2246
 X21.5953 Y133.7346
 X20.9247 Y134.2636
 X20.2811 Y134.8116
 X19.6649 Y135.3796
 X19.0758 Y135.9656
 X18.5146 Y136.5696
 X17.9812 Y137.1936
 X17.6175 Y137.6496
 X17.2753 Y138.1066
 X16.9539 Y138.5616
 X16.6528 Y139.0146
 X16.3712 Y139.4646
 X16.1083 Y139.9106
 X15.8638 Y140.3526
 X15.6368 Y140.7886
 X15.4268 Y141.2186
 X15.2330 Y141.6416
 X15.0547 Y142.0566
 X14.8915 Y142.4626
 X14.7425 Y142.8586
 X14.6072 Y143.2436
 X14.4848 Y143.6176
 X14.3747 Y143.9786
 X15.4416 Y143.6446
 X16.5286 Y143.3406
 X17.6348 Y143.0676
 X18.7594 Y142.8206
 X19.9015 Y142.5986
 X21.0604 Y142.4006
 X22.2351 Y142.2236
 X23.4247 Y142.0646
 X24.6285 Y141.9226
 X25.8456 Y141.7946
 X27.0749 Y141.6796
 X28.3157 Y141.5746
 X29.5674 Y141.4776
 X30.8289 Y141.3866
 X32.0993 Y141.2996
 X33.3778 Y141.2136
 X34.1465 Y141.1626
 X34.9157 Y141.1106
 X35.6854 Y141.0576
 X36.4554 Y141.0036
 X37.2253 Y140.9476
 X37.9950 Y140.8886
 X38.7642 Y140.8276
 X39.5329 Y140.7636
 X40.3008 Y140.6956
 X41.0676 Y140.6236
 X41.8332 Y140.5466
 X42.5974 Y140.4656
 X43.3599 Y140.3786
 X44.1207 Y140.2856
 X44.8793 Y140.1866
 X45.6357 Y140.0806
 X46.3896 Y139.9666
 X47.1410 Y139.8456
 X47.8894 Y139.7166
 X48.6347 Y139.5796
 X49.3769 Y139.4326
 X50.1156 Y139.2766
 X50.8504 Y139.1106
 X51.5815 Y138.9336
 X52.3085 Y138.7466
 X53.0313 Y138.5476
 X53.7494 Y138.3376
 X54.4629 Y138.1146
 X55.1715 Y137.8796
 X55.8750 Y137.6316
 X56.5732 Y137.3696
 X57.2658 Y137.0936
 X57.9526 Y136.8036
 X58.6337 Y136.4986
 X59.3085 Y136.1786
 X59.9771 Y135.8426
 X60.6390 Y135.4906
 X61.2943 Y135.1216
 X61.9426 Y134.7356
 X62.5837 Y134.3316
 X63.2175 Y133.9106
 X63.8438 Y133.4696
 X64.4622 Y133.0106
 X65.0726 Y132.5326
 X65.6750 Y132.0346
 X66.2689 Y131.5166
 X66.8543 Y130.9766
 X67.4308 Y130.4166
 X67.9983 Y129.8346
 X68.5568 Y129.2306
 X69.1057 Y128.6046
 X69.6451 Y127.9556
 X70.1746 Y127.2826
 X70.6942 Y126.5856
 X71.2035 Y125.8646
 X71.7024 Y125.1196
 X72.1907 Y124.3486
 X72.6681 Y123.5526
 X73.1344 Y122.7296
 X73.5896 Y121.8806
 X74.0333 Y121.0046
 X74.4654 Y120.1006
 X74.8857 Y119.1696
 X75.2937 Y118.2096
 X75.4403 Y117.9186
 X75.6243 Y117.6606
 X75.8411 Y117.4366
 X76.0861 Y117.2486
 X76.3542 Y117.0986
 X76.6408 Y116.9896
 X76.9413 Y116.9216
 X77.2507 Y116.8996
 X77.6557 Y116.9396
 X78.0568 Y117.0606
 X78.2535 Y117.1536
 X78.4363 Y117.2636
 X78.6044 Y117.3896
 X78.7575 Y117.5306
 X78.8947 Y117.6836
 X79.0157 Y117.8496
 X79.1196 Y118.0256
 X79.2061 Y118.2096
 X79.6142 Y119.1696
 X80.0344 Y120.1006
 X80.4665 Y121.0046
 X80.9101 Y121.8806
 X81.3653 Y122.7296
 X81.8317 Y123.5526
 X82.3090 Y124.3486
 X82.7974 Y125.1196
 X83.2963 Y125.8646
 X83.8056 Y126.5856
 X84.3250 Y127.2826
 X84.8546 Y127.9556
 X85.3939 Y128.6046
 X85.9429 Y129.2306
 X86.5012 Y129.8346
 X87.0688 Y130.4166
 X87.6453 Y130.9766
 X88.2307 Y131.5166
 X88.8246 Y132.0346
 X89.4268 Y132.5326
 X90.0374 Y133.0106
 X90.6557 Y133.4696
 X91.2819 Y133.9106
 X91.9157 Y134.3316
 X92.5568 Y134.7356
 X93.2051 Y135.1216
 X93.8604 Y135.4906
 X94.5224 Y135.8426
 X95.1908 Y136.1786
 X95.8657 Y136.4986
 X96.5467 Y136.8036
 X97.2336 Y137.0936
 X97.9262 Y137.3696
 X98.6243 Y137.6316
 X99.3278 Y137.8796
 X100.0364 Y138.1146
 X100.7499 Y138.3376
 X101.4681 Y138.5476
 X102.1907 Y138.7466
 X102.9176 Y138.9336
 X103.6486 Y139.1106
 X104.3836 Y139.2766
 X105.1220 Y139.4326
 X105.8640 Y139.5796
 X106.6100 Y139.7166
 X107.3580 Y139.8456
 X108.1090 Y139.9666
 X108.8630 Y140.0806
 X109.6200 Y140.1866
 X110.3780 Y140.2856
 X111.1390 Y140.3786
 X111.9010 Y140.4656
 X112.6650 Y140.5466
 X113.4310 Y140.6236
 X114.1980 Y140.6956
 X114.9660 Y140.7636
 X115.7340 Y140.8276
 X116.5030 Y140.8886
 X117.2730 Y140.9476
 X118.0430 Y141.0036
 X118.8130 Y141.0576
 X119.5830 Y141.1106
 X120.3520 Y141.1626
 X121.1200 Y141.2136
 X122.3990 Y141.2996
 X123.6690 Y141.3866
 X124.9310 Y141.4776
 X126.1830 Y141.5746
 X127.4240 Y141.6796
 X128.6530 Y141.7946
 X129.8700 Y141.9226
 X131.0740 Y142.0646
 X132.2640 Y142.2236
 X133.4380 Y142.4006
 X134.5970 Y142.5986
 X135.7390 Y142.8206
 X136.8640 Y143.0676
 X137.9700 Y143.3406
 X139.0570 Y143.6446
 X140.1230 Y143.9786
 X140.0140 Y143.6176
 X139.8910 Y143.2436
 X139.7560 Y142.8586
 X139.6080 Y142.4626
 X139.4440 Y142.0566
 X139.2660 Y141.6416
 X139.0730 Y141.2186
 X138.8630 Y140.7886
 X138.6360 Y140.3516
 X138.3910 Y139.9106
 X138.1290 Y139.4636
 X137.8470 Y139.0136
 X137.5460 Y138.5606
 X137.2250 Y138.1056
 X136.8820 Y137.6496
 X136.5190 Y137.1936
 X135.9850 Y136.5706
 X135.4240 Y135.9656
 X134.8350 Y135.3796
 X134.2180 Y134.8126
 X133.5750 Y134.2646
 X132.9040 Y133.7346
 X132.2070 Y133.2246
 X131.4830 Y132.7336
 X130.7320 Y132.2626
 X129.9560 Y131.8096
 X129.1530 Y131.3766
 X128.3250 Y130.9626
 X127.4710 Y130.5686
 X126.5920 Y130.1936
 X125.6870 Y129.8386
 X124.7580 Y129.5036
 X123.8040 Y129.1876
 X122.8250 Y128.8916
 X121.8220 Y128.6156
 X120.7950 Y128.3606
 X119.7440 Y128.1246
 X118.6690 Y127.9086
 X117.5710 Y127.7136
 X116.4490 Y127.5376
 X115.3040 Y127.3826
 X114.1370 Y127.2486
 X112.9460 Y127.1346
 X111.7330 Y127.0416
 X110.4980 Y126.9686
 X109.2410 Y126.9166
 X107.9620 Y126.8856
 X106.6610 Y126.8746
 X106.0230 Y126.8666
 X105.3890 Y126.8426
 X104.7599 Y126.8026
 X104.1346 Y126.7466
 X103.5139 Y126.6756
 X102.8979 Y126.5896
 X102.2867 Y126.4876
 X101.6807 Y126.3716
 X101.0800 Y126.2406
 X100.4847 Y126.0946
 X99.8951 Y125.9346
 X99.3115 Y125.7606
 X98.7339 Y125.5726
 X98.1626 Y125.3716
 X97.5978 Y125.1566
 X97.0396 Y124.9276
 X96.4882 Y124.6866
 X95.9439 Y124.4316
 X95.4069 Y124.1646
 X94.8774 Y123.8846
 X94.3554 Y123.5926
 X93.8414 Y123.2886
 X93.3353 Y122.9716
 X92.8375 Y122.6446
 X92.3481 Y122.3046
 X91.8674 Y121.9536
 X91.3953 Y121.5916
 X90.9324 Y121.2186
 X90.4786 Y120.8346
 X90.0343 Y120.4406
 X89.5996 Y120.0356
 X89.1747 Y119.6206
 X88.7597 Y119.1956
 X88.3550 Y118.7616
 X87.9607 Y118.3166
 X87.5769 Y117.8636
 X87.2039 Y117.4006
 X86.8418 Y116.9286
 X86.4910 Y116.4476
 X86.1514 Y115.9576
 X85.8235 Y115.4606
 X85.5072 Y114.9546
 X85.2031 Y114.4406
 X84.9110 Y113.9186
 X84.6311 Y113.3886
 X84.3639 Y112.8516
 X84.1094 Y112.3076
 X83.8678 Y111.7566
 X83.6394 Y111.1976
 X83.4243 Y110.6326
 X83.2226 Y110.0616
 X83.0347 Y109.4846
 X82.8608 Y108.9006
 X82.7008 Y108.3106
 X82.5553 Y107.7156
 X82.4242 Y107.1146
 X82.3078 Y106.5086
 X82.2063 Y105.8976
 X82.1199 Y105.2816
 X82.0486 Y104.6613
 X81.9931 Y104.0360
 X81.9529 Y103.4064
 X81.9289 Y102.7728
 X81.9207 Y102.1352
 X81.9289 Y101.4977
 X81.9529 Y100.8640
 X81.9931 Y100.2346
 X82.0486 Y99.6093
 X82.1199 Y98.9886
 X82.2063 Y98.3727
 X82.3078 Y97.7617
 X82.4242 Y97.1556
 X82.5553 Y96.5549
 X82.7008 Y95.9597
 X82.8608 Y95.3702
 X83.0347 Y94.7865
 X83.2226 Y94.2090
 X83.4243 Y93.6378
 X83.6394 Y93.0728
 X83.8678 Y92.5147
 X84.1094 Y91.9634
 X84.3639 Y91.4192
 X84.6311 Y90.8821
 X84.9110 Y90.3525
 X85.2031 Y89.8306
 X85.5072 Y89.3165
 X85.8235 Y88.8104
 X86.1514 Y88.3127
 X86.4910 Y87.8232
 X86.8418 Y87.3425
 X87.2039 Y86.8704
 X87.5769 Y86.4075
 X87.9607 Y85.9538
 X88.3550 Y85.5095
 X88.7597 Y85.0747
 X89.1747 Y84.6497
 X89.5996 Y84.2347
 X90.0343 Y83.8300
 X90.4786 Y83.4356
 X90.9324 Y83.0518
 X91.3953 Y82.6788
 X91.8674 Y82.3168
 X92.3481 Y81.9658
 X92.8375 Y81.6264
 X93.3353 Y81.2983
 X93.8414 Y80.9821
 X94.3554 Y80.6778
 X94.8774 Y80.3857
 X95.4069 Y80.1060
 X95.9439 Y79.8386
 X96.4882 Y79.5842
 X97.0396 Y79.3427
 X97.5978 Y79.1140
 X98.1626 Y78.8989
 X98.7339 Y78.6974
 X99.3115 Y78.5095
 X99.8951 Y78.3354
 X100.4847 Y78.1754
 X101.0800 Y78.0299
 X101.6807 Y77.8988
 X102.2867 Y77.7824
 X102.8979 Y77.6808
 X103.5139 Y77.5943
 X104.1346 Y77.5232
 X104.7599 Y77.4675
 X105.3890 Y77.4275
 X106.0230 Y77.4033
 X106.6610 Y77.3952
 X107.2980 Y77.4033
 X107.9320 Y77.4275
 X108.5610 Y77.4675
 X109.1870 Y77.5232
 X109.8070 Y77.5943
 X110.4230 Y77.6808
 X111.0340 Y77.7824
 X111.6400 Y77.8988
 X112.2410 Y78.0299
 X112.8360 Y78.1754
 X113.4260 Y78.3354
 X114.0090 Y78.5095
 X114.5870 Y78.6974
 X115.1580 Y78.8989
 X115.7230 Y79.1140
 X116.2810 Y79.3427
 X116.8330 Y79.5842
 X117.3770 Y79.8386
 X117.9140 Y80.1060
 X118.4430 Y80.3857
 X118.9650 Y80.6778
 X119.4790 Y80.9821
 X119.9850 Y81.2983
 X120.4830 Y81.6264
 X120.9730 Y81.9658
 X121.4530 Y82.3168
 X121.9250 Y82.6788
 X122.3880 Y83.0518
 X122.8420 Y83.4356
 X123.2860 Y83.8300
 X123.7210 Y84.2347
 X124.1460 Y84.6497
 X124.5610 Y85.0747
 X124.9660 Y85.5095
 X125.3600 Y85.9538
 X125.7440 Y86.4075
 X126.1170 Y86.8704
 X126.4790 Y87.3425
 X126.8300 Y87.8232
 X127.1690 Y88.3127
 X127.4980 Y88.8104
 X127.8140 Y89.3165
 X128.1180 Y89.8306
 X128.4100 Y90.3525
 X128.6900 Y90.8821
 X128.9570 Y91.4192
 X129.2120 Y91.9634
 X129.4530 Y92.5147
 X129.6820 Y93.0728
 X129.8970 Y93.6378
 X130.0980 Y94.2090
 X130.2860 Y94.7865
 X130.4600 Y95.3702
 X130.6200 Y95.9597
 X130.7660 Y96.5549
 X130.8970 Y97.1556
 X131.0130 Y97.7617
 X131.1150 Y98.3727
 X131.2010 Y98.9886
 X131.2730 Y99.6093
 X131.3280 Y100.2346
 X131.3680 Y100.8640
 X131.3920 Y101.4977
 X131.4010 Y102.1352
 X131.3620 Y103.5464
 X131.2450 Y104.9421
 X131.0510 Y106.3216
 X130.7790 Y107.6826
 X130.4310 Y109.0256
 X130.0060 Y110.3476
 X129.5050 Y111.6486
 X128.9280 Y112.9276
 X128.8240 Y113.1176
 X128.7030 Y113.2926
 X128.5680 Y113.4516
 X128.4180 Y113.5956
 X128.2580 Y113.7226
 X128.0860 Y113.8336
 X127.9050 Y113.9276
 X127.7160 Y114.0026
 X127.5220 Y114.0606
 X127.3220 Y114.0986
 X127.1180 Y114.1176
 X126.9130
 X126.7070 Y114.0966
 X126.5020 Y114.0556
 X126.2990 Y113.9926
 X126.0990 Y113.9076
 X125.9090 Y113.8036
 X125.7340 Y113.6826
 X125.5750 Y113.5466
 X125.4310 Y113.3976
 X125.3030 Y113.2366
 X125.1930 Y113.0646
 X125.0990 Y112.8846
 X125.0240 Y112.6956
 X124.9670 Y112.5006
 X124.9280 Y112.3006
 X124.9090 Y112.0976
 X124.9100 Y111.8926
 X124.9300 Y111.6866
 X124.9720 Y111.4806
 X125.0350 Y111.2776
 X125.1190 Y111.0786
 X125.5970 Y110.0196
 X126.0130 Y108.9416
 X126.3650 Y107.8466
 X126.6530 Y106.7336
 X126.8780 Y105.6056
 X127.0380 Y104.4622
 X127.1350 Y103.3052
 X127.1670 Y102.1352
 X127.1410 Y101.0815
 X127.0610 Y100.0415
 X126.9310 Y99.0165
 X126.7500 Y98.0078
 X126.5210 Y97.0165
 X126.2440 Y96.0440
 X125.9210 Y95.0918
 X125.5530 Y94.1610
 X125.1420 Y93.2528
 X124.6880 Y92.3688
 X124.1940 Y91.5100
 X123.6600 Y90.6779
 X123.0880 Y89.8738
 X122.4790 Y89.0988
 X121.8330 Y88.3545
 X121.1540 Y87.6418
 X120.4420 Y86.9624
 X119.6970 Y86.3174
 X118.9220 Y85.7079
 X118.1180 Y85.1357
 X117.2860 Y84.6018
 X116.4270 Y84.1074
 X115.5430 Y83.6539
 X114.6350 Y83.2427
 X113.7040 Y82.8750
 X112.7520 Y82.5521
 X111.7790 Y82.2753
 X110.7880 Y82.0460
 X109.7790 Y81.8653
 X108.7540 Y81.7347
 X107.7140 Y81.6553
 X106.6610 Y81.6286
 X105.6070 Y81.6553
 X104.5671 Y81.7347
 X103.5419 Y81.8653
 X102.5332 Y82.0460
 X101.5419 Y82.2753
 X100.5696 Y82.5521
 X99.6172 Y82.8750
 X98.6864 Y83.2427
 X97.7783 Y83.6539
 X96.8943 Y84.1074
 X96.0354 Y84.6018
 X95.2033 Y85.1357
 X94.3992 Y85.7079
 X93.6243 Y86.3174
 X92.8799 Y86.9624
 X92.1672 Y87.6418
 X91.4878 Y88.3545
 X90.8428 Y89.0988
 X90.2335 Y89.8738
 X89.6612 Y90.6779
 X89.1272 Y91.5100
 X88.6328 Y92.3688
 X88.1794 Y93.2528
 X87.7682 Y94.1610
 X87.4006 Y95.0918
 X87.0776 Y96.0440
 X86.8008 Y97.0165
 X86.5714 Y98.0078
 X86.3908 Y99.0165
 X86.2601 Y100.0415
 X86.1808 Y101.0815
 X86.1540 Y102.1352
 X86.1808 Y103.1889
 X86.2601 Y104.2290
 X86.3908 Y105.2546
 X86.5714 Y106.2626
 X86.8008 Y107.2546
 X87.0776 Y108.2266
 X87.4006 Y109.1796
 X87.7682 Y110.1096
 X88.1794 Y111.0186
 X88.6328 Y111.9026
 X89.1272 Y112.7616
 X89.6612 Y113.5936
 X90.2335 Y114.3976
 X90.8428 Y115.1726
 X91.4878 Y115.9166
 X92.1672 Y116.6296
 X92.8799 Y117.3086
 X93.6243 Y117.9536
 X94.3992 Y118.5636
 X95.2033 Y119.1356
 X96.0354 Y119.6696
 X96.8943 Y120.1636
 X97.7783 Y120.6176
 X98.6864 Y121.0286
 X99.6172 Y121.3966
 X100.5696 Y121.7196
 X101.5419 Y121.9966
 X102.5332 Y122.2256
 X103.5419 Y122.4066
 X104.5671 Y122.5366
 X105.6070 Y122.6166
 X106.6610 Y122.6426
 X107.4980 Y122.6266
 X108.3290 Y122.5766
 X109.1540 Y122.4946
 X109.9710 Y122.3796
 X110.7810 Y122.2326
 X111.5810 Y122.0526
 X112.3730 Y121.8416
 X113.1540 Y121.5986
 X113.9250 Y121.3246
 X114.6840 Y121.0186
 X115.4320 Y120.6816
 X116.1670 Y120.3146
 X116.8880 Y119.9166
 X117.5960 Y119.4886
 X118.2890 Y119.0306
 X118.9670 Y118.5416
 X119.1460 Y118.4206
 X119.3330 Y118.3196
 X119.5270 Y118.2396
 X119.7250 Y118.1796
 X119.9260 Y118.1396
 X120.1300 Y118.1196
 X120.3330
 X120.5350 Y118.1376
 X120.7350 Y118.1766
 X120.9300 Y118.2336
 X121.1190 Y118.3096
 X121.3020 Y118.4036
 X121.4750 Y118.5166
 X121.6390 Y118.6476
 X121.7910 Y118.7956
 X121.9290 Y118.9626
 X122.0510 Y119.1416
 X122.1510 Y119.3296
 X122.2310 Y119.5226
 X122.2910 Y119.7216
 X122.3310 Y119.9226
 X122.3510 Y120.1266
 X122.3520 Y120.3296
 X122.3330 Y120.5316
 X122.2950 Y120.7316
 X122.2380 Y120.9266
 X122.1620 Y121.1156
 X122.0680 Y121.2986
 X121.9550 Y121.4716
 X121.8240 Y121.6356
 X121.6750 Y121.7876
 X121.5090 Y121.9266
 X120.8740 Y122.3876
 X120.2270 Y122.8266
 X119.5700 Y123.2446
 X118.9020 Y123.6406
 X120.0830 Y123.8636
 X121.2390 Y124.1086
 X122.3710 Y124.3756
 X123.4780 Y124.6646
 X124.5610 Y124.9766
 X125.6180 Y125.3096
 X126.6490 Y125.6656
 X127.6550 Y126.0436
 X128.2920 Y125.4686
 X128.9120 Y124.8796
 X129.5150 Y124.2746
 X130.0990 Y123.6566
 X130.6650 Y123.0246
 X131.2130 Y122.3786
 X131.7430 Y121.7196
 X132.2540 Y121.0486
 X132.7460 Y120.3656
 X133.2190 Y119.6696
 X133.6730 Y118.9626
 X134.1080 Y118.2456
 X134.5230 Y117.5166
 X134.9190 Y116.7776
 X135.2950 Y116.0286
 X135.6510 Y115.2696
 X135.9870 Y114.5026
 X136.3020 Y113.7256
 X136.5970 Y112.9406
 X136.8710 Y112.1476
 X137.1240 Y111.3466
 X137.3560 Y110.5376
 X137.5670 Y109.7226
 X137.7560 Y108.9006
 X137.9240 Y108.0726
 X138.0700 Y107.2396
 X138.1940 Y106.3996
 X138.2960 Y105.5556
 X138.3750 Y104.7067
 X138.4320 Y103.8532
 X138.4670 Y102.9960
 X138.4780 Y102.1352
 X138.4680 Y101.3153
 X138.4370 Y100.5003
 X138.3850 Y99.6909
 X138.3130 Y98.8867
 X138.2220 Y98.0885
 X138.1110 Y97.2963
 X137.9800 Y96.5103
 X137.8310 Y95.7310
 X137.6620 Y94.9585
 X137.4750 Y94.1929
 X137.2690 Y93.4347
 X137.0450 Y92.6842
 X136.8040 Y91.9413
 X136.5440 Y91.2065
 X136.2680 Y90.4802
 X135.9740 Y89.7622
 X135.6630 Y89.0532
 X135.3360 Y88.3534
 X134.9920 Y87.6627
 X134.6320 Y86.9815
 X134.2570 Y86.3104
 X133.8650 Y85.6492
 X133.4590 Y84.9984
 X133.0370 Y84.3581
 X132.6000 Y83.7288
 X132.1490 Y83.1104
 X131.6830 Y82.5034
 X131.2040 Y81.9081
 X130.7100 Y81.3245
 X130.2030 Y80.7529
 X129.6820 Y80.1939
 X129.1490 Y79.6474
 X128.6020 Y79.1136
 X128.0430 Y78.5931
 X127.4720 Y78.0859
 X126.8880 Y77.5924
 X126.2930 Y77.1125
 X125.6860 Y76.6470
 X125.0680 Y76.1956
 X124.4380 Y75.7590
 X123.7980 Y75.3371
 X123.1470 Y74.9304
 X122.4860 Y74.5392
 X121.8150 Y74.1635
 X121.1340 Y73.8036
 X120.4430 Y73.4599
 X119.7430 Y73.1325
 X119.0340 Y72.8218
 X118.3160 Y72.5281
 X117.5900 Y72.2514
 X116.8550 Y71.9921
 X116.1120 Y71.7504
 X115.3610 Y71.5267
 X114.6030 Y71.3210
 X113.8380 Y71.1338
 X113.0650 Y70.9652
 X112.2860 Y70.8153
 X111.5000 Y70.6847
 X110.7080 Y70.5736
 X109.9090 Y70.4821
 X109.1050 Y70.4104
 X108.2960 Y70.3590
 X107.4810 Y70.3279
 X106.6610 Y70.3175
 X105.1600 Y70.3522
 X103.6719 Y70.4560
 X102.1976 Y70.6279
 X100.7392 Y70.8674
 X99.2985 Y71.1735
 X97.8774 Y71.5454
 X96.4776 Y71.9827
 X95.1013 Y72.4842
 X93.7500 Y73.0492
 X92.4258 Y73.6772
 X91.1304 Y74.3671
 X89.8658 Y75.1183
 X88.6339 Y75.9302
 X87.4364 Y76.8017
 X86.2751 Y77.7320
 X85.1522 Y78.7206
 X86.0189 Y81.0317
 X86.1060 Y81.3270
 X86.1489 Y81.6270
 X86.1486 Y81.9270
 X86.1061 Y82.2227
 X86.0224 Y82.5095
 X85.8983 Y82.7828
 X85.7351 Y83.0382
 X85.5339 Y83.2711
 X81.9454 Y86.8596
 X81.4417 Y87.3147
 X80.9046 Y87.7092
 X80.3390 Y88.0431
 X79.7497 Y88.3161
 X79.1414 Y88.5285
 X78.5188 Y88.6803
 X77.8867 Y88.7713
 X77.2497 Y88.8017
 X76.6129 Y88.7713
 X75.9807 Y88.6803
 X75.3582 Y88.5285
 X74.7497 Y88.3161
 X74.1604 Y88.0431
 X73.5949 Y87.7092
 X73.0578 Y87.3147
 X72.5542 Y86.8596
 X68.9657 Y83.2711
 X68.7647 Y83.0382
 X68.6019 Y82.7828
 X68.4782 Y82.5095
 X68.3944 Y82.2227
 X68.3519 Y81.9270
 X68.3514 Y81.6270
 X68.3939 Y81.3270
 X68.4806 Y81.0317
 X69.3474 Y78.7206
 X68.2247 Y77.7320
 X67.0637 Y76.8017
 X65.8665 Y75.9302
 X64.6349 Y75.1183
 X63.3707 Y74.3671
 X62.0756 Y73.6772
 X60.7515 Y73.0492
 X59.4006 Y72.4842
 X58.0242 Y71.9827
 X56.6246 Y71.5454
 X55.2033 Y71.1735
 X53.7625 Y70.8674
 X52.3038 Y70.6279
 X50.8290 Y70.4560
 X49.3403 Y70.3522
 X47.8392 Y70.3175
 X47.0192 Y70.3279
 X46.2043 Y70.3590
 X45.3947 Y70.4104
 X44.5907 Y70.4821
 X43.7924 Y70.5736
 X43.0003 Y70.6847
 X42.2143 Y70.8153
 X41.4350 Y70.9652
 X40.6625 Y71.1338
 X39.8969 Y71.3210
 X39.1388 Y71.5267
 X38.3882 Y71.7504
 X37.6453 Y71.9921
 X36.9106 Y72.2514
 X36.1842 Y72.5281
 X35.4663 Y72.8220
 X34.7572 Y73.1327
 X34.0574 Y73.4599
 X33.3667 Y73.8036
 X32.6856 Y74.1635
 X32.0143 Y74.5392
 X31.3532 Y74.9306
 X30.7024 Y75.3372
 X30.0621 Y75.7590
 X29.4326 Y76.1957
 X28.8143 Y76.6470
 X28.2074 Y77.1127
 X27.6119 Y77.5924
 X27.0285 Y78.0860
 X26.4569 Y78.5932
 X25.8978 Y79.1138
 X25.3514 Y79.6475
 X24.8176 Y80.1940
 X24.2971 Y80.7531
 X23.7899 Y81.3246
 X23.2962 Y81.9082
 X22.8165 Y82.5036
 X22.3508 Y83.1106
 X21.8996 Y83.7289
 X21.4629 Y84.3584
 X21.0411 Y84.9986
 X20.6344 Y85.6495
 X20.2431 Y86.3107
 X19.8674 Y86.9820
 X19.5076 Y87.6631
 X19.1639 Y88.3538
 X18.8365 Y89.0536
 X18.5259 Y89.7628
 X18.2320 Y90.4807
 X17.9553 Y91.2071
 X17.6960 Y91.9418
 X17.4544 Y92.6847
 X17.2306 Y93.4354
 X17.0249 Y94.1936
 X16.8377 Y94.9592
 X16.6691 Y95.7317
 X16.5193 Y96.5111
 X16.3887 Y97.2971
 X16.2776 Y98.0893
 X16.1860 Y98.8877
 X16.1144 Y99.6917
 X16.0629 Y100.5014
 X16.0318 Y101.3163
 X16.0215 Y102.1363
 X16.0328 Y102.9977
 X16.0671 Y103.8553
 X16.1240 Y104.7089
 X16.2034 Y105.5586
 X16.3052 Y106.4026
 X16.4292 Y107.2426
 X16.5751 Y108.0756
 X16.7429 Y108.9036
 X16.9322 Y109.7256
 X17.1431 Y110.5406
 X17.3752 Y111.3496
 X17.6284 Y112.1496
 X17.9025 Y112.9426
 X18.1973 Y113.7276
 X18.5126 Y114.5046
 X18.8484 Y115.2716
 X19.2043 Y116.0306
 X19.5804 Y116.7786
 X19.9761 Y117.5176
 X20.3917 Y118.2456
 X20.8267 Y118.9636
 X21.2808 Y119.6706
 X21.7542 Y120.3656
 X22.2465 Y121.0486
 X22.7576 Y121.7196
 X23.2875 Y122.3776
 X23.8356 Y123.0236
 X24.4019 Y123.6556
 X24.9864 Y124.2736
 X25.5886 Y124.8776
 X26.2086 Y125.4676
 X26.8461 Y126.0426
G0 Z5.0000
 X47.8392 Y122.6416
G1 Z0.0000
 X48.8928 Y122.6146
 X49.9328 Y122.5356
 X50.9578 Y122.4046
 X51.9665 Y122.2236
 X52.9578 Y121.9946
 X53.9301 Y121.7176
 X54.8824 Y121.3946
 X55.8132 Y121.0276
 X56.7212 Y120.6166
 X57.6054 Y120.1626
 X58.4640 Y119.6686
 X59.2961 Y119.1346
 X60.1003 Y118.5626
 X60.8753 Y117.9526
 X61.6197 Y117.3076
 X62.3322 Y116.6286
 X63.0117 Y115.9156
 X63.6568 Y115.1716
 X64.2661 Y114.3966
 X64.8383 Y113.5926
 X65.3724 Y112.7606
 X65.8667 Y111.9016
 X66.3201 Y111.0176
 X66.7314 Y110.1096
 X67.0990 Y109.1786
 X67.4219 Y108.2266
 X67.6988 Y107.2536
 X67.9281 Y106.2626
 X68.1088 Y105.2536
 X68.2393 Y104.2288
 X68.3188 Y103.1888
 X68.3456 Y102.1352
 X68.3188 Y101.0815
 X68.2393 Y100.0415
 X68.1088 Y99.0165
 X67.9281 Y98.0078
 X67.6988 Y97.0165
 X67.4219 Y96.0440
 X67.0990 Y95.0918
 X66.7314 Y94.1610
 X66.3201 Y93.2528
 X65.8667 Y92.3688
 X65.3724 Y91.5100
 X64.8383 Y90.6779
 X64.2661 Y89.8738
 X63.6568 Y89.0988
 X63.0117 Y88.3545
 X62.3322 Y87.6418
 X61.6197 Y86.9624
 X60.8753 Y86.3174
 X60.1003 Y85.7079
 X59.2961 Y85.1357
 X58.4640 Y84.6018
 X57.6054 Y84.1074
 X56.7212 Y83.6539
 X55.8132 Y83.2427
 X54.8824 Y82.8750
 X53.9301 Y82.5521
 X52.9578 Y82.2753
 X51.9665 Y82.0460
 X50.9578 Y81.8653
 X49.9328 Y81.7347
 X48.8928 Y81.6553
 X47.8392 Y81.6286
 X46.7856 Y81.6553
 X45.7456 Y81.7347
 X44.7206 Y81.8653
 X43.7117 Y82.0460
 X42.7206 Y82.2753
 X41.7481 Y82.5521
 X40.7958 Y82.8750
 X39.8649 Y83.2427
 X38.9568 Y83.6539
 X38.0728 Y84.1074
 X37.2140 Y84.6018
 X36.3819 Y85.1357
 X35.5778 Y85.7079
 X34.8028 Y86.3174
 X34.0583 Y86.9624
 X33.3458 Y87.6418
 X32.6664 Y88.3545
 X32.0213 Y89.0988
 X31.4119 Y89.8738
 X30.8397 Y90.6779
 X30.3057 Y91.5100
 X29.8114 Y92.3688
 X29.3579 Y93.2528
 X28.9467 Y94.1610
 X28.5790 Y95.0918
 X28.2561 Y96.0440
 X27.9793 Y97.0165
 X27.7500 Y98.0078
 X27.5693 Y99.0165
 X27.4386 Y100.0415
 X27.3593 Y101.0815
 X27.3326 Y102.1352
 X27.3593 Y103.1888
 X27.4386 Y104.2288
 X27.5693 Y105.2536
 X27.7500 Y106.2626
 X27.9793 Y107.2536
 X28.2561 Y108.2266
 X28.5790 Y109.1786
 X28.9467 Y110.1096
 X29.3579 Y111.0176
 X29.8114 Y111.9016
 X30.3057 Y112.7606
 X30.8397 Y113.5926
 X31.4119 Y114.3966
 X32.0213 Y115.1716
 X32.6664 Y115.9156
 X33.3458 Y116.6286
 X34.0583 Y117.3076
 X34.8028 Y117.9526
 X35.5778 Y118.5626
 X36.3819 Y119.1346
 X37.2140 Y119.6686
 X38.0728 Y120.1626
 X38.9568 Y120.6166
 X39.8649 Y121.0276
 X40.7958 Y121.3946
 X41.7481 Y121.7176
 X42.7206 Y121.9946
 X43.7117 Y122.2236
 X44.7206 Y122.4046
 X45.7456 Y122.5356
 X46.7856 Y122.6146
 X47.8392 Y122.6416
G0 Z5.0000
 X77.2493 Y145.2646
G1 Z0.0000
 X78.5985 Y145.2526
 X79.9433 Y145.2116
 X81.2838 Y145.1486
 X82.6196 Y145.0566
 X83.9507 Y144.9396
 X85.2768 Y144.7986
 X86.5978 Y144.6306
 X87.9135 Y144.4356
 X89.2237 Y144.2166
 X90.5285 Y143.9716
 X91.8274 Y143.7006
 X93.1203 Y143.4046
 X94.4072 Y143.0826
 X95.6878 Y142.7356
 X96.9621 Y142.3636
 X98.2297 Y141.9656
 X96.8779 Y141.4896
 X95.5386 Y140.9656
 X94.0578 Y140.3186
 X92.6235 Y139.6186
 X91.2357 Y138.8646
 X89.8939 Y138.0566
 X88.5978 Y137.1946
 X87.3468 Y136.2776
 X86.1408 Y135.3056
 X84.9794 Y134.2776
 X83.8622 Y133.1936
 X82.7889 Y132.0536
 X81.7589 Y130.8566
 X80.7722 Y129.6036
 X79.8282 Y128.2926
 X78.9265 Y126.9236
 X78.0671 Y125.4966
 X77.2493 Y124.0116
 X76.4314 Y125.4966
 X75.5718 Y126.9236
 X74.6701 Y128.2926
 X73.7263 Y129.6036
 X72.7394 Y130.8566
 X71.7096 Y132.0536
 X70.6363 Y133.1936
 X69.5190 Y134.2776
 X68.3576 Y135.3056
 X67.1518 Y136.2776
 X65.9010 Y137.1946
 X64.6049 Y138.0566
 X63.2633 Y138.8646
 X61.8757 Y139.6186
 X60.4418 Y140.3186
 X58.9612 Y140.9656
 X57.6217 Y141.4896
 X56.2699 Y141.9656
 X57.5375 Y142.3636
 X58.8117 Y142.7356
 X60.0922 Y143.0826
 X61.3792 Y143.4046
 X62.6721 Y143.7006
 X63.9710 Y143.9716
 X65.2756 Y144.2166
 X66.5858 Y144.4356
 X67.9015 Y144.6306
 X69.2225 Y144.7986
 X70.5485 Y144.9396
 X71.8794 Y145.0566
 X73.2151 Y145.1486
 X74.5554 Y145.2116
 X75.9001 Y145.2526
 X77.2493 Y145.2646
G0 Z5.0000
 X47.8392 Y106.5146
G1 Z0.0000
 X47.6228 Y106.5036
 X47.4126 Y106.4716
 X47.2099 Y106.4196
 X47.0154 Y106.3486
 X46.8304 Y106.2586
 X46.6558 Y106.1526
 X46.4929 Y106.0316
 X46.3425 Y105.8946
 X46.2060 Y105.7436
 X46.0840 Y105.5816
 X45.9781 Y105.4066
 X45.8889 Y105.2216
 X45.8178 Y105.0276
 X45.7656 Y104.8243
 X45.7335 Y104.6143
 X45.7225 Y104.3979
 Y99.8725
 X45.7335 Y99.6561
 X45.7656 Y99.4460
 X45.8178 Y99.2432
 X45.8889 Y99.0488
 X45.9781 Y98.8636
 X46.0840 Y98.6892
 X46.2060 Y98.5261
 X46.3425 Y98.3758
 X46.4929 Y98.2392
 X46.6558 Y98.1174
 X46.8304 Y98.0113
 X47.0154 Y97.9222
 X47.2099 Y97.8510
 X47.4126 Y97.7988
 X47.6228 Y97.7667
 X47.8392 Y97.7557
 X48.0556 Y97.7667
 X48.2656 Y97.7988
 X48.4683 Y97.8510
 X48.6628 Y97.9222
 X48.8478 Y98.0113
 X49.0224 Y98.1174
 X49.1853 Y98.2392
 X49.3357 Y98.3758
 X49.4724 Y98.5261
 X49.5942 Y98.6892
 X49.7003 Y98.8636
 X49.7894 Y99.0488
 X49.8606 Y99.2432
 X49.9128 Y99.4460
 X49.9450 Y99.6561
 X49.9558 Y99.8725
 Y104.3979
 X49.9450 Y104.6143
 X49.9128 Y104.8243
 X49.8606 Y105.0276
 X49.7894 Y105.2216
 X49.7003 Y105.4066
 X49.5942 Y105.5816
 X49.4724 Y105.7436
 X49.3357 Y105.8946
 X49.1853 Y106.0316
 X49.0224 Y106.1526
 X48.8478 Y106.2586
 X48.6628 Y106.3486
 X48.4683 Y106.4196
 X48.2656 Y106.4716
 X48.0556 Y106.5036
 X47.8392 Y106.5146
G0 Z5.0000
 Y115.5626
G1 Z0.0000
 X47.2654 Y115.5476
 X46.6990 Y115.5046
 X46.1408 Y115.4336
 X45.5915 Y115.3356
 X45.0518 Y115.2106
 X44.5222 Y115.0596
 X44.0036 Y114.8836
 X43.4968 Y114.6836
 X43.0022 Y114.4596
 X42.5208 Y114.2126
 X42.0533 Y113.9436
 X41.6001 Y113.6526
 X41.1622 Y113.3416
 X40.7403 Y113.0096
 X40.3350 Y112.6586
 X39.9469 Y112.2886
 X39.5769 Y111.9006
 X39.2257 Y111.4956
 X38.8939 Y111.0736
 X38.5824 Y110.6356
 X38.2915 Y110.1826
 X38.0224 Y109.7156
 X37.7756 Y109.2336
 X37.5515 Y108.7396
 X37.3514 Y108.2326
 X37.1756 Y107.7146
 X37.0249 Y107.1846
 X36.9000 Y106.6446
 X36.8015 Y106.0956
 X36.7304 Y105.5376
 X36.6872 Y104.9715
 X36.6728 Y104.3979
 Y99.8725
 X36.6872 Y99.2988
 X36.7304 Y98.7324
 X36.8015 Y98.1742
 X36.9000 Y97.6249
 X37.0249 Y97.0850
 X37.1756 Y96.5556
 X37.3514 Y96.0370
 X37.5515 Y95.5300
 X37.7756 Y95.0356
 X38.0224 Y94.5542
 X38.2915 Y94.0865
 X38.5824 Y93.6335
 X38.8939 Y93.1956
 X39.2257 Y92.7736
 X39.5769 Y92.3682
 X39.9469 Y91.9803
 X40.3350 Y91.6103
 X40.7403 Y91.2590
 X41.1622 Y90.9272
 X41.6001 Y90.6157
 X42.0533 Y90.3249
 X42.5208 Y90.0557
 X43.0022 Y89.8088
 X43.4968 Y89.5849
 X44.0036 Y89.3847
 X44.5222 Y89.2089
 X45.0518 Y89.0581
 X45.5915 Y88.9332
 X46.1408 Y88.8349
 X46.6990 Y88.7638
 X47.2654 Y88.7206
 X47.8392 Y88.7060
 X48.4129 Y88.7206
 X48.9792 Y88.7638
 X49.5374 Y88.8349
 X50.0867 Y88.9332
 X50.6265 Y89.0581
 X51.1560 Y89.2089
 X51.6746 Y89.3847
 X52.1814 Y89.5849
 X52.6758 Y89.8088
 X53.1572 Y90.0557
 X53.6249 Y90.3249
 X54.0779 Y90.6157
 X54.5158 Y90.9272
 X54.9378 Y91.2590
 X55.3431 Y91.6103
 X55.7311 Y91.9803
 X56.1011 Y92.3682
 X56.4524 Y92.7736
 X56.7840 Y93.1956
 X57.0957 Y93.6335
 X57.3864 Y94.0865
 X57.6556 Y94.5542
 X57.9025 Y95.0356
 X58.1264 Y95.5300
 X58.3267 Y96.0370
 X58.5025 Y96.5556
 X58.6532 Y97.0850
 X58.7781 Y97.6249
 X58.8764 Y98.1742
 X58.9475 Y98.7324
 X58.9907 Y99.2988
 X59.0053 Y99.8725
 Y104.3979
 X58.9907 Y104.9715
 X58.9475 Y105.5376
 X58.8764 Y106.0956
 X58.7781 Y106.6446
 X58.6532 Y107.1846
 X58.5025 Y107.7146
 X58.3267 Y108.2326
 X58.1264 Y108.7396
 X57.9025 Y109.2336
 X57.6556 Y109.7156
 X57.3864 Y110.1826
 X57.0957 Y110.6356
 X56.7840 Y111.0736
 X56.4524 Y111.4956
 X56.1011 Y111.9006
 X55.7311 Y112.2886
 X55.3431 Y112.6586
 X54.9378 Y113.0096
 X54.5158 Y113.3416
 X54.0779 Y113.6526
 X53.6249 Y113.9436
 X53.1572 Y114.2126
 X52.6758 Y114.4596
 X52.1814 Y114.6836
 X51.6746 Y114.8836
 X51.1560 Y115.0596
 X50.6265 Y115.2106
 X50.0867 Y115.3356
 X49.5374 Y115.4336
 X48.9792 Y115.5046
 X48.4129 Y115.5476
 X47.8392 Y115.5626
G0 Z5.0000
 X106.6590 Y106.5146
G1 Z0.0000
 X106.4430 Y106.5036
 X106.2330 Y106.4716
 X106.0300 Y106.4196
 X105.8350 Y106.3486
 X105.6500 Y106.2586
 X105.4760 Y106.1526
 X105.3130 Y106.0316
 X105.1630 Y105.8946
 X105.0260 Y105.7436
 X104.9042 Y105.5816
 X104.7981 Y105.4066
 X104.7089 Y105.2216
 X104.6378 Y105.0276
 X104.5856 Y104.8243
 X104.5535 Y104.6143
 X104.5426 Y104.3979
 Y99.8725
 X104.5535 Y99.6561
 X104.5856 Y99.4460
 X104.6378 Y99.2432
 X104.7089 Y99.0488
 X104.7981 Y98.8636
 X104.9042 Y98.6892
 X105.0260 Y98.5261
 X105.1630 Y98.3758
 X105.3130 Y98.2392
 X105.4760 Y98.1174
 X105.6500 Y98.0113
 X105.8350 Y97.9222
 X106.0300 Y97.8510
 X106.2330 Y97.7988
 X106.4430 Y97.7667
 X106.6590 Y97.7557
 X106.8760 Y97.7667
 X107.0860 Y97.7988
 X107.2890 Y97.8510
 X107.4830 Y97.9222
 X107.6690 Y98.0113
 X107.8430 Y98.1174
 X108.0060 Y98.2392
 X108.1560 Y98.3758
 X108.2930 Y98.5261
 X108.4150 Y98.6892
 X108.5210 Y98.8636
 X108.6100 Y99.0488
 X108.6810 Y99.2432
 X108.7330 Y99.4460
 X108.7650 Y99.6561
 X108.7760 Y99.8725
 Y104.3979
 X108.7650 Y104.6143
 X108.7330 Y104.8243
 X108.6810 Y105.0276
 X108.6100 Y105.2216
 X108.5210 Y105.4066
 X108.4150 Y105.5816
 X108.2930 Y105.7436
 X108.1560 Y105.8946
 X108.0060 Y106.0316
 X107.8430 Y106.1526
 X107.6690 Y106.2586
 X107.4830 Y106.3486
 X107.2890 Y106.4196
 X107.0860 Y106.4716
 X106.8760 Y106.5036
 X106.6590 Y106.5146
G0 Z5.0000
 Y115.5626
G1 Z0.0000
 X106.0860 Y115.5476
 X105.5190 Y115.5046
 X104.9614 Y115.4336
 X104.4122 Y115.3356
 X103.8725 Y115.2106
 X103.3431 Y115.0596
 X102.8246 Y114.8836
 X102.3179 Y114.6836
 X101.8235 Y114.4596
 X101.3421 Y114.2126
 X100.8746 Y113.9436
 X100.4215 Y113.6526
 X99.9838 Y113.3416
 X99.5618 Y113.0096
 X99.1565 Y112.6586
 X98.7686 Y112.2886
 X98.3986 Y111.9006
 X98.0474 Y111.4956
 X97.7157 Y111.0736
 X97.4040 Y110.6356
 X97.1133 Y110.1826
 X96.8442 Y109.7156
 X96.5972 Y109.2336
 X96.3733 Y108.7396
 X96.1732 Y108.2326
 X95.9974 Y107.7146
 X95.8467 Y107.1846
 X95.7218 Y106.6446
 X95.6235 Y106.0956
 X95.5524 Y105.5376
 X95.5092 Y104.9715
 X95.4946 Y104.3979
 Y99.8725
 X95.5092 Y99.2988
 X95.5524 Y98.7324
 X95.6235 Y98.1742
 X95.7218 Y97.6249
 X95.8467 Y97.0850
 X95.9974 Y96.5556
 X96.1732 Y96.0370
 X96.3733 Y95.5300
 X96.5972 Y95.0356
 X96.8442 Y94.5542
 X97.1133 Y94.0865
 X97.4040 Y93.6335
 X97.7157 Y93.1956
 X98.0474 Y92.7736
 X98.3986 Y92.3682
 X98.7686 Y91.9803
 X99.1565 Y91.6103
 X99.5618 Y91.2590
 X99.9838 Y90.9272
 X100.4215 Y90.6157
 X100.8746 Y90.3249
 X101.3421 Y90.0557
 X101.8235 Y89.8088
 X102.3179 Y89.5849
 X102.8246 Y89.3847
 X103.3431 Y89.2089
 X103.8725 Y89.0581
 X104.4122 Y88.9332
 X104.9614 Y88.8349
 X105.5190 Y88.7638
 X106.0860 Y88.7206
 X106.6590 Y88.7060
 X107.2330 Y88.7206
 X107.7990 Y88.7638
 X108.3580 Y88.8349
 X108.9070 Y88.9332
 X109.4470 Y89.0581
 X109.9760 Y89.2089
 X110.4950 Y89.3847
 X111.0020 Y89.5849
 X111.4960 Y89.8088
 X111.9770 Y90.0557
 X112.4450 Y90.3249
 X112.8980 Y90.6157
 X113.3360 Y90.9272
 X113.7580 Y91.2590
 X114.1630 Y91.6103
 X114.5510 Y91.9803
 X114.9210 Y92.3682
 X115.2720 Y92.7736
 X115.6040 Y93.1956
 X115.9160 Y93.6335
 X116.2070 Y94.0865
 X116.4760 Y94.5542
 X116.7230 Y95.0356
 X116.9470 Y95.5300
 X117.1470 Y96.0370
 X117.3230 Y96.5556
 X117.4730 Y97.0850
 X117.5980 Y97.6249
 X117.6970 Y98.1742
 X117.7680 Y98.7324
 X117.8110 Y99.2988
 X117.8250 Y99.8725
 Y104.3979
 X117.8110 Y104.9717
 X117.7680 Y105.5376
 X117.6970 Y106.0966
 X117.5980 Y106.6456
 X117.4730 Y107.1856
 X117.3230 Y107.7146
 X117.1470 Y108.2326
 X116.9470 Y108.7396
 X116.7230 Y109.2346
 X116.4760 Y109.7156
 X116.2070 Y110.1836
 X115.9160 Y110.6366
 X115.6040 Y111.0736
 X115.2720 Y111.4956
 X114.9210 Y111.9016
 X114.5510 Y112.2896
 X114.1630 Y112.6586
 X113.7580 Y113.0106
 X113.3360 Y113.3416
 X112.8980 Y113.6536
 X112.4450 Y113.9446
 X111.9770 Y114.2136
 X111.4960 Y114.4606
 X111.0020 Y114.6836
 X110.4950 Y114.8846
 X109.9760 Y115.0596
 X109.4470 Y115.2106
 X108.9070 Y115.3356
 X108.3580 Y115.4336
 X107.7990 Y115.5046
 X107.2330 Y115.5476
 X106.6590 Y115.5626
G0 Z5.0000
 X142.6220 Y105.0056
G1 Z0.0000
 X142.5900 Y105.0946
 X142.5150 Y105.9086
 X142.4210 Y106.7176
 X142.3090 Y107.5236
 X142.1800 Y108.3256
 X142.0320 Y109.1216
 X141.8680 Y109.9136
 X141.6850 Y110.7006
 X141.4860 Y111.4826
 X141.2690 Y112.2586
 X141.0340 Y113.0286
 X140.7830 Y113.7936
 X140.5150 Y114.5516
 X140.2310 Y115.3026
 X139.9290 Y116.0466
 X139.6110 Y116.7836
 X139.2770 Y117.5136
 X138.9270 Y118.2356
 X138.5600 Y118.9506
 X138.1770 Y119.6566
 X137.7790 Y120.3536
 X137.3640 Y121.0426
 X136.9340 Y121.7226
 X136.4890 Y122.3936
 X136.0280 Y123.0556
 X135.5510 Y123.7076
 X135.0600 Y124.3486
 X134.5530 Y124.9806
 X134.0320 Y125.6016
 X133.4950 Y126.2116
 X132.9440 Y126.8106
 X132.3790 Y127.3986
 X131.7990 Y127.9746
 X133.0080 Y128.6776
 X134.1640 Y129.4216
 X135.2690 Y130.2076
 X136.3200 Y131.0356
 X137.3180 Y131.9026
 X138.2610 Y132.8116
 X139.1500 Y133.7596
 X139.9840 Y134.7476
 X140.4330 Y135.3256
 X140.8530 Y135.9026
 X141.2470 Y136.4776
 X141.6150 Y137.0496
 X141.9580 Y137.6176
 X142.2760 Y138.1806
 X142.5720 Y138.7366
 X142.8440 Y139.2856
 X143.0960 Y139.8256
 X143.3270 Y140.3566
 X143.5380 Y140.8766
 X143.7300 Y141.3846
 X143.9040 Y141.8806
 X144.0610 Y142.3616
 X144.2030 Y142.8276
 X144.3280 Y143.2776
 X144.4390 Y143.7106
 X144.5360 Y144.1246
 X144.6220 Y144.5206
 X144.6940 Y144.8936
 X144.7570 Y145.2466
 X144.8100 Y145.5776
 X144.8530 Y145.8826
 X144.8880 Y146.1636
 X144.9140 Y146.4186
 X144.9350 Y146.6466
 X144.9500 Y146.8456
 X144.9610 Y147.0166
 X144.9670 Y147.1566
 X144.9710 Y147.2636
 X144.9720 Y147.3396
 Y147.3816
 X144.9560 Y147.6536
 X144.9040 Y147.9176
 X144.8190 Y148.1716
 X144.7060 Y148.4126
 X144.5610 Y148.6376
 X144.3900 Y148.8416
 X144.1920 Y149.0246
 X143.9690 Y149.1826
 X143.7290 Y149.3106
 X143.4770 Y149.4066
 X143.2160 Y149.4676
 X142.9510 Y149.4966
 X142.6850 Y149.4916
 X142.4200 Y149.4536
 X142.1610 Y149.3816
 X141.9090 Y149.2746
 X140.8350 Y148.7746
 X139.7190 Y148.3256
 X138.5620 Y147.9246
 X137.3670 Y147.5666
 X136.1360 Y147.2486
 X134.8720 Y146.9676
 X133.5760 Y146.7206
 X132.2500 Y146.5026
 X130.8970 Y146.3126
 X129.5190 Y146.1436
 X128.1170 Y145.9966
 X126.6950 Y145.8666
 X125.2540 Y145.7486
 X123.7960 Y145.6396
 X122.3230 Y145.5376
 X120.8380 Y145.4376
 X118.9170 Y145.3076
 X116.9890 Y145.1706
 X115.0570 Y145.0186
 X113.1220 Y144.8456
 X111.1880 Y144.6436
 X109.2560 Y144.4066
 X107.3300 Y144.1256
 X105.4120 Y143.7976
 X103.7338 Y144.4846
 X102.0426 Y145.1276
 X100.3393 Y145.7276
 X98.6242 Y146.2826
 X96.8975 Y146.7936
 X95.1597 Y147.2626
 X93.4110 Y147.6856
 X91.6521 Y148.0646
 X89.8829 Y148.3996
 X88.1043 Y148.6916
 X86.3163 Y148.9376
 X84.5192 Y149.1386
 X82.7136 Y149.2956
 X80.8999 Y149.4076
 X79.0783 Y149.4756
 X77.2493 Y149.4986
 X75.4206 Y149.4756
 X73.5993 Y149.4076
 X71.7857 Y149.2956
 X69.9803 Y149.1386
 X68.1833 Y148.9376
 X66.3951 Y148.6916
 X64.6163 Y148.4006
 X62.8469 Y148.0666
 X61.0876 Y147.6856
 X59.3387 Y147.2626
 X57.6004 Y146.7956
 X55.8733 Y146.2826
 X54.1576 Y145.7276
 X52.4539 Y145.1276
 X50.7624 Y144.4846
 X49.0835 Y143.7976
 X47.1656 Y144.1276
 X45.2397 Y144.4066
 X43.3086 Y144.6436
 X41.3744 Y144.8466
 X39.4401 Y145.0186
 X37.5079 Y145.1716
 X35.5806 Y145.3076
 X33.6604 Y145.4376
 X32.1753 Y145.5376
 X30.7026 Y145.6396
 X29.2446 Y145.7486
 X27.8033 Y145.8666
 X26.3810 Y145.9966
 X24.9796 Y146.1436
 X23.6013 Y146.3126
 X22.2482 Y146.5026
 X20.9226 Y146.7206
 X19.6264 Y146.9676
 X18.3619 Y147.2486
 X17.1312 Y147.5666
 X15.9365 Y147.9246
 X14.7797 Y148.3256
 X13.6632 Y148.7746
 X12.5890 Y149.2746
 X12.3376 Y149.3816
 X12.0780 Y149.4536
 X11.8133 Y149.4916
 X11.5468 Y149.4966
 X11.2818 Y149.4676
 X11.0216 Y149.4066
 X10.7695 Y149.3106
 X10.5287 Y149.1826
 X10.3063 Y149.0246
 X10.1085 Y148.8416
 X9.9368 Y148.6376
 X9.7929 Y148.4126
 X9.6782 Y148.1716
 X9.5944 Y147.9176
 X9.5429 Y147.6536
 X9.5254 Y147.3816
 X9.5257 Y147.3396
 X9.5272 Y147.2636
 X9.5309 Y147.1566
 X9.5375 Y147.0166
 X9.5480 Y146.8456
 X9.5632 Y146.6466
 X9.5840 Y146.4186
 X9.6113 Y146.1636
 X9.6461 Y145.8826
 X9.6890 Y145.5776
 X9.7412 Y145.2466
 X9.8034 Y144.8936
 X9.8765 Y144.5206
 X9.9614 Y144.1256
 X10.0590 Y143.7116
 X10.1701 Y143.2786
 X10.2958 Y142.8286
 X10.4367 Y142.3616
 X10.5939 Y141.8806
 X10.7681 Y141.3856
 X10.9604 Y140.8766
 X11.1715 Y140.3576
 X11.4024 Y139.8266
 X11.6538 Y139.2856
 X11.9268 Y138.7366
 X12.2222 Y138.1806
 X12.5408 Y137.6176
 X12.8836 Y137.0496
 X13.2514 Y136.4776
 X13.6452 Y135.9026
 X14.0657 Y135.3256
 X14.5141 Y134.7476
 X15.3479 Y133.7596
 X16.2369 Y132.8116
 X17.1805 Y131.9026
 X18.1783 Y131.0356
 X19.2296 Y130.2076
 X20.3339 Y129.4216
 X21.4908 Y128.6776
 X22.6996 Y127.9746
 X22.1194 Y127.3986
 X21.5538 Y126.8106
 X21.0026 Y126.2116
 X20.4662 Y125.6016
 X19.9447 Y124.9806
 X19.4382 Y124.3496
 X18.9467 Y123.7076
 X18.4703 Y123.0566
 X18.0093 Y122.3956
 X17.5636 Y121.7246
 X17.1336 Y121.0446
 X16.7192 Y120.3556
 X16.3206 Y119.6586
 X15.9379 Y118.9526
 X15.5712 Y118.2386
 X15.2208 Y117.5166
 X14.8865 Y116.7866
 X14.5687 Y116.0496
 X14.2674 Y115.3056
 X13.9827 Y114.5536
 X13.7147 Y113.7966
 X13.4637 Y113.0316
 X13.2296 Y112.2616
 X13.0127 Y111.4856
 X12.8130 Y110.7036
 X12.6307 Y109.9166
 X12.4659 Y109.1246
 X12.3186 Y108.3276
 X12.1891 Y107.5256
 X12.0774 Y106.7196
 X11.9837 Y105.9086
 X11.9081 Y105.0946
 X11.8764 Y105.0056
 X11.8586 Y104.9463
 X11.8319 Y104.8567
 X11.7965 Y104.7379
 X11.7528 Y104.5904
 X11.7010 Y104.4150
 X11.6414 Y104.2125
 X11.5743 Y103.9836
 X11.5001 Y103.7293
 X11.4190 Y103.4502
 X11.3313 Y103.1471
 X11.2373 Y102.8207
 X11.1373 Y102.4720
 X11.0316 Y102.1015
 X10.9205 Y101.7103
 X10.8043 Y101.2989
 X10.6833 Y100.8682
 X10.5577 Y100.4189
 X10.4280 Y99.9520
 X10.2942 Y99.4679
 X10.1569 Y98.9678
 X10.0162 Y98.4521
 X9.8724 Y97.9218
 X9.7260 Y97.3777
 X9.5770 Y96.8204
 X9.4259 Y96.2508
 X9.2730 Y95.6697
 X9.1185 Y95.0779
 X8.9627 Y94.4760
 X8.8059 Y93.8650
 X8.6484 Y93.2456
 X8.4906 Y92.6183
 X8.3327 Y91.9845
 X8.1750 Y91.3443
 X8.0178 Y90.6989
 X7.8613 Y90.0490
 X7.7060 Y89.3953
 X7.5521 Y88.7386
 X7.3998 Y88.0797
 X7.2496 Y87.4195
 X7.1016 Y86.7585
 X6.9561 Y86.0977
 X6.8135 Y85.4378
 X6.6742 Y84.7796
 X6.5382 Y84.1239
 X6.4060 Y83.4713
 X6.2778 Y82.8228
 X6.1540 Y82.1792
 X6.0349 Y81.5410
 X5.9206 Y80.9093
 X5.8116 Y80.2846
 X5.7081 Y79.6679
 X5.6105 Y79.0599
 X5.5189 Y78.4614
 X5.4338 Y77.8731
 X5.3554 Y77.2959
 X5.2839 Y76.7303
 X5.2198 Y76.1774
 X5.1632 Y75.6379
 X5.1146 Y75.1125
 X5.0741 Y74.6021
 X5.0421 Y74.1072
 X5.0189 Y73.6289
 X5.0048 Y73.1679
 X5.0000 Y72.7247
 X5.0109 Y72.5085
 X5.0430 Y72.2985
 X5.0952 Y72.0956
 X5.1664 Y71.9011
 X5.2555 Y71.7161
 X5.3616 Y71.5417
 X5.4835 Y71.3786
 X5.6202 Y71.2284
 X5.7705 Y71.0917
 X5.9334 Y70.9699
 X6.1080 Y70.8638
 X6.2930 Y70.7746
 X6.4874 Y70.7033
 X6.6902 Y70.6513
 X6.9003 Y70.6192
 X7.1166 Y70.6082
 X11.7867
 Y65.9381
 X11.7944 Y65.7575
 X11.8169 Y65.5806
 X11.8539 Y65.4081
 X11.9048 Y65.2406
 X11.9689 Y65.0789
 X12.0457 Y64.9236
 X12.1347 Y64.7757
 X12.2353 Y64.6356
 X12.3469 Y64.5040
 X12.4690 Y64.3820
 X12.6011 Y64.2699
 X12.7425 Y64.1685
 X12.8927 Y64.0786
 X13.0513 Y64.0010
 X13.2174 Y63.9361
 X13.3909 Y63.8849
 X13.4767 Y63.8638
 X13.6222 Y63.8292
 X13.8259 Y63.7824
 X14.0862 Y63.7247
 X14.4019 Y63.6577
 X14.7714 Y63.5824
 X15.1933 Y63.5002
 X15.6661 Y63.4124
 X16.1883 Y63.3204
 X16.7586 Y63.2254
 X17.3755 Y63.1289
 X18.0375 Y63.0321
 X18.7432 Y62.9363
 X19.4911 Y62.8428
 X20.2797 Y62.7531
 X21.1079 Y62.6682
 X21.2478 Y61.3831
 X21.4167 Y60.1043
 X21.6143 Y58.8325
 X21.8406 Y57.5678
 X22.0951 Y56.3108
 X22.3778 Y55.0621
 X22.6885 Y53.8215
 X23.0268 Y52.5902
 X23.3926 Y51.3679
 X23.7858 Y50.1556
 X24.2062 Y48.9532
 X24.6535 Y47.7615
 X25.1275 Y46.5809
 X25.6281 Y45.4114
 X26.1549 Y44.2539
 X26.7079 Y43.1086
 X27.2868 Y41.9760
 X27.8914 Y40.8564
 X28.5217 Y39.7503
 X29.1771 Y38.6581
 X29.8578 Y37.5800
 X30.5633 Y36.5168
 X31.2936 Y35.4688
 X32.0483 Y34.4363
 X32.8275 Y33.4196
 X33.6307 Y32.4195
 X34.4578 Y31.4360
 X35.3087 Y30.4699
 X36.1831 Y29.5213
 X37.0808 Y28.5907
 X38.0015 Y27.6786
 X38.9453 Y26.7854
 X39.7124 Y26.0885
 X40.4903 Y25.4072
 X41.2790 Y24.7414
 X42.0783 Y24.0914
 X42.8879 Y23.4571
 X43.7076 Y22.8386
 X44.5372 Y22.2361
 X45.3765 Y21.6495
 X46.2251 Y21.0789
 X47.0831 Y20.5245
 X47.9500 Y19.9863
 X48.8257 Y19.4643
 X49.7099 Y18.9586
 X50.6025 Y18.4693
 X51.5031 Y17.9964
 X52.4115 Y17.5401
 X37.0629 Y16.2613
 X36.5707 Y16.2020
 X36.0890 Y16.1074
 X35.6199 Y15.9788
 X35.1642 Y15.8173
 X34.7239 Y15.6241
 X34.3003 Y15.4003
 X33.8949 Y15.1472
 X33.5092 Y14.8660
 X33.1449 Y14.5577
 X32.8031 Y14.2236
 X32.4856 Y13.8649
 X32.1937 Y13.4827
 X31.9292 Y13.0782
 X31.6933 Y12.6526
 X31.4876 Y12.2070
 X31.3137 Y11.7426
 X29.9950 Y7.7862
 X29.9368 Y7.5774
 X29.9006 Y7.3680
 X29.8857 Y7.1590
 X29.8917 Y6.9521
 X29.9176 Y6.7484
 X29.9629 Y6.5494
 X30.0269 Y6.3563
 X30.1089 Y6.1706
 X30.2083 Y5.9934
 X30.3244 Y5.8263
 X30.4564 Y5.6706
 X30.6037 Y5.5275
 X30.7658 Y5.3984
 X30.9418 Y5.2847
 X31.1311 Y5.1876
 X31.3331 Y5.1086
 X31.6676 Y5.0270
 X32.0026 Y5.0000
 X32.3311 Y5.0259
 X32.6486 Y5.1015
 X32.9493 Y5.2243
 X33.2278 Y5.3914
 X33.4786 Y5.6000
 X33.6964 Y5.8476
 X33.8754 Y6.1312
 X34.0103 Y6.4481
 X35.3293 Y10.4045
 X35.4668 Y10.7343
 X35.6483 Y11.0352
 X35.8692 Y11.3037
 X36.1253 Y11.5365
 X36.4121 Y11.7302
 X36.7254 Y11.8815
 X37.0610 Y11.9869
 X37.4143 Y12.0432
 X38.9354 Y12.1698
 Y7.1167
 X38.9464 Y6.9003
 X38.9785 Y6.6902
 X39.0306 Y6.4873
 X39.1017 Y6.2929
 X39.1907 Y6.1079
 X39.2967 Y5.9333
 X39.4185 Y5.7704
 X39.5550 Y5.6201
 X39.7054 Y5.4835
 X39.8683 Y5.3615
 X40.0428 Y5.2555
 X40.2279 Y5.1664
 X40.4224 Y5.0952
 X40.6253 Y5.0430
 X40.8356 Y5.0110
 X41.0521 Y5.0000
 X41.2685 Y5.0110
 X41.4786 Y5.0430
 X41.6814 Y5.0952
 X41.8758 Y5.1664
 X42.0610 Y5.2555
 X42.2354 Y5.3615
 X42.3983 Y5.4835
 X42.5488 Y5.6201
 X42.6853 Y5.7704
 X42.8072 Y5.9333
 X42.9132 Y6.1079
 X43.0024 Y6.2929
 X43.0736 Y6.4873
 X43.1257 Y6.6902
 X43.1578 Y6.9003
 X43.1687 Y7.1167
 Y12.5226
 X45.9896 Y12.7568
 X48.0939 Y6.4467
 X48.2285 Y6.1303
 X48.4075 Y5.8470
 X48.6251 Y5.5997
 X48.8760 Y5.3912
 X49.1546 Y5.2242
 X49.4551 Y5.1015
 X49.7724 Y5.0259
 X50.1006 Y5.0000
 X50.4353 Y5.0264
 X50.7701 Y5.1086
 X50.9719 Y5.1874
 X51.1613 Y5.2842
 X51.3374 Y5.3978
 X51.4993 Y5.5269
 X51.6468 Y5.6699
 X51.7788 Y5.8257
 X51.8949 Y5.9928
 X51.9943 Y6.1700
 X52.0765 Y6.3559
 X52.1406 Y6.5490
 X52.1860 Y6.7482
 X52.2121 Y6.9519
 X52.2182 Y7.1589
 X52.2036 Y7.3679
 X52.1676 Y7.5774
 X52.1096 Y7.7862
 X50.3319 Y13.1181
 X61.4226 Y14.0427
 X63.3419 Y13.5197
 X65.2815 Y13.0641
 X67.2394 Y12.6768
 X69.2143 Y12.3582
 X71.2043 Y12.1093
 X73.2079 Y11.9306
 X75.2235 Y11.8228
 X77.2493 Y11.7867
 X79.2753 Y11.8228
 X81.2910 Y11.9306
 X83.2944 Y12.1093
 X85.2844 Y12.3582
 X87.2590 Y12.6768
 X89.2169 Y13.0641
 X91.1564 Y13.5197
 X93.0758 Y14.0427
 X104.1665 Y13.1181
 X102.3886 Y7.7862
 X102.3306 Y7.5774
 X102.2946 Y7.3679
 X102.2800 Y7.1589
 X102.2862 Y6.9519
 X102.3122 Y6.7482
 X102.3578 Y6.5490
 X102.4219 Y6.3559
 X102.5040 Y6.1700
 X102.6035 Y5.9928
 X102.7194 Y5.8257
 X102.8515 Y5.6699
 X102.9989 Y5.5269
 X103.1610 Y5.3978
 X103.3368 Y5.2842
 X103.5261 Y5.1874
 X103.7281 Y5.1086
 X104.0631 Y5.0264
 X104.3979 Y5.0000
 X104.7265 Y5.0259
 X105.0440 Y5.1015
 X105.3440 Y5.2242
 X105.6230 Y5.3912
 X105.8730 Y5.5997
 X106.0910 Y5.8470
 X106.2700 Y6.1303
 X106.4040 Y6.4467
 X108.5080 Y12.7568
 X111.3290 Y12.5226
 Y7.1167
 X111.3400 Y6.9003
 X111.3720 Y6.6902
 X111.4250 Y6.4873
 X111.4960 Y6.2929
 X111.5850 Y6.1079
 X111.6910 Y5.9333
 X111.8130 Y5.7704
 X111.9490 Y5.6201
 X112.1000 Y5.4835
 X112.2630 Y5.3615
 X112.4370 Y5.2555
 X112.6220 Y5.1664
 X112.8170 Y5.0952
 X113.0200 Y5.0430
 X113.2300 Y5.0110
 X113.4460 Y5.0000
 X113.6630 Y5.0110
 X113.8730 Y5.0430
 X114.0760 Y5.0952
 X114.2700 Y5.1664
 X114.4550 Y5.2555
 X114.6300 Y5.3615
 X114.7930 Y5.4835
 X114.9430 Y5.6201
 X115.0800 Y5.7704
 X115.2010 Y5.9333
 X115.3070 Y6.1079
 X115.3970 Y6.2929
 X115.4680 Y6.4873
 X115.5200 Y6.6902
 X115.5520 Y6.9003
 X115.5630 Y7.1167
 Y12.1698
 X117.0840 Y12.0432
 X117.4370 Y11.9869
 X117.7730 Y11.8815
 X118.0860 Y11.7302
 X118.3730 Y11.5365
 X118.6290 Y11.3037
 X118.8500 Y11.0352
 X119.0320 Y10.7343
 X119.1690 Y10.4045
 X120.4880 Y6.4481
 X120.6230 Y6.1312
 X120.8020 Y5.8476
 X121.0200 Y5.6000
 X121.2710 Y5.3914
 X121.5490 Y5.2243
 X121.8500 Y5.1015
 X122.1670 Y5.0259
 X122.4960 Y5.0000
 X122.8310 Y5.0270
 X123.1650 Y5.1086
 X123.3670 Y5.1876
 X123.5570 Y5.2847
 X123.7330 Y5.3984
 X123.8950 Y5.5275
 X124.0420 Y5.6706
 X124.1740 Y5.8263
 X124.2900 Y5.9934
 X124.3890 Y6.1706
 X124.4720 Y6.3563
 X124.5360 Y6.5494
 X124.5810 Y6.7484
 X124.6070 Y6.9521
 X124.6130 Y7.1590
 X124.5980 Y7.3680
 X124.5620 Y7.5774
 X124.5030 Y7.7862
 X123.1850 Y11.7426
 X123.0110 Y12.2070
 X122.8050 Y12.6526
 X122.5690 Y13.0782
 X122.3050 Y13.4827
 X122.0130 Y13.8649
 X121.6950 Y14.2236
 X121.3540 Y14.5577
 X120.9890 Y14.8660
 X120.6040 Y15.1472
 X120.1980 Y15.4003
 X119.7750 Y15.6241
 X119.3350 Y15.8173
 X118.8790 Y15.9788
 X118.4100 Y16.1074
 X117.9290 Y16.2020
 X117.4370 Y16.2613
 X102.0869 Y17.5401
 X102.9954 Y17.9964
 X103.8960 Y18.4693
 X104.7885 Y18.9586
 X105.6730 Y19.4643
 X106.5480 Y19.9863
 X107.4150 Y20.5245
 X108.2730 Y21.0789
 X109.1220 Y21.6495
 X109.9610 Y22.2361
 X110.7910 Y22.8386
 X111.6100 Y23.4571
 X112.4200 Y24.0914
 X113.2190 Y24.7414
 X114.0080 Y25.4072
 X114.7860 Y26.0885
 X115.5530 Y26.7854
 X116.4970 Y27.6786
 X117.4180 Y28.5907
 X118.3150 Y29.5213
 X119.1900 Y30.4699
 X120.0410 Y31.4361
 X120.8680 Y32.4195
 X121.6710 Y33.4196
 X122.4500 Y34.4363
 X123.2050 Y35.4688
 X123.9350 Y36.5170
 X124.6410 Y37.5802
 X125.3210 Y38.6581
 X125.9770 Y39.7503
 X126.6070 Y40.8565
 X127.2120 Y41.9761
 X127.7900 Y43.1088
 X128.3430 Y44.2540
 X128.8700 Y45.4117
 X129.3710 Y46.5810
 X129.8450 Y47.7618
 X130.2920 Y48.9535
 X130.7120 Y50.1559
 X131.1060 Y51.3684
 X131.4710 Y52.5906
 X131.8100 Y53.8221
 X132.1200 Y55.0625
 X132.4030 Y56.3115
 X132.6570 Y57.5686
 X132.8840 Y58.8334
 X133.0810 Y60.1053
 X133.2500 Y61.3840
 X133.3900 Y62.6692
 X134.2180 Y62.7539
 X135.0070 Y62.8436
 X135.7550 Y62.9368
 X136.4610 Y63.0325
 X137.1230 Y63.1293
 X137.7400 Y63.2257
 X138.3100 Y63.3206
 X138.8320 Y63.4125
 X139.3050 Y63.5003
 X139.7270 Y63.5824
 X140.0960 Y63.6578
 X140.4120 Y63.7249
 X140.6720 Y63.7824
 X140.8760 Y63.8292
 X141.0220 Y63.8638
 X141.1070 Y63.8849
 X141.2810 Y63.9359
 X141.4470 Y64.0006
 X141.6050 Y64.0782
 X141.7560 Y64.1679
 X141.8970 Y64.2692
 X142.0290 Y64.3813
 X142.1510 Y64.5035
 X142.2630 Y64.6350
 X142.3630 Y64.7752
 X142.4520 Y64.9232
 X142.5290 Y65.0786
 X142.5930 Y65.2404
 X142.6440 Y65.4079
 X142.6810 Y65.5806
 X142.7040 Y65.7575
 X142.7110 Y65.9381
 Y70.6082
 X147.3820
 X147.5990 Y70.6192
 X147.8080 Y70.6513
 X148.0110 Y70.7033
 X148.2060 Y70.7746
 X148.3900 Y70.8638
 X148.5650 Y70.9699
 X148.7280 Y71.0917
 X148.8780 Y71.2284
 X149.0150 Y71.3786
 X149.1380 Y71.5417
 X149.2430 Y71.7161
 X149.3320 Y71.9011
 X149.4030 Y72.0956
 X149.4560 Y72.2985
 X149.4870 Y72.5085
 X149.4990 Y72.7247
 X149.4930 Y73.1679
 X149.4790 Y73.6289
 X149.4570 Y74.1072
 X149.4250 Y74.6021
 X149.3830 Y75.1125
 X149.3350 Y75.6379
 X149.2790 Y76.1774
 X149.2140 Y76.7303
 X149.1430 Y77.2959
 X149.0650 Y77.8731
 X148.9790 Y78.4614
 X148.8880 Y79.0599
 X148.7900 Y79.6679
 X148.6860 Y80.2846
 X148.5780 Y80.9093
 X148.4640 Y81.5410
 X148.3440 Y82.1792
 X148.2210 Y82.8228
 X148.0920 Y83.4713
 X147.9600 Y84.1239
 X147.8240 Y84.7796
 X147.6850 Y85.4378
 X147.5420 Y86.0977
 X147.3970 Y86.7585
 X147.2490 Y87.4195
 X147.0990 Y88.0797
 X146.9460 Y88.7386
 X146.7920 Y89.3953
 X146.6380 Y90.0490
 X146.4810 Y90.6989
 X146.3240 Y91.3443
 X146.1650 Y91.9845
 X146.0070 Y92.6183
 X145.8500 Y93.2456
 X145.6920 Y93.8650
 X145.5360 Y94.4760
 X145.3790 Y95.0779
 X145.2250 Y95.6697
 X145.0720 Y96.2508
 X144.9210 Y96.8204
 X144.7720 Y97.3777
 X144.6260 Y97.9218
 X144.4820 Y98.4521
 X144.3420 Y98.9678
 X144.2040 Y99.4679
 X144.0710 Y99.9520
 X143.9400 Y100.4189
 X143.8150 Y100.8682
 X143.6940 Y101.2989
 X143.5780 Y101.7103
 X143.4670 Y102.1015
 X143.3610 Y102.4720
 X143.2610 Y102.8207
 X143.1670 Y103.1471
 X143.0790 Y103.4502
 X142.9980 Y103.7293
 X142.9240 Y103.9836
 X142.8570 Y104.2125
 X142.7970 Y104.4150
 X142.7450 Y104.5904
 X142.7020 Y104.7379
 X142.6660 Y104.8567
 X142.6400 Y104.9463
 X142.6220 Y105.0056
G0 Z5.0000
G0 Z5.0000
M2 (end program)
