;PYCAM-META-DATA: Filename: /media/martoio/MARTOIO/ME43/std_lib/svg/006-dog.svg
;PYCAM-META-DATA: Timestamp: 2017-12-06 01:50:03.264401
;PYCAM-META-DATA: Version: 0.5.1
;Estimated machine time: 11 minutes
G40 (disable tool radius compensation)
G49 (disable tool length compensation)
G80 (cancel modal motion)
G54 (select coordinate system 1)
G90 (disable incremental moves)
G21 (metric)
G61 (exact path mode)
F400.00000
S1.00000
;PYCAM_TOOLPATH_SETTINGS: START
;[Bounds]
;maxz = 0.0
;maxx = 163.446580642
;maxy = 145.976467
;minx = -8.9496891493
;miny = -7.361497
;minz = 0.0
;
;[Tool]
;torus_radius = 0.25
;speed = 1.0
;shape = CylindricalCutter
;tool_radius = 0.5
;feedrate = 400.0
;
;[Process]
;engrave_offset = 0.0
;step_down = 1.0
;generator = EngraveCutter
;postprocessor = SimpleCutter
;overlap_percent = 0
;milling_style = conventional
;material_allowance = 0.0
;pocketing_type = none
;path_direction = x
;
;PYCAM_TOOLPATH_SETTINGS: END
T1 M6
G0 Z5.0000
 X20.5909 Y64.5298
G1 Z0.0000
 X20.4378 Y64.3844
 X20.2816 Y64.2600
 X20.1232 Y64.1553
 X19.9641 Y64.0686
 X19.8052 Y63.9987
 X19.6477 Y63.9441
 X19.4930 Y63.9033
 X19.3418 Y63.8748
 X19.1957 Y63.8572
 X19.0556 Y63.8490
 X18.9227 Y63.8487
 X18.7981 Y63.8550
 X18.6832 Y63.8662
 X18.5788 Y63.8809
 X18.4863 Y63.8979
 X18.4069 Y63.9154
 X18.0960 Y64.0116
 X17.8061 Y64.1439
 X17.5395 Y64.3096
 X17.2987 Y64.5066
 X17.0863 Y64.7327
 X16.9048 Y64.9855
 X16.7566 Y65.2629
 X16.6444 Y65.5621
 X16.4249 Y66.3140
 X16.2036 Y67.1309
 X15.9832 Y68.0136
 X15.7662 Y68.9623
 X15.5551 Y69.9776
 X15.3524 Y71.0598
 X15.1606 Y72.2094
 X14.9824 Y73.4268
 X14.8202 Y74.7123
 X14.6764 Y76.0666
 X14.5538 Y77.4900
 X14.4549 Y78.9829
 X14.3820 Y80.5457
 X14.3378 Y82.1789
 X14.3249 Y83.8829
 X14.3457 Y85.6580
 X14.3566 Y86.5671
 X14.3504 Y87.4416
 X14.3276 Y88.2825
 X14.2890 Y89.0903
 X14.2353 Y89.8657
 X14.1672 Y90.6091
 X14.0853 Y91.3216
 X13.9904 Y92.0037
 X13.8831 Y92.6559
 X13.7643 Y93.2790
 X13.6344 Y93.8737
 X13.4943 Y94.4407
 X13.3445 Y94.9804
 X13.1859 Y95.4937
 X13.0192 Y95.9812
 X12.8448 Y96.4436
 X12.6637 Y96.8814
 X12.4766 Y97.2960
 X12.2840 Y97.6860
 X12.0866 Y98.0550
 X11.8853 Y98.4020
 X11.6806 Y98.7270
 X11.4732 Y99.0320
 X11.2640 Y99.3170
 X11.0534 Y99.5830
 X10.8422 Y99.8300
 X10.6313 Y100.0600
 X10.4211 Y100.2720
 X10.2125 Y100.4680
 X10.0060 Y100.6480
 X9.8025 Y100.8120
 X9.6026 Y100.9630
 X9.6840 Y101.2640
 X9.7734 Y101.5870
 X9.8710 Y101.9320
 X9.9767 Y102.2990
 X10.0907 Y102.6850
 X10.2130 Y103.0910
 X10.3436 Y103.5140
 X10.4829 Y103.9560
 X10.6306 Y104.4130
 X10.7871 Y104.8870
 X10.9522 Y105.3750
 X11.1262 Y105.8770
 X11.3091 Y106.3920
 X11.5009 Y106.9190
 X11.7018 Y107.4580
 X11.9118 Y108.0070
 X12.1310 Y108.5650
 X12.3595 Y109.1320
 X12.5973 Y109.7070
 X12.8446 Y110.2890
 X13.1015 Y110.8770
 X13.3679 Y111.4690
 X13.6440 Y112.0660
 X13.9299 Y112.6670
 X14.2256 Y113.2700
 X14.5313 Y113.8740
 X14.8469 Y114.4800
 X15.1726 Y115.0850
 X15.5085 Y115.6890
 X15.8546 Y116.2920
 X16.2111 Y116.8910
 X16.5779 Y117.4870
 X16.9552 Y118.0780
 X17.3431 Y118.6640
 X17.7415 Y119.2440
 X18.1507 Y119.8170
 X18.5708 Y120.3810
 X19.0016 Y120.9370
 X19.4434 Y121.4830
 X19.8963 Y122.0180
 X20.3603 Y122.5410
 X20.8355 Y123.0530
 X21.3218 Y123.5510
 X21.8196 Y124.0340
 X22.3288 Y124.5030
 X22.8495 Y124.9560
 X23.3818 Y125.3920
 X23.9257 Y125.8100
 X24.4816 Y126.2100
 X25.0491 Y126.5900
 X25.6284 Y126.9500
 X26.2199 Y127.2890
 X26.8234 Y127.6060
 X27.4389 Y127.9000
 X28.0668 Y128.1700
 X28.7070 Y128.4150
 X29.3595 Y128.6350
 X30.0245 Y128.8280
 X30.7020 Y128.9940
 X31.3921 Y129.1320
 X32.0949 Y129.2400
 X32.8106 Y129.3190
 X33.5391 Y129.3670
 X34.2805 Y129.3830
 X34.9135 Y129.3690
 X35.5603 Y129.3280
 X36.2187 Y129.2620
 X36.8857 Y129.1720
 X37.5592 Y129.0620
 X38.2366 Y128.9320
 X38.9152 Y128.7860
 X39.5928 Y128.6230
 X40.2667 Y128.4470
 X40.9346 Y128.2600
 X41.5938 Y128.0630
 X42.2420 Y127.8590
 X42.8766 Y127.6490
 X43.4949 Y127.4350
 X44.0949 Y127.2190
 X44.6737 Y127.0030
 X43.6359 Y126.3960
 X42.6531 Y125.7470
 X41.7232 Y125.0550
 X40.8449 Y124.3240
 X40.0160 Y123.5550
 X39.2349 Y122.7480
 X38.4999 Y121.9060
 X37.8091 Y121.0290
 X37.1609 Y120.1200
 X36.5534 Y119.1800
 X35.9850 Y118.2100
 X35.4538 Y117.2110
 X34.9581 Y116.1860
 X34.4960 Y115.1360
 X34.0660 Y114.0610
 X33.6663 Y112.9650
 X33.2949 Y111.8470
 X32.9503 Y110.7090
 X32.6305 Y109.5540
 X32.3339 Y108.3820
 X32.0588 Y107.1950
 X31.8034 Y105.9940
 X31.5657 Y104.7810
 X31.3442 Y103.5570
 X31.1371 Y102.3240
 X30.9427 Y101.0830
 X30.7591 Y99.8360
 X30.5846 Y98.5830
 X30.4174 Y97.3280
 X30.2559 Y96.0700
 X30.0981 Y94.8116
 X29.9424 Y93.5543
 X29.8156 Y92.5312
 X29.6877 Y91.5068
 X29.5574 Y90.4819
 X29.4242 Y89.4576
 X29.2870 Y88.4346
 X29.1448 Y87.4137
 X28.9966 Y86.3961
 X28.8414 Y85.3823
 X28.6785 Y84.3734
 X28.5068 Y83.3704
 X28.3255 Y82.3739
 X28.1334 Y81.3848
 X27.9296 Y80.4041
 X27.7132 Y79.4328
 X27.4835 Y78.4715
 X27.2392 Y77.5212
 X26.9795 Y76.5828
 X26.7035 Y75.6572
 X26.4102 Y74.7451
 X26.0985 Y73.8476
 X25.7677 Y72.9655
 X25.4168 Y72.0997
 X25.0448 Y71.2511
 X24.6507 Y70.4204
 X24.2335 Y69.6087
 X23.7925 Y68.8168
 X23.3267 Y68.0455
 X22.8350 Y67.2958
 X22.3164 Y66.5684
 X21.7703 Y65.8646
 X21.1955 Y65.1847
 X20.5909 Y64.5298
G0 Z5.0000
 X56.7918 Y23.7636
G1 Z0.0000
 X57.4862 Y23.6089
 X58.1889 Y23.4737
 X58.8996 Y23.3584
 X59.6175 Y23.2634
 X60.3421 Y23.1890
 X61.0727 Y23.1355
 X61.8087 Y23.1032
 X62.5496 Y23.0922
 X63.8256 Y23.1282
 Y18.4250
 X63.8478 Y17.6662
 X63.9124 Y16.9186
 X63.3262 Y17.2676
 X62.7591 Y17.6315
 X62.2111 Y18.0096
 X61.6823 Y18.4007
 X61.1723 Y18.8039
 X60.6812 Y19.2182
 X60.2089 Y19.6428
 X59.7553 Y20.0765
 X59.3205 Y20.5186
 X58.9041 Y20.9680
 X58.5063 Y21.4237
 X58.1268 Y21.8847
 X57.7657 Y22.3502
 X57.4230 Y22.8191
 X57.0984 Y23.2907
 X56.7918 Y23.7636
G0 Z5.0000
 X90.5845 Y16.9133
G1 Z0.0000
 X90.6498 Y17.6633
 X90.6727 Y18.4236
 Y23.1282
 X91.9487 Y23.0922
 X92.6902 Y23.1032
 X93.4268 Y23.1355
 X94.1581 Y23.1891
 X94.8835 Y23.2637
 X95.6023 Y23.3589
 X96.3139 Y23.4743
 X97.0177 Y23.6098
 X97.7131 Y23.7650
 X97.4066 Y23.2901
 X97.0820 Y22.8172
 X96.7393 Y22.3468
 X96.3784 Y21.8803
 X95.9989 Y21.4183
 X95.6012 Y20.9621
 X95.1848 Y20.5122
 X94.7496 Y20.0698
 X94.2957 Y19.6359
 X93.8231 Y19.2114
 X93.3313 Y18.7971
 X92.8205 Y18.3941
 X92.2905 Y18.0033
 X91.7413 Y17.6255
 X91.1725 Y17.2619
 X90.5845 Y16.9133
G0 Z5.0000
 X86.4405 Y18.4250
G1 Z0.0000
 X86.4285 Y17.9527
 X86.3928 Y17.4865
 X86.3343 Y17.0271
 X86.2534 Y16.5748
 X86.1506 Y16.1305
 X86.0266 Y15.6946
 X85.8818 Y15.2676
 X85.7170 Y14.8504
 X85.5327 Y14.4433
 X85.3295 Y14.0469
 X85.1080 Y13.6621
 X84.8686 Y13.2890
 X84.6121 Y12.9284
 X84.3391 Y12.5811
 X84.0499 Y12.2473
 X83.7455 Y11.9279
 X83.4260 Y11.6233
 X83.0924 Y11.3340
 X82.7450 Y11.0609
 X82.3846 Y10.8043
 X82.0117 Y10.5650
 X81.6267 Y10.3433
 X81.2305 Y10.1400
 X80.8235 Y9.9557
 X80.4063 Y9.7908
 X79.9793 Y9.6460
 X79.5435 Y9.5219
 X79.0992 Y9.4191
 X78.6470 Y9.3381
 X78.1875 Y9.2795
 X77.7214 Y9.2439
 X77.2492 Y9.2320
 X76.7768 Y9.2439
 X76.3107 Y9.2795
 X75.8512 Y9.3381
 X75.3989 Y9.4191
 X74.9546 Y9.5219
 X74.5188 Y9.6460
 X74.0920 Y9.7908
 X73.6748 Y9.9557
 X73.2677 Y10.1400
 X72.8714 Y10.3433
 X72.4866 Y10.5650
 X72.1135 Y10.8043
 X71.7531 Y11.0609
 X71.4057 Y11.3340
 X71.0721 Y11.6233
 X70.7527 Y11.9279
 X70.4481 Y12.2473
 X70.1591 Y12.5811
 X69.8859 Y12.9284
 X69.6293 Y13.2890
 X69.3900 Y13.6621
 X69.1685 Y14.0469
 X68.9652 Y14.4433
 X68.7809 Y14.8504
 X68.6162 Y15.2676
 X68.4714 Y15.6946
 X68.3474 Y16.1305
 X68.2446 Y16.5748
 X68.1637 Y17.0271
 X68.1050 Y17.4865
 X68.0695 Y17.9527
 X68.0575 Y18.4250
 Y23.7043
 X69.0224 Y23.9457
 X69.9680 Y24.2259
 X70.8921 Y24.5447
 X71.7934 Y24.9014
 X72.6698 Y25.2954
 X73.5198 Y25.7262
 X74.3411 Y26.1932
 X75.1325 Y26.6959
 Y20.6862
 X75.1434 Y20.4700
 X75.1755 Y20.2598
 X75.2277 Y20.0571
 X75.2988 Y19.8626
 X75.3880 Y19.6776
 X75.4941 Y19.5032
 X75.6159 Y19.3401
 X75.7525 Y19.1898
 X75.9028 Y19.0532
 X76.0659 Y18.9312
 X76.2403 Y18.8253
 X76.4253 Y18.7361
 X76.6198 Y18.6648
 X76.8225 Y18.6128
 X77.0327 Y18.5805
 X77.2492 Y18.5697
 X77.4655 Y18.5805
 X77.6755 Y18.6128
 X77.8782 Y18.6648
 X78.0725 Y18.7361
 X78.2574 Y18.8253
 X78.4318 Y18.9312
 X78.5946 Y19.0532
 X78.7449 Y19.1898
 X78.8814 Y19.3401
 X79.0031 Y19.5032
 X79.1091 Y19.6776
 X79.1981 Y19.8626
 X79.2692 Y20.0571
 X79.3214 Y20.2598
 X79.3534 Y20.4700
 X79.3643 Y20.6862
 Y26.6959
 X80.1560 Y26.1932
 X80.9777 Y25.7262
 X81.8275 Y25.2954
 X82.7039 Y24.9014
 X83.6050 Y24.5447
 X84.5295 Y24.2259
 X85.4750 Y23.9457
 X86.4405 Y23.7043
 Y18.4250
G0 Z5.0000
 X88.7021 Y50.0854
G1 Z0.0000
 X88.6880 Y49.7704
 X88.6466 Y49.4622
 X88.5788 Y49.1607
 X88.4859 Y48.8657
 X88.3691 Y48.5772
 X88.2293 Y48.2951
 X88.0678 Y48.0193
 X87.8859 Y47.7496
 X87.6842 Y47.4861
 X87.4643 Y47.2283
 X87.2273 Y46.9765
 X86.9741 Y46.7304
 X86.7060 Y46.4900
 X86.4241 Y46.2551
 X86.1295 Y46.0255
 X85.8234 Y45.8014
 X85.5067 Y45.5825
 X85.1809 Y45.3686
 X84.8468 Y45.1597
 X84.5059 Y44.9557
 X84.1589 Y44.7565
 X83.8073 Y44.5619
 X83.4520 Y44.3721
 X83.0942 Y44.1865
 X82.7350 Y44.0054
 X82.3757 Y43.8284
 X82.0173 Y43.6558
 X81.6609 Y43.4871
 X81.3075 Y43.3223
 X80.9585 Y43.1614
 X80.6150 Y43.0041
 X80.2781 Y42.8507
 X80.1221 Y42.7790
 X79.4260 Y42.5059
 X78.7109 Y42.3109
 X77.9831 Y42.1939
 X77.2491 Y42.1548
 X76.5150 Y42.1939
 X75.7873 Y42.3109
 X75.0720 Y42.5059
 X74.3757 Y42.7790
 X74.2202 Y42.8507
 X73.8832 Y43.0041
 X73.5396 Y43.1614
 X73.1906 Y43.3223
 X72.8374 Y43.4871
 X72.4810 Y43.6558
 X72.1225 Y43.8284
 X71.7631 Y44.0054
 X71.4041 Y44.1865
 X71.0463 Y44.3721
 X70.6909 Y44.5619
 X70.3393 Y44.7565
 X69.9924 Y44.9557
 X69.6514 Y45.1597
 X69.3174 Y45.3686
 X68.9914 Y45.5825
 X68.6749 Y45.8014
 X68.3688 Y46.0255
 X68.0742 Y46.2551
 X67.7923 Y46.4900
 X67.5242 Y46.7304
 X67.2710 Y46.9765
 X67.0339 Y47.2283
 X66.8141 Y47.4861
 X66.6125 Y47.7496
 X66.4305 Y48.0193
 X66.2689 Y48.2951
 X66.1292 Y48.5772
 X66.0123 Y48.8657
 X65.9195 Y49.1607
 X65.8517 Y49.4622
 X65.8103 Y49.7704
 X65.7963 Y50.0854
 X65.8114 Y50.4358
 X65.8566 Y50.7822
 X65.9310 Y51.1244
 X66.0337 Y51.4616
 X66.1641 Y51.7936
 X66.3211 Y52.1198
 X66.5043 Y52.4397
 X66.7127 Y52.7529
 X66.9456 Y53.0589
 X67.2021 Y53.3572
 X67.4816 Y53.6473
 X67.7831 Y53.9289
 X68.1059 Y54.2012
 X68.4493 Y54.4640
 X68.8124 Y54.7168
 X69.1946 Y54.9590
 X69.5949 Y55.1903
 X70.0127 Y55.4100
 X70.4470 Y55.6178
 X70.8971 Y55.8132
 X71.3624 Y55.9955
 X71.8418 Y56.1647
 X72.3349 Y56.3200
 X72.8405 Y56.4608
 X73.3581 Y56.5869
 X73.8868 Y56.6978
 X74.4260 Y56.7928
 X74.9746 Y56.8716
 X75.5320 Y56.9337
 X76.0974 Y56.9789
 X76.6700 Y57.0062
 X77.2492 Y57.0154
 X77.8281 Y57.0062
 X78.4007 Y56.9789
 X78.9661 Y56.9337
 X79.5235 Y56.8716
 X80.0721 Y56.7928
 X80.6113 Y56.6978
 X81.1400 Y56.5869
 X81.6575 Y56.4608
 X82.1632 Y56.3200
 X82.6562 Y56.1647
 X83.1357 Y55.9955
 X83.6010 Y55.8132
 X84.0511 Y55.6178
 X84.4855 Y55.4100
 X84.9032 Y55.1903
 X85.3035 Y54.9590
 X85.6857 Y54.7168
 X86.0488 Y54.4640
 X86.3923 Y54.2012
 X86.7152 Y53.9289
 X87.0167 Y53.6473
 X87.2962 Y53.3572
 X87.5527 Y53.0589
 X87.7856 Y52.7529
 X87.9939 Y52.4397
 X88.1771 Y52.1198
 X88.3342 Y51.7936
 X88.4646 Y51.4616
 X88.5673 Y51.1244
 X88.6417 Y50.7822
 X88.6868 Y50.4358
 X88.7021 Y50.0854
G0 Z5.0000
 X140.1509 Y85.6580
G1 Z0.0000
 X140.1719 Y83.8829
 X140.1589 Y82.1789
 X140.1149 Y80.5457
 X140.0429 Y78.9829
 X139.9439 Y77.4900
 X139.8209 Y76.0666
 X139.6779 Y74.7123
 X139.5159 Y73.4268
 X139.3369 Y72.2094
 X139.1459 Y71.0598
 X138.9429 Y69.9776
 X138.7319 Y68.9623
 X138.5149 Y68.0136
 X138.2949 Y67.1309
 X138.0729 Y66.3140
 X137.8539 Y65.5621
 X137.7419 Y65.2629
 X137.5929 Y64.9855
 X137.4119 Y64.7327
 X137.1999 Y64.5066
 X136.9589 Y64.3096
 X136.6919 Y64.1439
 X136.4019 Y64.0116
 X136.0919 Y63.9154
 X136.0119 Y63.8979
 X135.9189 Y63.8809
 X135.8149 Y63.8662
 X135.6999 Y63.8550
 X135.5749 Y63.8487
 X135.4419 Y63.8490
 X135.3019 Y63.8572
 X135.1559 Y63.8748
 X135.0049 Y63.9033
 X134.8499 Y63.9441
 X134.6929 Y63.9987
 X134.5339 Y64.0686
 X134.3749 Y64.1553
 X134.2169 Y64.2600
 X134.0599 Y64.3844
 X133.9069 Y64.5298
 X133.3029 Y65.1847
 X132.7279 Y65.8646
 X132.1819 Y66.5684
 X131.6629 Y67.2958
 X131.1709 Y68.0455
 X130.7059 Y68.8168
 X130.2649 Y69.6087
 X129.8469 Y70.4204
 X129.4529 Y71.2511
 X129.0809 Y72.0997
 X128.7309 Y72.9655
 X128.3999 Y73.8476
 X128.0879 Y74.7451
 X127.7949 Y75.6572
 X127.5189 Y76.5828
 X127.2589 Y77.5212
 X127.0149 Y78.4715
 X126.7849 Y79.4328
 X126.5689 Y80.4041
 X126.3649 Y81.3848
 X126.1729 Y82.3739
 X125.9909 Y83.3704
 X125.8199 Y84.3734
 X125.6569 Y85.3823
 X125.5019 Y86.3961
 X125.3529 Y87.4137
 X125.2109 Y88.4346
 X125.0739 Y89.4576
 X124.9409 Y90.4819
 X124.8109 Y91.5068
 X124.6819 Y92.5312
 X124.5559 Y93.5543
 X124.3869 Y94.9196
 X124.2139 Y96.2883
 X124.0369 Y97.6580
 X123.8519 Y99.0270
 X123.6579 Y100.3930
 X123.4519 Y101.7540
 X123.2309 Y103.1060
 X122.9939 Y104.4490
 X122.7389 Y105.7790
 X122.4619 Y107.0950
 X122.1629 Y108.3940
 X121.8379 Y109.6740
 X121.4849 Y110.9320
 X121.1029 Y112.1670
 X120.6879 Y113.3760
 X120.2399 Y114.5570
 X120.1489 Y114.7540
 X120.0419 Y114.9370
 X119.9179 Y115.1060
 X119.7789 Y115.2600
 X119.6279 Y115.3980
 X119.4649 Y115.5210
 X119.2909 Y115.6270
 X119.1079 Y115.7160
 X118.9179 Y115.7860
 X118.7219 Y115.8390
 X118.5199 Y115.8730
 X118.3149 Y115.8870
 X118.1079 Y115.8810
 X117.9009 Y115.8540
 X117.6939 Y115.8050
 X117.4889 Y115.7350
 X117.2919 Y115.6450
 X117.1089 Y115.5370
 X116.9399 Y115.4130
 X116.7859 Y115.2750
 X116.6469 Y115.1230
 X116.5249 Y114.9600
 X116.4189 Y114.7860
 X116.3299 Y114.6040
 X116.2589 Y114.4130
 X116.2069 Y114.2170
 X116.1729 Y114.0160
 X116.1589 Y113.8110
 X116.1649 Y113.6040
 X116.1919 Y113.3960
 X116.2409 Y113.1890
 X116.3109 Y112.9850
 X116.7229 Y111.9000
 X117.1039 Y110.7890
 X117.4549 Y109.6510
 X117.7799 Y108.4890
 X118.0789 Y107.3030
 X118.3569 Y106.0940
 X118.6129 Y104.8650
 X118.8509 Y103.6150
 X119.0729 Y102.3460
 X119.2809 Y101.0600
 X119.4779 Y99.7570
 X119.6639 Y98.4380
 X119.8429 Y97.1060
 X120.0169 Y95.7603
 X120.1869 Y94.4028
 X120.3569 Y93.0347
 X120.4659 Y92.1571
 X120.5749 Y91.2783
 X120.6859 Y90.3990
 X120.7979 Y89.5196
 X120.9129 Y88.6403
 X121.0319 Y87.7616
 X121.1539 Y86.8841
 X121.2799 Y86.0082
 X121.4109 Y85.1343
 X121.5479 Y84.2627
 X121.6899 Y83.3940
 X121.8399 Y82.5286
 X121.9959 Y81.6669
 X122.1599 Y80.8093
 X122.3329 Y79.9564
 X122.5139 Y79.1083
 X122.7049 Y78.2658
 X122.9059 Y77.4291
 X123.1179 Y76.5989
 X123.3409 Y75.7752
 X123.5759 Y74.9589
 X123.8229 Y74.1500
 X124.0829 Y73.3493
 X124.3569 Y72.5571
 X124.6449 Y71.7737
 X124.9479 Y70.9997
 X125.2659 Y70.2355
 X125.5999 Y69.4815
 X125.9499 Y68.7382
 X126.3179 Y68.0059
 X126.7029 Y67.2851
 X127.1069 Y66.5764
 X127.0139 Y65.7883
 X126.9059 Y65.0115
 X126.7849 Y64.2459
 X126.6499 Y63.4919
 X126.5019 Y62.7494
 X126.3419 Y62.0186
 X126.1699 Y61.2996
 X125.9869 Y60.5925
 X125.7939 Y59.8973
 X125.5909 Y59.2144
 X125.3789 Y58.5437
 X125.1589 Y57.8854
 X124.9299 Y57.2396
 X124.6939 Y56.6062
 X124.4509 Y55.9857
 X124.2019 Y55.3779
 X123.9469 Y54.7832
 X123.6879 Y54.2014
 X123.4239 Y53.6328
 X123.1559 Y53.0775
 X122.8849 Y52.5357
 X122.6119 Y52.0072
 X122.3359 Y51.4925
 X122.0599 Y50.9915
 X121.7819 Y50.5043
 X121.5039 Y50.0311
 X121.2269 Y49.5721
 X120.9509 Y49.1271
 X120.6769 Y48.6965
 X120.4039 Y48.2804
 X120.1349 Y47.8787
 X119.8689 Y47.4918
 X119.3779 Y46.8011
 X118.8759 Y46.1233
 X118.3629 Y45.4587
 X117.8389 Y44.8082
 X117.3059 Y44.1722
 X116.7639 Y43.5515
 X116.2139 Y42.9466
 X115.6559 Y42.3582
 X115.0919 Y41.7869
 X114.5209 Y41.2332
 X113.9449 Y40.6979
 X113.3629 Y40.1814
 X112.7779 Y39.6846
 X112.1889 Y39.2077
 X111.5979 Y38.7518
 X111.0039 Y38.3171
 X110.9419 Y39.0179
 X110.8369 Y39.7112
 X110.6909 Y40.3961
 X110.5039 Y41.0718
 X110.2749 Y41.7373
 X110.0059 Y42.3921
 X109.6969 Y43.0348
 X109.3489 Y43.6650
 X108.9609 Y44.2816
 X108.5349 Y44.8839
 X108.0709 Y45.4709
 X107.5689 Y46.0419
 X107.0299 Y46.5959
 X106.4539 Y47.1322
 X105.8419 Y47.6498
 X105.1949 Y48.1479
 X104.5463 Y48.6019
 X103.8750 Y49.0307
 X103.1818 Y49.4337
 X102.4677 Y49.8107
 X101.7337 Y50.1614
 X100.9809 Y50.4854
 X100.2105 Y50.7825
 X99.4235 Y51.0522
 X98.6212 Y51.2944
 X97.8045 Y51.5086
 X96.9745 Y51.6944
 X96.1323 Y51.8518
 X95.2789 Y51.9801
 X94.4157 Y52.0791
 X93.5436 Y52.1487
 X92.6638 Y52.1883
 X92.5231 Y52.6734
 X92.3542 Y53.1500
 X92.1577 Y53.6176
 X91.9341 Y54.0758
 X91.6839 Y54.5241
 X91.4081 Y54.9621
 X91.1071 Y55.3893
 X90.7816 Y55.8053
 X90.4321 Y56.2096
 X90.0593 Y56.6016
 X89.6641 Y56.9811
 X89.2467 Y57.3476
 X88.8080 Y57.7007
 X88.3484 Y58.0397
 X87.8688 Y58.3644
 X87.3698 Y58.6743
 X86.8517 Y58.9689
 X86.3156 Y59.2476
 X85.7618 Y59.5103
 X85.1912 Y59.7562
 X84.6041 Y59.9851
 X84.0013 Y60.1965
 X83.3835 Y60.3898
 X82.7511 Y60.5648
 X82.1052 Y60.7208
 X81.4459 Y60.8576
 X80.7741 Y60.9744
 X80.0905 Y61.0711
 X79.3955 Y61.1471
 X78.6898 Y61.2019
 X77.9741 Y61.2351
 X77.2492 Y61.2462
 X76.5241 Y61.2351
 X75.8084 Y61.2019
 X75.1027 Y61.1471
 X74.4077 Y61.0711
 X73.7241 Y60.9744
 X73.0523 Y60.8576
 X72.3930 Y60.7208
 X71.7470 Y60.5648
 X71.1146 Y60.3898
 X70.4968 Y60.1965
 X69.8941 Y59.9851
 X69.3071 Y59.7562
 X68.7363 Y59.5101
 X68.1827 Y59.2475
 X67.6464 Y58.9687
 X67.1285 Y58.6741
 X66.6295 Y58.3643
 X66.1499 Y58.0394
 X65.6905 Y57.7004
 X65.2517 Y57.3473
 X64.8345 Y56.9808
 X64.4392 Y56.6012
 X64.0664 Y56.2090
 X63.7171 Y55.8047
 X63.3916 Y55.3886
 X63.0906 Y54.9614
 X62.8149 Y54.5233
 X62.5649 Y54.0748
 X62.3413 Y53.6166
 X62.1448 Y53.1489
 X61.9760 Y52.6722
 X61.8356 Y52.1869
 X61.0814 Y52.1554
 X60.3307 Y52.1021
 X59.5849 Y52.0268
 X58.8455 Y51.9293
 X58.6332 Y51.8866
 X58.4302 Y51.8239
 X58.2375 Y51.7425
 X58.0557 Y51.6434
 X57.8860 Y51.5280
 X57.7291 Y51.3975
 X57.5860 Y51.2530
 X57.4575 Y51.0958
 X57.3446 Y50.9271
 X57.2481 Y50.7480
 X57.1689 Y50.5597
 X57.1081 Y50.3637
 X57.0664 Y50.1609
 X57.0446 Y49.9526
 X57.0438 Y49.7401
 X57.0649 Y49.5244
 X57.1027 Y49.3312
 X57.1571 Y49.1455
 X57.2273 Y48.9680
 X57.3123 Y48.7996
 X57.4112 Y48.6407
 X57.5230 Y48.4919
 X57.6467 Y48.3543
 X57.7818 Y48.2282
 X57.9271 Y48.1144
 X58.0817 Y48.0137
 X58.2446 Y47.9265
 X58.4152 Y47.8537
 X58.5924 Y47.7959
 X58.7752 Y47.7539
 X58.9627 Y47.7282
 X59.1541 Y47.7193
 X59.4681 Y47.7426
 X60.6505 Y47.8837
 X61.8493 Y47.9564
 X61.9837 Y47.5209
 X62.1416 Y47.0982
 X62.3220 Y46.6878
 X62.5238 Y46.2894
 X62.7459 Y45.9030
 X62.9873 Y45.5282
 X63.2467 Y45.1647
 X63.5232 Y44.8122
 X63.8156 Y44.4707
 X64.1231 Y44.1396
 X64.4443 Y43.8189
 X64.7782 Y43.5082
 X65.1239 Y43.2072
 X65.4800 Y42.9157
 X65.8456 Y42.6336
 X66.2198 Y42.3604
 X66.6012 Y42.0959
 X66.9888 Y41.8400
 X67.3816 Y41.5922
 X67.7785 Y41.3523
 X68.1784 Y41.1201
 X68.5802 Y40.8954
 X68.9828 Y40.6778
 X69.3852 Y40.4672
 X69.7863 Y40.2632
 X70.1849 Y40.0655
 X70.5802 Y39.8740
 X70.9707 Y39.6883
 X71.3557 Y39.5083
 X71.7339 Y39.3336
 X72.1043 Y39.1639
 X72.4659 Y38.9990
 X72.6217 Y38.9289
 X73.1780 Y38.6933
 X73.7432 Y38.4891
 X74.3160 Y38.3162
 X74.8952 Y38.1747
 X75.4796 Y38.0644
 X76.0678 Y37.9858
 X76.6585 Y37.9384
 X77.2506 Y37.9226
 X77.8420 Y37.9384
 X78.4324 Y37.9858
 X79.0202 Y38.0644
 X79.6045 Y38.1747
 X80.1837 Y38.3162
 X80.7564 Y38.4891
 X81.3216 Y38.6933
 X81.8780 Y38.9289
 X82.0335 Y38.9990
 X82.3950 Y39.1639
 X82.7655 Y39.3336
 X83.1437 Y39.5083
 X83.5286 Y39.6883
 X83.9192 Y39.8740
 X84.3143 Y40.0655
 X84.7131 Y40.2632
 X85.1141 Y40.4672
 X85.5166 Y40.6778
 X85.9192 Y40.8954
 X86.3210 Y41.1201
 X86.7209 Y41.3523
 X87.1178 Y41.5922
 X87.5106 Y41.8400
 X87.8982 Y42.0959
 X88.2796 Y42.3604
 X88.6538 Y42.6336
 X89.0195 Y42.9157
 X89.3756 Y43.2072
 X89.7212 Y43.5082
 X90.0552 Y43.8189
 X90.3764 Y44.1396
 X90.6838 Y44.4707
 X90.9763 Y44.8122
 X91.2528 Y45.1647
 X91.5123 Y45.5282
 X91.7535 Y45.9030
 X91.9756 Y46.2894
 X92.1774 Y46.6878
 X92.3578 Y47.0982
 X92.5156 Y47.5209
 X92.6500 Y47.9564
 X93.3823 Y47.9201
 X94.1043 Y47.8593
 X94.8156 Y47.7747
 X95.5150 Y47.6669
 X96.2016 Y47.5365
 X96.8748 Y47.3839
 X97.5335 Y47.2100
 X98.1768 Y47.0153
 X98.8042 Y46.8003
 X99.4145 Y46.5657
 X100.0068 Y46.3119
 X100.5806 Y46.0398
 X101.1348 Y45.7498
 X101.6684 Y45.4426
 X102.1807 Y45.1187
 X102.6710 Y44.7789
 X103.1381 Y44.4236
 X103.5814 Y44.0533
 X103.9999 Y43.6689
 X104.3928 Y43.2708
 X104.7592 Y42.8597
 X105.0979 Y42.4361
 X105.4089 Y42.0007
 X105.6909 Y41.5540
 X105.9429 Y41.0966
 X106.1639 Y40.6291
 X106.3529 Y40.1523
 X106.5099 Y39.6666
 X106.6339 Y39.1726
 X106.7229 Y38.6711
 X106.7779 Y38.1623
 X106.7959 Y37.6472
 X106.7759 Y37.1168
 X106.7189 Y36.5932
 X106.6239 Y36.0771
 X106.4939 Y35.5691
 X106.3279 Y35.0701
 X106.1269 Y34.5805
 X105.8929 Y34.1012
 X105.6269 Y33.6326
 X105.3299 Y33.1754
 X105.0009 Y32.7304
 X104.6432 Y32.2980
 X104.2567 Y31.8791
 X103.8424 Y31.4744
 X103.4013 Y31.0843
 X102.9343 Y30.7096
 X102.4424 Y30.3509
 X101.9266 Y30.0089
 X101.3877 Y29.6841
 X100.8266 Y29.3775
 X100.2445 Y29.0894
 X99.6420 Y28.8207
 X99.0203 Y28.5718
 X98.3803 Y28.3436
 X97.7230 Y28.1366
 X97.0491 Y27.9515
 X96.3596 Y27.7890
 X95.6557 Y27.6497
 X94.9381 Y27.5343
 X94.2078 Y27.4433
 X93.4657 Y27.3776
 X92.7128 Y27.3376
 X91.9500 Y27.3241
 X91.1830 Y27.3378
 X90.4235 Y27.3783
 X89.6725 Y27.4455
 X88.9311 Y27.5391
 X88.2006 Y27.6587
 X87.4817 Y27.8041
 X86.7755 Y27.9748
 X86.0830 Y28.1707
 X85.4053 Y28.3912
 X84.7435 Y28.6364
 X84.0985 Y28.9055
 X83.4714 Y29.1986
 X82.8634 Y29.5151
 X82.2752 Y29.8548
 X81.7080 Y30.2173
 X81.1628 Y30.6025
 X80.7206 Y30.9034
 X80.2595 Y31.1641
 X79.7824 Y31.3848
 X79.2918 Y31.5654
 X78.7907 Y31.7058
 X78.2814 Y31.8061
 X77.7670 Y31.8662
 X77.2496 Y31.8864
 X76.7325 Y31.8662
 X76.2180 Y31.8061
 X75.7088 Y31.7058
 X75.2075 Y31.5654
 X74.7171 Y31.3848
 X74.2400 Y31.1641
 X73.7791 Y30.9034
 X73.3368 Y30.6025
 X72.7916 Y30.2173
 X72.2245 Y29.8548
 X71.6363 Y29.5151
 X71.0281 Y29.1986
 X70.4010 Y28.9055
 X69.7562 Y28.6364
 X69.0943 Y28.3912
 X68.4167 Y28.1707
 X67.7243 Y27.9748
 X67.0182 Y27.8041
 X66.2993 Y27.6587
 X65.5688 Y27.5391
 X64.8278 Y27.4455
 X64.0770 Y27.3783
 X63.3178 Y27.3378
 X62.5510 Y27.3241
 X61.7882 Y27.3376
 X61.0353 Y27.3776
 X60.2932 Y27.4433
 X59.5630 Y27.5343
 X58.8453 Y27.6497
 X58.1414 Y27.7890
 X57.4520 Y27.9515
 X56.7781 Y28.1366
 X56.1207 Y28.3436
 X55.4807 Y28.5718
 X54.8591 Y28.8207
 X54.2566 Y29.0894
 X53.6745 Y29.3775
 X53.1134 Y29.6841
 X52.5745 Y30.0089
 X52.0587 Y30.3509
 X51.5667 Y30.7096
 X51.0998 Y31.0843
 X50.6586 Y31.4744
 X50.2443 Y31.8791
 X49.8578 Y32.2980
 X49.4999 Y32.7304
 X49.1716 Y33.1754
 X48.8739 Y33.6326
 X48.6077 Y34.1012
 X48.3739 Y34.5805
 X48.1737 Y35.0701
 X48.0075 Y35.5691
 X47.8767 Y36.0771
 X47.7821 Y36.5932
 X47.7248 Y37.1168
 X47.7055 Y37.6472
 X47.7209 Y38.1123
 X47.7667 Y38.5751
 X47.8430 Y39.0350
 X47.9491 Y39.4911
 X48.0848 Y39.9429
 X48.2495 Y40.3897
 X48.4431 Y40.8309
 X48.6652 Y41.2659
 X48.9153 Y41.6940
 X49.1932 Y42.1146
 X49.4985 Y42.5268
 X49.8307 Y42.9303
 X50.1898 Y43.3241
 X50.5752 Y43.7079
 X50.9864 Y44.0809
 X51.4234 Y44.4423
 X51.5861 Y44.5851
 X51.7310 Y44.7407
 X51.8577 Y44.9073
 X51.9660 Y45.0837
 X52.0559 Y45.2684
 X52.1268 Y45.4598
 X52.1792 Y45.6565
 X52.2123 Y45.8568
 X52.2263 Y46.0594
 X52.2207 Y46.2627
 X52.1957 Y46.4654
 X52.1509 Y46.6657
 X52.0861 Y46.8623
 X52.0013 Y47.0537
 X51.8960 Y47.2384
 X51.7705 Y47.4148
 X51.6277 Y47.5778
 X51.4723 Y47.7226
 X51.3056 Y47.8493
 X51.1292 Y47.9576
 X50.9448 Y48.0473
 X50.7534 Y48.1184
 X50.5570 Y48.1707
 X50.3567 Y48.2039
 X50.1542 Y48.2177
 X49.9510 Y48.2123
 X49.7485 Y48.1872
 X49.5482 Y48.1425
 X49.3517 Y48.0776
 X49.1605 Y47.9928
 X48.9759 Y47.8876
 X48.7993 Y47.7619
 X48.2093 Y47.2737
 X47.6517 Y46.7682
 X47.1271 Y46.2459
 X46.6359 Y45.7080
 X46.1782 Y45.1551
 X45.7549 Y44.5880
 X45.3662 Y44.0076
 X45.0124 Y43.4147
 X44.6941 Y42.8101
 X44.4116 Y42.1946
 X44.1656 Y41.5689
 X43.9560 Y40.9339
 X43.7838 Y40.2904
 X43.6491 Y39.6393
 X43.5523 Y38.9812
 X43.4939 Y38.3171
 X42.9005 Y38.7518
 X42.3092 Y39.2077
 X41.7206 Y39.6846
 X41.1355 Y40.1814
 X40.5545 Y40.6979
 X39.9784 Y41.2332
 X39.4077 Y41.7869
 X38.8431 Y42.3582
 X38.2853 Y42.9466
 X37.7353 Y43.5515
 X37.1934 Y44.1722
 X36.6602 Y44.8082
 X36.1367 Y45.4587
 X35.6235 Y46.1233
 X35.1211 Y46.8011
 X34.6305 Y47.4918
 X34.3645 Y47.8786
 X34.0952 Y48.2801
 X33.8230 Y48.6962
 X33.5485 Y49.1268
 X33.2724 Y49.5715
 X32.9952 Y50.0305
 X32.7175 Y50.5037
 X32.4400 Y50.9908
 X32.1632 Y51.4918
 X31.8878 Y52.0066
 X31.6143 Y52.5350
 X31.3435 Y53.0769
 X31.0757 Y53.6322
 X30.8118 Y54.2008
 X30.5523 Y54.7826
 X30.2977 Y55.3775
 X30.0487 Y55.9851
 X29.8057 Y56.6058
 X29.5698 Y57.2390
 X29.3410 Y57.8850
 X29.1205 Y58.5434
 X28.9084 Y59.2141
 X28.7055 Y59.8972
 X28.5124 Y60.5922
 X28.3298 Y61.2994
 X28.1581 Y62.0184
 X27.9980 Y62.7493
 X27.8502 Y63.4918
 X27.7152 Y64.2459
 X27.5937 Y65.0114
 X27.4860 Y65.7883
 X27.3932 Y66.5764
 X27.7966 Y67.2851
 X28.1818 Y68.0059
 X28.5493 Y68.7382
 X28.8998 Y69.4815
 X29.2338 Y70.2354
 X29.5518 Y70.9997
 X29.8546 Y71.7736
 X30.1425 Y72.5571
 X30.4163 Y73.3493
 X30.6766 Y74.1500
 X30.9238 Y74.9587
 X31.1587 Y75.7751
 X31.3816 Y76.5987
 X31.5934 Y77.4290
 X31.7943 Y78.2657
 X31.9853 Y79.1082
 X32.1667 Y79.9561
 X32.3392 Y80.8090
 X32.5034 Y81.6666
 X32.6598 Y82.5283
 X32.8089 Y83.3936
 X32.9516 Y84.2623
 X33.0882 Y85.1337
 X33.2193 Y86.0076
 X33.3456 Y86.8834
 X33.4677 Y87.7609
 X33.5860 Y88.6394
 X33.7012 Y89.5186
 X33.8138 Y90.3980
 X33.9245 Y91.2772
 X34.0339 Y92.1557
 X34.1425 Y93.0332
 X34.3149 Y94.4247
 X34.4885 Y95.8053
 X34.6653 Y97.1740
 X34.8480 Y98.5280
 X35.0385 Y99.8690
 X35.2392 Y101.1930
 X35.4523 Y102.5000
 X35.6802 Y103.7880
 X35.9252 Y105.0560
 X36.1893 Y106.3040
 X36.4752 Y107.5290
 X36.7848 Y108.7310
 X37.1205 Y109.9080
 X37.4846 Y111.0590
 X37.8793 Y112.1820
 X38.3071 Y113.2770
 X38.7831 Y114.3670
 X39.2900 Y115.4050
 X39.8291 Y116.3890
 X40.4005 Y117.3220
 X41.0052 Y118.2040
 X41.6438 Y119.0350
 X42.3174 Y119.8160
 X43.0264 Y120.5490
 X43.7717 Y121.2330
 X44.5539 Y121.8700
 X45.3739 Y122.4600
 X46.2324 Y123.0040
 X47.1302 Y123.5030
 X48.0677 Y123.9570
 X49.0460 Y124.3680
 X50.0659 Y124.7350
 X50.8941 Y124.4640
 X51.6905 Y124.2470
 X52.4584 Y124.0790
 X53.2012 Y123.9570
 X53.9220 Y123.8800
 X54.6243 Y123.8420
 X55.3113 Y123.8410
 X55.9862 Y123.8750
 X56.6523 Y123.9380
 X57.3130 Y124.0290
 X57.9716 Y124.1440
 X58.6311 Y124.2810
 X59.2953 Y124.4340
 X59.9670 Y124.6020
 X60.6496 Y124.7820
 X61.3466 Y124.9690
 X62.0241 Y125.1520
 X62.7259 Y125.3370
 X63.4556 Y125.5240
 X64.2174 Y125.7100
 X65.0150 Y125.8930
 X65.8523 Y126.0720
 X66.7330 Y126.2430
 X67.6609 Y126.4050
 X68.6402 Y126.5560
 X69.6743 Y126.6940
 X70.7675 Y126.8160
 X71.9232 Y126.9200
 X73.1456 Y127.0050
 X74.4384 Y127.0690
 X75.8055 Y127.1080
 X77.2506 Y127.1220
 X78.6953 Y127.1080
 X80.0621 Y127.0690
 X81.3548 Y127.0050
 X82.5770 Y126.9200
 X83.7327 Y126.8160
 X84.8256 Y126.6940
 X85.8598 Y126.5560
 X86.8389 Y126.4050
 X87.7668 Y126.2430
 X88.6475 Y126.0720
 X89.4848 Y125.8930
 X90.2823 Y125.7100
 X91.0441 Y125.5240
 X91.7738 Y125.3370
 X92.4756 Y125.1520
 X93.1531 Y124.9690
 X93.9781 Y124.7480
 X94.7841 Y124.5380
 X95.5762 Y124.3460
 X96.3600 Y124.1770
 X97.1411 Y124.0360
 X97.9250 Y123.9290
 X98.7174 Y123.8610
 X99.5235 Y123.8370
 X100.0866 Y123.8490
 X100.6606 Y123.8860
 X101.2474 Y123.9500
 X101.8486 Y124.0430
 X102.4660 Y124.1660
 X103.1013 Y124.3210
 X103.7560 Y124.5100
 X104.4321 Y124.7340
 X105.5319 Y124.3360
 X106.5819 Y123.8890
 X107.5839 Y123.3920
 X108.5379 Y122.8440
 X109.4459 Y122.2440
 X110.3089 Y121.5900
 X111.1279 Y120.8830
 X111.9039 Y120.1200
 X112.0619 Y119.9710
 X112.2299 Y119.8410
 X112.4079 Y119.7310
 X112.5939 Y119.6400
 X112.7859 Y119.5680
 X112.9829 Y119.5150
 X113.1839 Y119.4810
 X113.3859 Y119.4670
 X113.5889 Y119.4730
 X113.7909 Y119.4970
 X113.9909 Y119.5410
 X114.1859 Y119.6050
 X114.3749 Y119.6880
 X114.5579 Y119.7900
 X114.7319 Y119.9120
 X114.8959 Y120.0540
 X115.0449 Y120.2110
 X115.1739 Y120.3800
 X115.2849 Y120.5570
 X115.3759 Y120.7430
 X115.4479 Y120.9360
 X115.5009 Y121.1330
 X115.5349 Y121.3330
 X115.5489 Y121.5360
 X115.5439 Y121.7390
 X115.5199 Y121.9410
 X115.4759 Y122.1400
 X115.4119 Y122.3350
 X115.3289 Y122.5250
 X115.2269 Y122.7080
 X115.1049 Y122.8820
 X114.9629 Y123.0460
 X114.3919 Y123.6210
 X113.7989 Y124.1730
 X113.1849 Y124.7020
 X112.5509 Y125.2080
 X111.8959 Y125.6900
 X111.2209 Y126.1500
 X110.5249 Y126.5850
 X109.8099 Y126.9980
 X110.3889 Y127.2140
 X110.9889 Y127.4300
 X111.6089 Y127.6440
 X112.2439 Y127.8550
 X112.8929 Y128.0600
 X113.5529 Y128.2570
 X114.2219 Y128.4450
 X114.8969 Y128.6210
 X115.5759 Y128.7840
 X116.2559 Y128.9310
 X116.9339 Y129.0610
 X117.6089 Y129.1720
 X118.2769 Y129.2610
 X118.9369 Y129.3280
 X119.5849 Y129.3690
 X120.2189 Y129.3830
 X120.9589 Y129.3670
 X121.6859 Y129.3190
 X122.4009 Y129.2400
 X123.1029 Y129.1320
 X123.7919 Y128.9940
 X124.4679 Y128.8280
 X125.1329 Y128.6350
 X125.7839 Y128.4150
 X126.4239 Y128.1700
 X127.0509 Y127.9000
 X127.6659 Y127.6060
 X128.2689 Y127.2890
 X128.8589 Y126.9500
 X129.4379 Y126.5900
 X130.0059 Y126.2100
 X130.5609 Y125.8100
 X131.1039 Y125.3910
 X131.6359 Y124.9550
 X132.1569 Y124.5020
 X132.6659 Y124.0340
 X133.1629 Y123.5500
 X133.6499 Y123.0520
 X134.1249 Y122.5410
 X134.5889 Y122.0170
 X135.0419 Y121.4820
 X135.4829 Y120.9360
 X135.9139 Y120.3800
 X136.3349 Y119.8160
 X136.7439 Y119.2430
 X137.1419 Y118.6630
 X137.5309 Y118.0770
 X137.9079 Y117.4860
 X138.2749 Y116.8900
 X138.6319 Y116.2900
 X138.9779 Y115.6880
 X139.3139 Y115.0840
 X139.6399 Y114.4780
 X139.9559 Y113.8730
 X140.2619 Y113.2680
 X140.5579 Y112.6650
 X140.8449 Y112.0650
 X141.1209 Y111.4680
 X141.3879 Y110.8750
 X141.6449 Y110.2870
 X141.8929 Y109.7050
 X142.1309 Y109.1300
 X142.3599 Y108.5630
 X142.5799 Y108.0050
 X142.7899 Y107.4560
 X142.9919 Y106.9170
 X143.1839 Y106.3900
 X143.3669 Y105.8750
 X143.5419 Y105.3730
 X143.7069 Y104.8850
 X143.8639 Y104.4110
 X144.0129 Y103.9540
 X144.1509 Y103.5130
 X144.2829 Y103.0890
 X144.4059 Y102.6830
 X144.5209 Y102.2970
 X144.6259 Y101.9310
 X144.7239 Y101.5860
 X144.8139 Y101.2620
 X144.8959 Y100.9610
 X144.6959 Y100.8110
 X144.4919 Y100.6460
 X144.2859 Y100.4660
 X144.0759 Y100.2710
 X143.8669 Y100.0580
 X143.6549 Y99.8290
 X143.4439 Y99.5810
 X143.2339 Y99.3160
 X143.0239 Y99.0300
 X142.8169 Y98.7260
 X142.6119 Y98.4000
 X142.4109 Y98.0540
 X142.2129 Y97.6850
 X142.0209 Y97.2940
 X141.8339 Y96.8802
 X141.6529 Y96.4423
 X141.4779 Y95.9800
 X141.3119 Y95.4925
 X141.1529 Y94.9793
 X141.0029 Y94.4396
 X140.8629 Y93.8727
 X140.7329 Y93.2782
 X140.6139 Y92.6550
 X140.5069 Y92.0029
 X140.4119 Y91.3209
 X140.3299 Y90.6086
 X140.2619 Y89.8651
 X140.2079 Y89.0898
 X140.1689 Y88.2822
 X140.1469 Y87.4415
 X140.1399 Y86.5669
 X140.1509 Y85.6580
G0 Z5.0000
 X62.5677 Y84.9165
G1 Z0.0000
 X62.4649 Y85.1073
 X62.3457 Y85.2834
 X62.2116 Y85.4441
 X62.0638 Y85.5893
 X61.9039 Y85.7182
 X61.7334 Y85.8302
 X61.5534 Y85.9251
 X61.3655 Y86.0022
 X61.1712 Y86.0612
 X60.9717 Y86.1012
 X60.7687 Y86.1221
 X60.5634 Y86.1232
 X60.3571 Y86.1040
 X60.1516 Y86.0641
 X59.9480 Y86.0029
 X59.7478 Y85.9198
 X59.5571 Y85.8172
 X59.3811 Y85.6980
 X59.2203 Y85.5639
 X59.0753 Y85.4161
 X58.9464 Y85.2562
 X58.8343 Y85.0857
 X58.7395 Y84.9057
 X58.6624 Y84.7179
 X58.6035 Y84.5236
 X58.5634 Y84.3241
 X58.5425 Y84.1211
 X58.5416 Y83.9158
 X58.5607 Y83.7096
 X58.6006 Y83.5041
 X58.6618 Y83.3005
 X58.7449 Y83.1004
 X58.9884 Y82.5069
 X59.1628 Y81.8933
 X59.2678 Y81.2622
 X59.3030 Y80.6158
 Y76.0932
 X59.2953 Y75.7952
 X59.2730 Y75.5009
 X59.2360 Y75.2111
 X59.1849 Y74.9257
 X59.1200 Y74.6453
 X59.0417 Y74.3703
 X58.9505 Y74.1008
 X58.8464 Y73.8375
 X58.7302 Y73.5807
 X58.6018 Y73.3305
 X58.4621 Y73.0876
 X58.3110 Y72.8523
 X58.1492 Y72.6248
 X57.9768 Y72.4057
 X57.7945 Y72.1951
 X57.6023 Y71.9936
 X57.4007 Y71.8014
 X57.1902 Y71.6190
 X56.9709 Y71.4466
 X56.7435 Y71.2847
 X56.5081 Y71.1337
 X56.2653 Y70.9939
 X56.0152 Y70.8657
 X55.7584 Y70.7494
 X55.4950 Y70.6454
 X55.2256 Y70.5540
 X54.9506 Y70.4758
 X54.6702 Y70.4109
 X54.3848 Y70.3598
 X54.0949 Y70.3229
 X53.8006 Y70.3004
 X53.5027 Y70.2929
 X53.2048 Y70.3004
 X52.9106 Y70.3229
 X52.6209 Y70.3598
 X52.3356 Y70.4109
 X52.0553 Y70.4758
 X51.7803 Y70.5540
 X51.5110 Y70.6454
 X51.2480 Y70.7494
 X50.9912 Y70.8657
 X50.7412 Y70.9939
 X50.4982 Y71.1337
 X50.2630 Y71.2847
 X50.0356 Y71.4466
 X49.8164 Y71.6190
 X49.6060 Y71.8014
 X49.4045 Y71.9936
 X49.2123 Y72.1951
 X49.0299 Y72.4057
 X48.8575 Y72.6248
 X48.6957 Y72.8523
 X48.5448 Y73.0876
 X48.4049 Y73.3305
 X48.2767 Y73.5807
 X48.1605 Y73.8375
 X48.0564 Y74.1008
 X47.9652 Y74.3703
 X47.8868 Y74.6453
 X47.8220 Y74.9257
 X47.7709 Y75.2111
 X47.7339 Y75.5009
 X47.7116 Y75.7952
 X47.7041 Y76.0932
 Y80.6158
 X47.7116 Y80.9137
 X47.7339 Y81.2078
 X47.7709 Y81.4976
 X47.8220 Y81.7829
 X47.8868 Y82.0632
 X47.9652 Y82.3380
 X48.0564 Y82.6073
 X48.1605 Y82.8705
 X48.2767 Y83.1273
 X48.4049 Y83.3773
 X48.5448 Y83.6201
 X48.6957 Y83.8554
 X48.8575 Y84.0828
 X49.0299 Y84.3019
 X49.2123 Y84.5125
 X49.4045 Y84.7140
 X49.6060 Y84.9061
 X49.8164 Y85.0886
 X50.0356 Y85.2608
 X50.2630 Y85.4226
 X50.4982 Y85.5736
 X50.7412 Y85.7134
 X50.9912 Y85.8416
 X51.2480 Y85.9580
 X51.5110 Y86.0619
 X51.7803 Y86.1533
 X52.0553 Y86.2315
 X52.3356 Y86.2964
 X52.6209 Y86.3475
 X52.9106 Y86.3844
 X53.2048 Y86.4069
 X53.5027 Y86.4144
 X53.7189 Y86.4254
 X53.9291 Y86.4575
 X54.1318 Y86.5097
 X54.3263 Y86.5808
 X54.5114 Y86.6701
 X54.6859 Y86.7761
 X54.8489 Y86.8980
 X54.9992 Y87.0347
 X55.1359 Y87.1850
 X55.2577 Y87.3479
 X55.3638 Y87.5225
 X55.4528 Y87.7075
 X55.5241 Y87.9019
 X55.5763 Y88.1047
 X55.6082 Y88.3148
 X55.6192 Y88.5311
 X55.6082 Y88.7472
 X55.5763 Y88.9572
 X55.5241 Y89.1598
 X55.4528 Y89.3541
 X55.3638 Y89.5391
 X55.2577 Y89.7136
 X55.1359 Y89.8764
 X54.9992 Y90.0266
 X54.8489 Y90.1633
 X54.6859 Y90.2851
 X54.5114 Y90.3912
 X54.3263 Y90.4804
 X54.1318 Y90.5515
 X53.9291 Y90.6037
 X53.7189 Y90.6358
 X53.5027 Y90.6468
 X52.9871 Y90.6336
 X52.4784 Y90.5948
 X51.9770 Y90.5309
 X51.4835 Y90.4426
 X50.9986 Y90.3304
 X50.5230 Y90.1950
 X50.0571 Y90.0369
 X49.6018 Y89.8571
 X49.1577 Y89.6559
 X48.7252 Y89.4341
 X48.3052 Y89.1922
 X47.8982 Y88.9311
 X47.5049 Y88.6511
 X47.1257 Y88.3530
 X46.7617 Y88.0375
 X46.4131 Y87.7051
 X46.0807 Y87.3565
 X45.7653 Y86.9923
 X45.4673 Y86.6133
 X45.1874 Y86.2200
 X44.9261 Y85.8129
 X44.6845 Y85.3929
 X44.4627 Y84.9604
 X44.2616 Y84.5162
 X44.0817 Y84.0609
 X43.9238 Y83.5951
 X43.7884 Y83.1194
 X43.6761 Y82.6347
 X43.5878 Y82.1412
 X43.5239 Y81.6398
 X43.4852 Y81.1312
 X43.4721 Y80.6158
 Y76.0918
 X43.4852 Y75.5765
 X43.5239 Y75.0679
 X43.5878 Y74.5665
 X43.6761 Y74.0730
 X43.7884 Y73.5883
 X43.9238 Y73.1126
 X44.0817 Y72.6468
 X44.2616 Y72.1915
 X44.4627 Y71.7472
 X44.6845 Y71.3148
 X44.9261 Y70.8948
 X45.1874 Y70.4878
 X45.4673 Y70.0944
 X45.7653 Y69.7153
 X46.0807 Y69.3512
 X46.4131 Y69.0026
 X46.7617 Y68.6702
 X47.1257 Y68.3547
 X47.5049 Y68.0565
 X47.8982 Y67.7766
 X48.3052 Y67.5154
 X48.7252 Y67.2736
 X49.1577 Y67.0518
 X49.6018 Y66.8505
 X50.0571 Y66.6707
 X50.5230 Y66.5127
 X50.9986 Y66.3773
 X51.4835 Y66.2651
 X51.9770 Y66.1768
 X52.4784 Y66.1129
 X52.9871 Y66.0740
 X53.5027 Y66.0609
 X54.0180 Y66.0740
 X54.5268 Y66.1129
 X55.0282 Y66.1768
 X55.5218 Y66.2651
 X56.0068 Y66.3773
 X56.4825 Y66.5127
 X56.9484 Y66.6707
 X57.4038 Y66.8505
 X57.8481 Y67.0518
 X58.2806 Y67.2736
 X58.7006 Y67.5154
 X59.1078 Y67.7766
 X59.5012 Y68.0565
 X59.8803 Y68.3547
 X60.2445 Y68.6702
 X60.5931 Y69.0026
 X60.9255 Y69.3512
 X61.2410 Y69.7153
 X61.5391 Y70.0944
 X61.8191 Y70.4878
 X62.0803 Y70.8948
 X62.3221 Y71.3148
 X62.5441 Y71.7472
 X62.7452 Y72.1915
 X62.9250 Y72.6468
 X63.0831 Y73.1126
 X63.2185 Y73.5883
 X63.3307 Y74.0730
 X63.4191 Y74.5665
 X63.4830 Y75.0679
 X63.5217 Y75.5765
 X63.5349 Y76.0918
 Y80.6158
 X63.5196 Y81.1769
 X63.4738 Y81.7322
 X63.3977 Y82.2812
 X63.2914 Y82.8236
 X63.1552 Y83.3589
 X62.9889 Y83.8864
 X62.7931 Y84.4057
 X62.5677 Y84.9165
G0 Z5.0000
 X110.0589
G1 Z0.0000
 X109.9559 Y85.1073
 X109.8369 Y85.2834
 X109.7029 Y85.4441
 X109.5549 Y85.5893
 X109.3949 Y85.7182
 X109.2249 Y85.8302
 X109.0449 Y85.9251
 X108.8569 Y86.0022
 X108.6629 Y86.0612
 X108.4629 Y86.1012
 X108.2599 Y86.1221
 X108.0549 Y86.1232
 X107.8479 Y86.1040
 X107.6429 Y86.0641
 X107.4389 Y86.0029
 X107.2389 Y85.9198
 X107.0479 Y85.8172
 X106.8719 Y85.6980
 X106.7119 Y85.5639
 X106.5669 Y85.4161
 X106.4379 Y85.2562
 X106.3259 Y85.0857
 X106.2309 Y84.9057
 X106.1539 Y84.7179
 X106.0949 Y84.5236
 X106.0549 Y84.3241
 X106.0339 Y84.1211
 X106.0329 Y83.9158
 X106.0519 Y83.7096
 X106.0919 Y83.5041
 X106.1529 Y83.3005
 X106.2359 Y83.1004
 X106.4799 Y82.5069
 X106.6539 Y81.8933
 X106.7589 Y81.2622
 X106.7939 Y80.6158
 Y76.0932
 X106.7869 Y75.7952
 X106.7639 Y75.5009
 X106.7269 Y75.2111
 X106.6759 Y74.9257
 X106.6109 Y74.6453
 X106.5329 Y74.3703
 X106.4419 Y74.1008
 X106.3379 Y73.8375
 X106.2219 Y73.5807
 X106.0929 Y73.3305
 X105.9539 Y73.0876
 X105.8019 Y72.8523
 X105.6409 Y72.6248
 X105.4679 Y72.4057
 X105.2859 Y72.1951
 X105.0939 Y71.9936
 X104.8923 Y71.8014
 X104.6817 Y71.6190
 X104.4625 Y71.4466
 X104.2352 Y71.2847
 X103.9999 Y71.1337
 X103.7570 Y70.9939
 X103.5070 Y70.8657
 X103.2502 Y70.7494
 X102.9870 Y70.6454
 X102.7177 Y70.5540
 X102.4427 Y70.4758
 X102.1624 Y70.4109
 X101.8771 Y70.3598
 X101.5873 Y70.3229
 X101.2932 Y70.3004
 X100.9953 Y70.2929
 X100.6973 Y70.3004
 X100.4031 Y70.3229
 X100.1132 Y70.3598
 X99.8278 Y70.4109
 X99.5475 Y70.4758
 X99.2724 Y70.5540
 X99.0031 Y70.6454
 X98.7398 Y70.7494
 X98.4830 Y70.8657
 X98.2328 Y70.9939
 X97.9900 Y71.1337
 X97.7546 Y71.2847
 X97.5271 Y71.4466
 X97.3080 Y71.6190
 X97.0975 Y71.8014
 X96.8960 Y71.9936
 X96.7038 Y72.1951
 X96.5213 Y72.4057
 X96.3491 Y72.6248
 X96.1871 Y72.8523
 X96.0361 Y73.0876
 X95.8963 Y73.3305
 X95.7681 Y73.5807
 X95.6518 Y73.8375
 X95.5478 Y74.1008
 X95.4566 Y74.3703
 X95.3782 Y74.6453
 X95.3134 Y74.9257
 X95.2623 Y75.2111
 X95.2253 Y75.5009
 X95.2028 Y75.7952
 X95.1953 Y76.0932
 Y80.6158
 X95.2028 Y80.9137
 X95.2253 Y81.2078
 X95.2623 Y81.4976
 X95.3134 Y81.7829
 X95.3782 Y82.0632
 X95.4566 Y82.3380
 X95.5478 Y82.6073
 X95.6518 Y82.8705
 X95.7681 Y83.1273
 X95.8963 Y83.3773
 X96.0361 Y83.6201
 X96.1871 Y83.8554
 X96.3491 Y84.0828
 X96.5213 Y84.3019
 X96.7038 Y84.5125
 X96.8960 Y84.7140
 X97.0975 Y84.9061
 X97.3080 Y85.0886
 X97.5271 Y85.2608
 X97.7546 Y85.4226
 X97.9900 Y85.5736
 X98.2328 Y85.7134
 X98.4830 Y85.8416
 X98.7398 Y85.9580
 X99.0031 Y86.0619
 X99.2724 Y86.1533
 X99.5475 Y86.2315
 X99.8278 Y86.2964
 X100.1132 Y86.3475
 X100.4031 Y86.3844
 X100.6973 Y86.4069
 X100.9953 Y86.4144
 X101.2117 Y86.4254
 X101.4218 Y86.4575
 X101.6245 Y86.5097
 X101.8189 Y86.5808
 X102.0038 Y86.6701
 X102.1782 Y86.7761
 X102.3410 Y86.8980
 X102.4913 Y87.0347
 X102.6277 Y87.1850
 X102.7493 Y87.3479
 X102.8553 Y87.5225
 X102.9443 Y87.7075
 X103.0155 Y87.9019
 X103.0677 Y88.1047
 X103.0996 Y88.3148
 X103.1106 Y88.5311
 X103.0996 Y88.7472
 X103.0677 Y88.9572
 X103.0155 Y89.1598
 X102.9443 Y89.3541
 X102.8553 Y89.5391
 X102.7493 Y89.7136
 X102.6277 Y89.8764
 X102.4913 Y90.0266
 X102.3410 Y90.1633
 X102.1782 Y90.2851
 X102.0038 Y90.3912
 X101.8189 Y90.4804
 X101.6245 Y90.5515
 X101.4218 Y90.6037
 X101.2117 Y90.6358
 X100.9953 Y90.6468
 X100.4799 Y90.6336
 X99.9712 Y90.5948
 X99.4696 Y90.5309
 X98.9762 Y90.4426
 X98.4913 Y90.3304
 X98.0156 Y90.1950
 X97.5498 Y90.0369
 X97.0943 Y89.8571
 X96.6500 Y89.6559
 X96.2175 Y89.4341
 X95.7975 Y89.1922
 X95.3905 Y88.9311
 X94.9970 Y88.6511
 X94.6180 Y88.3530
 X94.2538 Y88.0375
 X93.9052 Y87.7051
 X93.5727 Y87.3565
 X93.2571 Y86.9923
 X92.9591 Y86.6133
 X92.6791 Y86.2200
 X92.4178 Y85.8129
 X92.1760 Y85.3929
 X91.9542 Y84.9604
 X91.7531 Y84.5162
 X91.5731 Y84.0609
 X91.4152 Y83.5951
 X91.2798 Y83.1194
 X91.1675 Y82.6347
 X91.0792 Y82.1412
 X91.0153 Y81.6398
 X90.9764 Y81.1312
 X90.9634 Y80.6158
 Y76.0918
 X90.9764 Y75.5765
 X91.0153 Y75.0679
 X91.0792 Y74.5665
 X91.1675 Y74.0730
 X91.2798 Y73.5883
 X91.4152 Y73.1126
 X91.5731 Y72.6468
 X91.7531 Y72.1915
 X91.9542 Y71.7472
 X92.1760 Y71.3148
 X92.4178 Y70.8948
 X92.6791 Y70.4878
 X92.9591 Y70.0944
 X93.2571 Y69.7153
 X93.5727 Y69.3512
 X93.9052 Y69.0026
 X94.2538 Y68.6702
 X94.6180 Y68.3547
 X94.9970 Y68.0565
 X95.3905 Y67.7766
 X95.7975 Y67.5154
 X96.2175 Y67.2736
 X96.6500 Y67.0518
 X97.0943 Y66.8505
 X97.5498 Y66.6707
 X98.0156 Y66.5127
 X98.4913 Y66.3773
 X98.9762 Y66.2651
 X99.4696 Y66.1768
 X99.9712 Y66.1129
 X100.4799 Y66.0740
 X100.9953 Y66.0609
 X101.5107 Y66.0740
 X102.0195 Y66.1129
 X102.5210 Y66.1768
 X103.0145 Y66.2651
 X103.4993 Y66.3773
 X103.9750 Y66.5127
 X104.4409 Y66.6707
 X104.8963 Y66.8505
 X105.3409 Y67.0518
 X105.7729 Y67.2736
 X106.1929 Y67.5154
 X106.5999 Y67.7766
 X106.9929 Y68.0565
 X107.3719 Y68.3547
 X107.7369 Y68.6702
 X108.0849 Y69.0026
 X108.4179 Y69.3512
 X108.7329 Y69.7153
 X109.0309 Y70.0944
 X109.3109 Y70.4878
 X109.5719 Y70.8948
 X109.8139 Y71.3148
 X110.0359 Y71.7472
 X110.2369 Y72.1915
 X110.4169 Y72.6468
 X110.5749 Y73.1126
 X110.7099 Y73.5883
 X110.8219 Y74.0730
 X110.9099 Y74.5665
 X110.9739 Y75.0679
 X111.0129 Y75.5765
 X111.0259 Y76.0918
 Y80.6158
 X111.0109 Y81.1769
 X110.9649 Y81.7322
 X110.8899 Y82.2812
 X110.7829 Y82.8236
 X110.6469 Y83.3589
 X110.4809 Y83.8864
 X110.2849 Y84.4057
 X110.0589 Y84.9165
G0 Z5.0000
 X149.4239 Y100.2820
G1 Z0.0000
 X149.4129 Y100.3350
 X149.3899 Y100.4320
 X149.3599 Y100.5710
 X149.3169 Y100.7500
 X149.2649 Y100.9690
 X149.2009 Y101.2250
 X149.1279 Y101.5180
 X149.0429 Y101.8460
 X148.9469 Y102.2080
 X148.8399 Y102.6020
 X148.7219 Y103.0270
 X148.5919 Y103.4810
 X148.4499 Y103.9640
 X148.2959 Y104.4740
 X148.1309 Y105.0090
 X147.9509 Y105.5680
 X147.7609 Y106.1500
 X147.5569 Y106.7530
 X147.3419 Y107.3760
 X147.1109 Y108.0180
 X146.8689 Y108.6770
 X146.6139 Y109.3520
 X146.3439 Y110.0410
 X146.0609 Y110.7430
 X145.7639 Y111.4570
 X145.4539 Y112.1820
 X145.1289 Y112.9150
 X144.7889 Y113.6560
 X144.4349 Y114.4030
 X144.0669 Y115.1550
 X143.6829 Y115.9100
 X143.2849 Y116.6680
 X142.7219 Y117.6920
 X142.1469 Y118.6850
 X141.5609 Y119.6480
 X140.9639 Y120.5790
 X140.3549 Y121.4800
 X139.7349 Y122.3490
 X139.1029 Y123.1870
 X138.4619 Y123.9930
 X137.8089 Y124.7680
 X137.1459 Y125.5110
 X136.4719 Y126.2230
 X135.7889 Y126.9020
 X135.0949 Y127.5500
 X134.3909 Y128.1650
 X133.6779 Y128.7480
 X132.9549 Y129.2990
 X132.2229 Y129.8170
 X131.4819 Y130.3030
 X130.7309 Y130.7560
 X129.9709 Y131.1760
 X129.2029 Y131.5630
 X128.4259 Y131.9170
 X127.6409 Y132.2380
 X126.8469 Y132.5260
 X126.0449 Y132.7800
 X125.2349 Y133.0010
 X124.4179 Y133.1880
 X123.5929 Y133.3420
 X122.7599 Y133.4610
 X121.9199 Y133.5460
 X121.0719 Y133.5980
 X120.2179 Y133.6150
 X119.5669 Y133.6030
 X118.9059 Y133.5680
 X118.2389 Y133.5120
 X117.5659 Y133.4350
 X116.8889 Y133.3400
 X116.2109 Y133.2270
 X115.5319 Y133.0980
 X114.8549 Y132.9550
 X114.1809 Y132.7990
 X113.5119 Y132.6320
 X112.8489 Y132.4540
 X112.1949 Y132.2680
 X111.5509 Y132.0740
 X110.9189 Y131.8750
 X110.3009 Y131.6710
 X109.6969 Y131.4640
 X109.1109 Y131.2560
 X108.5439 Y131.0480
 X107.9969 Y130.8410
 X107.4729 Y130.6360
 X106.9719 Y130.4360
 X106.4969 Y130.2410
 X106.0499 Y130.0540
 X105.6319 Y129.8750
 X105.2439 Y129.7060
 X104.8895 Y129.5480
 X104.5691 Y129.4030
 X104.2849 Y129.2720
 X104.0385 Y129.1560
 X103.8316 Y129.0580
 X103.6660 Y128.9790
 X103.5434 Y128.9190
 X102.8899 Y128.6790
 X102.2680 Y128.4820
 X101.6728 Y128.3260
 X101.0998 Y128.2100
 X100.5442 Y128.1300
 X100.0014 Y128.0850
 X99.4670 Y128.0720
 X98.9360 Y128.0900
 X98.4036 Y128.1360
 X97.8657 Y128.2070
 X97.3171 Y128.3020
 X96.7535 Y128.4190
 X96.1700 Y128.5550
 X95.5621 Y128.7080
 X94.9250 Y128.8750
 X94.2541 Y129.0550
 X93.9130 Y129.1470
 X93.5635 Y129.2410
 X93.2056 Y129.3360
 X92.8387 Y129.4330
 X92.4623 Y129.5300
 X92.0760 Y129.6280
 X91.6796 Y129.7260
 X91.2725 Y129.8240
 X90.8543 Y129.9210
 X90.4248 Y130.0180
 X89.9832 Y130.1140
 X89.5295 Y130.2090
 X89.0631 Y130.3020
 X88.5835 Y130.3930
 X88.0905 Y130.4820
 X87.5835 Y130.5680
 X87.0623 Y130.6520
 X86.5263 Y130.7320
 X85.9753 Y130.8090
 X85.4087 Y130.8820
 X84.8260 Y130.9510
 X84.2271 Y131.0160
 X83.6116 Y131.0760
 X82.9787 Y131.1310
 X82.3282 Y131.1810
 X81.6599 Y131.2250
 X80.9731 Y131.2630
 X80.2675 Y131.2950
 X79.5427 Y131.3200
 X78.7984 Y131.3390
 X78.0339 Y131.3500
 X77.2492 Y131.3540
 X76.4642 Y131.3500
 X75.6996 Y131.3390
 X74.9552 Y131.3200
 X74.2303 Y131.2950
 X73.5248 Y131.2630
 X72.8378 Y131.2250
 X72.1695 Y131.1810
 X71.5191 Y131.1310
 X70.8862 Y131.0760
 X70.2705 Y131.0160
 X69.6716 Y130.9510
 X69.0889 Y130.8820
 X68.5223 Y130.8090
 X67.9712 Y130.7320
 X67.4352 Y130.6520
 X66.9139 Y130.5680
 X66.4070 Y130.4820
 X65.9141 Y130.3930
 X65.4345 Y130.3020
 X64.9681 Y130.2090
 X64.5143 Y130.1140
 X64.0728 Y130.0180
 X63.6431 Y129.9210
 X63.2249 Y129.8240
 X62.8178 Y129.7260
 X62.4213 Y129.6280
 X62.0350 Y129.5300
 X61.6586 Y129.4330
 X61.2916 Y129.3360
 X60.9335 Y129.2410
 X60.5841 Y129.1470
 X60.2428 Y129.0550
 X59.5721 Y128.8750
 X58.9352 Y128.7070
 X58.3274 Y128.5540
 X57.7441 Y128.4180
 X57.1805 Y128.3020
 X56.6321 Y128.2070
 X56.0942 Y128.1350
 X55.5620 Y128.0890
 X55.0310 Y128.0720
 X54.4966 Y128.0850
 X53.9538 Y128.1300
 X53.3984 Y128.2090
 X52.8253 Y128.3260
 X52.2302 Y128.4820
 X51.6082 Y128.6790
 X50.9549 Y128.9190
 X50.8323 Y128.9790
 X50.6666 Y129.0580
 X50.4598 Y129.1560
 X50.2132 Y129.2720
 X49.9289 Y129.4030
 X49.6087 Y129.5480
 X49.2539 Y129.7060
 X48.8664 Y129.8750
 X48.4482 Y130.0540
 X48.0007 Y130.2410
 X47.5259 Y130.4360
 X47.0253 Y130.6360
 X46.5007 Y130.8410
 X45.9539 Y131.0480
 X45.3866 Y131.2560
 X44.8005 Y131.4640
 X44.1973 Y131.6710
 X43.5788 Y131.8750
 X42.9467 Y132.0740
 X42.3027 Y132.2680
 X41.6486 Y132.4540
 X40.9863 Y132.6320
 X40.3171 Y132.7990
 X39.6430 Y132.9550
 X38.9657 Y133.0980
 X38.2870 Y133.2270
 X37.6085 Y133.3400
 X36.9320 Y133.4350
 X36.2592 Y133.5120
 X35.5918 Y133.5680
 X34.9317 Y133.6030
 X34.2805 Y133.6150
 X33.4260 Y133.5980
 X32.5785 Y133.5460
 X31.7382 Y133.4610
 X30.9055 Y133.3420
 X30.0800 Y133.1880
 X29.2624 Y133.0010
 X28.4525 Y132.7800
 X27.6507 Y132.5260
 X26.8570 Y132.2380
 X26.0716 Y131.9170
 X25.2946 Y131.5630
 X24.5263 Y131.1760
 X23.7667 Y130.7560
 X23.0162 Y130.3030
 X22.2746 Y129.8170
 X21.5424 Y129.2990
 X20.8195 Y128.7480
 X20.1063 Y128.1650
 X19.4027 Y127.5500
 X18.7090 Y126.9020
 X18.0254 Y126.2230
 X17.3520 Y125.5110
 X16.6889 Y124.7680
 X16.0363 Y123.9930
 X15.3944 Y123.1870
 X14.7634 Y122.3490
 X14.1433 Y121.4800
 X13.5344 Y120.5790
 X12.9368 Y119.6480
 X12.3506 Y118.6850
 X11.7761 Y117.6920
 X11.2134 Y116.6680
 X10.8149 Y115.9100
 X10.4314 Y115.1550
 X10.0629 Y114.4030
 X9.7089 Y113.6560
 X9.3696 Y112.9150
 X9.0445 Y112.1820
 X8.7337 Y111.4570
 X8.4368 Y110.7430
 X8.1538 Y110.0410
 X7.8844 Y109.3520
 X7.6286 Y108.6770
 X7.3861 Y108.0180
 X7.1567 Y107.3760
 X6.9403 Y106.7530
 X6.7368 Y106.1500
 X6.5459 Y105.5680
 X6.3674 Y105.0090
 X6.2013 Y104.4740
 X6.0473 Y103.9640
 X5.9053 Y103.4810
 X5.7751 Y103.0270
 X5.6565 Y102.6020
 X5.5493 Y102.2080
 X5.4535 Y101.8460
 X5.3688 Y101.5180
 X5.2950 Y101.2250
 X5.2320 Y100.9690
 X5.1796 Y100.7500
 X5.1377 Y100.5710
 X5.1061 Y100.4320
 X5.0845 Y100.3350
 X5.0729 Y100.2820
 X5.0312 Y100.0520
 X5.0061 Y99.8220
 X5.0000 Y99.5950
 X5.0156 Y99.3710
 X5.0553 Y99.1530
 X5.1219 Y98.9420
 X5.2178 Y98.7410
 X5.3456 Y98.5500
 X5.4879 Y98.3800
 X5.6374 Y98.2290
 X5.7953 Y98.0980
 X5.9624 Y97.9860
 X6.1399 Y97.8950
 X6.3286 Y97.8260
 X6.5298 Y97.7770
 X6.7444 Y97.7520
 X6.7945 Y97.7290
 X6.8593 Y97.6960
 X6.9375 Y97.6510
 X7.0282 Y97.5940
 X7.1300 Y97.5230
 X7.2422 Y97.4370
 X7.3633 Y97.3340
 X7.4925 Y97.2130
 X7.6285 Y97.0740
 X7.7703 Y96.9143
 X7.9167 Y96.7332
 X8.0667 Y96.5293
 X8.2192 Y96.3015
 X8.3730 Y96.0484
 X8.5271 Y95.7690
 X8.6803 Y95.4618
 X8.8315 Y95.1255
 X8.9798 Y94.7589
 X9.1238 Y94.3609
 X9.2625 Y93.9301
 X9.3950 Y93.4654
 X9.5199 Y92.9654
 X9.6362 Y92.4289
 X9.7428 Y91.8544
 X9.8387 Y91.2411
 X9.9227 Y90.5873
 X9.9937 Y89.8922
 X10.0506 Y89.1541
 X10.0923 Y88.3721
 X10.1177 Y87.5448
 X10.1257 Y86.6708
 X10.1152 Y85.7491
 X10.0996 Y84.8005
 X10.0934 Y83.8704
 X10.0963 Y82.9586
 X10.1079 Y82.0651
 X10.1278 Y81.1900
 X10.1559 Y80.3330
 X10.1916 Y79.4943
 X10.2347 Y78.6739
 X10.2848 Y77.8715
 X10.3416 Y77.0873
 X10.4048 Y76.3211
 X10.4739 Y75.5730
 X10.5487 Y74.8428
 X10.6289 Y74.1307
 X10.7140 Y73.4364
 X10.8038 Y72.7598
 X10.8978 Y72.1014
 X10.9959 Y71.4605
 X11.0975 Y70.8375
 X11.2025 Y70.2321
 X11.3103 Y69.6444
 X11.4209 Y69.0744
 X11.5336 Y68.5221
 X11.6483 Y67.9871
 X11.7645 Y67.4697
 X11.8820 Y66.9700
 X12.0004 Y66.4875
 X12.1194 Y66.0225
 X12.2386 Y65.5747
 X12.3576 Y65.1444
 X12.4763 Y64.7314
 X12.5941 Y64.3355
 X12.7362 Y63.9157
 X12.9035 Y63.5101
 X13.0952 Y63.1200
 X13.3105 Y62.7458
 X13.5484 Y62.3886
 X13.8081 Y62.0489
 X14.0887 Y61.7277
 X14.3894 Y61.4259
 X14.7093 Y61.1441
 X15.0476 Y60.8833
 X15.4034 Y60.6441
 X15.7758 Y60.4275
 X16.1640 Y60.2341
 X16.5670 Y60.0648
 X16.9842 Y59.9205
 X17.4145 Y59.8019
 X18.2045 Y59.6601
 X18.9910 Y59.6132
 X19.6399 Y59.6455
 X20.2774 Y59.7414
 X20.8993 Y59.9000
 X21.5018 Y60.1198
 X22.0809 Y60.4000
 X22.6323 Y60.7393
 X23.1521 Y61.1365
 X23.6364 Y61.5905
 X23.8655 Y61.8371
 X24.1556 Y60.5515
 X24.4817 Y59.2827
 X24.8427 Y58.0314
 X25.2368 Y56.7980
 X25.6632 Y55.5839
 X26.1205 Y54.3891
 X26.6073 Y53.2147
 X27.1224 Y52.0614
 X27.6645 Y50.9298
 X28.2324 Y49.8207
 X28.8246 Y48.7348
 X29.4402 Y47.6729
 X30.0775 Y46.6355
 X30.7356 Y45.6236
 X31.4130 Y44.6377
 X32.1084 Y43.6786
 X32.8206 Y42.7471
 X33.5482 Y41.8437
 X34.2902 Y40.9694
 X35.0452 Y40.1247
 X35.8117 Y39.3103
 X36.5886 Y38.5271
 X37.3748 Y37.7757
 X38.1686 Y37.0568
 X38.9692 Y36.3712
 X39.7749 Y35.7196
 X40.5848 Y35.1026
 X41.3973 Y34.5211
 X42.2111 Y33.9758
 X43.0253 Y33.4672
 X43.8382 Y32.9962
 X44.6489 Y32.5636
 X45.0441 Y31.8118
 X45.4941 Y31.0783
 X45.9982 Y30.3648
 X46.5559 Y29.6726
 X47.1661 Y29.0032
 X47.8282 Y28.3579
 X48.5416 Y27.7380
 X49.3052 Y27.1452
 X50.1384 Y26.5719
 X51.0099 Y26.0387
 X51.1921 Y25.5415
 X51.3917 Y25.0382
 X51.6088 Y24.5296
 X51.8434 Y24.0164
 X52.0957 Y23.4998
 X52.3657 Y22.9805
 X52.6534 Y22.4594
 X52.9589 Y21.9373
 X53.2824 Y21.4154
 X53.6236 Y20.8941
 X53.9831 Y20.3746
 X54.3605 Y19.8578
 X54.7561 Y19.3443
 X55.1699 Y18.8353
 X55.6020 Y18.3314
 X56.0523 Y17.8337
 X56.5212 Y17.3430
 X57.0084 Y16.8601
 X57.5142 Y16.3859
 X58.0387 Y15.9215
 X58.5817 Y15.4675
 X59.1435 Y15.0248
 X59.7241 Y14.5944
 X60.3235 Y14.1773
 X60.9418 Y13.7740
 X61.5792 Y13.3858
 X62.2356 Y13.0132
 X62.9111 Y12.6573
 X63.6059 Y12.3189
 X64.3198 Y11.9990
 X65.0531 Y11.6983
 X65.8057 Y11.4177
 X66.2706 Y10.7119
 X66.7777 Y10.0377
 X67.3250 Y9.3973
 X67.9107 Y8.7923
 X68.5331 Y8.2250
 X69.1900 Y7.6969
 X69.8798 Y7.2102
 X70.6003 Y6.7665
 X71.3499 Y6.3680
 X72.1264 Y6.0165
 X72.9284 Y5.7138
 X73.7534 Y5.4619
 X74.5999 Y5.2627
 X75.4660 Y5.1181
 X76.3496 Y5.0298
 X77.2492 Y5.0000
 X78.1485 Y5.0298
 X79.0323 Y5.1181
 X79.8984 Y5.2627
 X80.7449 Y5.4619
 X81.5702 Y5.7138
 X82.3721 Y6.0165
 X83.1488 Y6.3680
 X83.8985 Y6.7665
 X84.6191 Y7.2102
 X85.3089 Y7.6969
 X85.9660 Y8.2250
 X86.5884 Y8.7923
 X87.1742 Y9.3973
 X87.7216 Y10.0377
 X88.2287 Y10.7119
 X88.6937 Y11.4177
 X89.4466 Y11.6982
 X90.1799 Y11.9983
 X90.8939 Y12.3176
 X91.5885 Y12.6550
 X92.2638 Y13.0097
 X92.9198 Y13.3808
 X93.5567 Y13.7676
 X94.1745 Y14.1691
 X94.7734 Y14.5847
 X95.3534 Y15.0132
 X95.9145 Y15.4541
 X96.4568 Y15.9062
 X96.9806 Y16.3690
 X97.4857 Y16.8415
 X97.9724 Y17.3229
 X98.4406 Y17.8122
 X98.8905 Y18.3086
 X99.3220 Y18.8115
 X99.7355 Y19.3197
 X100.1307 Y19.8326
 X100.5080 Y20.3493
 X100.8674 Y20.8689
 X101.2088 Y21.3907
 X101.5325 Y21.9136
 X101.8385 Y22.4369
 X102.1268 Y22.9598
 X102.3975 Y23.4814
 X102.6509 Y24.0007
 X102.8868 Y24.5172
 X103.1055 Y25.0298
 X103.3070 Y25.5377
 X103.4913 Y26.0401
 X104.3607 Y26.5721
 X105.1949 Y27.1452
 X105.9579 Y27.7380
 X106.6709 Y28.3579
 X107.3339 Y29.0032
 X107.9439 Y29.6726
 X108.5019 Y30.3648
 X109.0059 Y31.0783
 X109.4559 Y31.8118
 X109.8509 Y32.5636
 X110.6609 Y32.9962
 X111.4739 Y33.4672
 X112.2879 Y33.9758
 X113.1019 Y34.5211
 X113.9139 Y35.1026
 X114.7239 Y35.7196
 X115.5299 Y36.3712
 X116.3299 Y37.0568
 X117.1239 Y37.7757
 X117.9099 Y38.5271
 X118.6869 Y39.3103
 X119.4539 Y40.1247
 X120.2079 Y40.9694
 X120.9499 Y41.8437
 X121.6779 Y42.7471
 X122.3899 Y43.6786
 X123.0859 Y44.6377
 X123.7629 Y45.6236
 X124.4209 Y46.6355
 X125.0579 Y47.6729
 X125.6739 Y48.7348
 X126.2659 Y49.8207
 X126.8339 Y50.9298
 X127.3759 Y52.0614
 X127.8919 Y53.2147
 X128.3779 Y54.3891
 X128.8359 Y55.5839
 X129.2619 Y56.7980
 X129.6569 Y58.0314
 X130.0179 Y59.2827
 X130.3439 Y60.5515
 X130.6339 Y61.8371
 X130.8619 Y61.5905
 X131.3459 Y61.1365
 X131.8659 Y60.7393
 X132.4179 Y60.4000
 X132.9969 Y60.1198
 X133.5989 Y59.9000
 X134.2209 Y59.7414
 X134.8579 Y59.6455
 X135.5069 Y59.6132
 X136.2939 Y59.6601
 X137.0849 Y59.8019
 X137.5149 Y59.9205
 X137.9319 Y60.0648
 X138.3349 Y60.2341
 X138.7229 Y60.4275
 X139.0949 Y60.6441
 X139.4509 Y60.8833
 X139.7889 Y61.1441
 X140.1089 Y61.4259
 X140.4089 Y61.7277
 X140.6899 Y62.0489
 X140.9499 Y62.3886
 X141.1879 Y62.7458
 X141.4029 Y63.1200
 X141.5939 Y63.5101
 X141.7619 Y63.9157
 X141.9039 Y64.3355
 X142.0219 Y64.7314
 X142.1399 Y65.1444
 X142.2589 Y65.5747
 X142.3789 Y66.0225
 X142.4979 Y66.4875
 X142.6159 Y66.9700
 X142.7329 Y67.4697
 X142.8499 Y67.9871
 X142.9639 Y68.5221
 X143.0769 Y69.0744
 X143.1879 Y69.6444
 X143.2959 Y70.2321
 X143.4009 Y70.8375
 X143.5019 Y71.4605
 X143.5999 Y72.1014
 X143.6939 Y72.7598
 X143.7839 Y73.4364
 X143.8689 Y74.1307
 X143.9499 Y74.8428
 X144.0239 Y75.5730
 X144.0929 Y76.3211
 X144.1569 Y77.0873
 X144.2139 Y77.8715
 X144.2639 Y78.6739
 X144.3069 Y79.4943
 X144.3429 Y80.3330
 X144.3709 Y81.1900
 X144.3899 Y82.0651
 X144.4009 Y82.9586
 X144.4059 Y83.8704
 X144.3989 Y84.8005
 X144.3829 Y85.7491
 X144.3719 Y86.6708
 X144.3809 Y87.5448
 X144.4059 Y88.3721
 X144.4469 Y89.1541
 X144.5039 Y89.8922
 X144.5749 Y90.5873
 X144.6599 Y91.2411
 X144.7559 Y91.8544
 X144.8619 Y92.4289
 X144.9779 Y92.9654
 X145.1029 Y93.4654
 X145.2359 Y93.9301
 X145.3739 Y94.3609
 X145.5179 Y94.7589
 X145.6669 Y95.1255
 X145.8179 Y95.4618
 X145.9709 Y95.7690
 X146.1249 Y96.0484
 X146.2789 Y96.3015
 X146.4319 Y96.5293
 X146.5819 Y96.7332
 X146.7279 Y96.9143
 X146.8689 Y97.0740
 X147.0059 Y97.2130
 X147.1349 Y97.3340
 X147.2559 Y97.4370
 X147.3679 Y97.5230
 X147.4689 Y97.5940
 X147.5609 Y97.6510
 X147.6389 Y97.6960
 X147.7029 Y97.7290
 X147.7539 Y97.7520
 X147.9679 Y97.7770
 X148.1689 Y97.8260
 X148.3579 Y97.8950
 X148.5359 Y97.9860
 X148.7029 Y98.0980
 X148.8609 Y98.2290
 X149.0099 Y98.3800
 X149.1529 Y98.5500
 X149.2809 Y98.7410
 X149.3749 Y98.9420
 X149.4419 Y99.1530
 X149.4819 Y99.3710
 X149.4969 Y99.5940
 X149.4919 Y99.8220
 X149.4669 Y100.0520
 X149.4239 Y100.2820
G0 Z5.0000
G0 Z5.0000
M2 (end program)
