;PYCAM-META-DATA: Filename: /media/martoio/MARTOIO/ME43/std_lib/svg/007-tulip.svg
;PYCAM-META-DATA: Timestamp: 2017-12-06 01:50:41.956811
;PYCAM-META-DATA: Version: 0.5.1
;Estimated machine time: 9 minutes
G40 (disable tool radius compensation)
G49 (disable tool length compensation)
G80 (cancel modal motion)
G54 (select coordinate system 1)
G90 (disable incremental moves)
G21 (metric)
G61 (exact path mode)
F400.00000
S1.00000
;PYCAM_TOOLPATH_SETTINGS: START
;[Bounds]
;maxz = 0.0
;maxx = 153.490369
;maxy = 163.447475826
;minx = -8.044579
;miny = -8.9497705296
;minz = 0.0
;
;[Tool]
;torus_radius = 0.25
;speed = 1.0
;shape = CylindricalCutter
;tool_radius = 0.5
;feedrate = 400.0
;
;[Process]
;engrave_offset = 0.0
;step_down = 1.0
;generator = EngraveCutter
;postprocessor = SimpleCutter
;overlap_percent = 0
;milling_style = conventional
;material_allowance = 0.0
;pocketing_type = none
;path_direction = x
;
;PYCAM_TOOLPATH_SETTINGS: END
T1 M6
G0 Z5.0000
 X42.7521 Y35.5692
G1 Z0.0000
 X41.2441 Y36.7535
 X39.7613 Y37.9560
 X38.3042 Y39.1764
 X36.8730 Y40.4143
 X35.4680 Y41.6696
 X34.0895 Y42.9420
 X32.7378 Y44.2311
 X31.4131 Y45.5367
 X30.1159 Y46.8583
 X28.8462 Y48.1958
 X27.6045 Y49.5490
 X26.3910 Y50.9176
 X25.2059 Y52.3011
 X24.0498 Y53.6993
 X22.9227 Y55.1120
 X21.8251 Y56.5388
 X21.2823 Y57.2639
 X20.7542 Y57.9833
 X20.2405 Y58.6965
 X19.7409 Y59.4035
 X19.2553 Y60.1036
 X18.7835 Y60.7967
 X18.3255 Y61.4825
 X17.8809 Y62.1608
 X17.4498 Y62.8311
 X17.0316 Y63.4933
 X16.6266 Y64.1471
 X16.2345 Y64.7921
 X15.8550 Y65.4279
 X15.4880 Y66.0545
 X15.1334 Y66.6714
 X14.7909 Y67.2782
 X14.4605 Y67.8749
 X14.1419 Y68.4610
 X13.8350 Y69.0363
 X13.5396 Y69.6004
 X13.2555 Y70.1532
 X12.9826 Y70.6942
 X12.7208 Y71.2232
 X12.4698 Y71.7397
 X12.2295 Y72.2439
 X11.9997 Y72.7350
 X11.7802 Y73.2129
 X11.5710 Y73.6774
 X11.3717 Y74.1281
 X11.1823 Y74.5646
 X11.0026 Y74.9868
 X10.8324 Y75.3943
 X13.1954 Y74.2028
 X15.5025 Y72.9950
 X17.7545 Y71.7724
 X19.9516 Y70.5361
 X22.0944 Y69.2879
 X24.1832 Y68.0289
 X26.2189 Y66.7604
 X28.2017 Y65.4839
 X30.1320 Y64.2007
 X32.0106 Y62.9122
 X33.8378 Y61.6197
 X35.6142 Y60.3247
 X37.3402 Y59.0285
 X39.0162 Y57.7325
 X40.6430 Y56.4379
 X42.2207 Y55.1461
 X43.7502 Y53.8588
 X45.2317 Y52.5768
 X46.6657 Y51.3021
 X48.0530 Y50.0354
 X49.3937 Y48.7786
 X50.6885 Y47.5329
 X51.9378 Y46.2996
 X53.1423 Y45.0800
 X54.3023 Y43.8756
 X55.4182 Y42.6878
 X56.4909 Y41.5178
 X57.5205 Y40.3671
 X58.5076 Y39.2371
 X59.4527 Y38.1289
 X60.3563 Y37.0442
 X61.2189 Y35.9840
 X62.2632 Y34.6672
 X63.2663 Y33.3649
 X64.2287 Y32.0793
 X65.1503 Y30.8128
 X66.0317 Y29.5675
 X66.8728 Y28.3456
 X67.6738 Y27.1492
 X68.4350 Y25.9807
 X69.1567 Y24.8422
 X69.8391 Y23.7358
 X70.4821 Y22.6640
 X71.0862 Y21.6289
 X71.6516 Y20.6325
 X72.1784 Y19.6772
 X72.6667 Y18.7652
 X73.1171 Y17.8986
 X71.0135 Y18.8254
 X68.9359 Y19.7767
 X66.8845 Y20.7522
 X64.8596 Y21.7519
 X62.8616 Y22.7757
 X60.8909 Y23.8233
 X58.9477 Y24.8946
 X57.0323 Y25.9893
 X55.1452 Y27.1072
 X53.2866 Y28.2482
 X51.4569 Y29.4122
 X49.6562 Y30.5989
 X47.8851 Y31.8081
 X46.1438 Y33.0396
 X44.4327 Y34.2935
 X42.7521 Y35.5692
G0 Z5.0000
 X75.1303 Y23.0911
G1 Z0.0000
 X74.6421 Y23.9489
 X74.1224 Y24.8401
 X73.5709 Y25.7636
 X72.9869 Y26.7182
 X72.3698 Y27.7029
 X71.7191 Y28.7165
 X71.0341 Y29.7578
 X70.3144 Y30.8258
 Y52.5893
 X71.5139 Y52.5301
 X72.7231 Y52.5093
 X73.9313 Y52.5301
 X75.1303 Y52.5893
 Y23.0911
G0 Z5.0000
 X72.7231 Y56.7440
G1 Z0.0000
 X71.8746 Y56.7547
 X71.0313 Y56.7868
 X70.1935 Y56.8400
 X69.3616 Y56.9142
 X68.5355 Y57.0088
 X67.7157 Y57.1238
 X66.9026 Y57.2589
 X66.0960 Y57.4136
 X65.2966 Y57.5881
 X64.5045 Y57.7818
 X63.7199 Y57.9946
 X62.9432 Y58.2261
 X62.1746 Y58.4761
 X61.4142 Y58.7445
 X60.6625 Y59.0307
 X59.9198 Y59.3347
 X59.1862 Y59.6563
 X58.4619 Y59.9949
 X57.7471 Y60.3504
 X57.0424 Y60.7228
 X56.3478 Y61.1115
 X55.6637 Y61.5164
 X54.9902 Y61.9372
 X54.3277 Y62.3738
 X53.6764 Y62.8256
 X53.0366 Y63.2924
 X52.4085 Y63.7743
 X51.7924 Y64.2707
 X51.1885 Y64.7814
 X50.5971 Y65.3063
 X50.0187 Y65.8449
 X49.4531 Y66.3971
 X48.9009 Y66.9626
 X48.3623 Y67.5411
 X47.8374 Y68.1325
 X47.3266 Y68.7363
 X46.8302 Y69.3524
 X46.3484 Y69.9804
 X45.8814 Y70.6203
 X45.4296 Y71.2715
 X44.9931 Y71.9340
 X44.5723 Y72.6075
 X44.1674 Y73.2917
 X43.7787 Y73.9863
 X43.4063 Y74.6910
 X43.0506 Y75.4057
 X42.7119 Y76.1299
 X42.3905 Y76.8636
 X42.0864 Y77.6064
 X41.8001 Y78.3581
 X41.5317 Y79.1185
 X41.2817 Y79.8871
 X41.0501 Y80.6638
 X40.8373 Y81.4483
 X40.6435 Y82.2404
 X40.4691 Y83.0399
 X40.3141 Y83.8463
 X40.1791 Y84.6595
 X40.0639 Y85.4792
 X39.9694 Y86.3053
 X39.8952 Y87.1372
 X39.8419 Y87.9750
 X39.8098 Y88.8182
 X39.7989 Y89.6667
 X39.8069 Y90.3654
 X39.8300 Y91.0745
 X39.8684 Y91.7931
 X39.9212 Y92.5208
 X39.9882 Y93.2574
 X40.0692 Y94.0019
 X40.1634 Y94.7542
 X40.2706 Y95.5136
 X40.3903 Y96.2797
 X40.5221 Y97.0518
 X40.6659 Y97.8296
 X40.8207 Y98.6124
 X40.9867 Y99.3999
 X41.1631 Y100.1914
 X41.3495 Y100.9865
 X41.5456 Y101.7847
 X41.7510 Y102.5854
 X41.9653 Y103.3882
 X42.1881 Y104.1925
 X42.4189 Y104.9979
 X42.6574 Y105.8037
 X42.9031 Y106.6097
 X43.1556 Y107.4147
 X43.4146 Y108.2197
 X43.6795 Y109.0227
 X43.9501 Y109.8237
 X44.2257 Y110.6217
 X44.5063 Y111.4167
 X44.7910 Y112.2087
 X45.0799 Y112.9967
 X45.3723 Y113.7797
 X45.6677 Y114.5577
 X45.9660 Y115.3297
 X46.2664 Y116.0967
 X46.5689 Y116.8557
 X46.8728 Y117.6087
 X47.1780 Y118.3537
 X47.4837 Y119.0907
 X47.7896 Y119.8187
 X48.0955 Y120.5377
 X48.4009 Y121.2477
 X48.7052 Y121.9467
 X49.0081 Y122.6357
 X49.3094 Y123.3127
 X49.6084 Y123.9787
 X49.9048 Y124.6327
 X50.1982 Y125.2737
 X50.4882 Y125.9007
 X50.7744 Y126.5147
 X51.0564 Y127.1147
 X51.3337 Y127.6997
 X51.6060 Y128.2697
 X51.8728 Y128.8237
 X52.1338 Y129.3617
 X52.3884 Y129.8827
 X52.6363 Y130.3857
 X52.8773 Y130.8717
 X53.1106 Y131.3397
 X53.3360 Y131.7887
 X53.5531 Y132.2177
 X53.7616 Y132.6277
 X53.9607 Y133.0167
 X54.1505 Y133.3857
 X54.3302 Y133.7327
 X55.7667 Y132.4277
 X57.1746 Y131.1207
 X58.5542 Y129.8117
 X59.9046 Y128.5007
 X61.2260 Y127.1877
 X62.5182 Y125.8737
 X63.7806 Y124.5587
 X65.0132 Y123.2417
 X66.2159 Y121.9247
 X67.3882 Y120.6077
 X68.5300 Y119.2897
 X69.6410 Y117.9717
 X70.7210 Y116.6547
 X71.7699 Y115.3377
 X72.7873 Y114.0217
 X73.7730 Y112.7067
 X73.9387 Y112.5077
 X74.1230 Y112.3347
 X74.3235 Y112.1867
 X74.5375 Y112.0657
 X74.7624 Y111.9707
 X74.9959 Y111.9017
 X75.2351 Y111.8607
 X75.4776 Y111.8467
 X75.8051 Y111.8717
 X76.1275 Y111.9487
 X76.4391 Y112.0777
 X76.7331 Y112.2597
 X76.9007 Y112.3967
 X77.0509 Y112.5477
 X77.1832 Y112.7107
 X77.2976 Y112.8827
 X77.3935 Y113.0647
 X77.4710 Y113.2537
 X77.5299 Y113.4487
 X77.5696 Y113.6477
 X77.5903 Y113.8497
 X77.5916 Y114.0537
 X77.5732 Y114.2567
 X77.5352 Y114.4587
 X77.4769 Y114.6577
 X77.3984 Y114.8517
 X77.2995 Y115.0397
 X77.1796 Y115.2197
 X76.3170 Y116.3717
 X75.4310 Y117.5227
 X77.1398 Y119.5537
 X78.9230 Y121.5857
 X80.7794 Y123.6177
 X82.7078 Y125.6477
 X84.7070 Y127.6767
 X86.7755 Y129.7007
 X88.9121 Y131.7197
 X91.1159 Y133.7327
 X91.2955 Y133.3857
 X91.4852 Y133.0167
 X91.6844 Y132.6277
 X91.8928 Y132.2187
 X92.1099 Y131.7887
 X92.3353 Y131.3407
 X92.5687 Y130.8727
 X92.8096 Y130.3877
 X93.0575 Y129.8837
 X93.3121 Y129.3627
 X93.5731 Y128.8257
 X93.8399 Y128.2717
 X94.1123 Y127.7017
 X94.3895 Y127.1167
 X94.6714 Y126.5177
 X94.9577 Y125.9037
 X95.2477 Y125.2767
 X95.5410 Y124.6357
 X95.8375 Y123.9817
 X96.1366 Y123.3167
 X96.4377 Y122.6387
 X96.7407 Y121.9507
 X97.0450 Y121.2517
 X97.3503 Y120.5417
 X97.6563 Y119.8227
 X97.9623 Y119.0947
 X98.2680 Y118.3577
 X98.5730 Y117.6137
 X98.8770 Y116.8607
 X99.1794 Y116.1007
 X99.4799 Y115.3347
 X99.7781 Y114.5627
 X100.0737 Y113.7847
 X100.3660 Y113.0017
 X100.6548 Y112.2137
 X100.9398 Y111.4217
 X101.2198 Y110.6267
 X101.4958 Y109.8287
 X101.7668 Y109.0277
 X102.0318 Y108.2247
 X102.2908 Y107.4207
 X102.5428 Y106.6147
 X102.7888 Y105.8087
 X103.0268 Y105.0037
 X103.2578 Y104.1978
 X103.4808 Y103.3933
 X103.6948 Y102.5904
 X103.9008 Y101.7896
 X104.0968 Y100.9913
 X104.2828 Y100.1961
 X104.4598 Y99.4043
 X104.6248 Y98.6167
 X104.7798 Y97.8336
 X104.9238 Y97.0556
 X105.0558 Y96.2832
 X105.1758 Y95.5168
 X105.2828 Y94.7571
 X105.3768 Y94.0046
 X105.4578 Y93.2596
 X105.5248 Y92.5226
 X105.5778 Y91.7944
 X105.6158 Y91.0754
 X105.6388 Y90.3660
 X105.6468 Y89.6667
 X105.6248 Y88.4510
 X105.5588 Y87.2461
 X105.4498 Y86.0531
 X105.2988 Y84.8726
 X105.1068 Y83.7054
 X104.8728 Y82.5522
 X104.5998 Y81.4139
 X104.2868 Y80.2911
 X103.9368 Y79.1847
 X103.5478 Y78.0954
 X103.1228 Y77.0242
 X102.6618 Y75.9714
 X102.1648 Y74.9382
 X101.6338 Y73.9253
 X101.0688 Y72.9332
 X100.4707 Y71.9629
 X99.8406 Y71.0151
 X99.1789 Y70.0907
 X98.4867 Y69.1903
 X97.7645 Y68.3147
 X97.0131 Y67.4649
 X96.2334 Y66.6413
 X95.4260 Y65.8447
 X94.5919 Y65.0763
 X93.7316 Y64.3364
 X92.8460 Y63.6260
 X91.9360 Y62.9458
 X91.0021 Y62.2967
 X90.0453 Y61.6793
 X89.0663 Y61.0943
 X88.0659 Y60.5428
 X87.0448 Y60.0253
 X87.4564 Y60.5981
 X87.8542 Y61.1897
 X88.2371 Y61.8004
 X88.6048 Y62.4297
 X89.1342 Y63.4249
 X89.6213 Y64.4522
 X90.0657 Y65.5106
 X90.4674 Y66.5989
 X90.8260 Y67.7163
 X91.1414 Y68.8615
 X91.4135 Y70.0336
 X91.6423 Y71.2315
 X91.8270 Y72.4543
 X91.9680 Y73.7006
 X92.0649 Y74.9697
 X92.1176 Y76.2603
 X92.1256 Y77.5714
 X92.0892 Y78.9021
 X92.0080 Y80.2513
 X91.8817 Y81.6176
 X91.6871 Y83.1690
 X91.4380 Y84.7319
 X91.1342 Y86.3061
 X90.7760 Y87.8913
 X90.3635 Y89.4869
 X89.8970 Y91.0928
 X89.3763 Y92.7085
 X88.8019 Y94.3338
 X88.1737 Y95.9681
 X87.4919 Y97.6111
 X86.7564 Y99.2626
 X85.9678 Y100.9221
 X85.1259 Y102.5895
 X84.2309 Y104.2639
 X83.2830 Y105.9457
 X82.2823 Y107.6337
 X82.1607 Y107.8127
 X82.0242 Y107.9757
 X81.8745 Y108.1227
 X81.7127 Y108.2517
 X81.5405 Y108.3637
 X81.3594 Y108.4577
 X81.1706 Y108.5337
 X80.9757 Y108.5917
 X80.7764 Y108.6297
 X80.5738 Y108.6497
 X80.3696
 X80.1652 Y108.6297
 X79.9620 Y108.5897
 X79.7616 Y108.5297
 X79.5653 Y108.4477
 X79.3746 Y108.3447
 X79.1953 Y108.2237
 X79.0324 Y108.0867
 X78.8860 Y107.9367
 X78.7569 Y107.7747
 X78.6449 Y107.6027
 X78.5507 Y107.4217
 X78.4748 Y107.2327
 X78.4171 Y107.0387
 X78.3784 Y106.8387
 X78.3588 Y106.6367
 X78.3587 Y106.4327
 X78.3785 Y106.2277
 X78.4187 Y106.0247
 X78.4792 Y105.8237
 X78.5609 Y105.6277
 X78.6638 Y105.4377
 X79.5349 Y103.9690
 X80.3638 Y102.5040
 X81.1503 Y101.0429
 X81.8945 Y99.5867
 X82.5959 Y98.1364
 X83.2546 Y96.6929
 X83.8705 Y95.2570
 X84.4432 Y93.8296
 X84.9728 Y92.4117
 X85.4589 Y91.0042
 X85.9019 Y89.6078
 X86.3009 Y88.2239
 X86.6564 Y86.8529
 X86.9680 Y85.4960
 X87.2356 Y84.1540
 X87.4589 Y82.8278
 X87.6380 Y81.5185
 X87.7727 Y80.2268
 X87.8628 Y78.9536
 X87.9082 Y77.6999
 X87.9087 Y76.4667
 X87.8642 Y75.2547
 X87.7746 Y74.0649
 X87.6398 Y72.8982
 X87.4595 Y71.7557
 X87.2337 Y70.6379
 X86.9621 Y69.5461
 X86.6448 Y68.4811
 X86.2814 Y67.4436
 X85.8720 Y66.4349
 X85.4163 Y65.4556
 X84.9144 Y64.5065
 X84.3746 Y63.6064
 X83.7976 Y62.7567
 X83.1848 Y61.9583
 X82.5378 Y61.2125
 X81.8584 Y60.5201
 X81.1482 Y59.8825
 X80.4091 Y59.3006
 X79.6424 Y58.7753
 X78.8500 Y58.3079
 X78.0337 Y57.8994
 X77.1948 Y57.5508
 X76.3352 Y57.2632
 X75.4566 Y57.0376
 X74.5606 Y56.8753
 X73.6488 Y56.7769
 X72.7231 Y56.7440
G0 Z5.0000
 X125.2608 Y58.7739
G1 Z0.0000
 X124.5278 Y57.7600
 X123.7568 Y56.7219
 X122.9468 Y55.6610
 X122.0958 Y54.5786
 X121.2048 Y53.4763
 X120.2728 Y52.3551
 X119.2988 Y51.2167
 X118.2818 Y50.0622
 X117.2218 Y48.8933
 X116.1188 Y47.7111
 X114.9698 Y46.5171
 X113.7758 Y45.3126
 X112.5368 Y44.0990
 X111.2498 Y42.8778
 X109.9168 Y41.6503
 X108.5348 Y40.4176
 X107.1048 Y39.1815
 X105.6258 Y37.9432
 X104.0958 Y36.7039
 X102.5158 Y35.4653
 X100.8848 Y34.2285
 X99.2014 Y32.9950
 X97.4655 Y31.7661
 X95.6763 Y30.5433
 X93.8332 Y29.3278
 X91.9353 Y28.1213
 X89.9823 Y26.9247
 X87.9732 Y25.7397
 X85.9074 Y24.5676
 X83.7844 Y23.4099
 X81.6034 Y22.2676
 X79.3637 Y21.1424
 Y29.5057
 X80.2498 Y30.7574
 X81.1817 Y32.0372
 X82.1607 Y33.3439
 X83.1873 Y34.6756
 X84.2624 Y36.0306
 X85.3869 Y37.4072
 X86.5613 Y38.8040
 X87.7869 Y40.2192
 X89.0641 Y41.6510
 X90.3941 Y43.0981
 X91.7773 Y44.5585
 X93.2148 Y46.0307
 X94.7074 Y47.5129
 X96.2559 Y49.0038
 X97.8610 Y50.5013
 X99.5237 Y52.0040
 X101.2448 Y53.5103
 X103.0248 Y55.0183
 X104.8648 Y56.5265
 X106.7658 Y58.0333
 X108.7278 Y59.5370
 X110.7528 Y61.0358
 X112.8408 Y62.5282
 X114.9928 Y64.0126
 X117.2098 Y65.4872
 X119.4928 Y66.9504
 X121.8418 Y68.4006
 X124.2588 Y69.8358
 X126.7438 Y71.2549
 X129.2968 Y72.6558
 X131.9208 Y74.0372
 X134.6148 Y75.3971
 X134.3008 Y74.6503
 X133.9548 Y73.8564
 X133.5768 Y73.0171
 X133.1658 Y72.1342
 X132.7198 Y71.2093
 X132.2378 Y70.2444
 X131.7208 Y69.2411
 X131.1648 Y68.2013
 X130.5718 Y67.1265
 X129.9388 Y66.0186
 X129.2658 Y64.8795
 X128.5508 Y63.7106
 X127.7948 Y62.5139
 X126.9948 Y61.2910
 X126.1498 Y60.0438
 X125.2608 Y58.7739
G0 Z5.0000
 X72.7231 Y144.0427
G1 Z0.0000
 X73.0907 Y143.5827
 X73.4931 Y143.0747
 X73.9294 Y142.5207
 X74.3985 Y141.9197
 X74.8998 Y141.2727
 X75.4321 Y140.5807
 X75.9946 Y139.8427
 X76.5867 Y139.0607
 X77.2073 Y138.2327
 X77.8555 Y137.3617
 X78.5303 Y136.4467
 X79.2312 Y135.4877
 X79.9570 Y134.4867
 X80.7069 Y133.4417
 X81.4801 Y132.3557
 X82.2756 Y131.2267
 X80.9839 Y129.9377
 X79.7196 Y128.6467
 X78.4831 Y127.3547
 X77.2745 Y126.0617
 X76.0939 Y124.7677
 X74.9417 Y123.4737
 X73.8181 Y122.1787
 X72.7231 Y120.8847
 X71.6266 Y122.1807
 X70.5019 Y123.4757
 X69.3491 Y124.7697
 X68.1684 Y126.0637
 X66.9599 Y127.3567
 X65.7239 Y128.6487
 X64.4607 Y129.9387
 X63.1705 Y131.2267
 X63.9657 Y132.3557
 X64.7387 Y133.4417
 X65.4884 Y134.4867
 X66.2141 Y135.4877
 X66.9148 Y136.4467
 X67.5896 Y137.3617
 X68.2377 Y138.2327
 X68.8582 Y139.0607
 X69.4503 Y139.8427
 X70.0130 Y140.5807
 X70.5453 Y141.2727
 X71.0467 Y141.9197
 X71.5160 Y142.5207
 X71.9524 Y143.0747
 X72.3551 Y143.5827
 X72.7231 Y144.0427
G0 Z5.0000
 X139.6888 Y81.1354
G1 Z0.0000
 X139.4428 Y81.3126
 X139.1788 Y81.4511
 X138.8998 Y81.5503
 X138.6108 Y81.6096
 X138.3168 Y81.6283
 X138.0218 Y81.6060
 X137.7308 Y81.5420
 X137.4468 Y81.4357
 X134.7288 Y80.1606
 X132.0768 Y78.8632
 X129.4888 Y77.5450
 X126.9638 Y76.2074
 X124.5028 Y74.8518
 X122.1038 Y73.4796
 X119.7668 Y72.0922
 X117.4908 Y70.6913
 X115.2748 Y69.2779
 X113.1178 Y67.8538
 X111.0208 Y66.4201
 X108.9818 Y64.9783
 X106.9998 Y63.5301
 X105.0758 Y62.0767
 X103.2068 Y60.6195
 X101.3938 Y59.1600
 X99.6353 Y57.6995
 X97.9312 Y56.2396
 X96.2802 Y54.7817
 X94.6821 Y53.3271
 X93.1359 Y51.8774
 X91.6412 Y50.4338
 X90.1970 Y48.9978
 X88.8027 Y47.5710
 X87.4577 Y46.1547
 X86.1613 Y44.7501
 X84.9127 Y43.3592
 X83.7113 Y41.9828
 X82.5564 Y40.6228
 X81.4473 Y39.2803
 X80.3832 Y37.9567
 X79.3637 Y36.6538
 Y53.1047
 X80.1730 Y53.2608
 X80.9762 Y53.4343
 X81.7727 Y53.6250
 X82.5626 Y53.8328
 X83.3456 Y54.0574
 X84.1214 Y54.2986
 X84.8899 Y54.5563
 X85.6510 Y54.8300
 X86.4044 Y55.1200
 X87.1498 Y55.4257
 X87.8870 Y55.7470
 X88.6159 Y56.0836
 X89.3362 Y56.4354
 X90.0477 Y56.8022
 X90.7503 Y57.1839
 X91.4438 Y57.5800
 X92.1278 Y57.9906
 X92.8021 Y58.4151
 X93.4669 Y58.8539
 X94.1214 Y59.3061
 X94.7659 Y59.7721
 X95.3999 Y60.2513
 X96.0232 Y60.7435
 X96.6357 Y61.2488
 X97.2373 Y61.7667
 X97.8276 Y62.2971
 X98.4064 Y62.8397
 X98.9735 Y63.3946
 X99.5288 Y63.9611
 X100.0720 Y64.5395
 X100.6028 Y65.1293
 X101.1218 Y65.7303
 X101.6268 Y66.3424
 X102.1198 Y66.9653
 X102.5998 Y67.5988
 X103.0658 Y68.2428
 X103.5188 Y68.8969
 X103.9578 Y69.5611
 X104.3838 Y70.2351
 X104.7948 Y70.9188
 X105.1918 Y71.6118
 X105.5738 Y72.3139
 X105.9408 Y73.0250
 X106.2938 Y73.7450
 X106.6308 Y74.4735
 X106.9528 Y75.2103
 X107.2588 Y75.9553
 X107.5498 Y76.7083
 X107.8238 Y77.4689
 X108.0818 Y78.2371
 X108.3238 Y79.0126
 X108.5498 Y79.7953
 X108.7578 Y80.5849
 X108.9488 Y81.3811
 X109.1238 Y82.1838
 X109.2798 Y82.9929
 X109.4188 Y83.8081
 X109.5398 Y84.6289
 X109.6428 Y85.4556
 X109.7278 Y86.2878
 X109.7948 Y87.1251
 X109.8418 Y87.9675
 X109.8708 Y88.8147
 X109.8808 Y89.6667
 X109.8718 Y90.4222
 X109.8478 Y91.1932
 X109.8078 Y91.9792
 X109.7518 Y92.7804
 X109.6788 Y93.5970
 X109.5908 Y94.4283
 X109.4858 Y95.2747
 X109.3648 Y96.1363
 X109.2288 Y97.0126
 X109.0758 Y97.9038
 X108.9068 Y98.8099
 X108.7228 Y99.7306
 X108.5218 Y100.6661
 X108.3048 Y101.6161
 X108.0728 Y102.5808
 X107.8238 Y103.5601
 X107.5598 Y104.5538
 X107.2798 Y105.5617
 X106.9838 Y106.5847
 X106.6718 Y107.6217
 X106.3438 Y108.6727
 X105.9998 Y109.7377
 X105.6408 Y110.8167
 X105.2648 Y111.9107
 X104.8738 Y113.0187
 X104.4668 Y114.1397
 X104.0438 Y115.2757
 X103.6058 Y116.4247
 X103.1518 Y117.5877
 X102.6818 Y118.7657
 X102.1958 Y119.9557
 X101.6948 Y121.1607
 X101.3198 Y122.0477
 X100.9448 Y122.9197
 X100.5718 Y123.7757
 X100.2014 Y124.6157
 X99.8339 Y125.4377
 X99.4705 Y126.2417
 X99.1113 Y127.0277
 X98.7573 Y127.7927
 X98.4091 Y128.5377
 X98.0676 Y129.2617
 X97.7330 Y129.9627
 X97.4063 Y130.6407
 X97.0882 Y131.2957
 X96.7794 Y131.9257
 X96.4805 Y132.5297
 X96.1920 Y133.1087
 X95.9149 Y133.6597
 X95.6496 Y134.1827
 X95.3971 Y134.6777
 X95.1578 Y135.1427
 X94.9327 Y135.5777
 X94.7220 Y135.9807
 X94.5267 Y136.3527
 X94.3476 Y136.6917
 X94.1851 Y136.9977
 X94.0399 Y137.2687
 X93.9128 Y137.5047
 X93.8046 Y137.7047
 X93.7157 Y137.8677
 X93.6469 Y137.9937
 X93.5991 Y138.0807
 X93.5725 Y138.1287
 X93.4580 Y138.3127
 X93.3278 Y138.4797
 X93.1837 Y138.6317
 X93.0271 Y138.7677
 X92.8594 Y138.8857
 X92.6819 Y138.9867
 X92.4963 Y139.0707
 X92.3039 Y139.1357
 X92.1062 Y139.1817
 X91.9045 Y139.2097
 X91.7003 Y139.2177
 X91.4953 Y139.2057
 X91.2906 Y139.1737
 X91.0878 Y139.1207
 X90.8885 Y139.0467
 X90.6939 Y138.9507
 X90.5037 Y138.8307
 X90.3302 Y138.6947
 X87.8070 Y136.4507
 X85.3624 Y134.1977
 X84.7541 Y135.0587
 X84.1596 Y135.8937
 X83.5791 Y136.7037
 X83.0128 Y137.4887
 X82.4614 Y138.2477
 X81.9249 Y138.9807
 X81.4038 Y139.6887
 X80.8984 Y140.3707
 X80.4088 Y141.0267
 X79.9357 Y141.6567
 X79.4792 Y142.2607
 X79.0398 Y142.8387
 X78.6177 Y143.3897
 X78.2132 Y143.9147
 X77.8267 Y144.4147
 X77.4587 Y144.8867
 X77.1092 Y145.3327
 X76.7787 Y145.7507
 X76.4675 Y146.1437
 X76.1760 Y146.5077
 X75.9044 Y146.8467
 X75.6532 Y147.1577
 X75.4227 Y147.4407
 X75.2130 Y147.6977
 X75.0246 Y147.9267
 X74.8580 Y148.1297
 X74.7134 Y148.3037
 X74.5909 Y148.4507
 X74.4912 Y148.5687
 X74.4144 Y148.6607
 X74.3609 Y148.7227
 X74.3310 Y148.7587
 X74.1717 Y148.9257
 X73.9971 Y149.0727
 X73.8087 Y149.1997
 X73.6082 Y149.3047
 X73.3977 Y149.3887
 X73.1787 Y149.4497
 X72.9532 Y149.4857
 X72.7231 Y149.4977
 X72.4927 Y149.4857
 X72.2671 Y149.4497
 X72.0480 Y149.3887
 X71.8373 Y149.3047
 X71.6367 Y149.1997
 X71.4482 Y149.0717
 X71.2737 Y148.9247
 X71.1148 Y148.7567
 X71.0849 Y148.7217
 X71.0313 Y148.6587
 X70.9545 Y148.5687
 X70.8548 Y148.4497
 X70.7324 Y148.3037
 X70.5877 Y148.1287
 X70.4210 Y147.9267
 X70.2327 Y147.6977
 X70.0231 Y147.4407
 X69.7926 Y147.1577
 X69.5413 Y146.8467
 X69.2696 Y146.5077
 X68.9782 Y146.1427
 X68.6670 Y145.7507
 X68.3366 Y145.3317
 X67.9871 Y144.8867
 X67.6189 Y144.4147
 X67.2325 Y143.9147
 X66.8280 Y143.3897
 X66.4059 Y142.8387
 X65.9664 Y142.2607
 X65.5100 Y141.6567
 X65.0370 Y141.0267
 X64.5476 Y140.3707
 X64.0420 Y139.6887
 X63.5209 Y138.9807
 X62.9845 Y138.2477
 X62.4330 Y137.4887
 X61.8669 Y136.7037
 X61.2864 Y135.8937
 X60.6919 Y135.0587
 X60.0837 Y134.1977
 X57.6392 Y136.4507
 X55.1145 Y138.6947
 X54.9406 Y138.8307
 X54.7505 Y138.9507
 X54.5559 Y139.0467
 X54.3564 Y139.1207
 X54.1538 Y139.1727
 X53.9492 Y139.2047
 X53.7441 Y139.2167
 X53.5402 Y139.2087
 X53.3385 Y139.1817
 X53.1409 Y139.1347
 X52.9485 Y139.0697
 X52.7630 Y138.9867
 X52.5856 Y138.8857
 X52.4180 Y138.7677
 X52.2614 Y138.6317
 X52.1176 Y138.4797
 X51.9876 Y138.3127
 X51.8731 Y138.1287
 X51.8466 Y138.0807
 X51.7985 Y137.9937
 X51.7298 Y137.8677
 X51.6407 Y137.7047
 X51.5324 Y137.5047
 X51.4053 Y137.2687
 X51.2601 Y136.9977
 X51.0975 Y136.6917
 X50.9182 Y136.3527
 X50.7230 Y135.9807
 X50.5124 Y135.5777
 X50.2870 Y135.1427
 X50.0478 Y134.6777
 X49.7952 Y134.1827
 X49.5301 Y133.6597
 X49.2530 Y133.1087
 X48.9645 Y132.5297
 X48.6656 Y131.9257
 X48.3567 Y131.2957
 X48.0387 Y130.6407
 X47.7121 Y129.9627
 X47.3776 Y129.2617
 X47.0360 Y128.5377
 X46.6878 Y127.7927
 X46.3339 Y127.0277
 X45.9749 Y126.2417
 X45.6114 Y125.4377
 X45.2442 Y124.6157
 X44.8738 Y123.7757
 X44.5010 Y122.9197
 X44.1266 Y122.0477
 X43.7512 Y121.1607
 X43.2496 Y119.9557
 X42.7639 Y118.7657
 X42.2939 Y117.5877
 X41.8396 Y116.4247
 X41.4012 Y115.2757
 X40.9785 Y114.1397
 X40.5716 Y113.0187
 X40.1803 Y111.9107
 X39.8049 Y110.8167
 X39.4455 Y109.7377
 X39.1017 Y108.6727
 X38.7739 Y107.6217
 X38.4619 Y106.5847
 X38.1657 Y105.5617
 X37.8855 Y104.5538
 X37.6212 Y103.5601
 X37.3728 Y102.5808
 X37.1403 Y101.6161
 X36.9238 Y100.6661
 X36.7232 Y99.7306
 X36.5385 Y98.8099
 X36.3699 Y97.9038
 X36.2173 Y97.0126
 X36.0807 Y96.1363
 X35.9601 Y95.2747
 X35.8555 Y94.4283
 X35.7670 Y93.5970
 X35.6945 Y92.7804
 X35.6381 Y91.9792
 X35.5978 Y91.1932
 X35.5737 Y90.4222
 X35.5656 Y89.6667
 X35.5752 Y88.8147
 X35.6039 Y87.9675
 X35.6516 Y87.1251
 X35.7180 Y86.2878
 X35.8027 Y85.4556
 X35.9059 Y84.6289
 X36.0270 Y83.8081
 X36.1660 Y82.9929
 X36.3227 Y82.1838
 X36.4969 Y81.3811
 X36.6882 Y80.5849
 X36.8967 Y79.7953
 X37.1219 Y79.0126
 X37.3638 Y78.2371
 X37.6221 Y77.4689
 X37.8966 Y76.7083
 X38.1871 Y75.9553
 X38.4934 Y75.2103
 X38.8153 Y74.4735
 X39.1526 Y73.7450
 X39.5051 Y73.0250
 X39.8724 Y72.3139
 X40.2546 Y71.6118
 X40.6514 Y70.9188
 X41.0624 Y70.2351
 X41.4877 Y69.5611
 X41.9269 Y68.8969
 X42.3798 Y68.2428
 X42.8462 Y67.5988
 X43.3259 Y66.9653
 X43.8187 Y66.3424
 X44.3245 Y65.7303
 X44.8428 Y65.1293
 X45.3738 Y64.5395
 X45.9170 Y63.9611
 X46.4723 Y63.3946
 X47.0394 Y62.8397
 X47.6181 Y62.2971
 X48.2084 Y61.7667
 X48.8099 Y61.2488
 X49.4224 Y60.7435
 X50.0457 Y60.2513
 X50.6796 Y59.7721
 X51.3241 Y59.3061
 X51.9788 Y58.8539
 X52.6434 Y58.4151
 X53.3177 Y57.9906
 X54.0017 Y57.5800
 X54.6950 Y57.1839
 X55.3977 Y56.8022
 X56.1092 Y56.4354
 X56.8295 Y56.0836
 X57.5582 Y55.7470
 X58.2955 Y55.4257
 X59.0407 Y55.1200
 X59.7941 Y54.8300
 X60.5551 Y54.5563
 X61.3235 Y54.2986
 X62.0994 Y54.0574
 X62.8823 Y53.8328
 X63.6721 Y53.6250
 X64.4687 Y53.4343
 X65.2717 Y53.2608
 X66.0809 Y53.1047
 Y36.6508
 X65.3791 Y37.5535
 X64.6546 Y38.4674
 X63.7117 Y39.6292
 X62.7213 Y40.8193
 X61.6831 Y42.0364
 X60.5962 Y43.2786
 X59.4602 Y44.5443
 X58.2742 Y45.8317
 X57.0381 Y47.1393
 X55.7509 Y48.4651
 X54.4120 Y49.8078
 X53.0210 Y51.1656
 X51.5773 Y52.5367
 X50.0800 Y53.9193
 X48.5289 Y55.3121
 X46.9232 Y56.7132
 X45.2623 Y58.1208
 X43.5455 Y59.5335
 X41.7724 Y60.9493
 X39.9423 Y62.3668
 X38.0546 Y63.7842
 X36.1087 Y65.1999
 X34.1039 Y66.6119
 X32.0398 Y68.0190
 X29.9157 Y69.4192
 X27.7310 Y70.8107
 X25.4851 Y72.1922
 X23.1773 Y73.5618
 X20.8071 Y74.9179
 X18.3739 Y76.2586
 X15.8771 Y77.5825
 X13.3162 Y78.8878
 X10.6904 Y80.1726
 X7.9992 Y81.4357
 X7.7153 Y81.5421
 X7.4236 Y81.6063
 X7.1285 Y81.6286
 X6.8344 Y81.6101
 X6.5457 Y81.5508
 X6.2670 Y81.4517
 X6.0028 Y81.3131
 X5.7573 Y81.1354
 X5.5391 Y80.9246
 X5.3560 Y80.6888
 X5.2091 Y80.4318
 X5.0999 Y80.1583
 X5.0298 Y79.8722
 X5.0000 Y79.5781
 X5.0119 Y79.2796
 X5.0669 Y78.9814
 X5.0859 Y78.9097
 X5.1217 Y78.7793
 X5.1753 Y78.5915
 X5.2474 Y78.3479
 X5.3390 Y78.0496
 X5.4508 Y77.6978
 X5.5839 Y77.2942
 X5.7389 Y76.8397
 X5.9168 Y76.3360
 X6.1184 Y75.7843
 X6.3446 Y75.1858
 X6.5962 Y74.5421
 X6.8742 Y73.8542
 X7.1794 Y73.1238
 X7.5125 Y72.3518
 X7.8746 Y71.5399
 X8.2663 Y70.6892
 X8.6887 Y69.8011
 X9.1426 Y68.8769
 X9.6288 Y67.9181
 X10.1482 Y66.9258
 X10.7016 Y65.9015
 X11.2899 Y64.8464
 X11.9140 Y63.7620
 X12.5747 Y62.6493
 X13.2728 Y61.5100
 X14.0094 Y60.3453
 X14.7851 Y59.1564
 X15.6009 Y57.9447
 X16.4575 Y56.7117
 X17.3560 Y55.4585
 X18.2973 Y54.1864
 X19.4370 Y52.6975
 X20.6074 Y51.2236
 X21.8080 Y49.7649
 X23.0384 Y48.3218
 X24.2984 Y46.8945
 X25.5878 Y45.4833
 X26.9062 Y44.0888
 X28.2532 Y42.7108
 X29.6287 Y41.3499
 X31.0321 Y40.0064
 X32.4635 Y38.6806
 X33.9223 Y37.3726
 X35.4082 Y36.0831
 X36.9212 Y34.8119
 X38.4605 Y33.5596
 X40.0262 Y32.3265
 X41.4935 Y31.2064
 X42.9832 Y30.1029
 X44.4952 Y29.0158
 X46.0294 Y27.9457
 X47.5852 Y26.8922
 X49.1627 Y25.8557
 X50.7616 Y24.8363
 X52.3819 Y23.8340
 X54.0230 Y22.8490
 X55.6848 Y21.8814
 X57.3673 Y20.9313
 X59.0701 Y19.9986
 X60.7931 Y19.0838
 X62.5360 Y18.1866
 X64.2987 Y17.3075
 X66.0809 Y16.4462
 Y7.1166
 X66.0919 Y6.9003
 X66.1239 Y6.6903
 X66.1762 Y6.4875
 X66.2473 Y6.2930
 X66.3364 Y6.1080
 X66.4426 Y5.9335
 X66.5644 Y5.7705
 X66.7010 Y5.6202
 X66.8513 Y5.4836
 X67.0142 Y5.3617
 X67.1888 Y5.2556
 X67.3738 Y5.1664
 X67.5682 Y5.0952
 X67.7710 Y5.0431
 X67.9812 Y5.0110
 X68.1975 Y5.0000
 X68.4141 Y5.0110
 X68.6244 Y5.0431
 X68.8273 Y5.0952
 X69.0219 Y5.1664
 X69.2069 Y5.2556
 X69.3814 Y5.3617
 X69.5444 Y5.4836
 X69.6946 Y5.6202
 X69.8312 Y5.7705
 X69.9530 Y5.9335
 X70.0589 Y6.1080
 X70.1481 Y6.2930
 X70.2192 Y6.4875
 X70.2713 Y6.6903
 X70.3034 Y6.9003
 X70.3144 Y7.1166
 Y14.5098
 X72.7069 Y13.4775
 X75.1303 Y12.4761
 Y7.1166
 X75.1413 Y6.9003
 X75.1734 Y6.6903
 X75.2256 Y6.4875
 X75.2967 Y6.2930
 X75.3859 Y6.1080
 X75.4919 Y5.9335
 X75.6138 Y5.7705
 X75.7503 Y5.6202
 X75.9007 Y5.4836
 X76.0637 Y5.3617
 X76.2382 Y5.2556
 X76.4232 Y5.1664
 X76.6177 Y5.0952
 X76.8205 Y5.0431
 X77.0306 Y5.0110
 X77.2471 Y5.0000
 X77.4634 Y5.0110
 X77.6735 Y5.0431
 X77.8763 Y5.0952
 X78.0707 Y5.1664
 X78.2559 Y5.2556
 X78.4303 Y5.3617
 X78.5934 Y5.4836
 X78.7437 Y5.6202
 X78.8803 Y5.7705
 X79.0021 Y5.9335
 X79.1082 Y6.1080
 X79.1973 Y6.2930
 X79.2685 Y6.4875
 X79.3207 Y6.6903
 X79.3528 Y6.9003
 X79.3637 Y7.1166
 Y16.4420
 X81.7921 Y17.6224
 X84.1562 Y18.8229
 X86.4566 Y20.0419
 X88.6942 Y21.2781
 X90.8696 Y22.5297
 X92.9837 Y23.7951
 X95.0371 Y25.0731
 X97.0307 Y26.3617
 X98.9652 Y27.6597
 X100.8408 Y28.9653
 X102.6598 Y30.2772
 X104.4208 Y31.5938
 X106.1268 Y32.9132
 X107.7758 Y34.2343
 X109.3718 Y35.5554
 X110.9128 Y36.8749
 X112.4008 Y38.1913
 X113.8368 Y39.5029
 X115.2208 Y40.8085
 X116.5528 Y42.1063
 X117.8358 Y43.3947
 X119.0688 Y44.6722
 X120.2538 Y45.9374
 X121.3908 Y47.1886
 X122.4798 Y48.4243
 X123.5228 Y49.6429
 X124.5198 Y50.8429
 X125.4718 Y52.0228
 X126.3798 Y53.1810
 X127.2438 Y54.3160
 X128.0658 Y55.4260
 X128.8448 Y56.5097
 X129.6608 Y57.6775
 X130.4398 Y58.8264
 X131.1828 Y59.9553
 X131.8918 Y61.0629
 X132.5648 Y62.1485
 X133.2048 Y63.2106
 X133.8118 Y64.2483
 X134.3868 Y65.2604
 X134.9308 Y66.2458
 X135.4428 Y67.2035
 X135.9248 Y68.1322
 X136.3778 Y69.0310
 X136.8018 Y69.8985
 X137.1988 Y70.7338
 X137.5678 Y71.5357
 X137.9108 Y72.3031
 X138.2278 Y73.0349
 X138.5188 Y73.7300
 X138.7868 Y74.3872
 X139.0308 Y75.0056
 X139.2518 Y75.5838
 X139.4498 Y76.1208
 X139.6278 Y76.6156
 X139.7848 Y77.0670
 X139.9208 Y77.4738
 X140.0388 Y77.8350
 X140.1378 Y78.1495
 X140.2178 Y78.4160
 X140.2818 Y78.6336
 X140.3308 Y78.8011
 X140.3628 Y78.9174
 X140.3798 Y78.9814
 X140.4338 Y79.2796
 X140.4458 Y79.5781
 X140.4168 Y79.8722
 X140.3458 Y80.1583
 X140.2368 Y80.4318
 X140.0908 Y80.6888
 X139.9068 Y80.9246
 X139.6888 Y81.1354
G0 Z5.0000
G0 Z5.0000
M2 (end program)
