;PYCAM-META-DATA: Filename: /media/martoio/MARTOIO/ME43/std_lib/svg/008-fish.svg
;PYCAM-META-DATA: Timestamp: 2017-12-06 01:53:25.616925
;PYCAM-META-DATA: Version: 0.5.1
;Estimated machine time: 10 minutes
G40 (disable tool radius compensation)
G49 (disable tool length compensation)
G80 (cancel modal motion)
G54 (select coordinate system 1)
G90 (disable incremental moves)
G21 (metric)
G61 (exact path mode)
F400.00000
S1.00000
;PYCAM_TOOLPATH_SETTINGS: START
;[Bounds]
;maxz = 0.0
;maxx = 163.4467
;maxy = 121.08779
;minx = -8.9497
;miny = -5.09889
;minz = 0.0
;
;[Tool]
;torus_radius = 0.25
;speed = 1.0
;shape = CylindricalCutter
;tool_radius = 0.5
;feedrate = 400.0
;
;[Process]
;engrave_offset = 0.0
;step_down = 1.0
;generator = EngraveCutter
;postprocessor = SimpleCutter
;overlap_percent = 0
;milling_style = conventional
;material_allowance = 0.0
;pocketing_type = none
;path_direction = x
;
;PYCAM_TOOLPATH_SETTINGS: END
T1 M6
G0 Z5.0000
 X58.2999 Y106.4499
G1 Z0.0000
 X60.0286 Y105.9739
 X61.7361 Y105.4669
 X63.4221 Y104.9309
 X65.0861 Y104.3679
 X66.7279 Y103.7769
 X68.3474 Y103.1599
 X69.9440 Y102.5189
 X71.5176 Y101.8529
 X73.0681 Y101.1649
 X74.5947 Y100.4549
 X76.0978 Y99.7239
 X77.5765 Y98.9729
 X79.0308 Y98.2039
 X80.4606 Y97.4179
 X81.8651 Y96.6149
 X83.2446 Y95.7959
 X84.5985 Y94.9629
 X85.9264 Y94.1159
 X87.2285 Y93.2569
 X88.5039 Y92.3869
 X89.7528 Y91.5059
 X90.9747 Y90.6169
 X92.1694 Y89.7189
 X93.3367 Y88.8139
 X94.4760 Y87.9019
 X95.5874 Y86.9859
 X96.6704 Y86.0659
 X97.7247 Y85.1428
 X98.7501 Y84.2176
 X99.7464 Y83.2916
 X100.7132 Y82.3660
 X101.6501 Y81.4414
 X100.6414 Y81.9562
 X99.6375 Y82.4564
 X98.6404 Y82.9418
 X97.6518 Y83.4122
 X96.6733 Y83.8678
 X95.7067 Y84.3080
 X94.7536 Y84.7333
 X93.8157 Y85.1432
 X92.8949 Y85.5379
 X91.9925 Y85.9169
 X91.1107 Y86.2809
 X90.2508 Y86.6289
 X89.4149 Y86.9609
 X88.6042 Y87.2779
 X87.8208 Y87.5779
 X87.0664 Y87.8629
 X85.9114 Y88.2899
 X84.7510 Y88.7079
 X83.5860 Y89.1169
 X82.4171 Y89.5179
 X81.2453 Y89.9089
 X80.0714 Y90.2909
 X78.8964 Y90.6639
 X77.7210 Y91.0269
 X76.5461 Y91.3789
 X75.3728 Y91.7219
 X74.2017 Y92.0549
 X73.0336 Y92.3769
 X71.8696 Y92.6879
 X70.7103 Y92.9889
 X69.5568 Y93.2779
 X68.4100 Y93.5569
 X67.2706 Y93.8229
 X66.1394 Y94.0789
 X65.0175 Y94.3219
 X63.9056 Y94.5539
 X62.8046 Y94.7729
 X61.7153 Y94.9799
 X60.6388 Y95.1749
 X59.5757 Y95.3559
 X58.5268 Y95.5249
 X57.4933 Y95.6809
 X56.4760 Y95.8229
 X55.4754 Y95.9519
 X54.4928 Y96.0669
 X53.5289 Y96.1679
 X52.5844 Y96.2549
 X51.6604 Y96.3279
 X58.2999 Y106.4499
G0 Z5.0000
 X27.6233 Y64.9490
G1 Z0.0000
 X27.6108 Y64.7033
 X27.5742 Y64.4646
 X27.5147 Y64.2340
 X27.4337 Y64.0129
 X27.3321 Y63.8026
 X27.2114 Y63.6040
 X27.0726 Y63.4187
 X26.9172 Y63.2476
 X26.7460 Y63.0922
 X26.5607 Y62.9535
 X26.3622 Y62.8328
 X26.1518 Y62.7312
 X25.9308 Y62.6501
 X25.7003 Y62.5907
 X25.4615 Y62.5541
 X25.2160 Y62.5416
 X24.9699 Y62.5541
 X24.7310 Y62.5907
 X24.5003 Y62.6501
 X24.2790 Y62.7312
 X24.0685 Y62.8328
 X23.8699 Y62.9535
 X23.6844 Y63.0922
 X23.5133 Y63.2476
 X23.3578 Y63.4187
 X23.2190 Y63.6040
 X23.0982 Y63.8026
 X22.9967 Y64.0129
 X22.9156 Y64.2340
 X22.8561 Y64.4646
 X22.8196 Y64.7033
 X22.8072 Y64.9490
 Y67.2117
 X22.8196 Y67.4578
 X22.8561 Y67.6967
 X22.9156 Y67.9272
 X22.9967 Y68.1483
 X23.0982 Y68.3587
 X23.2190 Y68.5572
 X23.3578 Y68.7426
 X23.5133 Y68.9136
 X23.6844 Y69.0690
 X23.8699 Y69.2078
 X24.0685 Y69.3283
 X24.2790 Y69.4297
 X24.5003 Y69.5108
 X24.7310 Y69.5701
 X24.9699 Y69.6067
 X25.2160 Y69.6190
 X25.4615 Y69.6067
 X25.7003 Y69.5701
 X25.9308 Y69.5108
 X26.1518 Y69.4297
 X26.3622 Y69.3283
 X26.5607 Y69.2078
 X26.7460 Y69.0690
 X26.9172 Y68.9136
 X27.0726 Y68.7426
 X27.2114 Y68.5572
 X27.3321 Y68.3587
 X27.4337 Y68.1483
 X27.5147 Y67.9272
 X27.5742 Y67.6967
 X27.6108 Y67.4578
 X27.6233 Y67.2117
 Y64.9490
G0 Z5.0000
 X65.3885 Y13.0176
G1 Z0.0000
 X66.8746 Y13.3471
 X68.3749 Y13.6971
 X69.8874 Y14.0671
 X71.4104 Y14.4565
 X72.9421 Y14.8651
 X74.4807 Y15.2923
 X76.0243 Y15.7378
 X77.5710 Y16.2008
 X79.1192 Y16.6811
 X80.6668 Y17.1782
 X82.2124 Y17.6915
 X83.7536 Y18.2207
 X85.2890 Y18.7653
 X86.8167 Y19.3248
 X88.3349 Y19.8987
 X89.8417 Y20.4866
 X89.8743 Y19.6648
 X89.9358 Y18.8550
 X90.0238 Y18.0587
 X90.1357 Y17.2775
 X90.2693 Y16.5126
 X90.4224 Y15.7658
 X90.5924 Y15.0383
 X90.7771 Y14.3319
 X90.9740 Y13.6480
 X91.1808 Y12.9880
 X91.3954 Y12.3535
 X91.6151 Y11.7458
 X91.8378 Y11.1665
 X92.0611 Y10.6172
 X92.2825 Y10.0992
 X92.4999 Y9.6140
 X91.5489 Y9.5000
 X90.5969 Y9.4080
 X89.6447 Y9.3375
 X88.6929 Y9.2873
 X87.7426 Y9.2569
 X86.7943 Y9.2454
 X85.8487 Y9.2521
 X84.9069 Y9.2762
 X83.9694 Y9.3168
 X83.0371 Y9.3733
 X82.1107 Y9.4447
 X81.1910 Y9.5304
 X80.2787 Y9.6296
 X79.3747 Y9.7412
 X78.4797 Y9.8648
 X77.5944 Y9.9996
 X76.7197 Y10.1444
 X75.8562 Y10.2990
 X75.0050 Y10.4622
 X74.1665 Y10.6332
 X73.3417 Y10.8114
 X72.5313 Y10.9960
 X71.7360 Y11.1861
 X70.9567 Y11.3811
 X70.1940 Y11.5800
 X69.4489 Y11.7821
 X68.7221 Y11.9865
 X68.0142 Y12.1926
 X67.3261 Y12.3997
 X66.6588 Y12.6066
 X66.0125 Y12.8129
 X65.3885 Y13.0176
G0 Z5.0000
 X120.9140 Y39.8633
G1 Z0.0000
 X121.5720 Y40.6383
 X122.2000 Y41.4254
 X122.7960 Y42.2243
 X123.3580 Y43.0351
 X123.8860 Y43.8575
 X124.3760 Y44.6915
 X124.8280 Y45.5369
 X125.2400 Y46.3936
 X125.6090 Y47.2614
 X125.9350 Y48.1403
 X126.2150 Y49.0301
 X126.4480 Y49.9307
 X126.6330 Y50.8419
 X126.7660 Y51.7636
 X126.8480 Y52.6958
 X126.8750 Y53.6382
 X126.8560 Y54.4272
 X126.7970 Y55.2198
 X126.7000 Y56.0133
 X126.5640 Y56.8047
 X126.5110 Y57.0150
 X126.4390 Y57.2148
 X126.3490 Y57.4037
 X126.2420 Y57.5808
 X126.1190 Y57.7451
 X125.9810 Y57.8958
 X125.8300 Y58.0322
 X125.6670 Y58.1533
 X125.4930 Y58.2585
 X125.3100 Y58.3466
 X125.1180 Y58.4171
 X124.9190 Y58.4689
 X124.7150 Y58.5014
 X124.5060 Y58.5136
 X124.2930 Y58.5046
 X124.0790 Y58.4737
 X123.8690 Y58.4212
 X123.6680 Y58.3492
 X123.4790 Y58.2587
 X123.3020 Y58.1514
 X123.1380 Y58.0282
 X122.9870 Y57.8905
 X122.8500 Y57.7396
 X122.7290 Y57.5766
 X122.6240 Y57.4029
 X122.5360 Y57.2196
 X122.4650 Y57.0279
 X122.4140 Y56.8293
 X122.3810 Y56.6248
 X122.3690 Y56.4158
 X122.3780 Y56.2035
 X122.4090 Y55.9892
 X122.5100 Y55.4000
 X122.5830 Y54.8105
 X122.6260 Y54.2226
 X122.6400 Y53.6382
 X122.6080 Y52.7664
 X122.5120 Y51.8908
 X122.3520 Y51.0119
 X122.1280 Y50.1298
 X121.8400 Y49.2447
 X121.4880 Y48.3568
 X121.0730 Y47.4662
 X120.5940 Y46.5732
 X120.0520 Y45.6779
 X119.4460 Y44.7807
 X118.7780 Y43.8816
 X118.0460 Y42.9810
 X117.2520 Y42.0787
 X116.3950 Y41.1753
 X115.4750 Y40.2708
 X114.4920 Y39.3655
 X113.5460 Y38.5442
 X112.5490 Y37.7242
 X111.5020 Y36.9062
 X110.4060 Y36.0911
 X109.2630 Y35.2793
 X108.0730 Y34.4718
 X106.8380 Y33.6690
 X105.5580 Y32.8718
 X104.2358 Y32.0807
 X102.8713 Y31.2965
 X101.4658 Y30.5200
 X100.0207 Y29.7517
 X98.5369 Y28.9922
 X97.0157 Y28.2425
 X95.4582 Y27.5030
 X93.8654 Y26.7746
 X92.4415 Y26.1457
 X90.9996 Y25.5290
 X89.5417 Y24.9250
 X88.0694 Y24.3341
 X86.5849 Y23.7569
 X85.0897 Y23.1939
 X83.5860 Y22.6453
 X82.0754 Y22.1118
 X80.5597 Y21.5936
 X79.0410 Y21.0917
 X77.5210 Y20.6061
 X76.0015 Y20.1373
 X74.4843 Y19.6861
 X72.9715 Y19.2526
 X71.4647 Y18.8375
 X69.9660 Y18.4412
 X68.4769 Y18.0642
 X66.9996 Y17.7069
 X65.5357 Y17.3698
 X64.0871 Y17.0535
 X62.6557 Y16.7583
 X61.2435 Y16.4847
 X59.8519 Y16.2332
 X58.4833 Y16.0043
 X57.1392 Y15.7983
 X55.8214 Y15.6160
 X54.5319 Y15.4576
 X53.2728 Y15.3237
 X52.0454 Y15.2147
 X50.8518 Y15.1311
 X49.6940 Y15.0733
 X48.5736 Y15.0418
 X49.5793 Y15.9717
 X50.5581 Y16.9257
 X51.5097 Y17.9035
 X52.4339 Y18.9043
 X53.3303 Y19.9275
 X54.1985 Y20.9723
 X55.0382 Y22.0383
 X55.8492 Y23.1247
 X56.6308 Y24.2308
 X57.3832 Y25.3561
 X58.1056 Y26.4998
 X58.7978 Y27.6614
 X59.4596 Y28.8401
 X60.0906 Y30.0354
 X60.6903 Y31.2466
 X61.2585 Y32.4730
 X61.7949 Y33.7140
 X62.2992 Y34.9689
 X62.7708 Y36.2372
 X63.2097 Y37.5180
 X63.6154 Y38.8110
 X63.9876 Y40.1151
 X64.3260 Y41.4300
 X64.6300 Y42.7548
 X64.8997 Y44.0893
 X65.1344 Y45.4323
 X65.3340 Y46.7835
 X65.4981 Y48.1422
 X65.6261 Y49.5076
 X65.7181 Y50.8792
 X65.7736 Y52.2562
 X65.7921 Y53.6382
 X65.7631 Y55.3858
 X65.6761 Y57.1283
 X65.5313 Y58.8643
 X65.3290 Y60.5919
 X65.0694 Y62.3100
 X64.7526 Y64.0169
 X64.3789 Y65.7110
 X63.9485 Y67.3910
 X63.8807 Y67.5966
 X63.7943 Y67.7908
 X63.6904 Y67.9726
 X63.5704 Y68.1412
 X63.4356 Y68.2961
 X63.2872 Y68.4364
 X63.1267 Y68.5612
 X62.9551 Y68.6700
 X62.7742 Y68.7621
 X62.5849 Y68.8364
 X62.3885 Y68.8925
 X62.1865 Y68.9294
 X61.9801 Y68.9468
 X61.7708 Y68.9435
 X61.5597 Y68.9189
 X61.3482 Y68.8722
 X61.1422 Y68.8046
 X60.9481 Y68.7182
 X60.7661 Y68.6143
 X60.5974 Y68.4942
 X60.4424 Y68.3594
 X60.3021 Y68.2110
 X60.1771 Y68.0505
 X60.0682 Y67.8790
 X59.9761 Y67.6979
 X59.9017 Y67.5086
 X59.8456 Y67.3123
 X59.8086 Y67.1103
 X59.7914 Y66.9040
 X59.7949 Y66.6946
 X59.8196 Y66.4835
 X59.8665 Y66.2719
 X60.2613 Y64.7291
 X60.6042 Y63.1732
 X60.8949 Y61.6055
 X61.1332 Y60.0275
 X61.3190 Y58.4403
 X61.4521 Y56.8455
 X61.5319 Y55.2443
 X61.5588 Y53.6382
 X61.5378 Y52.2283
 X61.4750 Y50.8239
 X61.3708 Y49.4260
 X61.2257 Y48.0351
 X61.0401 Y46.6525
 X60.8146 Y45.2786
 X60.5493 Y43.9144
 X60.2447 Y42.5607
 X59.9014 Y41.2183
 X59.5197 Y39.8880
 X59.1000 Y38.5707
 X58.6428 Y37.2671
 X58.1485 Y35.9782
 X57.6174 Y34.7046
 X57.0501 Y33.4471
 X56.4469 Y32.2068
 X55.8083 Y30.9843
 X55.1347 Y29.7804
 X54.4265 Y28.5961
 X53.6842 Y27.4319
 X52.9081 Y26.2890
 X52.0988 Y25.1680
 X51.2564 Y24.0697
 X50.3815 Y22.9950
 X49.4747 Y21.9447
 X48.5363 Y20.9196
 X47.5667 Y19.9204
 X46.5661 Y18.9482
 X45.5353 Y18.0036
 X44.4746 Y17.0875
 X43.3843 Y16.2005
 X42.2650 Y15.3439
 X41.3460 Y15.4603
 X40.4396 Y15.5951
 X39.5461 Y15.7485
 X38.6654 Y15.9203
 X37.7976 Y16.1104
 X36.9426 Y16.3190
 X36.1006 Y16.5458
 X35.2714 Y16.7911
 X34.4551 Y17.0548
 X33.6521 Y17.3368
 X32.8618 Y17.6371
 X32.0847 Y17.9557
 X31.3207 Y18.2926
 X30.5697 Y18.6478
 X29.8319 Y19.0212
 X29.1074 Y19.4129
 X28.3958 Y19.8229
 X27.6976 Y20.2511
 X27.0126 Y20.6976
 X26.3410 Y21.1621
 X25.6826 Y21.6450
 X25.0376 Y22.1460
 X24.4060 Y22.6651
 X23.7876 Y23.2023
 X23.1828 Y23.7578
 X22.5914 Y24.3314
 X22.0135 Y24.9230
 X21.4492 Y25.5328
 X20.8983 Y26.1605
 X20.3611 Y26.8065
 X19.8374 Y27.4705
 X19.3274 Y28.1525
 X18.7483 Y28.9744
 X18.2067 Y29.7948
 X17.7014 Y30.6108
 X17.2313 Y31.4194
 X16.7951 Y32.2176
 X16.3919 Y33.0028
 X16.0204 Y33.7715
 X15.6795 Y34.5212
 X15.3680 Y35.2487
 X15.0848 Y35.9512
 X14.8288 Y36.6258
 X14.5987 Y37.2694
 X14.3936 Y37.8793
 X14.2121 Y38.4522
 X14.0532 Y38.9854
 X13.9157 Y39.4760
 X14.3880 Y39.5869
 X14.8637 Y39.7094
 X15.3421 Y39.8436
 X15.8226 Y39.9894
 X16.3046 Y40.1466
 X16.7874 Y40.3155
 X17.2704 Y40.4960
 X17.7529 Y40.6879
 X18.2344 Y40.8914
 X18.7141 Y41.1064
 X19.1915 Y41.3328
 X19.6660 Y41.5707
 X20.1367 Y41.8201
 X20.6032 Y42.0810
 X21.0649 Y42.3533
 X21.5208 Y42.6371
 X21.9707 Y42.9323
 X22.4138 Y43.2390
 X22.8494 Y43.5569
 X23.2769 Y43.8864
 X23.6957 Y44.2272
 X24.1051 Y44.5794
 X24.5046 Y44.9429
 X24.8935 Y45.3178
 X25.2710 Y45.7040
 X25.6367 Y46.1015
 X25.9897 Y46.5104
 X26.3296 Y46.9305
 X26.6557 Y47.3621
 X26.9672 Y47.8047
 X27.2638 Y48.2589
 X27.5446 Y48.7240
 X28.7683 Y48.9100
 X28.9799 Y48.9565
 X29.1818 Y49.0228
 X29.3733 Y49.1076
 X29.5533 Y49.2098
 X29.7211 Y49.3283
 X29.8758 Y49.4615
 X30.0167 Y49.6085
 X30.1424 Y49.7680
 X30.2525 Y49.9387
 X30.3458 Y50.1194
 X30.4218 Y50.3090
 X30.4793 Y50.5062
 X30.5175 Y50.7097
 X30.5354 Y50.9183
 X30.5325 Y51.1310
 X30.5076 Y51.3462
 X30.4612 Y51.5578
 X30.3951 Y51.7597
 X30.3104 Y51.9512
 X30.2083 Y52.1314
 X30.0900 Y52.2993
 X29.9567 Y52.4542
 X29.8097 Y52.5948
 X29.6501 Y52.7208
 X29.4794 Y52.8310
 X29.2986 Y52.9244
 X29.1092 Y53.0003
 X28.9119 Y53.0578
 X28.7085 Y53.0958
 X28.5000 Y53.1137
 X28.2875 Y53.1105
 X28.0724 Y53.0854
 X27.1596 Y52.9435
 X26.2661 Y52.8239
 X25.3921 Y52.7258
 X24.5375 Y52.6483
 X23.7026 Y52.5904
 X22.8878 Y52.5511
 X22.0929 Y52.5294
 X21.3183 Y52.5246
 X20.5643 Y52.5354
 X19.8307 Y52.5610
 X19.1179 Y52.6004
 X18.4261 Y52.6525
 X17.7554 Y52.7167
 X17.1060 Y52.7916
 X16.4780 Y52.8767
 X15.8717 Y52.9707
 X15.2872 Y53.0726
 X14.7247 Y53.1817
 X14.1844 Y53.2969
 X13.6663 Y53.4172
 X13.1707 Y53.5416
 X12.6979 Y53.6694
 X12.2478 Y53.7994
 X11.8209 Y53.9307
 X11.4170 Y54.0622
 X11.0366 Y54.1930
 X10.6796 Y54.3225
 X10.3464 Y54.4493
 X10.0371 Y54.5725
 X9.7518 Y54.6912
 X9.4908 Y54.8044
 X9.2541 Y54.9114
 X9.2928 Y55.7929
 X9.3512 Y56.6692
 X9.4291 Y57.5401
 X9.5263 Y58.4054
 X9.6425 Y59.2650
 X9.7775 Y60.1185
 X9.9310 Y60.9655
 X10.1030 Y61.8064
 X10.2932 Y62.6404
 X10.5013 Y63.4675
 X10.7271 Y64.2875
 X10.9705 Y65.1001
 X11.2312 Y65.9053
 X11.5089 Y66.7026
 X11.8035 Y67.4919
 X12.1148 Y68.2732
 X12.4424 Y69.0458
 X12.7863 Y69.8098
 X13.1462 Y70.5651
 X13.5219 Y71.3112
 X13.9131 Y72.0480
 X14.3196 Y72.7754
 X14.7413 Y73.4929
 X15.1779 Y74.2005
 X15.6292 Y74.8980
 X16.0949 Y75.5851
 X16.5749 Y76.2615
 X17.0690 Y76.9272
 X17.5769 Y77.5818
 X18.0983 Y78.2253
 X18.6332 Y78.8571
 X19.1812 Y79.4773
 X19.7422 Y80.0857
 X20.3158 Y80.6819
 X20.9021 Y81.2657
 X21.5007 Y81.8371
 X22.1113 Y82.3955
 X22.7336 Y82.9411
 X23.3678 Y83.4735
 X24.0133 Y83.9923
 X24.6701 Y84.4976
 X25.3378 Y84.9890
 X26.0164 Y85.4664
 X26.7054 Y85.9299
 X27.4049 Y86.3779
 X28.1144 Y86.8119
 X28.8339 Y87.2309
 X29.5631 Y87.6339
 X30.3017 Y88.0229
 X31.0494 Y88.3949
 X31.8064 Y88.7519
 X32.5722 Y89.0929
 X33.3465 Y89.4179
 X34.1292 Y89.7259
 X34.9201 Y90.0169
 X35.7189 Y90.2919
 X36.5254 Y90.5489
 X37.3396 Y90.7899
 X38.1610 Y91.0119
 X38.9894 Y91.2169
 X39.8247 Y91.4039
 X40.6667 Y91.5719
 X41.5151 Y91.7219
 X42.3697 Y91.8539
 X43.2771 Y91.1599
 X44.1682 Y90.4449
 X45.0424 Y89.7079
 X45.8990 Y88.9509
 X46.7374 Y88.1739
 X47.5567 Y87.3769
 X48.3564 Y86.5609
 X49.1357 Y85.7258
 X49.2997 Y85.5644
 X49.4763 Y85.4241
 X49.6638 Y85.3053
 X49.8601 Y85.2079
 X50.0639 Y85.1319
 X50.2731 Y85.0776
 X50.4861 Y85.0450
 X50.7013 Y85.0340
 X51.0821 Y85.0685
 X51.4532 Y85.1718
 X51.8050 Y85.3444
 X52.1276 Y85.5865
 X52.2801 Y85.7403
 X52.4139 Y85.9049
 X52.5286 Y86.0809
 X52.6244 Y86.2639
 X52.7011 Y86.4549
 X52.7586 Y86.6509
 X52.7969 Y86.8499
 X52.8160 Y87.0529
 X52.8157 Y87.2559
 X52.7958 Y87.4589
 X52.7567 Y87.6589
 X52.6978 Y87.8559
 X52.6193 Y88.0479
 X52.5211 Y88.2329
 X52.4031 Y88.4099
 X52.2651 Y88.5769
 X51.3794 Y89.5249
 X50.4694 Y90.4509
 X49.5361 Y91.3549
 X48.5804 Y92.2359
 X49.4767 Y92.2109
 X50.4011 Y92.1689
 X51.3525 Y92.1089
 X52.3297 Y92.0319
 X53.3317 Y91.9389
 X54.3571 Y91.8279
 X55.4051 Y91.7009
 X56.4744 Y91.5579
 X57.5639 Y91.3979
 X58.6724 Y91.2229
 X59.7988 Y91.0329
 X60.9419 Y90.8269
 X62.1008 Y90.6059
 X63.2742 Y90.3709
 X64.4608 Y90.1209
 X65.6599 Y89.8559
 X66.8699 Y89.5779
 X68.0900 Y89.2859
 X69.3189 Y88.9809
 X70.5556 Y88.6619
 X71.7986 Y88.3309
 X73.0474 Y87.9859
 X74.3003 Y87.6289
 X75.5564 Y87.2599
 X76.8144 Y86.8789
 X78.0736 Y86.4859
 X79.3324 Y86.0819
 X80.5899 Y85.6665
 X81.8449 Y85.2400
 X83.0963 Y84.8028
 X84.3429 Y84.3550
 X85.5836 Y83.8971
 X87.0571 Y83.3372
 X88.5068 Y82.7691
 X89.9322 Y82.1933
 X91.3329 Y81.6098
 X92.7086 Y81.0190
 X94.0590 Y80.4211
 X95.3835 Y79.8164
 X96.6815 Y79.2050
 X97.9531 Y78.5873
 X99.1976 Y77.9635
 X100.4147 Y77.3337
 X101.6039 Y76.6985
 X102.7649 Y76.0579
 X103.8972 Y75.4121
 X105.0010 Y74.7614
 X106.0740 Y74.1061
 X107.1180 Y73.4465
 X108.1320 Y72.7828
 X109.1150 Y72.1151
 X110.0670 Y71.4439
 X110.9880 Y70.7693
 X111.8770 Y70.0914
 X112.7330 Y69.4108
 X113.5580 Y68.7275
 X114.3480 Y68.0418
 X115.1060 Y67.3540
 X115.8300 Y66.6643
 X116.5190 Y65.9729
 X117.1740 Y65.2801
 X117.7940 Y64.5862
 X118.3780 Y63.8915
 X118.9260 Y63.1961
 X119.0660 Y63.0305
 X119.2190 Y62.8828
 X119.3840 Y62.7530
 X119.5580 Y62.6415
 X119.7410 Y62.5483
 X119.9310 Y62.4739
 X120.1270 Y62.4180
 X120.3270 Y62.3814
 X120.5290 Y62.3637
 X120.7320 Y62.3655
 X120.9350 Y62.3871
 X121.1370 Y62.4283
 X121.3340 Y62.4896
 X121.5270 Y62.5710
 X121.7140 Y62.6728
 X121.8920 Y62.7953
 X122.0580 Y62.9353
 X122.2050 Y63.0883
 X122.3350 Y63.2529
 X122.4470 Y63.4275
 X122.5400 Y63.6107
 X122.6140 Y63.8008
 X122.6700 Y63.9967
 X122.7070 Y64.1964
 X122.7240 Y64.3987
 X122.7220 Y64.6023
 X122.7010 Y64.8053
 X122.6590 Y65.0065
 X122.5980 Y65.2043
 X122.5160 Y65.3971
 X122.4140 Y65.5836
 X122.2920 Y65.7621
 X121.6330 Y66.5935
 X120.9390 Y67.4114
 X121.9290 Y67.7933
 X122.9000 Y68.1911
 X123.8530 Y68.6036
 X124.7870 Y69.0303
 X125.7020 Y69.4703
 X126.5990 Y69.9228
 X127.4780 Y70.3872
 X128.3380 Y70.8625
 X129.1800 Y71.3482
 X130.0040 Y71.8432
 X130.8090 Y72.3469
 X131.5960 Y72.8586
 X132.3660 Y73.3773
 X133.1170 Y73.9025
 X133.8500 Y74.4332
 X134.5660 Y74.9687
 X135.2630 Y75.5082
 X135.9430 Y76.0510
 X136.6060 Y76.5962
 X137.2500 Y77.1430
 X137.8770 Y77.6910
 X138.4860 Y78.2389
 X139.0780 Y78.7862
 X139.6530 Y79.3322
 X140.2100 Y79.8758
 X140.7500 Y80.4166
 X141.2730 Y80.9536
 X141.7780 Y81.4861
 X142.2660 Y82.0133
 X142.7380 Y82.5344
 X143.1920 Y83.0486
 X143.6290 Y83.5553
 X139.2290 Y59.0414
 X139.2170 Y58.9669
 X139.0510 Y57.6389
 X138.9330 Y56.3072
 X138.8620 Y54.9732
 X138.8380 Y53.6379
 X138.8620 Y52.3026
 X138.9330 Y50.9683
 X139.0510 Y49.6364
 X139.2170 Y48.3078
 X139.2290 Y48.2333
 X143.6350 Y23.6848
 X143.1970 Y24.1908
 X142.7430 Y24.7044
 X142.2710 Y25.2250
 X141.7820 Y25.7517
 X141.2770 Y26.2837
 X140.7540 Y26.8204
 X140.2130 Y27.3610
 X139.6560 Y27.9046
 X139.0810 Y28.4505
 X138.4880 Y28.9979
 X137.8780 Y29.5461
 X137.2510 Y30.0943
 X136.6050 Y30.6417
 X135.9420 Y31.1875
 X135.2620 Y31.7310
 X134.5630 Y32.2712
 X133.8470 Y32.8078
 X133.1120 Y33.3396
 X132.3600 Y33.8660
 X131.5890 Y34.3861
 X130.8010 Y34.8994
 X129.9940 Y35.4048
 X129.1690 Y35.9018
 X128.3260 Y36.3894
 X127.4640 Y36.8669
 X126.5840 Y37.3337
 X125.6860 Y37.7889
 X124.7680 Y38.2317
 X123.8330 Y38.6612
 X122.8780 Y39.0769
 X121.9050 Y39.4778
 X120.9140 Y39.8633
G0 Z5.0000
 X25.2160 Y73.8523
G1 Z0.0000
 X24.8746 Y73.8437
 X24.5376 Y73.8180
 X24.2056 Y73.7757
 X23.8789 Y73.7172
 X23.5578 Y73.6430
 X23.2428 Y73.5533
 X22.9343 Y73.4487
 X22.6328 Y73.3297
 X22.3386 Y73.1965
 X22.0524 Y73.0497
 X21.7742 Y72.8896
 X21.5047 Y72.7167
 X21.2442 Y72.5314
 X20.9932 Y72.3340
 X20.7521 Y72.1251
 X20.5213 Y71.9051
 X20.3012 Y71.6744
 X20.0922 Y71.4333
 X19.8950 Y71.1823
 X19.7096 Y70.9219
 X19.5367 Y70.6525
 X19.3765 Y70.3744
 X19.2297 Y70.0880
 X19.0965 Y69.7940
 X18.9775 Y69.4926
 X18.8729 Y69.1842
 X18.7833 Y68.8693
 X18.7090 Y68.5483
 X18.6505 Y68.2216
 X18.6082 Y67.8897
 X18.5825 Y67.5529
 X18.5738 Y67.2117
 Y64.9490
 X18.5825 Y64.6078
 X18.6082 Y64.2710
 X18.6505 Y63.9392
 X18.7090 Y63.6125
 X18.7833 Y63.2914
 X18.8729 Y62.9765
 X18.9775 Y62.6682
 X19.0965 Y62.3666
 X19.2297 Y62.0726
 X19.3765 Y61.7864
 X19.5367 Y61.5083
 X19.7096 Y61.2387
 X19.8950 Y60.9783
 X20.0922 Y60.7275
 X20.3012 Y60.4864
 X20.5213 Y60.2555
 X20.7521 Y60.0355
 X20.9932 Y59.8266
 X21.2442 Y59.6293
 X21.5047 Y59.4440
 X21.7742 Y59.2711
 X22.0524 Y59.1110
 X22.3386 Y58.9641
 X22.6328 Y58.8310
 X22.9343 Y58.7119
 X23.2428 Y58.6073
 X23.5578 Y58.5178
 X23.8789 Y58.4435
 X24.2056 Y58.3850
 X24.5376 Y58.3426
 X24.8746 Y58.3169
 X25.2160 Y58.3083
 X25.5571 Y58.3169
 X25.8939 Y58.3426
 X26.2258 Y58.3850
 X26.5525 Y58.4435
 X26.8735 Y58.5178
 X27.1883 Y58.6073
 X27.4968 Y58.7119
 X27.7982 Y58.8310
 X28.0922 Y58.9641
 X28.3785 Y59.1110
 X28.6567 Y59.2711
 X28.9261 Y59.4440
 X29.1865 Y59.6293
 X29.4375 Y59.8266
 X29.6786 Y60.0355
 X29.9093 Y60.2555
 X30.1293 Y60.4864
 X30.3382 Y60.7275
 X30.5356 Y60.9783
 X30.7208 Y61.2387
 X30.8937 Y61.5083
 X31.0539 Y61.7864
 X31.2007 Y62.0726
 X31.3339 Y62.3666
 X31.4529 Y62.6682
 X31.5575 Y62.9765
 X31.6471 Y63.2914
 X31.7214 Y63.6125
 X31.7799 Y63.9392
 X31.8222 Y64.2710
 X31.8479 Y64.6078
 X31.8567 Y64.9490
 Y67.2117
 X31.8479 Y67.5529
 X31.8222 Y67.8897
 X31.7799 Y68.2216
 X31.7214 Y68.5483
 X31.6471 Y68.8693
 X31.5575 Y69.1842
 X31.4529 Y69.4926
 X31.3339 Y69.7940
 X31.2007 Y70.0880
 X31.0539 Y70.3744
 X30.8937 Y70.6525
 X30.7208 Y70.9219
 X30.5356 Y71.1823
 X30.3382 Y71.4333
 X30.1293 Y71.6744
 X29.9093 Y71.9051
 X29.6786 Y72.1251
 X29.4375 Y72.3340
 X29.1865 Y72.5314
 X28.9261 Y72.7167
 X28.6567 Y72.8896
 X28.3785 Y73.0497
 X28.0922 Y73.1965
 X27.7982 Y73.3297
 X27.4968 Y73.4487
 X27.1883 Y73.5533
 X26.8735 Y73.6430
 X26.5525 Y73.7172
 X26.2258 Y73.7757
 X25.8939 Y73.8180
 X25.5571 Y73.8437
 X25.2160 Y73.8523
G0 Z5.0000
 X60.3268 Y76.8387
G1 Z0.0000
 X59.8090 Y77.8457
 X59.2678 Y78.8442
 X58.7049 Y79.8310
 X58.1219 Y80.8021
 X57.9992 Y80.9805
 X57.8617 Y81.1426
 X57.7108 Y81.2879
 X57.5482 Y81.4161
 X57.3753 Y81.5269
 X57.1935 Y81.6198
 X57.0042 Y81.6947
 X56.8090 Y81.7510
 X56.6093 Y81.7885
 X56.4067 Y81.8067
 X56.2024 Y81.8054
 X55.9981 Y81.7843
 X55.7950 Y81.7429
 X55.5947 Y81.6808
 X55.3989 Y81.5978
 X55.2088 Y81.4936
 X55.0303 Y81.3710
 X54.8682 Y81.2337
 X54.7229 Y81.0832
 X54.5947 Y80.9207
 X54.4839 Y80.7479
 X54.3910 Y80.5662
 X54.3163 Y80.3772
 X54.2599 Y80.1821
 X54.2224 Y79.9825
 X54.2040 Y79.7798
 X54.2053 Y79.5757
 X54.2264 Y79.3712
 X54.2678 Y79.1683
 X54.3299 Y78.9682
 X54.4126 Y78.7722
 X54.5169 Y78.5821
 X55.0521 Y77.6904
 X55.5692 Y76.7847
 X56.0665 Y75.8682
 X56.5426 Y74.9439
 X56.6986 Y74.6807
 X56.8857 Y74.4483
 X57.1000 Y74.2479
 X57.3374 Y74.0810
 X57.5938 Y73.9487
 X57.8651 Y73.8526
 X58.1474 Y73.7939
 X58.4362 Y73.7740
 X58.6756 Y73.7879
 X58.9147 Y73.8296
 X59.1512 Y73.8996
 X59.3828 Y73.9985
 X59.5712 Y74.1053
 X59.7447 Y74.2280
 X59.9026 Y74.3655
 X60.0446 Y74.5164
 X60.1701 Y74.6790
 X60.2786 Y74.8519
 X60.3697 Y75.0339
 X60.4429 Y75.2233
 X60.4976 Y75.4189
 X60.5336 Y75.6192
 X60.5503 Y75.8226
 X60.5471 Y76.0279
 X60.5236 Y76.2336
 X60.4794 Y76.4382
 X60.4139 Y76.6404
 X60.3268 Y76.8387
G0 Z5.0000
 X103.2514 Y56.8901
G1 Z0.0000
 X103.1365 Y57.0901
 X103.0069 Y57.2837
 X102.8624 Y57.4712
 X102.7024 Y57.6528
 X102.5268 Y57.8282
 X102.3353 Y57.9978
 X102.1276 Y58.1615
 X101.9035 Y58.3194
 X101.6625 Y58.4719
 X101.4043 Y58.6187
 X101.1288 Y58.7601
 X100.8356 Y58.8961
 X100.5243 Y59.0269
 X100.1949 Y59.1525
 X99.8467 Y59.2729
 X99.4796 Y59.3885
 X99.0933 Y59.4990
 X98.6876 Y59.6047
 X98.2621 Y59.7057
 X97.8164 Y59.8022
 X97.3504 Y59.8940
 X96.8636 Y59.9812
 X96.3560 Y60.0643
 X95.8268 Y60.1429
 X95.2763 Y60.2173
 X94.7037 Y60.2879
 X94.1090 Y60.3541
 X93.4919 Y60.4166
 X92.8519 Y60.4753
 X92.1889 Y60.5301
 X91.5025 Y60.5812
 X90.7924 Y60.6289
 X90.3374 Y60.6565
 X89.8847 Y60.6819
 X89.4353 Y60.7053
 X88.9899 Y60.7265
 X88.5492 Y60.7458
 X88.1140 Y60.7632
 X87.6850 Y60.7787
 X87.2629 Y60.7926
 X86.8485 Y60.8050
 X86.4426 Y60.8157
 X86.0458 Y60.8250
 X85.6590 Y60.8330
 X85.2831 Y60.8397
 X84.9183 Y60.8453
 X84.5658 Y60.8497
 X84.2264 Y60.8530
 X83.9006 Y60.8557
 X83.5892 Y60.8573
 X83.2929 Y60.8583
 X83.0126 Y60.8586
 X82.7490 Y60.8583
 X82.5029 Y60.8576
 X82.2749 Y60.8565
 X82.0657 Y60.8551
 X81.8764 Y60.8536
 X81.7074 Y60.8518
 X81.5596 Y60.8501
 X81.4336 Y60.8483
 X81.3304 Y60.8468
 X81.2506 Y60.8454
 X81.1947 Y60.8444
 X81.1640 Y60.8437
 X80.9479 Y60.8285
 X80.7385 Y60.7923
 X80.5368 Y60.7361
 X80.3440 Y60.6611
 X80.1608 Y60.5683
 X79.9886 Y60.4589
 X79.8282 Y60.3339
 X79.6808 Y60.1943
 X79.5474 Y60.0414
 X79.4289 Y59.8761
 X79.3264 Y59.6996
 X79.2411 Y59.5128
 X79.1739 Y59.3169
 X79.1258 Y59.1132
 X79.0981 Y58.9023
 X79.0915 Y58.6858
 X79.1065 Y58.4722
 X79.1421 Y58.2651
 X79.1971 Y58.0657
 X79.2706 Y57.8747
 X79.3614 Y57.6930
 X79.4685 Y57.5222
 X79.5910 Y57.3628
 X79.7276 Y57.2158
 X79.8775 Y57.0825
 X80.0394 Y56.9636
 X80.2125 Y56.8603
 X80.3956 Y56.7735
 X80.5875 Y56.7043
 X80.7875 Y56.6536
 X80.9943 Y56.6223
 X81.2071 Y56.6118
 X81.2511
 X82.0100 Y56.6244
 X82.7681 Y56.6318
 X83.5242 Y56.6339
 X84.2771 Y56.6307
 X85.0256 Y56.6226
 X85.7686 Y56.6096
 X86.5050 Y56.5918
 X87.2336 Y56.5693
 X87.9533 Y56.5423
 X88.6628 Y56.5108
 X89.3611 Y56.4751
 X90.0469 Y56.4351
 X90.7190 Y56.3910
 X91.3765 Y56.3429
 X92.0181 Y56.2911
 X92.6426 Y56.2354
 X93.2489 Y56.1761
 X93.8358 Y56.1133
 X94.4022 Y56.0472
 X94.9469 Y55.9778
 X95.4688 Y55.9051
 X95.9667 Y55.8294
 X96.4393 Y55.7508
 X96.8857 Y55.6694
 X97.3047 Y55.5853
 X97.6950 Y55.4986
 X98.0556 Y55.4094
 X98.3851 Y55.3180
 X98.6825 Y55.2243
 X98.9468 Y55.1283
 X99.1765 Y55.0305
 X99.3708 Y54.9308
 X99.3151 Y54.6437
 X99.2260 Y54.2937
 X99.1019 Y53.8835
 X98.9419 Y53.4151
 X98.7450 Y52.8915
 X98.5097 Y52.3148
 X98.2351 Y51.6879
 X97.9199 Y51.0128
 X89.4532 Y52.3357
 X89.2376 Y52.3585
 X89.0250 Y52.3591
 X88.8165 Y52.3389
 X88.6135 Y52.2986
 X88.4168 Y52.2390
 X88.2279 Y52.1612
 X88.0481 Y52.0660
 X87.8785 Y51.9542
 X87.7203 Y51.8268
 X87.5747 Y51.6846
 X87.4429 Y51.5286
 X87.3263 Y51.3596
 X87.2258 Y51.1785
 X87.1431 Y50.9862
 X87.0789 Y50.7837
 X87.0346 Y50.5718
 X87.0119 Y50.3562
 X87.0113 Y50.1435
 X87.0315 Y49.9348
 X87.0718 Y49.7317
 X87.1314 Y49.5351
 X87.2093 Y49.3462
 X87.3046 Y49.1664
 X87.4165 Y48.9968
 X87.5440 Y48.8387
 X87.6863 Y48.6932
 X87.8424 Y48.5615
 X88.0115 Y48.4450
 X88.1928 Y48.3446
 X88.3851 Y48.2618
 X88.5878 Y48.1978
 X88.7999 Y48.1536
 X95.7301 Y47.0703
 X95.2551 Y46.3264
 X94.7869 Y45.6255
 X94.3272 Y44.9679
 X93.8774 Y44.3533
 X93.4387 Y43.7819
 X93.0129 Y43.2540
 X92.6013 Y42.7694
 X92.2053 Y42.3283
 X91.8264 Y41.9308
 X91.4661 Y41.5771
 X91.1260 Y41.2671
 X90.8072 Y41.0008
 X90.5115 Y40.7785
 X90.2403 Y40.6001
 X89.9949 Y40.4660
 X89.7768 Y40.3758
 X89.5285 Y40.3148
 X89.2522 Y40.2873
 X88.9489 Y40.2922
 X88.6203 Y40.3290
 X88.2672 Y40.3965
 X87.8912 Y40.4939
 X87.4936 Y40.6205
 X87.0756 Y40.7754
 X86.6385 Y40.9576
 X86.1836 Y41.1664
 X85.7124 Y41.4007
 X85.2257 Y41.6598
 X84.7254 Y41.9429
 X84.2124 Y42.2490
 X83.6882 Y42.5772
 X83.1539 Y42.9268
 X82.6110 Y43.2968
 X82.0606 Y43.6862
 X81.5042 Y44.0946
 X80.9429 Y44.5205
 X80.3782 Y44.9636
 X79.8113 Y45.4228
 X79.2433 Y45.8971
 X78.6758 Y46.3858
 X78.1101 Y46.8880
 X77.5472 Y47.4029
 X76.9887 Y47.9294
 X76.4358 Y48.4669
 X75.8897 Y49.0144
 X75.3518 Y49.5711
 X74.8233 Y50.1361
 X74.3057 Y50.7085
 X74.1539 Y50.8629
 X73.9904 Y50.9986
 X73.8167 Y51.1155
 X73.6344 Y51.2136
 X73.4450 Y51.2926
 X73.2499 Y51.3526
 X73.0506 Y51.3933
 X72.8486 Y51.4148
 X72.6456 Y51.4171
 X72.4428 Y51.3998
 X72.2418 Y51.3632
 X72.0443 Y51.3068
 X71.8517 Y51.2307
 X71.6654 Y51.1348
 X71.4869 Y51.0191
 X71.3179 Y50.8833
 X71.1635 Y50.7317
 X71.0278 Y50.5682
 X70.9108 Y50.3944
 X70.8128 Y50.2122
 X70.7338 Y50.0228
 X70.6737 Y49.8276
 X70.6329 Y49.6283
 X70.6112 Y49.4264
 X70.6090 Y49.2233
 X70.6261 Y49.0205
 X70.6628 Y48.8196
 X70.7190 Y48.6221
 X70.7949 Y48.4294
 X70.8906 Y48.2432
 X71.0061 Y48.0647
 X71.1417 Y47.8957
 X71.6501 Y47.3332
 X72.1764 Y46.7700
 X72.7185 Y46.2076
 X73.2749 Y45.6475
 X73.8440 Y45.0911
 X74.4240 Y44.5400
 X75.0133 Y43.9955
 X75.6104 Y43.4591
 X76.2135 Y42.9325
 X76.8208 Y42.4169
 X77.4308 Y41.9139
 X78.0418 Y41.4248
 X78.6521 Y40.9514
 X79.2601 Y40.4948
 X79.8643 Y40.0568
 X80.4626 Y39.6386
 X81.1062 Y39.2072
 X81.7376 Y38.8035
 X82.3564 Y38.4275
 X82.9628 Y38.0792
 X83.5565 Y37.7586
 X84.1376 Y37.4658
 X84.7058 Y37.2008
 X85.2614 Y36.9636
 X85.8042 Y36.7543
 X86.3339 Y36.5728
 X86.8507 Y36.4190
 X87.3543 Y36.2933
 X87.8447 Y36.1954
 X88.3221 Y36.1255
 X88.7860 Y36.0835
 X89.2367 Y36.0696
 X89.7325 Y36.0876
 X90.2111 Y36.1418
 X90.6718 Y36.2322
 X91.1149 Y36.3587
 X91.4869 Y36.4983
 X91.8653 Y36.6707
 X92.2497 Y36.8758
 X92.6403 Y37.1139
 X93.0367 Y37.3846
 X93.4389 Y37.6879
 X93.8469 Y38.0237
 X94.2607 Y38.3919
 X94.6799 Y38.7925
 X95.1047 Y39.2254
 X95.5349 Y39.6904
 X95.9704 Y40.1875
 X96.4111 Y40.7167
 X96.8571 Y41.2778
 X97.3081 Y41.8707
 X97.7640 Y42.4954
 X98.1290 Y43.0135
 X98.4899 Y43.5419
 X98.8457 Y44.0793
 X99.1956 Y44.6240
 X99.5385 Y45.1744
 X99.8739 Y45.7291
 X100.2007 Y46.2865
 X100.5181 Y46.8451
 X100.8251 Y47.4032
 X101.1211 Y47.9594
 X101.4051 Y48.5122
 X101.6762 Y49.0598
 X101.9336 Y49.6011
 X102.1764 Y50.1342
 X102.4036 Y50.6576
 X102.6147 Y51.1698
 X102.8090 Y51.6696
 X102.9825 Y52.1473
 X103.1351 Y52.6039
 X103.2668 Y53.0398
 X103.3779 Y53.4557
 X103.4682 Y53.8523
 X103.5379 Y54.2300
 X103.5872 Y54.5897
 X103.6160 Y54.9319
 X103.6244 Y55.2572
 X103.6126 Y55.5664
 X103.5804 Y55.8597
 X103.5282 Y56.1383
 X103.4560 Y56.4025
 X103.3636 Y56.6528
 X103.2514 Y56.8901
G0 Z5.0000
 X143.4030 Y48.9446
G1 Z0.0000
 X143.2580 Y50.1143
 X143.1540 Y51.2872
 X143.0920 Y52.4621
 X143.0710 Y53.6380
 X143.0920 Y54.8140
 X143.1540 Y55.9890
 X143.2580 Y57.1618
 X143.4030 Y58.3315
 X149.4640 Y92.1009
 X149.4890 Y92.2929
 X149.4970 Y92.4829
 X149.4890 Y92.6719
 X149.4620 Y92.8569
 X149.4220 Y93.0369
 X149.3650 Y93.2129
 X149.2930 Y93.3819
 X149.2070 Y93.5449
 X149.1080 Y93.6989
 X148.9940 Y93.8439
 X148.8690 Y93.9799
 X148.7320 Y94.1039
 X148.5830 Y94.2169
 X148.4240 Y94.3169
 X148.2530 Y94.4029
 X148.0740 Y94.4749
 X147.8880 Y94.5299
 X147.7000 Y94.5669
 X147.5130 Y94.5869
 X147.3260 Y94.5909
 X147.1420 Y94.5779
 X146.9600 Y94.5489
 X146.7810 Y94.5039
 X146.6070 Y94.4449
 X146.4390 Y94.3699
 X146.2780 Y94.2809
 X146.1250 Y94.1789
 X145.9810 Y94.0619
 X145.8460 Y93.9329
 X145.7220 Y93.7909
 X145.6110 Y93.6359
 X145.5110 Y93.4689
 X145.5010 Y93.4499
 X145.4780 Y93.4069
 X145.4420 Y93.3419
 X145.3920 Y93.2549
 X145.3290 Y93.1469
 X145.2540 Y93.0179
 X145.1670 Y92.8689
 X145.0650 Y92.6999
 X144.9500 Y92.5129
 X144.8220 Y92.3069
 X144.6820 Y92.0839
 X144.5280 Y91.8439
 X144.3610 Y91.5869
 X144.1810 Y91.3139
 X143.9860 Y91.0259
 X143.7800 Y90.7239
 X143.5600 Y90.4069
 X143.3260 Y90.0769
 X143.0790 Y89.7339
 X142.8190 Y89.3789
 X142.5450 Y89.0119
 X142.2580 Y88.6339
 X141.9570 Y88.2459
 X141.6430 Y87.8479
 X141.3150 Y87.4399
 X140.9740 Y87.0239
 X140.6190 Y86.5999
 X140.2500 Y86.1689
 X139.8680 Y85.7300
 X139.4720 Y85.2853
 X139.0620 Y84.8350
 X138.6390 Y84.3797
 X138.2020 Y83.9200
 X137.7510 Y83.4562
 X137.2860 Y82.9894
 X136.8070 Y82.5200
 X136.3150 Y82.0485
 X135.8080 Y81.5755
 X135.2880 Y81.1017
 X134.7540 Y80.6276
 X134.2050 Y80.1540
 X133.6430 Y79.6814
 X133.0670 Y79.2103
 X132.4760 Y78.7414
 X131.8720 Y78.2751
 X131.2530 Y77.8125
 X130.6200 Y77.3536
 X129.9730 Y76.8994
 X129.3120 Y76.4504
 X128.6360 Y76.0071
 X127.9460 Y75.5703
 X127.2420 Y75.1403
 X126.5230 Y74.7180
 X125.7910 Y74.3039
 X125.0430 Y73.8986
 X124.2820 Y73.5026
 X123.5050 Y73.1166
 X122.7150 Y72.7412
 X121.9100 Y72.3771
 X121.0900 Y72.0247
 X120.2560 Y71.6847
 X119.4070 Y71.3578
 X118.5440 Y71.0443
 X117.6660 Y70.7451
 X116.5870 Y71.6993
 X115.4700 Y72.6314
 X114.3190 Y73.5416
 X113.1370 Y74.4298
 X112.9170 Y74.7418
 X112.6740 Y75.0805
 X112.4070 Y75.4451
 X112.1180 Y75.8347
 X111.8050 Y76.2486
 X111.4690 Y76.6860
 X111.1090 Y77.1460
 X110.7260 Y77.6278
 X110.3190 Y78.1305
 X109.8870 Y78.6535
 X109.4320 Y79.1958
 X108.9520 Y79.7566
 X108.4480 Y80.3353
 X107.9190 Y80.9308
 X107.3660 Y81.5425
 X106.7880 Y82.1693
 X106.1840 Y82.8107
 X105.5560 Y83.4657
 X104.9021 Y84.1335
 X104.2229 Y84.8133
 X103.5182 Y85.5043
 X102.7878 Y86.2059
 X102.0313 Y86.9169
 X101.2490 Y87.6359
 X100.4404 Y88.3639
 X99.6057 Y89.0989
 X98.7443 Y89.8399
 X97.8565 Y90.5859
 X96.9419 Y91.3379
 X96.0006 Y92.0929
 X95.0321 Y92.8509
 X94.0365 Y93.6109
 X91.9669 Y95.1319
 X89.8697 Y96.5959
 X87.7451 Y98.0019
 X85.5938 Y99.3499
 X83.4161 Y100.6409
 X81.2128 Y101.8729
 X78.9840 Y103.0459
 X76.7306 Y104.1609
 X74.4526 Y105.2159
 X72.1511 Y106.2119
 X69.8261 Y107.1489
 X67.4782 Y108.0259
 X65.1081 Y108.8429
 X62.7160 Y109.5999
 X60.3026 Y110.2959
 X57.8683 Y110.9309
 X57.5401 Y110.9859
 X57.2136 Y110.9889
 X56.8940 Y110.9419
 X56.5867 Y110.8469
 X56.2971 Y110.7069
 X56.0307 Y110.5239
 X55.7929 Y110.2999
 X55.5890 Y110.0369
 X46.6843 Y96.4609
 X45.6053 Y96.4189
 X44.5332 Y96.3499
 X43.4685 Y96.2549
 X42.4111 Y96.1339
 X41.3618 Y95.9869
 X40.3206 Y95.8159
 X39.2879 Y95.6189
 X38.2640 Y95.3979
 X37.2493 Y95.1519
 X36.2442 Y94.8819
 X35.2487 Y94.5889
 X34.2636 Y94.2719
 X33.2888 Y93.9319
 X32.3247 Y93.5699
 X31.3718 Y93.1849
 X30.4304 Y92.7779
 X29.5007 Y92.3499
 X28.5831 Y91.8999
 X27.6778 Y91.4289
 X26.7851 Y90.9369
 X25.9057 Y90.4249
 X25.0394 Y89.8919
 X24.1869 Y89.3399
 X23.3485 Y88.7679
 X22.5244 Y88.1779
 X21.7149 Y87.5679
 X20.9204 Y86.9399
 X20.1411 Y86.2929
 X19.3776 Y85.6292
 X18.6299 Y84.9473
 X17.8985 Y84.2485
 X17.1837 Y83.5326
 X16.4858 Y82.8003
 X15.8052 Y82.0515
 X15.1421 Y81.2869
 X14.4969 Y80.5068
 X13.8698 Y79.7114
 X13.2613 Y78.9010
 X12.6717 Y78.0758
 X12.1012 Y77.2365
 X11.5502 Y76.3832
 X11.0190 Y75.5162
 X10.5080 Y74.6358
 X10.0175 Y73.7425
 X9.5477 Y72.8364
 X9.0990 Y71.9180
 X8.6718 Y70.9875
 X8.2663 Y70.0453
 X7.8828 Y69.0917
 X7.5218 Y68.1269
 X7.1835 Y67.1515
 X6.8682 Y66.1655
 X6.5763 Y65.1696
 X6.3082 Y64.1637
 X6.0640 Y63.1485
 X5.8441 Y62.1241
 X5.6489 Y61.0908
 X5.4787 Y60.0491
 X5.3337 Y58.9991
 X5.2145 Y57.9414
 X5.1211 Y56.8761
 X5.0540 Y55.8036
 X5.0136 Y54.7242
 X5.0000 Y53.6382
 X5.0171 Y53.3692
 X5.0674 Y53.1075
 X5.1495 Y52.8562
 X5.2618 Y52.6179
 X5.4028 Y52.3954
 X5.5709 Y52.1915
 X5.7646 Y52.0090
 X5.9825 Y51.8507
 X6.0239 Y51.8248
 X6.0956 Y51.7814
 X6.1974 Y51.7215
 X6.3292 Y51.6465
 X6.4906 Y51.5575
 X6.6816 Y51.4555
 X6.9020 Y51.3422
 X7.1514 Y51.2185
 X7.4299 Y51.0857
 X7.7372 Y50.9448
 X8.0731 Y50.7972
 X8.4374 Y50.6443
 X8.8299 Y50.4868
 X9.2504 Y50.3264
 X9.6989 Y50.1640
 X10.1750 Y50.0010
 X10.6785 Y49.8385
 X11.2094 Y49.6776
 X11.7674 Y49.5197
 X12.3523 Y49.3660
 X12.9639 Y49.2176
 X13.6021 Y49.0758
 X14.2666 Y48.9418
 X14.9573 Y48.8167
 X15.6740 Y48.7018
 X16.4165 Y48.5983
 X17.1846 Y48.5075
 X17.9781 Y48.4304
 X18.7969 Y48.3685
 X19.6407 Y48.3226
 X20.5094 Y48.2943
 X21.4028 Y48.2844
 X21.8769 Y48.2883
 X21.3193 Y47.7661
 X20.7322 Y47.2698
 X20.1189 Y46.8000
 X19.4822 Y46.3571
 X18.8253 Y45.9414
 X18.1512 Y45.5535
 X17.4631 Y45.1936
 X16.7638 Y44.8626
 X16.0566 Y44.5607
 X15.3446 Y44.2883
 X14.6306 Y44.0460
 X13.9179 Y43.8340
 X13.2095 Y43.6530
 X12.5084 Y43.5035
 X11.8177 Y43.3855
 X11.1405 Y43.3000
 X10.9274 Y43.2671
 X10.7204 Y43.2130
 X10.5208 Y43.1387
 X10.3301 Y43.0450
 X10.1498 Y42.9326
 X9.9812 Y42.8022
 X9.8258 Y42.6548
 X9.6852 Y42.4911
 X9.5620 Y42.3144
 X9.4581 Y42.1275
 X9.3741 Y41.9319
 X9.3103 Y41.7293
 X9.2671 Y41.5214
 X9.2448 Y41.3097
 X9.2441 Y41.0958
 X9.2651 Y40.8814
 X9.2728 Y40.8319
 X9.2875 Y40.7425
 X9.3099 Y40.6143
 X9.3404 Y40.4487
 X9.3796 Y40.2471
 X9.4281 Y40.0104
 X9.4864 Y39.7403
 X9.5552 Y39.4379
 X9.6349 Y39.1044
 X9.7262 Y38.7412
 X9.8295 Y38.3496
 X9.9455 Y37.9307
 X10.0748 Y37.4860
 X10.2178 Y37.0167
 X10.3752 Y36.5240
 X10.5475 Y36.0093
 X10.7352 Y35.4739
 X10.9390 Y34.9189
 X11.1594 Y34.3457
 X11.3970 Y33.7555
 X11.6522 Y33.1497
 X11.9258 Y32.5297
 X12.2183 Y31.8964
 X12.5301 Y31.2514
 X12.8619 Y30.5958
 X13.2143 Y29.9310
 X13.5877 Y29.2582
 X13.9829 Y28.5787
 X14.4003 Y27.8939
 X14.8404 Y27.2048
 X15.3040 Y26.5130
 X15.7914 Y25.8196
 X16.2676 Y25.1736
 X16.7715 Y24.5215
 X17.3038 Y23.8653
 X17.8651 Y23.2067
 X18.4559 Y22.5471
 X19.0769 Y21.8886
 X19.7289 Y21.2328
 X20.4122 Y20.5815
 X21.1276 Y19.9364
 X21.8757 Y19.2991
 X22.6569 Y18.6715
 X23.4722 Y18.0554
 X24.3219 Y17.4523
 X25.2068 Y16.8642
 X26.1274 Y16.2926
 X27.0843 Y15.7394
 X28.0782 Y15.2062
 X29.1096 Y14.6950
 X30.1793 Y14.2072
 X31.2878 Y13.7447
 X32.4356 Y13.3092
 X33.6235 Y12.9025
 X34.8521 Y12.5262
 X36.1218 Y12.1823
 X37.4335 Y11.8722
 X38.7876 Y11.5979
 X40.1850 Y11.3611
 X41.6260 Y11.1633
 X43.1111 Y11.0067
 X44.6414 Y10.8925
 X46.2172 Y10.8226
 X47.8392 Y10.7990
 X48.9149 Y10.8115
 X50.0261 Y10.8487
 X51.1714 Y10.9101
 X52.3488 Y10.9953
 X53.5567 Y11.1036
 X54.7933 Y11.2346
 X56.0571 Y11.3876
 X57.3462 Y11.5623
 X57.6121 Y11.4430
 X57.9360 Y11.3005
 X58.3163 Y11.1364
 X58.7513 Y10.9525
 X59.2396 Y10.7507
 X59.7793 Y10.5326
 X60.3690 Y10.3003
 X61.0071 Y10.0551
 X61.6917 Y9.7993
 X62.4214 Y9.5341
 X63.1944 Y9.2619
 X64.0092 Y8.9840
 X64.8642 Y8.7025
 X65.7576 Y8.4189
 X66.6881 Y8.1351
 X67.6536 Y7.8529
 X68.6529 Y7.5740
 X69.6843 Y7.3003
 X70.7458 Y7.0333
 X71.8362 Y6.7753
 X72.9539 Y6.5275
 X74.0969 Y6.2921
 X75.2638 Y6.0705
 X76.4529 Y5.8647
 X77.6628 Y5.6767
 X78.8915 Y5.5078
 X80.1376 Y5.3600
 X81.3994 Y5.2351
 X82.6754 Y5.1350
 X83.9639 Y5.0612
 X85.2632 Y5.0157
 X86.5718 Y5.0000
 X87.7606 Y5.0133
 X88.9546 Y5.0537
 X90.1524 Y5.1228
 X91.3529 Y5.2216
 X92.5547 Y5.3516
 X93.7567 Y5.5142
 X94.9576 Y5.7103
 X96.1560 Y5.9412
 X96.4046 Y6.0094
 X96.6404 Y6.1062
 X96.8614 Y6.2297
 X97.0654 Y6.3782
 X97.2506 Y6.5497
 X97.4146 Y6.7428
 X97.5551 Y6.9554
 X97.6704 Y7.1858
 X97.7568 Y7.4285
 X97.8125 Y7.6772
 X97.8379 Y7.9290
 X97.8331 Y8.1814
 X97.7983 Y8.4315
 X97.7340 Y8.6765
 X97.6403 Y8.9136
 X97.5174 Y9.1398
 X97.5024 Y9.1643
 X97.4662 Y9.2243
 X97.4107 Y9.3189
 X97.3371 Y9.4468
 X97.2471 Y9.6071
 X97.1419 Y9.7985
 X97.0236 Y10.0203
 X96.8931 Y10.2711
 X96.7522 Y10.5501
 X96.6025 Y10.8561
 X96.4454 Y11.1880
 X96.2824 Y11.5448
 X96.1150 Y11.9254
 X95.9449 Y12.3287
 X95.7733 Y12.7539
 X95.6019 Y13.1994
 X95.4324 Y13.6646
 X95.2660 Y14.1483
 X95.1043 Y14.6494
 X94.9489 Y15.1668
 X94.8014 Y15.6994
 X94.6631 Y16.2464
 X94.5356 Y16.8064
 X94.4204 Y17.3783
 X94.3190 Y17.9615
 X94.2331 Y18.5544
 X94.1639 Y19.1564
 X94.1133 Y19.7661
 X94.0825 Y20.3825
 X94.0731 Y21.0046
 X94.0867 Y21.6312
 X94.1247 Y22.2615
 X95.5975 Y22.9119
 X96.8390 Y23.4775
 X98.1307 Y24.0835
 X99.4656 Y24.7298
 X100.8368 Y25.4155
 X102.2375 Y26.1405
 X103.6610 Y26.9039
 X105.1000 Y27.7053
 X106.5480 Y28.5440
 X107.9990 Y29.4197
 X109.4440 Y30.3317
 X110.8780 Y31.2794
 X112.2930 Y32.2625
 X113.6830 Y33.2804
 X115.0410 Y34.3323
 X116.3600 Y35.4179
 X117.6330 Y36.5367
 X118.5090 Y36.2351
 X119.3710 Y35.9194
 X120.2180 Y35.5904
 X121.0510 Y35.2485
 X121.8690 Y34.8943
 X122.6730 Y34.5283
 X123.4630 Y34.1514
 X124.2390 Y33.7639
 X125.0000 Y33.3667
 X125.7460 Y32.9600
 X126.4790 Y32.5447
 X127.1970 Y32.1212
 X127.9010 Y31.6904
 X128.5910 Y31.2526
 X129.2670 Y30.8086
 X129.9280 Y30.3589
 X130.5760 Y29.9040
 X131.2090 Y29.4447
 X131.8280 Y28.9815
 X132.4340 Y28.5150
 X133.0250 Y28.0457
 X133.6020 Y27.5743
 X134.1650 Y27.1015
 X134.7140 Y26.6278
 X135.2500 Y26.1536
 X135.7710 Y25.6800
 X136.2790 Y25.2071
 X136.7720 Y24.7357
 X137.2520 Y24.2664
 X137.7180 Y23.7997
 X138.1700 Y23.3364
 X138.6090 Y22.8769
 X139.0330 Y22.4219
 X139.4440 Y21.9721
 X139.8420 Y21.5278
 X140.2250 Y21.0898
 X140.5950 Y20.6587
 X140.9520 Y20.2351
 X141.2940 Y19.8196
 X141.6240 Y19.4128
 X141.9390 Y19.0151
 X142.2410 Y18.6273
 X142.5300 Y18.2501
 X142.8050 Y17.8839
 X143.0670 Y17.5293
 X143.3150 Y17.1869
 X143.5500 Y16.8575
 X143.7710 Y16.5415
 X143.9790 Y16.2396
 X144.1740 Y15.9522
 X144.3560 Y15.6803
 X144.5240 Y15.4240
 X144.6790 Y15.1841
 X144.8210 Y14.9615
 X144.9490 Y14.7564
 X145.0640 Y14.5696
 X145.1670 Y14.4015
 X145.2560 Y14.2530
 X145.3310 Y14.1244
 X145.3940 Y14.0165
 X145.4430 Y13.9300
 X145.4810 Y13.8651
 X145.5040 Y13.8226
 X145.5140 Y13.8032
 X145.6710 Y13.5526
 X145.8570 Y13.3308
 X146.0690 Y13.1392
 X146.3030 Y12.9792
 X146.5540 Y12.8523
 X146.8210 Y12.7598
 X147.0970 Y12.7035
 X147.3820 Y12.6843
 X147.7290 Y12.7128
 X148.0750 Y12.8014
 X148.2540 Y12.8730
 X148.4250 Y12.9594
 X148.5850 Y13.0594
 X148.7330 Y13.1721
 X148.8690 Y13.2965
 X148.9960 Y13.4319
 X149.1080 Y13.5772
 X149.2070 Y13.7314
 X149.2930 Y13.8937
 X149.3650 Y14.0629
 X149.4220 Y14.2383
 X149.4620 Y14.4190
 X149.4890 Y14.6039
 X149.4970 Y14.7919
 X149.4890 Y14.9823
 X149.4640 Y15.1741
 X143.4030 Y48.9446
G0 Z5.0000
G0 Z5.0000
M2 (end program)
