;PYCAM-META-DATA: Filename: /media/martoio/MARTOIO/ME43/std_lib/svg/010-chicken.svg
;PYCAM-META-DATA: Timestamp: 2017-12-06 01:54:55.968654
;PYCAM-META-DATA: Version: 0.5.1
;Estimated machine time: 9 minutes
G40 (disable tool radius compensation)
G49 (disable tool length compensation)
G80 (cancel modal motion)
G54 (select coordinate system 1)
G90 (disable incremental moves)
G21 (metric)
G61 (exact path mode)
F400.00000
S1.00000
;PYCAM_TOOLPATH_SETTINGS: START
;[Bounds]
;maxz = 0.0
;maxx = 163.449198395
;maxy = 163.447475826
;minx = -8.9499271268
;miny = -8.9497705296
;minz = 0.0
;
;[Tool]
;torus_radius = 0.25
;speed = 1.0
;shape = CylindricalCutter
;tool_radius = 0.5
;feedrate = 400.0
;
;[Process]
;engrave_offset = 0.0
;step_down = 1.0
;generator = EngraveCutter
;postprocessor = SimpleCutter
;overlap_percent = 0
;milling_style = conventional
;material_allowance = 0.0
;pocketing_type = none
;path_direction = x
;
;PYCAM_TOOLPATH_SETTINGS: END
T1 M6
G0 Z5.0000
 X25.5938 Y58.7093
G1 Z0.0000
 X25.8114 Y56.7882
 X25.0784 Y56.6947
 X24.3607 Y56.6275
 X23.6584 Y56.5853
 X22.9713 Y56.5670
 X22.2997 Y56.5714
 X21.6438 Y56.5975
 X21.0034 Y56.6443
 X20.3786 Y56.7106
 X19.7695 Y56.7951
 X19.1761 Y56.8971
 X18.5986 Y57.0151
 X18.0369 Y57.1482
 X17.4911 Y57.2953
 X16.9613 Y57.4551
 X16.4476 Y57.6268
 X15.9498 Y57.8090
 X15.4683 Y58.0008
 X15.0029 Y58.2010
 X14.5538 Y58.4085
 X14.1210 Y58.6222
 X13.7046 Y58.8410
 X13.3046 Y59.0638
 X12.9211 Y59.2893
 X12.5540 Y59.5168
 X12.2037 Y59.7449
 X11.8699 Y59.9725
 X11.5529 Y60.1986
 X11.2526 Y60.4221
 X10.9692 Y60.6417
 X10.7026 Y60.8565
 X10.4530 Y61.0653
 X10.2203 Y61.2669
 X11.5133 Y62.3839
 X12.7765 Y63.4936
 X14.0100 Y64.5956
 X15.2136 Y65.6886
 X16.3875 Y66.7719
 X17.5314 Y67.8446
 X18.6456 Y68.9056
 X19.7299 Y69.9540
 X20.7843 Y70.9893
 X21.8089 Y72.0100
 X22.8036 Y73.0156
 X23.7684 Y74.0050
 X24.7034 Y74.9774
 X25.6084 Y75.9317
 X26.4835 Y76.8671
 X27.3286 Y77.7826
 X27.0175 Y76.6286
 X26.7328 Y75.4672
 X26.4746 Y74.2992
 X26.2431 Y73.1247
 X26.0384 Y71.9446
 X25.8606 Y70.7589
 X25.7099 Y69.5685
 X25.5864 Y68.3735
 X25.4902 Y67.1746
 X25.4214 Y65.9722
 X25.3803 Y64.7667
 X25.3670 Y63.5585
 X25.3815 Y62.3483
 X25.4241 Y61.1364
 X25.4947 Y59.9233
 X25.5938 Y58.7093
G0 Z5.0000
 X59.2963 Y113.4467
G1 Z0.0000
 X59.2838 Y113.2007
 X59.2472 Y112.9617
 X59.1878 Y112.7307
 X59.1067 Y112.5097
 X59.0053 Y112.2997
 X58.8845 Y112.1007
 X58.7459 Y111.9157
 X58.5903 Y111.7447
 X58.4192 Y111.5887
 X58.2339 Y111.4497
 X58.0353 Y111.3297
 X57.8250 Y111.2277
 X57.6039 Y111.1467
 X57.3734 Y111.0877
 X57.1347 Y111.0507
 X56.8889 Y111.0387
 X56.6429 Y111.0507
 X56.4041 Y111.0877
 X56.1734 Y111.1467
 X55.9521 Y111.2277
 X55.7416 Y111.3297
 X55.5429 Y111.4507
 X55.3575 Y111.5897
 X55.1864 Y111.7447
 X55.0309 Y111.9157
 X54.8921 Y112.1017
 X54.7713 Y112.2997
 X54.6697 Y112.5107
 X54.5886 Y112.7317
 X54.5292 Y112.9617
 X54.4927 Y113.2007
 X54.4802 Y113.4467
 Y115.7087
 X54.4927 Y115.9547
 X54.5292 Y116.1937
 X54.5886 Y116.4237
 X54.6697 Y116.6447
 X54.7713 Y116.8557
 X54.8921 Y117.0537
 X55.0309 Y117.2397
 X55.1864 Y117.4107
 X55.3575 Y117.5657
 X55.5429 Y117.7047
 X55.7416 Y117.8257
 X55.9521 Y117.9267
 X56.1734 Y118.0077
 X56.4041 Y118.0677
 X56.6429 Y118.1037
 X56.8889 Y118.1167
 X57.1347 Y118.1037
 X57.3734 Y118.0677
 X57.6039 Y118.0077
 X57.8250 Y117.9267
 X58.0353 Y117.8257
 X58.2339 Y117.7047
 X58.4192 Y117.5657
 X58.5903 Y117.4107
 X58.7459 Y117.2397
 X58.8845 Y117.0537
 X59.0053 Y116.8557
 X59.1067 Y116.6447
 X59.1878 Y116.4237
 X59.2472 Y116.1937
 X59.2838 Y115.9547
 X59.2963 Y115.7087
 Y113.4467
G0 Z5.0000
 X77.3486 Y99.1314
G1 Z0.0000
 X76.8839 Y99.1510
 X76.3831 Y99.2081
 X75.8521 Y99.3000
 X75.2971 Y99.4242
 X74.7239 Y99.5781
 X74.1385 Y99.7589
 X73.5470 Y99.9643
 X72.9553 Y100.1915
 X72.3693 Y100.4379
 X71.7953 Y100.7010
 X71.2389 Y100.9781
 X70.7063 Y101.2665
 X70.2035 Y101.5639
 X69.7363 Y101.8675
 X69.3109 Y102.1746
 X68.9332 Y102.4828
 X69.1768 Y102.8699
 X69.4475 Y103.2601
 X69.7442 Y103.6522
 X70.0663 Y104.0449
 X70.4129 Y104.4365
 X70.7831 Y104.8257
 X71.1761 Y105.2117
 X71.5913 Y105.5917
 X72.0082 Y105.9487
 X72.4264 Y106.2847
 X72.8435 Y106.5997
 X73.2578 Y106.8927
 X73.6668 Y107.1627
 X74.0689 Y107.4107
 X74.4618 Y107.6367
 X74.8436 Y107.8397
 X75.2121 Y108.0197
 X75.5654 Y108.1757
 X75.9014 Y108.3087
 X76.2179 Y108.4187
 X76.5131 Y108.5037
 X76.7847 Y108.5657
 X77.0309 Y108.6027
 X77.2496 Y108.6147
 X77.4681 Y108.6027
 X77.7143 Y108.5657
 X77.9859 Y108.5037
 X78.2810 Y108.4187
 X78.5977 Y108.3087
 X78.9336 Y108.1757
 X79.2868 Y108.0197
 X79.6554 Y107.8397
 X80.0371 Y107.6367
 X80.4302 Y107.4107
 X80.8321 Y107.1627
 X81.2413 Y106.8927
 X81.6556 Y106.5997
 X82.0727 Y106.2847
 X82.4907 Y105.9487
 X82.9078 Y105.5917
 X83.3381 Y105.1967
 X83.7446 Y104.7961
 X84.1265 Y104.3919
 X84.4829 Y103.9854
 X84.8128 Y103.5783
 X85.1150 Y103.1720
 X85.3889 Y102.7681
 X85.6334 Y102.3681
 X85.2284 Y102.0497
 X84.7806 Y101.7376
 X84.2960 Y101.4339
 X83.7806 Y101.1404
 X83.2402 Y100.8590
 X82.6809 Y100.5919
 X82.1084 Y100.3410
 X81.5288 Y100.1079
 X80.9481 Y99.8951
 X80.3721 Y99.7043
 X79.8067 Y99.5374
 X79.2581 Y99.3964
 X78.7320 Y99.2835
 X78.2345 Y99.2003
 X77.7714 Y99.1489
 X77.3486 Y99.1314
G0 Z5.0000
 X82.9078 Y94.1522
G1 Z0.0000
 X82.4907 Y93.7947
 X82.0727 Y93.4586
 X81.6556 Y93.1443
 X81.2413 Y92.8517
 X80.8321 Y92.5813
 X80.4302 Y92.3332
 X80.0371 Y92.1076
 X79.6554 Y91.9050
 X79.2868 Y91.7253
 X78.9336 Y91.5688
 X78.5977 Y91.4357
 X78.2810 Y91.3264
 X77.9859 Y91.2410
 X77.7143 Y91.1796
 X77.4681 Y91.1426
 X77.2496 Y91.1303
 X77.0309 Y91.1426
 X76.7847 Y91.1796
 X76.5131 Y91.2410
 X76.2179 Y91.3264
 X75.9014 Y91.4357
 X75.5654 Y91.5688
 X75.2121 Y91.7253
 X74.8436 Y91.9050
 X74.4618 Y92.1076
 X74.0689 Y92.3332
 X73.6668 Y92.5813
 X73.2578 Y92.8517
 X72.8435 Y93.1443
 X72.4264 Y93.4586
 X72.0082 Y93.7947
 X71.5913 Y94.1522
 X71.1468 Y94.5604
 X70.7277 Y94.9744
 X70.3349 Y95.3926
 X69.9695 Y95.8131
 X69.6327 Y96.2342
 X69.3253 Y96.6540
 X69.0485 Y97.0710
 X68.8034 Y97.4832
 X69.3370 Y97.1982
 X69.8829 Y96.9261
 X70.4385 Y96.6679
 X71.0013 Y96.4240
 X71.5685 Y96.1953
 X72.1375 Y95.9826
 X72.7056 Y95.7867
 X73.2703 Y95.6081
 X73.8289 Y95.4478
 X74.3789 Y95.3064
 X74.9175 Y95.1847
 X75.4422 Y95.0835
 X75.9503 Y95.0035
 X76.4390 Y94.9454
 X76.9061 Y94.9100
 X77.3486 Y94.8981
 X77.7768 Y94.9090
 X78.2277 Y94.9417
 X78.6985 Y94.9951
 X79.1871 Y95.0690
 X79.6913 Y95.1625
 X80.2085 Y95.2751
 X80.7367 Y95.4061
 X81.2734 Y95.5550
 X81.8161 Y95.7208
 X82.3629 Y95.9033
 X82.9113 Y96.1017
 X83.4588 Y96.3153
 X84.0032 Y96.5435
 X84.5422 Y96.7857
 X85.0735 Y97.0413
 X85.5949 Y97.3096
 X85.3507 Y96.9171
 X85.0785 Y96.5211
 X84.7793 Y96.1229
 X84.4538 Y95.7242
 X84.1031 Y95.3263
 X83.7279 Y94.9307
 X83.3292 Y94.5389
 X82.9078 Y94.1522
G0 Z5.0000
 X100.0189 Y113.4467
G1 Z0.0000
 X100.0064 Y113.2007
 X99.9699 Y112.9617
 X99.9103 Y112.7307
 X99.8293 Y112.5097
 X99.7278 Y112.2997
 X99.6070 Y112.1007
 X99.4682 Y111.9157
 X99.3128 Y111.7447
 X99.1417 Y111.5887
 X98.9563 Y111.4497
 X98.7578 Y111.3297
 X98.5474 Y111.2277
 X98.3264 Y111.1467
 X98.0959 Y111.0877
 X97.8572 Y111.0507
 X97.6115 Y111.0387
 X97.3654 Y111.0507
 X97.1265 Y111.0877
 X96.8959 Y111.1467
 X96.6746 Y111.2277
 X96.4641 Y111.3297
 X96.2654 Y111.4507
 X96.0799 Y111.5897
 X95.9088 Y111.7447
 X95.7531 Y111.9157
 X95.6143 Y112.1017
 X95.4935 Y112.2997
 X95.3920 Y112.5107
 X95.3109 Y112.7317
 X95.2514 Y112.9617
 X95.2149 Y113.2007
 X95.2024 Y113.4467
 Y115.7087
 X95.2149 Y115.9547
 X95.2514 Y116.1937
 X95.3109 Y116.4237
 X95.3920 Y116.6447
 X95.4935 Y116.8557
 X95.6143 Y117.0537
 X95.7531 Y117.2397
 X95.9088 Y117.4107
 X96.0799 Y117.5657
 X96.2654 Y117.7047
 X96.4641 Y117.8257
 X96.6746 Y117.9267
 X96.8959 Y118.0077
 X97.1265 Y118.0677
 X97.3654 Y118.1037
 X97.6115 Y118.1167
 X97.8572 Y118.1037
 X98.0959 Y118.0677
 X98.3264 Y118.0077
 X98.5474 Y117.9267
 X98.7578 Y117.8257
 X98.9563 Y117.7047
 X99.1417 Y117.5657
 X99.3128 Y117.4107
 X99.4682 Y117.2397
 X99.6070 Y117.0537
 X99.7278 Y116.8557
 X99.8293 Y116.6447
 X99.9103 Y116.4237
 X99.9699 Y116.1937
 X100.0064 Y115.9547
 X100.0189 Y115.7087
 Y113.4467
G0 Z5.0000
 X128.6763 Y56.7896
G1 Z0.0000
 X128.8773 Y58.4972
 X129.0213 Y60.2150
 X129.1093 Y61.9417
 X129.1383 Y63.6758
 X129.1243 Y64.8576
 X129.0843 Y66.0333
 X129.0633 Y66.2490
 X129.0223 Y66.4575
 X128.9613 Y66.6576
 X128.8813 Y66.8486
 X128.7833 Y67.0294
 X128.6703 Y67.1990
 X128.5413 Y67.3564
 X128.3983 Y67.5004
 X128.2413 Y67.6301
 X128.0733 Y67.7446
 X127.8943 Y67.8428
 X127.7053 Y67.9236
 X127.5083 Y67.9863
 X127.3033 Y68.0294
 X127.0923 Y68.0522
 X126.8753 Y68.0538
 X126.6603 Y68.0329
 X126.4513 Y67.9913
 X126.2513 Y67.9299
 X126.0603 Y67.8499
 X125.8793 Y67.7525
 X125.7093 Y67.6388
 X125.5523 Y67.5097
 X125.4083 Y67.3665
 X125.2783 Y67.2103
 X125.1633 Y67.0421
 X125.0653 Y66.8629
 X124.9843 Y66.6740
 X124.9223 Y66.4767
 X124.8793 Y66.2715
 X124.8563 Y66.0600
 X124.8553 Y65.8432
 X124.8923 Y64.7626
 X124.9053 Y63.6758
 X124.8883 Y62.4090
 X124.8373 Y61.1464
 X124.7533 Y59.8885
 X124.6363 Y58.6358
 X124.4873 Y57.3889
 X124.3043 Y56.1486
 X124.0903 Y54.9154
 X123.8433 Y53.6900
 X123.5653 Y52.4726
 X123.2553 Y51.2645
 X122.9143 Y50.0657
 X122.5423 Y48.8771
 X122.1403 Y47.6993
 X121.7073 Y46.5328
 X121.2443 Y45.3782
 X120.7513 Y44.2363
 X120.2293 Y43.1074
 X119.6783 Y41.9924
 X119.0973 Y40.8918
 X118.4883 Y39.8061
 X117.8503 Y38.7361
 X117.1843 Y37.6822
 X116.4903 Y36.6453
 X115.7693 Y35.6257
 X115.0203 Y34.6242
 X114.2443 Y33.6411
 X113.4413 Y32.6775
 X112.6123 Y31.7336
 X111.7573 Y30.8103
 X110.8753 Y29.9081
 X109.9683 Y29.0274
 X109.0353 Y28.1690
 X108.0683 Y27.3249
 X107.0833 Y26.5099
 X106.0833 Y25.7242
 X105.0663 Y24.9678
 X104.0331 Y24.2411
 X102.9850 Y23.5442
 X101.9221 Y22.8769
 X100.8449 Y22.2399
 X99.7535 Y21.6329
 X98.6488 Y21.0563
 X97.5309 Y20.5101
 X96.4003 Y19.9945
 X95.2577 Y19.5096
 X94.1032 Y19.0556
 X92.9375 Y18.6324
 X91.7611 Y18.2406
 X90.5742 Y17.8799
 X89.3772 Y17.5507
 X88.1709 Y17.2531
 X86.9554 Y16.9871
 X85.7314 Y16.7530
 X84.4992 Y16.5509
 X83.2592 Y16.3810
 X82.0120 Y16.2433
 X80.7579 Y16.1381
 X79.4975 Y16.0653
 X78.2311 Y16.0253
 X76.9592 Y16.0182
 X75.6822 Y16.0439
 X74.4007 Y16.1029
 X73.1150 Y16.1951
 X71.8256 Y16.3206
 X70.8215 Y16.4425
 X69.8211 Y16.5864
 X68.8250 Y16.7521
 X67.8334 Y16.9395
 X66.8464 Y17.1482
 X65.8646 Y17.3783
 X64.8885 Y17.6295
 X63.9181 Y17.9017
 X62.9539 Y18.1947
 X61.9963 Y18.5083
 X61.0454 Y18.8424
 X60.1018 Y19.1968
 X59.1659 Y19.5713
 X58.2377 Y19.9658
 X57.3178 Y20.3801
 X56.4066 Y20.8140
 X55.5042 Y21.2674
 X54.6110 Y21.7400
 X53.7275 Y22.2318
 X52.8540 Y22.7426
 X51.9907 Y23.2722
 X51.1382 Y23.8204
 X50.2966 Y24.3870
 X49.4663 Y24.9720
 X48.6477 Y25.5750
 X47.8410 Y26.1960
 X47.0467 Y26.8349
 X46.2650 Y27.4913
 X45.4966 Y28.1651
 X44.7413 Y28.8564
 X43.9997 Y29.5647
 X43.2724 Y30.2899
 X42.5610 Y31.0304
 X41.8667 Y31.7846
 X41.1896 Y32.5522
 X40.5302 Y33.3329
 X39.8882 Y34.1263
 X39.2641 Y34.9321
 X38.6579 Y35.7500
 X38.0697 Y36.5796
 X37.5000 Y37.4204
 X36.9486 Y38.2724
 X36.4159 Y39.1350
 X35.9018 Y40.0079
 X35.4068 Y40.8908
 X34.9307 Y41.7833
 X34.4741 Y42.6851
 X34.0366 Y43.5958
 X33.6188 Y44.5151
 X33.2207 Y45.4428
 X32.8425 Y46.3782
 X32.4843 Y47.3213
 X32.1464 Y48.2715
 X31.8288 Y49.2288
 X31.5318 Y50.1924
 X31.2554 Y51.1622
 X30.9999 Y52.1379
 X30.7654 Y53.1190
 X30.5521 Y54.1054
 X30.3602 Y55.0964
 X30.1897 Y56.0920
 X30.0410 Y57.0917
 X29.9141 Y58.0951
 X29.8090 Y59.1020
 X29.7209 Y60.1774
 X29.6568 Y61.2521
 X29.6167 Y62.3258
 X29.6004 Y63.3981
 X29.6081 Y64.4688
 X29.6393 Y65.5371
 X29.6940 Y66.6029
 X29.7724 Y67.6658
 X29.8741 Y68.7256
 X29.9989 Y69.7814
 X30.1471 Y70.8333
 X30.3182 Y71.8807
 X30.5122 Y72.9232
 X30.7292 Y73.9606
 X30.9689 Y74.9921
 X31.2313 Y76.0178
 X31.5161 Y77.0369
 X31.8235 Y78.0494
 X32.1531 Y79.0547
 X32.5050 Y80.0524
 X32.8791 Y81.0421
 X33.2752 Y82.0235
 X33.6931 Y82.9963
 X34.1328 Y83.9599
 X34.5943 Y84.9139
 X35.0775 Y85.8582
 X35.5821 Y86.7921
 X36.1082 Y87.7154
 X36.6556 Y88.6276
 X37.2242 Y89.5285
 X37.8139 Y90.4176
 X38.4246 Y91.2943
 X39.0756 Y92.2506
 X39.6811 Y93.2308
 X40.2410 Y94.2342
 X40.7550 Y95.2596
 X41.2228 Y96.3063
 X41.6441 Y97.3731
 X42.0186 Y98.4590
 X42.3463 Y99.5633
 X42.6267 Y100.6849
 X42.8596 Y101.8226
 X43.0447 Y102.9757
 X43.1818 Y104.1432
 X43.2706 Y105.3237
 X43.3110 Y106.5177
 X43.3024 Y107.7217
 X43.2449 Y108.9367
 X43.1879 Y110.0607
 X43.1690 Y111.1837
 X43.1797 Y112.0477
 X43.2115 Y112.9087
 X43.2645 Y113.7657
 X43.3382 Y114.6187
 X43.4328 Y115.4657
 X43.5482 Y116.3087
 X43.6841 Y117.1467
 X43.8406 Y117.9787
 X44.0172 Y118.8047
 X44.2140 Y119.6247
 X44.4311 Y120.4387
 X44.6681 Y121.2457
 X44.9249 Y122.0467
 X45.2014 Y122.8387
 X45.4975 Y123.6247
 X45.8131 Y124.4017
 X46.1481 Y125.1717
 X46.5022 Y125.9327
 X46.8754 Y126.6847
 X47.2677 Y127.4277
 X47.6788 Y128.1617
 X48.1086 Y128.8867
 X48.5571 Y129.6007
 X49.0240 Y130.3057
 X49.5095 Y130.9987
 X50.0131 Y131.6827
 X50.5347 Y132.3547
 X51.0745 Y133.0157
 X51.6320 Y133.6647
 X52.2074 Y134.3017
 X52.8004 Y134.9267
 X53.4110 Y135.5387
 X54.0360 Y136.1357
 X54.6732 Y136.7157
 X55.3222 Y137.2767
 X55.9828 Y137.8207
 X56.6547 Y138.3457
 X57.3375 Y138.8527
 X58.0310 Y139.3417
 X58.7349 Y139.8127
 X59.4489 Y140.2637
 X60.1727 Y140.6977
 X60.9060 Y141.1117
 X61.6485 Y141.5067
 X62.4000 Y141.8837
 X63.1602 Y142.2407
 X63.9286 Y142.5787
 X64.7053 Y142.8967
 X65.4896 Y143.1957
 X66.2816 Y143.4747
 X67.0807 Y143.7347
 X67.8867 Y143.9747
 X68.6993 Y144.1937
 X69.5184 Y144.3937
 X70.3434 Y144.5727
 X71.1742 Y144.7317
 X72.0104 Y144.8697
 X72.8520 Y144.9877
 X73.6984 Y145.0857
 X74.5493 Y145.1617
 X75.4046 Y145.2157
 X76.2639 Y145.2507
 X77.1271 Y145.2637
 X77.9936 Y145.2567
 X78.7674 Y145.2297
 X79.5375 Y145.1867
 X80.3039 Y145.1257
 X81.0660 Y145.0477
 X81.8239 Y144.9517
 X82.5772 Y144.8397
 X83.3257 Y144.7107
 X84.0693 Y144.5637
 X84.8078 Y144.4007
 X85.5407 Y144.2227
 X86.2681 Y144.0267
 X86.9896 Y143.8167
 X87.7049 Y143.5897
 X88.4141 Y143.3477
 X89.1167 Y143.0907
 X89.8125 Y142.8187
 X90.5015 Y142.5317
 X91.1832 Y142.2297
 X91.8577 Y141.9127
 X92.5243 Y141.5817
 X93.1834 Y141.2367
 X93.8343 Y140.8777
 X94.4770 Y140.5057
 X95.1111 Y140.1197
 X95.7365 Y139.7197
 X96.3531 Y139.3077
 X96.9604 Y138.8817
 X97.5586 Y138.4437
 X98.1471 Y137.9927
 X98.7257 Y137.5297
 X99.2945 Y137.0547
 X99.8528 Y136.5677
 X100.4009 Y136.0677
 X100.9381 Y135.5577
 X101.4646 Y135.0357
 X101.9799 Y134.5017
 X102.4839 Y133.9577
 X102.9763 Y133.4027
 X103.4570 Y132.8367
 X103.9257 Y132.2607
 X104.3822 Y131.6747
 X104.8263 Y131.0787
 X105.2573 Y130.4727
 X105.6763 Y129.8567
 X106.0813 Y129.2317
 X106.4743 Y128.5967
 X106.8523 Y127.9537
 X107.2173 Y127.3017
 X107.5683 Y126.6407
 X107.9053 Y125.9707
 X108.2273 Y125.2937
 X108.5353 Y124.6077
 X108.8283 Y123.9137
 X109.1063 Y123.2127
 X109.3693 Y122.5037
 X109.6163 Y121.7877
 X109.8483 Y121.0647
 X110.0633 Y120.3347
 X110.2623 Y119.5977
 X110.4463 Y118.8547
 X110.6123 Y118.1047
 X110.7623 Y117.3497
 X110.8943 Y116.5877
 X111.0103 Y115.8207
 X111.1263 Y114.8817
 X111.2173 Y113.9407
 X111.2813 Y112.9987
 X111.3183 Y112.0567
 X111.3303 Y111.1147
 X111.3153 Y110.1737
 X111.2733 Y109.2357
 X111.2063 Y108.2997
 X111.1373 Y107.2047
 X111.1223 Y106.1047
 X111.1583 Y105.0037
 X111.2463 Y103.9003
 X111.3863 Y102.7979
 X111.5763 Y101.6976
 X111.8163 Y100.6013
 X112.1063 Y99.5104
 X112.4453 Y98.4267
 X112.8333 Y97.3517
 X113.2693 Y96.2871
 X113.7533 Y95.2345
 X114.2843 Y94.1956
 X114.8633 Y93.1720
 X115.4873 Y92.1654
 X116.1583 Y91.1772
 X116.8173 Y90.2228
 X117.4523 Y89.2557
 X118.0623 Y88.2760
 X118.6463 Y87.2840
 X119.2053 Y86.2801
 X119.7393 Y85.2643
 X120.2483 Y84.2369
 X120.7313 Y83.1982
 X121.1883 Y82.1483
 X121.6203 Y81.0876
 X122.0263 Y80.0161
 X122.4063 Y78.9343
 X122.7603 Y77.8422
 X123.0883 Y76.7403
 X123.3903 Y75.6285
 X123.6663 Y74.5071
 X123.7253 Y74.2989
 X123.8043 Y74.1015
 X123.9013 Y73.9158
 X124.0153 Y73.7426
 X124.1433 Y73.5828
 X124.2873 Y73.4368
 X124.4423 Y73.3058
 X124.6103 Y73.1904
 X124.7873 Y73.0915
 X124.9733 Y73.0097
 X125.1673 Y72.9460
 X125.3683 Y72.9010
 X125.5733 Y72.8757
 X125.7823 Y72.8707
 X125.9943 Y72.8868
 X126.2073 Y72.9249
 X126.4153 Y72.9849
 X126.6133 Y73.0639
 X126.7993 Y73.1608
 X126.9723 Y73.2743
 X127.1323 Y73.4032
 X127.2783 Y73.5461
 X127.4093 Y73.7020
 X127.5253 Y73.8692
 X127.6243 Y74.0465
 X127.7053 Y74.2329
 X127.7693 Y74.4269
 X127.8143 Y74.6274
 X127.8393 Y74.8329
 X127.8443 Y75.0424
 X127.8273 Y75.2542
 X127.7893 Y75.4674
 X127.5083 Y76.6106
 X127.2033 Y77.7453
 X128.0473 Y76.8315
 X128.9203 Y75.8982
 X129.8233 Y74.9460
 X130.7573 Y73.9760
 X131.7193 Y72.9890
 X132.7123 Y71.9860
 X133.7353 Y70.9678
 X134.7873 Y69.9353
 X135.8683 Y68.8896
 X136.9803 Y67.8315
 X138.1213 Y66.7620
 X139.2923 Y65.6818
 X140.4923 Y64.5919
 X141.7223 Y63.4935
 X142.9813 Y62.3871
 X144.2693 Y61.2738
 X144.0363 Y61.0728
 X143.7853 Y60.8646
 X143.5173 Y60.6504
 X143.2333 Y60.4313
 X142.9313 Y60.2083
 X142.6133 Y59.9826
 X142.2773 Y59.7553
 X141.9263 Y59.5274
 X141.5573 Y59.3001
 X141.1723 Y59.0746
 X140.7713 Y58.8518
 X140.3533 Y58.6331
 X139.9193 Y58.4193
 X139.4693 Y58.2117
 X139.0023 Y58.0114
 X138.5203 Y57.8193
 X138.0223 Y57.6368
 X137.5073 Y57.4649
 X136.9773 Y57.3046
 X136.4313 Y57.1571
 X135.8693 Y57.0235
 X135.2923 Y56.9050
 X134.6993 Y56.8025
 X134.0913 Y56.7174
 X133.4673 Y56.6506
 X132.8283 Y56.6032
 X132.1743 Y56.5764
 X131.5043 Y56.5713
 X130.8203 Y56.5889
 X130.1203 Y56.6304
 X129.4063 Y56.6969
 X128.6763 Y56.7896
G0 Z5.0000
 X56.8889 Y122.3497
G1 Z0.0000
 X56.5477 Y122.3407
 X56.2107 Y122.3157
 X55.8786 Y122.2727
 X55.5520 Y122.2147
 X55.2309 Y122.1407
 X54.9159 Y122.0507
 X54.6074 Y121.9457
 X54.3059 Y121.8267
 X54.0117 Y121.6937
 X53.7253 Y121.5467
 X53.4472 Y121.3867
 X53.1777 Y121.2137
 X52.9172 Y121.0287
 X52.6663 Y120.8317
 X52.4252 Y120.6227
 X52.1943 Y120.4027
 X51.9743 Y120.1717
 X51.7653 Y119.9307
 X51.5681 Y119.6797
 X51.3827 Y119.4197
 X51.2097 Y119.1497
 X51.0496 Y118.8717
 X50.9028 Y118.5857
 X50.7696 Y118.2917
 X50.6506 Y117.9897
 X50.5460 Y117.6817
 X50.4563 Y117.3667
 X50.3820 Y117.0457
 X50.3235 Y116.7187
 X50.2813 Y116.3867
 X50.2556 Y116.0507
 X50.2468 Y115.7087
 Y113.4467
 X50.2556 Y113.1047
 X50.2813 Y112.7687
 X50.3235 Y112.4367
 X50.3820 Y112.1097
 X50.4563 Y111.7887
 X50.5460 Y111.4737
 X50.6506 Y111.1657
 X50.7696 Y110.8637
 X50.9028 Y110.5697
 X51.0496 Y110.2837
 X51.2097 Y110.0057
 X51.3827 Y109.7357
 X51.5681 Y109.4757
 X51.7653 Y109.2247
 X51.9743 Y108.9837
 X52.1943 Y108.7527
 X52.4252 Y108.5327
 X52.6663 Y108.3237
 X52.9172 Y108.1267
 X53.1777 Y107.9407
 X53.4472 Y107.7677
 X53.7253 Y107.6077
 X54.0117 Y107.4617
 X54.3059 Y107.3277
 X54.6074 Y107.2087
 X54.9159 Y107.1047
 X55.2309 Y107.0147
 X55.5520 Y106.9407
 X55.8786 Y106.8817
 X56.2107 Y106.8397
 X56.5477 Y106.8137
 X56.8889 Y106.8057
 X57.2302 Y106.8137
 X57.5670 Y106.8397
 X57.8989 Y106.8817
 X58.2254 Y106.9407
 X58.5466 Y107.0147
 X58.8614 Y107.1047
 X59.1697 Y107.2087
 X59.4713 Y107.3277
 X59.7653 Y107.4617
 X60.0515 Y107.6077
 X60.3296 Y107.7677
 X60.5992 Y107.9407
 X60.8596 Y108.1267
 X61.1104 Y108.3237
 X61.3516 Y108.5327
 X61.5824 Y108.7527
 X61.8024 Y108.9837
 X62.0113 Y109.2247
 X62.2086 Y109.4757
 X62.3939 Y109.7357
 X62.5668 Y110.0057
 X62.7270 Y110.2837
 X62.8738 Y110.5697
 X63.0070 Y110.8637
 X63.1260 Y111.1657
 X63.2306 Y111.4737
 X63.3202 Y111.7887
 X63.3945 Y112.1097
 X63.4529 Y112.4367
 X63.4953 Y112.7687
 X63.5210 Y113.1047
 X63.5296 Y113.4467
 Y115.7087
 X63.5210 Y116.0507
 X63.4953 Y116.3867
 X63.4529 Y116.7187
 X63.3945 Y117.0457
 X63.3202 Y117.3667
 X63.2306 Y117.6817
 X63.1260 Y117.9897
 X63.0070 Y118.2917
 X62.8738 Y118.5857
 X62.7270 Y118.8717
 X62.5668 Y119.1497
 X62.3939 Y119.4197
 X62.2086 Y119.6797
 X62.0113 Y119.9307
 X61.8024 Y120.1717
 X61.5824 Y120.4027
 X61.3516 Y120.6227
 X61.1104 Y120.8317
 X60.8596 Y121.0287
 X60.5992 Y121.2137
 X60.3296 Y121.3867
 X60.0515 Y121.5467
 X59.7653 Y121.6937
 X59.4713 Y121.8267
 X59.1697 Y121.9457
 X58.8614 Y122.0507
 X58.5466 Y122.1407
 X58.2254 Y122.2147
 X57.8989 Y122.2727
 X57.5670 Y122.3157
 X57.2302 Y122.3407
 X56.8889 Y122.3497
G0 Z5.0000
 X77.2496 Y112.8477
G1 Z0.0000
 X76.7978 Y112.8287
 X76.3247 Y112.7717
 X75.8327 Y112.6777
 X75.3241 Y112.5487
 X74.8011 Y112.3867
 X74.2661 Y112.1907
 X73.7217 Y111.9647
 X73.1699 Y111.7077
 X72.6131 Y111.4217
 X72.0538 Y111.1087
 X71.4940 Y110.7697
 X70.9366 Y110.4057
 X70.3834 Y110.0177
 X69.8370 Y109.6077
 X69.2996 Y109.1757
 X68.7738 Y108.7247
 X68.2616 Y108.2557
 X67.7656 Y107.7687
 X67.2879 Y107.2667
 X66.8311 Y106.7487
 X66.3974 Y106.2187
 X65.9890 Y105.6767
 X65.6085 Y105.1227
 X65.2582 Y104.5603
 X64.9403 Y103.9893
 X64.6571 Y103.4117
 X64.4113 Y102.8282
 X64.2047 Y102.2406
 X64.0400 Y101.6499
 X63.9195 Y101.0575
 X63.8456 Y100.4646
 X63.8203 Y99.8725
 X63.8456 Y99.2804
 X63.9195 Y98.6876
 X64.0400 Y98.0951
 X64.2047 Y97.5045
 X64.4113 Y96.9168
 X64.6571 Y96.3335
 X64.9403 Y95.7557
 X65.2582 Y95.1849
 X65.6085 Y94.6221
 X65.9890 Y94.0689
 X66.3974 Y93.5264
 X66.8311 Y92.9958
 X67.2879 Y92.4788
 X67.7656 Y91.9761
 X68.2616 Y91.4896
 X68.7738 Y91.0200
 X69.2996 Y90.5692
 X69.8370 Y90.1379
 X70.3834 Y89.7276
 X70.9366 Y89.3399
 X71.4940 Y88.9757
 X72.0538 Y88.6364
 X72.6131 Y88.3233
 X73.1699 Y88.0376
 X73.7217 Y87.7808
 X74.2661 Y87.5542
 X74.8011 Y87.3588
 X75.3241 Y87.1960
 X75.8327 Y87.0671
 X76.3247 Y86.9735
 X76.7978 Y86.9164
 X77.2496 Y86.8971
 X77.7011 Y86.9164
 X78.1742 Y86.9735
 X78.6663 Y87.0671
 X79.1749 Y87.1960
 X79.6978 Y87.3588
 X80.2327 Y87.5542
 X80.7771 Y87.7808
 X81.3289 Y88.0376
 X81.8857 Y88.3233
 X82.4450 Y88.6364
 X83.0047 Y88.9757
 X83.5622 Y89.3399
 X84.1154 Y89.7276
 X84.6618 Y90.1379
 X85.1991 Y90.5692
 X85.7250 Y91.0200
 X86.2371 Y91.4896
 X86.7332 Y91.9761
 X87.2109 Y92.4788
 X87.6677 Y92.9958
 X88.1014 Y93.5264
 X88.5096 Y94.0689
 X88.8902 Y94.6221
 X89.2404 Y95.1849
 X89.5584 Y95.7557
 X89.8415 Y96.3335
 X90.0874 Y96.9168
 X90.2939 Y97.5045
 X90.4586 Y98.0951
 X90.5792 Y98.6876
 X90.6531 Y99.2804
 X90.6784 Y99.8725
 X90.6531 Y100.4646
 X90.5792 Y101.0575
 X90.4586 Y101.6499
 X90.2939 Y102.2406
 X90.0874 Y102.8282
 X89.8415 Y103.4117
 X89.5584 Y103.9893
 X89.2404 Y104.5603
 X88.8902 Y105.1227
 X88.5096 Y105.6767
 X88.1014 Y106.2187
 X87.6677 Y106.7487
 X87.2109 Y107.2667
 X86.7332 Y107.7687
 X86.2371 Y108.2557
 X85.7250 Y108.7247
 X85.1991 Y109.1757
 X84.6618 Y109.6077
 X84.1154 Y110.0177
 X83.5622 Y110.4057
 X83.0047 Y110.7697
 X82.4450 Y111.1087
 X81.8857 Y111.4217
 X81.3289 Y111.7077
 X80.7771 Y111.9647
 X80.2327 Y112.1907
 X79.6978 Y112.3867
 X79.1749 Y112.5487
 X78.6663 Y112.6777
 X78.1742 Y112.7717
 X77.7011 Y112.8287
 X77.2496 Y112.8477
G0 Z5.0000
 X97.6102 Y122.3497
G1 Z0.0000
 X97.2689 Y122.3407
 X96.9321 Y122.3157
 X96.6002 Y122.2727
 X96.2735 Y122.2147
 X95.9525 Y122.1407
 X95.6375 Y122.0507
 X95.3292 Y121.9457
 X95.0278 Y121.8267
 X94.7336 Y121.6937
 X94.4474 Y121.5467
 X94.1692 Y121.3867
 X93.8997 Y121.2137
 X93.6393 Y121.0287
 X93.3884 Y120.8317
 X93.1472 Y120.6227
 X92.9166 Y120.4027
 X92.6965 Y120.1717
 X92.4875 Y119.9307
 X92.2903 Y119.6797
 X92.1049 Y119.4197
 X91.9320 Y119.1497
 X91.7718 Y118.8717
 X91.6250 Y118.5857
 X91.4918 Y118.2917
 X91.3727 Y117.9897
 X91.2682 Y117.6817
 X91.1785 Y117.3667
 X91.1042 Y117.0457
 X91.0457 Y116.7187
 X91.0034 Y116.3867
 X90.9777 Y116.0507
 X90.9691 Y115.7087
 Y113.4467
 X90.9777 Y113.1047
 X91.0034 Y112.7687
 X91.0457 Y112.4367
 X91.1042 Y112.1097
 X91.1785 Y111.7887
 X91.2682 Y111.4737
 X91.3727 Y111.1657
 X91.4918 Y110.8637
 X91.6250 Y110.5697
 X91.7718 Y110.2837
 X91.9320 Y110.0057
 X92.1049 Y109.7357
 X92.2903 Y109.4757
 X92.4875 Y109.2247
 X92.6965 Y108.9837
 X92.9166 Y108.7527
 X93.1472 Y108.5327
 X93.3884 Y108.3237
 X93.6393 Y108.1267
 X93.8997 Y107.9407
 X94.1692 Y107.7677
 X94.4474 Y107.6077
 X94.7336 Y107.4617
 X95.0278 Y107.3277
 X95.3292 Y107.2087
 X95.6375 Y107.1047
 X95.9525 Y107.0147
 X96.2735 Y106.9407
 X96.6002 Y106.8817
 X96.9321 Y106.8397
 X97.2689 Y106.8137
 X97.6102 Y106.8057
 X97.9514 Y106.8137
 X98.2882 Y106.8397
 X98.6203 Y106.8817
 X98.9470 Y106.9407
 X99.2681 Y107.0147
 X99.5831 Y107.1047
 X99.8915 Y107.2087
 X100.1931 Y107.3277
 X100.4871 Y107.4617
 X100.7735 Y107.6077
 X101.0517 Y107.7677
 X101.3213 Y107.9407
 X101.5817 Y108.1267
 X101.8327 Y108.3237
 X102.0738 Y108.5327
 X102.3046 Y108.7527
 X102.5246 Y108.9837
 X102.7336 Y109.2247
 X102.9309 Y109.4757
 X103.1163 Y109.7357
 X103.2892 Y110.0057
 X103.4493 Y110.2837
 X103.5963 Y110.5697
 X103.7295 Y110.8637
 X103.8485 Y111.1657
 X103.9531 Y111.4737
 X104.0427 Y111.7887
 X104.1170 Y112.1097
 X104.1754 Y112.4367
 X104.2178 Y112.7687
 X104.2435 Y113.1047
 X104.2522 Y113.4467
 Y115.7087
 X104.2435 Y116.0507
 X104.2178 Y116.3867
 X104.1754 Y116.7187
 X104.1170 Y117.0457
 X104.0427 Y117.3667
 X103.9531 Y117.6817
 X103.8485 Y117.9897
 X103.7295 Y118.2917
 X103.5963 Y118.5857
 X103.4493 Y118.8717
 X103.2892 Y119.1497
 X103.1163 Y119.4197
 X102.9309 Y119.6797
 X102.7336 Y119.9307
 X102.5246 Y120.1717
 X102.3046 Y120.4027
 X102.0738 Y120.6227
 X101.8327 Y120.8317
 X101.5817 Y121.0287
 X101.3213 Y121.2137
 X101.0517 Y121.3867
 X100.7735 Y121.5467
 X100.4871 Y121.6937
 X100.1931 Y121.8267
 X99.8915 Y121.9457
 X99.5831 Y122.0507
 X99.2681 Y122.1407
 X98.9470 Y122.2147
 X98.6203 Y122.2727
 X98.2882 Y122.3157
 X97.9514 Y122.3407
 X97.6102 Y122.3497
G0 Z5.0000
 X148.7403 Y63.0361
G1 Z0.0000
 X147.4153 Y64.1560
 X146.1143 Y65.2761
 X144.8363 Y66.3954
 X143.5843 Y67.5125
 X142.3573 Y68.6263
 X141.1553 Y69.7354
 X139.9793 Y70.8388
 X138.8293 Y71.9350
 X137.7063 Y73.0229
 X136.6103 Y74.1013
 X135.5423 Y75.1688
 X134.5013 Y76.2243
 X133.4883 Y77.2665
 X132.5043 Y78.2942
 X131.5493 Y79.3061
 X130.6233 Y80.3010
 X129.7273 Y81.2776
 X128.8613 Y82.2349
 X128.0263 Y83.1713
 X127.2213 Y84.0857
 X126.4483 Y84.9770
 X125.7063 Y85.8438
 X124.9973 Y86.6849
 X124.3193 Y87.4990
 X123.6753 Y88.2851
 X123.0643 Y89.0417
 X122.4863 Y89.7676
 X121.9433 Y90.4617
 X121.4333 Y91.1226
 X120.9593 Y91.7492
 X120.5193 Y92.3401
 X120.1163 Y92.8942
 X119.6103 Y93.6258
 X119.0443 Y94.4586
 X118.5183 Y95.3060
 X118.0303 Y96.1665
 X117.5813 Y97.0390
 X117.1733 Y97.9220
 X116.8043 Y98.8140
 X116.4773 Y99.7138
 X116.1903 Y100.6199
 X115.9453 Y101.5310
 X115.7413 Y102.4457
 X115.5803 Y103.3628
 X115.4623 Y104.2807
 X115.3863 Y105.1987
 X115.3543 Y106.1137
 X115.3663 Y107.0267
 X115.4223 Y107.9337
 X115.4993 Y108.9887
 X115.5453 Y110.0457
 X115.5623 Y111.1057
 X115.5503 Y112.1657
 X115.5073 Y113.2267
 X115.4353 Y114.2877
 X115.3333 Y115.3457
 X115.2023 Y116.4027
 X115.0723 Y117.2647
 X114.9233 Y118.1207
 X114.7553 Y118.9707
 X114.5673 Y119.8127
 X114.3623 Y120.6487
 X114.1383 Y121.4767
 X113.8953 Y122.2967
 X113.6353 Y123.1097
 X113.3573 Y123.9147
 X113.0623 Y124.7117
 X112.7493 Y125.4997
 X112.4203 Y126.2797
 X112.0743 Y127.0497
 X111.7123 Y127.8117
 X111.3333 Y128.5637
 X110.9383 Y129.3077
 X110.5283 Y130.0407
 X110.1023 Y130.7637
 X109.6613 Y131.4767
 X109.2053 Y132.1797
 X108.7353 Y132.8717
 X108.2503 Y133.5527
 X107.7513 Y134.2227
 X107.2373 Y134.8817
 X106.7113 Y135.5297
 X106.1703 Y136.1657
 X105.6173 Y136.7897
 X105.0503 Y137.4007
 X104.4709 Y138.0007
 X103.8791 Y138.5877
 X103.2749 Y139.1617
 X102.6588 Y139.7227
 X102.0310 Y140.2697
 X101.3917 Y140.8047
 X100.7411 Y141.3247
 X100.0795 Y141.8317
 X99.4071 Y142.3247
 X98.7242 Y142.8027
 X98.0310 Y143.2667
 X97.3279 Y143.7157
 X96.6149 Y144.1497
 X95.8924 Y144.5687
 X95.1606 Y144.9717
 X94.4197 Y145.3587
 X93.6702 Y145.7317
 X92.9120 Y146.0867
 X92.1454 Y146.4257
 X91.3710 Y146.7497
 X90.5886 Y147.0547
 X89.7986 Y147.3447
 X89.0014 Y147.6157
 X88.1971 Y147.8717
 X87.3860 Y148.1077
 X86.5682 Y148.3267
 X85.7442 Y148.5287
 X84.9141 Y148.7117
 X84.0779 Y148.8757
 X83.2364 Y149.0217
 X82.3895 Y149.1477
 X81.5374 Y149.2547
 X80.6806 Y149.3437
 X79.8191 Y149.4117
 X78.9531 Y149.4607
 X78.0831 Y149.4897
 X77.1100 Y149.4977
 X76.1407 Y149.4837
 X75.1754 Y149.4447
 X74.2146 Y149.3827
 X73.2585 Y149.2967
 X72.3075 Y149.1887
 X71.3620 Y149.0547
 X70.4220 Y148.8997
 X69.4882 Y148.7217
 X68.5609 Y148.5187
 X67.6402 Y148.2947
 X66.7266 Y148.0477
 X65.8203 Y147.7787
 X64.9218 Y147.4867
 X64.0314 Y147.1727
 X63.1493 Y146.8367
 X62.2761 Y146.4787
 X61.4118 Y146.0977
 X60.5570 Y145.6967
 X59.7118 Y145.2747
 X58.8766 Y144.8297
 X58.0518 Y144.3627
 X57.2378 Y143.8767
 X56.4349 Y143.3687
 X55.6432 Y142.8397
 X54.8632 Y142.2897
 X54.0953 Y141.7197
 X53.3399 Y141.1287
 X52.5970 Y140.5177
 X51.8671 Y139.8867
 X51.1507 Y139.2347
 X50.4479 Y138.5637
 X49.7617 Y137.8757
 X49.0953 Y137.1727
 X48.4486 Y136.4567
 X47.8220 Y135.7267
 X47.2153 Y134.9837
 X46.6289 Y134.2287
 X46.0628 Y133.4607
 X45.5174 Y132.6807
 X44.9925 Y131.8887
 X44.4884 Y131.0857
 X44.0053 Y130.2707
 X43.5431 Y129.4457
 X43.1022 Y128.6107
 X42.6827 Y127.7647
 X42.2845 Y126.9087
 X41.9081 Y126.0437
 X41.5532 Y125.1697
 X41.2204 Y124.2867
 X40.9095 Y123.3957
 X40.6209 Y122.4957
 X40.3545 Y121.5887
 X40.1106 Y120.6737
 X39.8892 Y119.7517
 X39.6906 Y118.8227
 X39.5147 Y117.8867
 X39.3620 Y116.9457
 X39.2322 Y115.9977
 X39.1259 Y115.0447
 X39.0429 Y114.0867
 X38.9835 Y113.1237
 X38.9477 Y112.1557
 X38.9357 Y111.1837
 X38.9572 Y109.9187
 X39.0214 Y108.6537
 X39.0704 Y107.6227
 X39.0782 Y106.6017
 X39.0449 Y105.5907
 X38.9707 Y104.5910
 X38.8560 Y103.6032
 X38.7009 Y102.6279
 X38.5056 Y101.6664
 X38.2704 Y100.7190
 X37.9954 Y99.7869
 X37.6811 Y98.8707
 X37.3274 Y97.9713
 X36.9347 Y97.0895
 X36.5032 Y96.2260
 X36.0332 Y95.3817
 X35.5249 Y94.5574
 X34.9782 Y93.7539
 X34.6240 Y93.2456
 X34.3881 Y92.9214
 X34.1077 Y92.5404
 X33.7828 Y92.1046
 X33.4138 Y91.6154
 X33.0007 Y91.0747
 X32.5438 Y90.4840
 X32.0431 Y89.8451
 X31.4988 Y89.1596
 X30.9110 Y88.4290
 X30.2800 Y87.6553
 X29.6060 Y86.8397
 X28.8889 Y85.9843
 X28.1289 Y85.0906
 X27.3264 Y84.1601
 X26.4813 Y83.1947
 X25.5938 Y82.1958
 X24.6642 Y81.1654
 X23.6925 Y80.1050
 X22.6789 Y79.0161
 X21.6235 Y77.9006
 X20.5266 Y76.7600
 X19.3881 Y75.5961
 X18.2084 Y74.4104
 X16.9875 Y73.2047
 X15.7257 Y71.9806
 X14.4230 Y70.7397
 X13.0797 Y69.4839
 X11.6957 Y68.2145
 X10.2715 Y66.9335
 X8.8070 Y65.6422
 X7.3025 Y64.3426
 X5.7580 Y63.0361
 X5.6019 Y62.8918
 X5.4635 Y62.7356
 X5.3428 Y62.5689
 X5.2400 Y62.3933
 X5.1553 Y62.2100
 X5.0888 Y62.0206
 X5.0406 Y61.8264
 X5.0110 Y61.6289
 X5.0000 Y61.4295
 X5.0078 Y61.2296
 X5.0346 Y61.0307
 X5.0805 Y60.8340
 X5.1456 Y60.6413
 X5.2300 Y60.4536
 X5.3341 Y60.2726
 X5.4578 Y60.0996
 X5.5012 Y60.0457
 X5.5781 Y59.9531
 X5.6882 Y59.8243
 X5.8315 Y59.6622
 X6.0079 Y59.4695
 X6.2171 Y59.2485
 X6.4590 Y59.0022
 X6.7336 Y58.7331
 X7.0407 Y58.4438
 X7.3801 Y58.1370
 X7.7516 Y57.8154
 X8.1552 Y57.4817
 X8.5907 Y57.1382
 X9.0580 Y56.7881
 X9.5569 Y56.4335
 X10.0873 Y56.0775
 X10.6490 Y55.7225
 X11.2420 Y55.3711
 X11.8660 Y55.0263
 X12.5209 Y54.6903
 X13.2066 Y54.3660
 X13.9230 Y54.0560
 X14.6698 Y53.7631
 X15.4471 Y53.4896
 X16.2545 Y53.2385
 X17.0920 Y53.0122
 X17.9595 Y52.8135
 X18.8568 Y52.6450
 X19.7838 Y52.5094
 X20.7402 Y52.4093
 X21.7260 Y52.3474
 X22.7411 Y52.3261
 X23.6578 Y52.3435
 X24.5972 Y52.3965
 X25.5590 Y52.4867
 X26.5431 Y52.6154
 X26.9617 Y50.8510
 X27.4422 Y49.1032
 X27.9842 Y47.3736
 X28.5867 Y45.6642
 X29.2488 Y43.9764
 X29.9699 Y42.3119
 X30.7491 Y40.6726
 X31.5857 Y39.0600
 X32.4789 Y37.4758
 X33.4281 Y35.9218
 X34.4322 Y34.3996
 X35.4907 Y32.9108
 X36.6027 Y31.4572
 X37.7674 Y30.0406
 X38.9841 Y28.6624
 X40.2520 Y27.3245
 X41.6274 Y25.9742
 X43.0478 Y24.6793
 X44.5113 Y23.4408
 X46.0159 Y22.2595
 X47.5596 Y21.1364
 X49.1404 Y20.0722
 X50.7567 Y19.0681
 X52.4063 Y18.1247
 X50.6285 Y9.2333
 X41.0524
 X40.8359 Y9.2224
 X40.6256 Y9.1904
 X40.4227 Y9.1383
 X40.2282 Y9.0672
 X40.0431 Y8.9781
 X39.8686 Y8.8722
 X39.7057 Y8.7504
 X39.5553 Y8.6138
 X39.4188 Y8.4636
 X39.2970 Y8.3007
 X39.1910 Y8.1261
 X39.1020 Y7.9411
 X39.0309 Y7.7465
 X38.9788 Y7.5436
 X38.9467 Y7.3333
 X38.9357 Y7.1166
 X38.9467 Y6.9003
 X38.9788 Y6.6903
 X39.0309 Y6.4875
 X39.1020 Y6.2930
 X39.1910 Y6.1080
 X39.2970 Y5.9335
 X39.4188 Y5.7705
 X39.5553 Y5.6202
 X39.7057 Y5.4836
 X39.8686 Y5.3617
 X40.0431 Y5.2556
 X40.2282 Y5.1664
 X40.4227 Y5.0952
 X40.6256 Y5.0431
 X40.8359 Y5.0110
 X41.0524 Y5.0000
 X59.1503
 X59.3668 Y5.0110
 X59.5771 Y5.0431
 X59.7800 Y5.0952
 X59.9745 Y5.1664
 X60.1595 Y5.2556
 X60.3341 Y5.3617
 X60.4970 Y5.4836
 X60.6472 Y5.6202
 X60.7838 Y5.7705
 X60.9056 Y5.9335
 X61.0117 Y6.1080
 X61.1007 Y6.2930
 X61.1718 Y6.4875
 X61.2239 Y6.6903
 X61.2560 Y6.9003
 X61.2670 Y7.1166
 X61.2560 Y7.3333
 X61.2239 Y7.5436
 X61.1718 Y7.7465
 X61.1007 Y7.9411
 X61.0117 Y8.1261
 X60.9056 Y8.3007
 X60.7838 Y8.4636
 X60.6472 Y8.6138
 X60.4970 Y8.7504
 X60.3341 Y8.8722
 X60.1595 Y8.9781
 X59.9745 Y9.0672
 X59.7800 Y9.1383
 X59.5771 Y9.1904
 X59.3668 Y9.2224
 X59.1503 Y9.2333
 X54.9459
 X56.3352 Y16.1816
 X58.1350 Y15.4245
 X59.9613 Y14.7363
 X61.8121 Y14.1181
 X63.6853 Y13.5709
 X65.5789 Y13.0959
 X67.4906 Y12.6939
 X69.4188 Y12.3662
 X71.3610 Y12.1138
 X72.8472 Y11.9699
 X74.3293 Y11.8675
 X75.8074 Y11.8061
 X77.2813 Y11.7857
 X79.3527 Y11.8265
 X81.4135 Y11.9486
 X83.4629 Y12.1521
 X85.4999 Y12.4368
 X87.5236 Y12.8027
 X89.5329 Y13.2496
 X91.5270 Y13.7774
 X93.5049 Y14.3860
 X94.6897 Y14.7928
 X95.8613 Y15.2273
 X97.0193 Y15.6886
 X98.1641 Y16.1760
 X99.5529 Y9.2348
 X95.3474
 X95.1310 Y9.2238
 X94.9209 Y9.1918
 X94.7181 Y9.1396
 X94.5236 Y9.0684
 X94.3386 Y8.9793
 X94.1641 Y8.8732
 X94.0010 Y8.7514
 X93.8507 Y8.6147
 X93.7141 Y8.4644
 X93.5922 Y8.3014
 X93.4861 Y8.1269
 X93.3971 Y7.9419
 X93.3259 Y7.7475
 X93.2736 Y7.5446
 X93.2417 Y7.3345
 X93.2307 Y7.1181
 X93.2417 Y6.9015
 X93.2736 Y6.6912
 X93.3259 Y6.4883
 X93.3971 Y6.2938
 X93.4861 Y6.1088
 X93.5922 Y5.9343
 X93.7141 Y5.7714
 X93.8507 Y5.6211
 X94.0010 Y5.4845
 X94.1641 Y5.3627
 X94.3386 Y5.2567
 X94.5236 Y5.1676
 X94.7181 Y5.0965
 X94.9209 Y5.0444
 X95.1310 Y5.0124
 X95.3474 Y5.0014
 X113.4463
 X113.6633 Y5.0124
 X113.8733 Y5.0444
 X114.0763 Y5.0965
 X114.2703 Y5.1676
 X114.4553 Y5.2567
 X114.6303 Y5.3627
 X114.7933 Y5.4845
 X114.9433 Y5.6211
 X115.0803 Y5.7714
 X115.2013 Y5.9343
 X115.3073 Y6.1088
 X115.3973 Y6.2938
 X115.4683 Y6.4883
 X115.5203 Y6.6912
 X115.5523 Y6.9015
 X115.5633 Y7.1181
 X115.5523 Y7.3345
 X115.5203 Y7.5446
 X115.4683 Y7.7475
 X115.3973 Y7.9419
 X115.3073 Y8.1269
 X115.2013 Y8.3014
 X115.0803 Y8.4644
 X114.9433 Y8.6147
 X114.7933 Y8.7514
 X114.6303 Y8.8732
 X114.4553 Y8.9793
 X114.2703 Y9.0684
 X114.0763 Y9.1396
 X113.8733 Y9.1918
 X113.6633 Y9.2238
 X113.4463 Y9.2348
 X103.8706
 X102.0953 Y18.1068
 X103.3928 Y18.8394
 X104.6689 Y19.6099
 X105.9233 Y20.4181
 X107.1563 Y21.2638
 X108.3663 Y22.1467
 X109.5533 Y23.0665
 X110.7183 Y24.0231
 X111.8583 Y25.0163
 X112.6183 Y25.7107
 X113.3633 Y26.4188
 X114.0923 Y27.1401
 X114.8053 Y27.8746
 X115.5033 Y28.6217
 X116.1853 Y29.3814
 X116.8503 Y30.1533
 X117.5003 Y30.9371
 X118.1333 Y31.7326
 X118.7503 Y32.5396
 X119.3513 Y33.3576
 X119.9353 Y34.1865
 X120.5023 Y35.0260
 X121.0533 Y35.8757
 X121.5863 Y36.7354
 X122.1023 Y37.6050
 X122.6013 Y38.4840
 X123.0833 Y39.3722
 X123.5473 Y40.2693
 X123.9943 Y41.1750
 X124.4233 Y42.0892
 X124.8343 Y43.0114
 X125.2273 Y43.9414
 X125.6033 Y44.8789
 X125.9603 Y45.8239
 X126.2983 Y46.7757
 X126.6193 Y47.7343
 X126.9203 Y48.6993
 X127.2033 Y49.6704
 X127.4673 Y50.6475
 X127.7133 Y51.6303
 X127.9393 Y52.6182
 X128.9273 Y52.4885
 X129.8933 Y52.3974
 X130.8373 Y52.3438
 X131.7573 Y52.3261
 X132.7723 Y52.3476
 X133.7583 Y52.4097
 X134.7143 Y52.5101
 X135.6413 Y52.6460
 X136.5383 Y52.8146
 X137.4063 Y53.0133
 X138.2433 Y53.2397
 X139.0513 Y53.4910
 X139.8283 Y53.7645
 X140.5753 Y54.0575
 X141.2913 Y54.3675
 X141.9773 Y54.6920
 X142.6313 Y55.0278
 X143.2553 Y55.3728
 X143.8483 Y55.7240
 X144.4103 Y56.0790
 X144.9403 Y56.4350
 X145.4393 Y56.7895
 X145.9073 Y57.1397
 X146.3423 Y57.4829
 X146.7463 Y57.8167
 X147.1173 Y58.1382
 X147.4573 Y58.4449
 X147.7643 Y58.7340
 X148.0393 Y59.0031
 X148.2813 Y59.2493
 X148.4893 Y59.4701
 X148.6653 Y59.6628
 X148.8103 Y59.8247
 X148.9193 Y59.9533
 X148.9963 Y60.0458
 X149.0393 Y60.0996
 X149.1643 Y60.2726
 X149.2683 Y60.4536
 X149.3533 Y60.6413
 X149.4183 Y60.8340
 X149.4643 Y61.0307
 X149.4903 Y61.2296
 X149.4993 Y61.4295
 X149.4873 Y61.6289
 X149.4573 Y61.8264
 X149.4103 Y62.0206
 X149.3433 Y62.2100
 X149.2583 Y62.3933
 X149.1563 Y62.5689
 X149.0353 Y62.7356
 X148.8963 Y62.8918
 X148.7403 Y63.0361
G0 Z5.0000
G0 Z5.0000
M2 (end program)
