;PYCAM-META-DATA: Filename: /media/martoio/MARTOIO/ME43/std_lib/svg/015-abacus.svg
;PYCAM-META-DATA: Timestamp: 2017-12-06 02:01:03.913940
;PYCAM-META-DATA: Version: 0.5.1
;Estimated machine time: 15 minutes
G40 (disable tool radius compensation)
G49 (disable tool length compensation)
G80 (cancel modal motion)
G54 (select coordinate system 1)
G90 (disable incremental moves)
G21 (metric)
G61 (exact path mode)
F400.00000
S1.00000
;PYCAM_TOOLPATH_SETTINGS: START
;[Bounds]
;maxz = 0.0
;maxx = 163.4467
;maxy = 163.447475826
;minx = -8.9497
;miny = -8.9497705296
;minz = 0.0
;
;[Tool]
;torus_radius = 0.25
;speed = 1.0
;shape = CylindricalCutter
;tool_radius = 0.5
;feedrate = 400.0
;
;[Process]
;engrave_offset = 0.0
;step_down = 1.0
;generator = EngraveCutter
;postprocessor = SimpleCutter
;overlap_percent = 0
;milling_style = conventional
;material_allowance = 0.0
;pocketing_type = none
;path_direction = x
;
;PYCAM_TOOLPATH_SETTINGS: END
T1 M6
G0 Z5.0000
 X21.8575 Y38.7167
G1 Z0.0000
 X50.7578
 X51.0038 Y38.7292
 X51.2426 Y38.7657
 X51.4732 Y38.8251
 X51.6944 Y38.9061
 X51.9047 Y39.0075
 X52.1032 Y39.1282
 X52.2886 Y39.2669
 X52.4596 Y39.4224
 X52.6150 Y39.5935
 X52.7538 Y39.7789
 X52.8743 Y39.9775
 X52.9757 Y40.1881
 X53.0568 Y40.4093
 X53.1161 Y40.6401
 X53.1526 Y40.8793
 X53.1651 Y41.1254
 Y45.9417
 X53.1775 Y46.1874
 X53.2142 Y46.4261
 X53.2736 Y46.6567
 X53.3549 Y46.8779
 X53.4565 Y47.0883
 X53.5774 Y47.2870
 X53.7163 Y47.4725
 X53.8719 Y47.6438
 X54.0432 Y47.7993
 X54.2286 Y47.9382
 X54.4272 Y48.0590
 X54.6378 Y48.1607
 X54.8589 Y48.2418
 X55.0894 Y48.3013
 X55.3282 Y48.3379
 X55.5739 Y48.3504
 X55.8196 Y48.3379
 X56.0585 Y48.3013
 X56.2890 Y48.2418
 X56.5101 Y48.1607
 X56.7207 Y48.0590
 X56.9193 Y47.9382
 X57.1049 Y47.7993
 X57.2761 Y47.6438
 X57.4318 Y47.4725
 X57.5707 Y47.2870
 X57.6915 Y47.0883
 X57.7932 Y46.8779
 X57.8743 Y46.6567
 X57.9339 Y46.4261
 X57.9706 Y46.1874
 X57.9829 Y45.9417
 Y36.3090
 X57.9706 Y36.0633
 X57.9339 Y35.8246
 X57.8743 Y35.5940
 X57.7932 Y35.3729
 X57.6915 Y35.1624
 X57.5707 Y34.9638
 X57.4318 Y34.7783
 X57.2761 Y34.6071
 X57.1049 Y34.4515
 X56.9193 Y34.3126
 X56.7207 Y34.1917
 X56.5101 Y34.0901
 X56.2890 Y34.0089
 X56.0585 Y33.9493
 X55.8196 Y33.9128
 X55.5739 Y33.9003
 X55.3324 Y33.9121
 X55.0964 Y33.9471
 X54.8671 Y34.0047
 X54.6460 Y34.0845
 X54.4340 Y34.1857
 X54.2326 Y34.3079
 X54.0432 Y34.4504
 X53.8668 Y34.6128
 X53.6849 Y34.7799
 X53.4908 Y34.9249
 X53.2864 Y35.0478
 X53.0732 Y35.1488
 X52.8529 Y35.2276
 X52.6274 Y35.2844
 X52.3983 Y35.3192
 X52.1674 Y35.3321
 X51.9362 Y35.3228
 X51.7067 Y35.2914
 X51.4804 Y35.2381
 X51.2592 Y35.1626
 X51.0446 Y35.0651
 X50.8385 Y34.9457
 X50.6426 Y34.8040
 X50.4586 Y34.6404
 X50.2921 Y34.4586
 X50.1475 Y34.2646
 X50.0249 Y34.0603
 X49.9240 Y33.8472
 X49.8453 Y33.6271
 X49.7886 Y33.4017
 X49.7539 Y33.1728
 X49.7411 Y32.9420
 X49.7506 Y32.7111
 X49.7819 Y32.4818
 X49.8356 Y32.2557
 X49.9111 Y32.0347
 X50.0089 Y31.8206
 X50.1289 Y31.6147
 X50.2710 Y31.4192
 X50.4353 Y31.2353
 X50.6964 Y30.9825
 X50.9678 Y30.7445
 X51.2492 Y30.5215
 X51.5397 Y30.3138
 X51.8392 Y30.1215
 X52.1469 Y29.9449
 X52.4625 Y29.7840
 X52.7854 Y29.6393
 X53.1153 Y29.5108
 X53.4514 Y29.3989
 X53.7935 Y29.3036
 X54.1408 Y29.2251
 X54.4931 Y29.1638
 X54.8496 Y29.1197
 X55.2101 Y29.0931
 X55.5739 Y29.0842
 X55.9451 Y29.0936
 X56.3115 Y29.1215
 X56.6726 Y29.1676
 X57.0282 Y29.2313
 X57.3774 Y29.3120
 X57.7200 Y29.4095
 X58.0556 Y29.5233
 X58.3835 Y29.6528
 X58.7035 Y29.7976
 X59.0150 Y29.9574
 X59.3175 Y30.1317
 X59.6107 Y30.3197
 X59.8940 Y30.5213
 X60.1671 Y30.7360
 X60.4293 Y30.9632
 X60.6804 Y31.2026
 X60.9199 Y31.4536
 X61.1471 Y31.7160
 X61.3618 Y31.9890
 X61.5635 Y32.2722
 X61.7515 Y32.5654
 X61.9257 Y32.8681
 X62.0856 Y33.1795
 X62.2304 Y33.4994
 X62.3599 Y33.8274
 X62.4737 Y34.1629
 X62.5712 Y34.5056
 X62.6521 Y34.8547
 X62.7157 Y35.2103
 X62.7617 Y35.5714
 X62.7897 Y35.9378
 X62.7992 Y36.3090
 Y45.9417
 X62.7897 Y46.3129
 X62.7617 Y46.6793
 X62.7157 Y47.0404
 X62.6521 Y47.3960
 X62.5712 Y47.7453
 X62.4737 Y48.0878
 X62.3599 Y48.4233
 X62.2304 Y48.7513
 X62.0856 Y49.0713
 X61.9257 Y49.3828
 X61.7515 Y49.6853
 X61.5635 Y49.9785
 X61.3618 Y50.2618
 X61.1471 Y50.5349
 X60.9199 Y50.7972
 X60.6804 Y51.0482
 X60.4293 Y51.2876
 X60.1671 Y51.5149
 X59.8940 Y51.7296
 X59.6107 Y51.9313
 X59.3175 Y52.1193
 X59.0150 Y52.2936
 X58.7035 Y52.4533
 X58.3835 Y52.5982
 X58.0556 Y52.7278
 X57.7200 Y52.8415
 X57.3774 Y52.9390
 X57.0282 Y53.0199
 X56.6726 Y53.0835
 X56.3115 Y53.1296
 X55.9451 Y53.1575
 X55.5739 Y53.1669
 X55.2026 Y53.1575
 X54.8362 Y53.1296
 X54.4750 Y53.0835
 X54.1196 Y53.0199
 X53.7703 Y52.9390
 X53.4278 Y52.8415
 X53.0922 Y52.7278
 X52.7643 Y52.5982
 X52.4443 Y52.4533
 X52.1328 Y52.2936
 X51.8303 Y52.1193
 X51.5371 Y51.9313
 X51.2538 Y51.7296
 X50.9807 Y51.5149
 X50.7185 Y51.2876
 X50.4675 Y51.0482
 X50.2281 Y50.7972
 X50.0007 Y50.5349
 X49.7861 Y50.2618
 X49.5844 Y49.9785
 X49.3964 Y49.6853
 X49.2222 Y49.3828
 X49.0625 Y49.0713
 X48.9176 Y48.7513
 X48.7881 Y48.4233
 X48.6743 Y48.0878
 X48.5768 Y47.7453
 X48.4960 Y47.3960
 X48.4324 Y47.0404
 X48.3863 Y46.6793
 X48.3583 Y46.3129
 X48.3490 Y45.9417
 Y43.5343
 X21.8575
 X21.6115 Y43.5218
 X21.3726 Y43.4853
 X21.1421 Y43.4260
 X20.9210 Y43.3450
 X20.7106 Y43.2435
 X20.5121 Y43.1228
 X20.3267 Y42.9840
 X20.1557 Y42.8285
 X20.0003 Y42.6575
 X19.8617 Y42.4719
 X19.7410 Y42.2733
 X19.6394 Y42.0628
 X19.5585 Y41.8415
 X19.4990 Y41.6108
 X19.4625 Y41.3717
 X19.4501 Y41.1254
 X19.4625 Y40.8795
 X19.4990 Y40.6406
 X19.5585 Y40.4099
 X19.6394 Y40.1886
 X19.7410 Y39.9782
 X19.8617 Y39.7795
 X20.0003 Y39.5940
 X20.1557 Y39.4229
 X20.3267 Y39.2674
 X20.5121 Y39.1286
 X20.7106 Y39.0079
 X20.9210 Y38.9063
 X21.1421 Y38.8251
 X21.3726 Y38.7658
 X21.6115 Y38.7292
 X21.8575 Y38.7167
G0 Z5.0000
 Y67.6170
G1 Z0.0000
 X31.4915
 X31.7374 Y67.6295
 X31.9763 Y67.6660
 X32.2068 Y67.7253
 X32.4279 Y67.8063
 X32.6383 Y67.9078
 X32.8368 Y68.0285
 X33.0222 Y68.1671
 X33.1932 Y68.3225
 X33.3488 Y68.4935
 X33.4874 Y68.6788
 X33.6081 Y68.8774
 X33.7094 Y69.0878
 X33.7904 Y69.3089
 X33.8499 Y69.5395
 X33.8864 Y69.7785
 X33.8989 Y70.0243
 Y74.8419
 X33.9113 Y75.0876
 X33.9479 Y75.3264
 X34.0075 Y75.5569
 X34.0886 Y75.7779
 X34.1903 Y75.9883
 X34.3110 Y76.1868
 X34.4499 Y76.3722
 X34.6056 Y76.5433
 X34.7767 Y76.6988
 X34.9622 Y76.8375
 X35.1608 Y76.9582
 X35.3712 Y77.0597
 X35.5925 Y77.1408
 X35.8231 Y77.2003
 X36.0618 Y77.2368
 X36.3076 Y77.2492
 X36.5533 Y77.2368
 X36.7921 Y77.2003
 X37.0226 Y77.1408
 X37.2436 Y77.0597
 X37.4540 Y76.9582
 X37.6525 Y76.8375
 X37.8379 Y76.6988
 X38.0089 Y76.5433
 X38.1644 Y76.3722
 X38.3032 Y76.1868
 X38.4239 Y75.9883
 X38.5254 Y75.7779
 X38.6065 Y75.5569
 X38.6660 Y75.3264
 X38.7025 Y75.0876
 X38.7150 Y74.8419
 Y65.2079
 X38.7025 Y64.9622
 X38.6660 Y64.7235
 X38.6065 Y64.4931
 X38.5254 Y64.2721
 X38.4239 Y64.0617
 X38.3032 Y63.8631
 X38.1644 Y63.6778
 X38.0089 Y63.5067
 X37.8379 Y63.3511
 X37.6525 Y63.2124
 X37.4540 Y63.0917
 X37.2436 Y62.9901
 X37.0226 Y62.9090
 X36.7921 Y62.8496
 X36.5533 Y62.8129
 X36.3076 Y62.8006
 X36.0668 Y62.8122
 X35.8311 Y62.8471
 X35.6019 Y62.9046
 X35.3806 Y62.9842
 X35.1683 Y63.0853
 X34.9667 Y63.2075
 X34.7768 Y63.3504
 X34.6001 Y63.5131
 X34.4179 Y63.6801
 X34.2235 Y63.8250
 X34.0189 Y63.9479
 X33.8056 Y64.0488
 X33.5853 Y64.1275
 X33.3599 Y64.1842
 X33.1307 Y64.2189
 X32.9000 Y64.2317
 X32.6690 Y64.2222
 X32.4396 Y64.1907
 X32.2136 Y64.1372
 X31.9925 Y64.0617
 X31.7781 Y63.9642
 X31.5722 Y63.8446
 X31.3762 Y63.7029
 X31.1924 Y63.5392
 X31.0257 Y63.3575
 X30.8811 Y63.1636
 X30.7583 Y62.9593
 X30.6576 Y62.7463
 X30.5788 Y62.5263
 X30.5219 Y62.3010
 X30.4872 Y62.0721
 X30.4744 Y61.8414
 X30.4837 Y61.6106
 X30.5151 Y61.3813
 X30.5685 Y61.1551
 X30.6442 Y60.9343
 X30.7418 Y60.7199
 X30.8615 Y60.5140
 X31.0035 Y60.3182
 X31.1676 Y60.1342
 X31.4290 Y59.8817
 X31.7007 Y59.6438
 X31.9821 Y59.4210
 X32.2728 Y59.2135
 X32.5724 Y59.0213
 X32.8803 Y58.8447
 X33.1960 Y58.6840
 X33.5190 Y58.5395
 X33.8489 Y58.4110
 X34.1851 Y58.2990
 X34.5271 Y58.2038
 X34.8744 Y58.1254
 X35.2268 Y58.0640
 X35.5833 Y58.0199
 X35.9437 Y57.9933
 X36.3076 Y57.9843
 X36.6788 Y57.9938
 X37.0450 Y58.0218
 X37.4061 Y58.0678
 X37.7614 Y58.1314
 X38.1107 Y58.2122
 X38.4532 Y58.3097
 X38.7888 Y58.4235
 X39.1167 Y58.5531
 X39.4367 Y58.6979
 X39.7481 Y58.8576
 X40.0507 Y59.0318
 X40.3439 Y59.2199
 X40.6272 Y59.4215
 X40.9003 Y59.6361
 X41.1625 Y59.8633
 X41.4138 Y60.1026
 X41.6531 Y60.3538
 X41.8804 Y60.6160
 X42.0951 Y60.8889
 X42.2968 Y61.1722
 X42.4850 Y61.4653
 X42.6592 Y61.7678
 X42.8190 Y62.0793
 X42.9639 Y62.3992
 X43.0935 Y62.7270
 X43.2074 Y63.0625
 X43.3049 Y63.4050
 X43.3857 Y63.7542
 X43.4494 Y64.1095
 X43.4954 Y64.4704
 X43.5235 Y64.8368
 X43.5329 Y65.2079
 Y74.8419
 X43.5235 Y75.2131
 X43.4954 Y75.5793
 X43.4494 Y75.9404
 X43.3857 Y76.2958
 X43.3049 Y76.6450
 X43.2074 Y76.9875
 X43.0935 Y77.3231
 X42.9639 Y77.6510
 X42.8190 Y77.9708
 X42.6592 Y78.2824
 X42.4850 Y78.5849
 X42.2968 Y78.8781
 X42.0951 Y79.1614
 X41.8804 Y79.4345
 X41.6531 Y79.6967
 X41.4138 Y79.9478
 X41.1625 Y80.1872
 X40.9003 Y80.4145
 X40.6272 Y80.6292
 X40.3439 Y80.8308
 X40.0507 Y81.0190
 X39.7481 Y81.1932
 X39.4367 Y81.3531
 X39.1167 Y81.4979
 X38.7888 Y81.6275
 X38.4532 Y81.7413
 X38.1107 Y81.8389
 X37.7614 Y81.9197
 X37.4061 Y81.9833
 X37.0450 Y82.0294
 X36.6788 Y82.0574
 X36.3076 Y82.0668
 X35.9364 Y82.0574
 X35.5700 Y82.0294
 X35.2088 Y81.9833
 X34.8533 Y81.9197
 X34.5040 Y81.8389
 X34.1615 Y81.7413
 X33.8260 Y81.6275
 X33.4981 Y81.4979
 X33.1781 Y81.3531
 X32.8665 Y81.1932
 X32.5640 Y81.0190
 X32.2708 Y80.8308
 X31.9875 Y80.6292
 X31.7144 Y80.4145
 X31.4522 Y80.1872
 X31.2011 Y79.9478
 X30.9618 Y79.6967
 X30.7346 Y79.4345
 X30.5199 Y79.1614
 X30.3182 Y78.8781
 X30.1301 Y78.5849
 X29.9560 Y78.2824
 X29.7962 Y77.9708
 X29.6514 Y77.6510
 X29.5218 Y77.3231
 X29.4081 Y76.9875
 X29.3106 Y76.6450
 X29.2297 Y76.2958
 X29.1661 Y75.9404
 X29.1200 Y75.5793
 X29.0921 Y75.2131
 X29.0828 Y74.8419
 Y72.4331
 X21.8575
 X21.6115 Y72.4207
 X21.3726 Y72.3842
 X21.1421 Y72.3247
 X20.9210 Y72.2438
 X20.7106 Y72.1424
 X20.5121 Y72.0217
 X20.3267 Y71.8829
 X20.1557 Y71.7275
 X20.0003 Y71.5565
 X19.8617 Y71.3711
 X19.7410 Y71.1726
 X19.6394 Y70.9622
 X19.5585 Y70.7411
 X19.4990 Y70.5106
 X19.4625 Y70.2717
 X19.4501 Y70.0257
 X19.4625 Y69.7796
 X19.4990 Y69.5404
 X19.5585 Y69.3096
 X19.6394 Y69.0883
 X19.7410 Y68.8778
 X19.8617 Y68.6792
 X20.0003 Y68.4938
 X20.1557 Y68.3226
 X20.3267 Y68.1671
 X20.5121 Y68.0285
 X20.7106 Y67.9078
 X20.9210 Y67.8064
 X21.1421 Y67.7253
 X21.3726 Y67.6660
 X21.6115 Y67.6295
 X21.8575 Y67.6170
G0 Z5.0000
 X60.3904 Y62.7990
G1 Z0.0000
 X60.1492 Y62.8110
 X59.9135 Y62.8460
 X59.6843 Y62.9036
 X59.4632 Y62.9835
 X59.2513 Y63.0849
 X59.0496 Y63.2074
 X58.8597 Y63.3503
 X58.6829 Y63.5131
 X58.5010 Y63.6799
 X58.3069 Y63.8246
 X58.1025 Y63.9474
 X57.8893 Y64.0482
 X57.6690 Y64.1269
 X57.4435 Y64.1836
 X57.2144 Y64.2183
 X56.9835 Y64.2311
 X56.7524 Y64.2217
 X56.5228 Y64.1904
 X56.2967 Y64.1370
 X56.0754 Y64.0615
 X55.8610 Y63.9640
 X55.6549 Y63.8445
 X55.4590 Y63.7029
 X55.2750 Y63.5392
 X55.1088 Y63.3575
 X54.9643 Y63.1636
 X54.8418 Y62.9593
 X54.7411 Y62.7463
 X54.6625 Y62.5263
 X54.6058 Y62.3010
 X54.5711 Y62.0721
 X54.5583 Y61.8414
 X54.5678 Y61.6106
 X54.5990 Y61.3813
 X54.6525 Y61.1551
 X54.7281 Y60.9343
 X54.8257 Y60.7199
 X54.9454 Y60.5140
 X55.0874 Y60.3182
 X55.2514 Y60.1342
 X55.5128 Y59.8814
 X55.7844 Y59.6433
 X56.0658 Y59.4203
 X56.3567 Y59.2126
 X56.6563 Y59.0203
 X56.9640 Y58.8438
 X57.2797 Y58.6829
 X57.6026 Y58.5382
 X57.9325 Y58.4097
 X58.2686 Y58.2978
 X58.6106 Y58.2024
 X58.9579 Y58.1240
 X59.3100 Y58.0626
 X59.6664 Y58.0185
 X60.0267 Y57.9920
 X60.3904 Y57.9829
 X60.7615 Y57.9924
 X61.1279 Y58.0204
 X61.4892 Y58.0664
 X61.8446 Y58.1301
 X62.1939 Y58.2110
 X62.5365 Y58.3085
 X62.8719 Y58.4222
 X63.1999 Y58.5518
 X63.5199 Y58.6968
 X63.8314 Y58.8565
 X64.1339 Y59.0307
 X64.4271 Y59.2189
 X64.7104 Y59.4206
 X64.9833 Y59.6353
 X65.2457 Y59.8625
 X65.4968 Y60.1020
 X65.7361 Y60.3531
 X65.9633 Y60.6154
 X66.1781 Y60.8885
 X66.3797 Y61.1718
 X66.5678 Y61.4650
 X66.7419 Y61.7675
 X66.9017 Y62.0790
 X67.0465 Y62.3989
 X67.1761 Y62.7268
 X67.2899 Y63.0622
 X67.3874 Y63.4049
 X67.4682 Y63.7540
 X67.5318 Y64.1095
 X67.5779 Y64.4704
 X67.6058 Y64.8368
 X67.6153 Y65.2079
 Y74.8419
 X67.6058 Y75.2131
 X67.5779 Y75.5793
 X67.5318 Y75.9404
 X67.4682 Y76.2958
 X67.3874 Y76.6450
 X67.2899 Y76.9875
 X67.1761 Y77.3231
 X67.0465 Y77.6510
 X66.9017 Y77.9708
 X66.7419 Y78.2824
 X66.5678 Y78.5849
 X66.3797 Y78.8781
 X66.1781 Y79.1614
 X65.9633 Y79.4345
 X65.7361 Y79.6967
 X65.4968 Y79.9478
 X65.2457 Y80.1872
 X64.9833 Y80.4145
 X64.7104 Y80.6292
 X64.4271 Y80.8308
 X64.1339 Y81.0190
 X63.8314 Y81.1932
 X63.5199 Y81.3531
 X63.1999 Y81.4979
 X62.8719 Y81.6275
 X62.5365 Y81.7413
 X62.1939 Y81.8389
 X61.8446 Y81.9197
 X61.4892 Y81.9833
 X61.1279 Y82.0294
 X60.7615 Y82.0574
 X60.3904 Y82.0668
 X60.0192 Y82.0574
 X59.6529 Y82.0294
 X59.2918 Y81.9833
 X58.9365 Y81.9197
 X58.5874 Y81.8389
 X58.2447 Y81.7413
 X57.9093 Y81.6275
 X57.5815 Y81.4979
 X57.2615 Y81.3531
 X56.9501 Y81.1932
 X56.6476 Y81.0190
 X56.3546 Y80.8308
 X56.0712 Y80.6292
 X55.7982 Y80.4145
 X55.5360 Y80.1872
 X55.2850 Y79.9478
 X55.0456 Y79.6967
 X54.8183 Y79.4345
 X54.6036 Y79.1614
 X54.4021 Y78.8781
 X54.2139 Y78.5849
 X54.0397 Y78.2824
 X53.8800 Y77.9708
 X53.7351 Y77.6510
 X53.6057 Y77.3231
 X53.4918 Y76.9875
 X53.3943 Y76.6450
 X53.3135 Y76.2958
 X53.2499 Y75.9404
 X53.2039 Y75.5793
 X53.1758 Y75.2131
 X53.1665 Y74.8419
 Y72.4331
 X50.7578
 X50.5115 Y72.4207
 X50.2725 Y72.3842
 X50.0417 Y72.3247
 X49.8204 Y72.2438
 X49.6099 Y72.1424
 X49.4113 Y72.0217
 X49.2258 Y71.8829
 X49.0547 Y71.7275
 X48.8992 Y71.5565
 X48.7606 Y71.3711
 X48.6399 Y71.1726
 X48.5383 Y70.9622
 X48.4574 Y70.7411
 X48.3979 Y70.5106
 X48.3614 Y70.2717
 X48.3490 Y70.0257
 X48.3614 Y69.7796
 X48.3979 Y69.5404
 X48.4574 Y69.3096
 X48.5383 Y69.0883
 X48.6399 Y68.8778
 X48.7606 Y68.6792
 X48.8992 Y68.4938
 X49.0547 Y68.3226
 X49.2258 Y68.1671
 X49.4113 Y68.0285
 X49.6099 Y67.9078
 X49.8204 Y67.8064
 X50.0417 Y67.7253
 X50.2725 Y67.6660
 X50.5115 Y67.6295
 X50.7578 Y67.6170
 X55.5739
 X55.8201 Y67.6295
 X56.0593 Y67.6660
 X56.2900 Y67.7253
 X56.5114 Y67.8064
 X56.7219 Y67.9078
 X56.9206 Y68.0285
 X57.1061 Y68.1671
 X57.2771 Y68.3226
 X57.4326 Y68.4938
 X57.5714 Y68.6792
 X57.6921 Y68.8778
 X57.7936 Y69.0883
 X57.8746 Y69.3096
 X57.9340 Y69.5404
 X57.9706 Y69.7796
 X57.9829 Y70.0257
 Y74.8419
 X57.9954 Y75.0876
 X58.0319 Y75.3264
 X58.0914 Y75.5569
 X58.1725 Y75.7779
 X58.2740 Y75.9883
 X58.3947 Y76.1868
 X58.5335 Y76.3722
 X58.6890 Y76.5433
 X58.8600 Y76.6988
 X59.0454 Y76.8375
 X59.2439 Y76.9582
 X59.4543 Y77.0597
 X59.6754 Y77.1408
 X59.9058 Y77.2003
 X60.1446 Y77.2368
 X60.3904 Y77.2492
 X60.6360 Y77.2368
 X60.8747 Y77.2003
 X61.1053 Y77.1408
 X61.3264 Y77.0597
 X61.5369 Y76.9582
 X61.7356 Y76.8375
 X61.9211 Y76.6988
 X62.0922 Y76.5433
 X62.2479 Y76.3722
 X62.3868 Y76.1868
 X62.5076 Y75.9883
 X62.6093 Y75.7779
 X62.6904 Y75.5569
 X62.7500 Y75.3264
 X62.7867 Y75.0876
 X62.7992 Y74.8419
 Y65.2079
 X62.7867 Y64.9622
 X62.7500 Y64.7235
 X62.6904 Y64.4929
 X62.6093 Y64.2718
 X62.5076 Y64.0613
 X62.3868 Y63.8626
 X62.2479 Y63.6772
 X62.0922 Y63.5060
 X61.9211 Y63.3503
 X61.7356 Y63.2114
 X61.5369 Y63.0906
 X61.3264 Y62.9889
 X61.1053 Y62.9076
 X60.8747 Y62.8482
 X60.6360 Y62.8115
 X60.3904 Y62.7990
G0 Z5.0000
 X98.9229 Y33.9003
G1 Z0.0000
 X98.6817 Y33.9121
 X98.4460 Y33.9469
 X98.2169 Y34.0045
 X97.9958 Y34.0840
 X97.7839 Y34.1851
 X97.5822 Y34.3074
 X97.3924 Y34.4501
 X97.2154 Y34.6128
 X97.0333 Y34.7799
 X96.8392 Y34.9249
 X96.6346 Y35.0478
 X96.4214 Y35.1486
 X96.2011 Y35.2275
 X95.9757 Y35.2843
 X95.7465 Y35.3192
 X95.5157 Y35.3318
 X95.2847 Y35.3225
 X95.0553 Y35.2911
 X94.8290 Y35.2376
 X94.6079 Y35.1621
 X94.3935 Y35.0645
 X94.1875 Y34.9447
 X93.9915 Y34.8029
 X93.8075 Y34.6390
 X93.6412 Y34.4572
 X93.4968 Y34.2633
 X93.3743 Y34.0590
 X93.2738 Y33.8460
 X93.1951 Y33.6260
 X93.1385 Y33.4007
 X93.1038 Y33.1718
 X93.0910 Y32.9411
 X93.1004 Y32.7103
 X93.1317 Y32.4810
 X93.1853 Y32.2550
 X93.2607 Y32.0339
 X93.3583 Y31.8196
 X93.4782 Y31.6138
 X93.6201 Y31.4179
 X93.7843 Y31.2339
 X94.0457 Y30.9814
 X94.3172 Y30.7435
 X94.5987 Y30.5208
 X94.8894 Y30.3132
 X95.1890 Y30.1210
 X95.4969 Y29.9444
 X95.8125 Y29.7838
 X96.1356 Y29.6392
 X96.4653 Y29.5108
 X96.8014 Y29.3988
 X97.1433 Y29.3035
 X97.4906 Y29.2251
 X97.8426 Y29.1638
 X98.1990 Y29.1197
 X98.5593 Y29.0931
 X98.9229 Y29.0842
 X99.2940 Y29.0936
 X99.6604 Y29.1215
 X100.0217 Y29.1676
 X100.3771 Y29.2313
 X100.7264 Y29.3120
 X101.0690 Y29.4095
 X101.4046 Y29.5233
 X101.7325 Y29.6528
 X102.0525 Y29.7976
 X102.3639 Y29.9574
 X102.6665 Y30.1317
 X102.9597 Y30.3197
 X103.2431 Y30.5213
 X103.5161 Y30.7360
 X103.7783 Y30.9632
 X104.0294 Y31.2026
 X104.2688 Y31.4536
 X104.4961 Y31.7160
 X104.7108 Y31.9890
 X104.9125 Y32.2722
 X105.1010 Y32.5654
 X105.2750 Y32.8681
 X105.4340 Y33.1795
 X105.5790 Y33.4994
 X105.7090 Y33.8274
 X105.8230 Y34.1629
 X105.9200 Y34.5056
 X106.0010 Y34.8547
 X106.0650 Y35.2103
 X106.1110 Y35.5714
 X106.1390 Y35.9378
 X106.1480 Y36.3090
 Y45.9417
 X106.1390 Y46.3129
 X106.1110 Y46.6793
 X106.0650 Y47.0404
 X106.0010 Y47.3960
 X105.9200 Y47.7453
 X105.8230 Y48.0878
 X105.7090 Y48.4233
 X105.5790 Y48.7513
 X105.4340 Y49.0713
 X105.2750 Y49.3828
 X105.1010 Y49.6853
 X104.9125 Y49.9785
 X104.7108 Y50.2618
 X104.4961 Y50.5349
 X104.2688 Y50.7972
 X104.0294 Y51.0482
 X103.7783 Y51.2876
 X103.5161 Y51.5149
 X103.2431 Y51.7296
 X102.9597 Y51.9313
 X102.6665 Y52.1193
 X102.3639 Y52.2936
 X102.0525 Y52.4533
 X101.7325 Y52.5982
 X101.4046 Y52.7278
 X101.0690 Y52.8415
 X100.7264 Y52.9390
 X100.3771 Y53.0199
 X100.0217 Y53.0835
 X99.6604 Y53.1296
 X99.2940 Y53.1575
 X98.9229 Y53.1669
 X98.5517 Y53.1575
 X98.1854 Y53.1296
 X97.8243 Y53.0835
 X97.4690 Y53.0199
 X97.1199 Y52.9390
 X96.7774 Y52.8415
 X96.4419 Y52.7278
 X96.1140 Y52.5982
 X95.7942 Y52.4533
 X95.4828 Y52.2936
 X95.1803 Y52.1193
 X94.8872 Y51.9313
 X94.6039 Y51.7296
 X94.3308 Y51.5149
 X94.0686 Y51.2876
 X93.8176 Y51.0482
 X93.5783 Y50.7972
 X93.3511 Y50.5349
 X93.1364 Y50.2618
 X92.9349 Y49.9785
 X92.7468 Y49.6853
 X92.5726 Y49.3828
 X92.4128 Y49.0713
 X92.2679 Y48.7513
 X92.1385 Y48.4233
 X92.0247 Y48.0878
 X91.9272 Y47.7453
 X91.8464 Y47.3960
 X91.7828 Y47.0404
 X91.7367 Y46.6793
 X91.7087 Y46.3129
 X91.6994 Y45.9417
 Y43.5343
 X70.0240
 X69.7778 Y43.5218
 X69.5388 Y43.4853
 X69.3079 Y43.4260
 X69.0867 Y43.3450
 X68.8761 Y43.2435
 X68.6775 Y43.1228
 X68.4921 Y42.9840
 X68.3210 Y42.8285
 X68.1654 Y42.6575
 X68.0268 Y42.4719
 X67.9061 Y42.2733
 X67.8046 Y42.0628
 X67.7236 Y41.8415
 X67.6642 Y41.6108
 X67.6276 Y41.3717
 X67.6153 Y41.1254
 X67.6276 Y40.8793
 X67.6642 Y40.6401
 X67.7236 Y40.4093
 X67.8046 Y40.1881
 X67.9061 Y39.9775
 X68.0268 Y39.7789
 X68.1654 Y39.5935
 X68.3210 Y39.4224
 X68.4921 Y39.2669
 X68.6775 Y39.1282
 X68.8761 Y39.0075
 X69.0867 Y38.9061
 X69.3079 Y38.8251
 X69.5388 Y38.7657
 X69.7778 Y38.7292
 X70.0240 Y38.7167
 X94.1067
 X94.3529 Y38.7292
 X94.5919 Y38.7657
 X94.8228 Y38.8251
 X95.0440 Y38.9061
 X95.2546 Y39.0075
 X95.4532 Y39.1282
 X95.6386 Y39.2669
 X95.8097 Y39.4224
 X95.9653 Y39.5935
 X96.1039 Y39.7789
 X96.2246 Y39.9775
 X96.3261 Y40.1881
 X96.4071 Y40.4093
 X96.4665 Y40.6401
 X96.5031 Y40.8793
 X96.5156 Y41.1254
 Y45.9417
 X96.5279 Y46.1874
 X96.5646 Y46.4261
 X96.6240 Y46.6567
 X96.7051 Y46.8779
 X96.8065 Y47.0883
 X96.9274 Y47.2870
 X97.0661 Y47.4725
 X97.2217 Y47.6438
 X97.3926 Y47.7993
 X97.5781 Y47.9382
 X97.7765 Y48.0590
 X97.9869 Y48.1607
 X98.2079 Y48.2418
 X98.4385 Y48.3013
 X98.6771 Y48.3379
 X98.9229 Y48.3504
 X99.1686 Y48.3379
 X99.4074 Y48.3013
 X99.6379 Y48.2418
 X99.8590 Y48.1607
 X100.0696 Y48.0590
 X100.2682 Y47.9382
 X100.4537 Y47.7993
 X100.6249 Y47.6438
 X100.7806 Y47.4725
 X100.9194 Y47.2870
 X101.0403 Y47.0883
 X101.1418 Y46.8779
 X101.2229 Y46.6567
 X101.2825 Y46.4261
 X101.3192 Y46.1874
 X101.3317 Y45.9417
 Y36.3090
 X101.3192 Y36.0633
 X101.2825 Y35.8246
 X101.2229 Y35.5940
 X101.1418 Y35.3729
 X101.0403 Y35.1624
 X100.9194 Y34.9638
 X100.7806 Y34.7783
 X100.6249 Y34.6071
 X100.4537 Y34.4515
 X100.2682 Y34.3126
 X100.0696 Y34.1917
 X99.8590 Y34.0901
 X99.6379 Y34.0089
 X99.4074 Y33.9493
 X99.1686 Y33.9128
 X98.9229 Y33.9003
G0 Z5.0000
 X113.3730 Y38.7167
G1 Z0.0000
 X132.6390
 X132.8850 Y38.7292
 X133.1250 Y38.7657
 X133.3550 Y38.8251
 X133.5770 Y38.9061
 X133.7870 Y39.0075
 X133.9860 Y39.1282
 X134.1710 Y39.2669
 X134.3430 Y39.4224
 X134.4980 Y39.5935
 X134.6370 Y39.7789
 X134.7580 Y39.9775
 X134.8590 Y40.1881
 X134.9400 Y40.4093
 X134.9990 Y40.6401
 X135.0360 Y40.8793
 X135.0480 Y41.1254
 X135.0360 Y41.3714
 X134.9990 Y41.6103
 X134.9400 Y41.8410
 X134.8590 Y42.0619
 X134.7580 Y42.2724
 X134.6370 Y42.4710
 X134.4980 Y42.6563
 X134.3430 Y42.8274
 X134.1710 Y42.9828
 X133.9860 Y43.1214
 X133.7870 Y43.2421
 X133.5770 Y43.3435
 X133.3550 Y43.4246
 X133.1250 Y43.4839
 X132.8850 Y43.5204
 X132.6390 Y43.5329
 X113.3730
 X113.1270 Y43.5204
 X112.8880 Y43.4839
 X112.6570 Y43.4246
 X112.4370 Y43.3435
 X112.2260 Y43.2421
 X112.0280 Y43.1214
 X111.8420 Y42.9828
 X111.6710 Y42.8274
 X111.5160 Y42.6563
 X111.3770 Y42.4710
 X111.2560 Y42.2724
 X111.1550 Y42.0619
 X111.0740 Y41.8410
 X111.0150 Y41.6103
 X110.9780 Y41.3714
 X110.9660 Y41.1254
 X110.9780 Y40.8793
 X111.0150 Y40.6401
 X111.0740 Y40.4093
 X111.1550 Y40.1881
 X111.2560 Y39.9775
 X111.3770 Y39.7789
 X111.5160 Y39.5935
 X111.6710 Y39.4224
 X111.8420 Y39.2669
 X112.0280 Y39.1282
 X112.2260 Y39.0075
 X112.4370 Y38.9061
 X112.6570 Y38.8251
 X112.8880 Y38.7657
 X113.1270 Y38.7292
 X113.3730 Y38.7167
G0 Z5.0000
 X142.2730 Y19.4501
G1 Z0.0000
 X21.8575
 X21.6115 Y19.4376
 X21.3726 Y19.4013
 X21.1421 Y19.3418
 X20.9210 Y19.2608
 X20.7106 Y19.1595
 X20.5121 Y19.0388
 X20.3267 Y18.9001
 X20.1557 Y18.7447
 X20.0003 Y18.5737
 X19.8617 Y18.3883
 X19.7410 Y18.1898
 X19.6394 Y17.9794
 X19.5585 Y17.7583
 X19.4990 Y17.5277
 X19.4625 Y17.2887
 X19.4501 Y17.0427
 X19.4625 Y16.7966
 X19.4990 Y16.5576
 X19.5585 Y16.3268
 X19.6394 Y16.1055
 X19.7410 Y15.8950
 X19.8617 Y15.6963
 X20.0003 Y15.5109
 X20.1557 Y15.3398
 X20.3267 Y15.1843
 X20.5121 Y15.0456
 X20.7106 Y14.9249
 X20.9210 Y14.8234
 X21.1421 Y14.7424
 X21.3726 Y14.6830
 X21.6115 Y14.6465
 X21.8575 Y14.6340
 X142.2730
 X142.6190 Y14.6189
 X142.9320 Y14.5750
 X143.2120 Y14.5047
 X143.4630 Y14.4101
 X143.6840 Y14.2938
 X143.8790 Y14.1578
 X144.0470 Y14.0046
 X144.1930 Y13.8363
 X144.3150 Y13.6554
 X144.4170 Y13.4640
 X144.5000 Y13.2645
 X144.5650 Y13.0591
 X144.6140 Y12.8503
 X144.6490 Y12.6401
 X144.6690 Y12.4310
 X144.6810 Y12.2253
 Y9.8179
 X9.8161
 Y12.1977
 X9.8266 Y12.4083
 X9.8484 Y12.6217
 X9.8830 Y12.8355
 X9.9320 Y13.0475
 X9.9971 Y13.2555
 X10.0798 Y13.4572
 X10.1816 Y13.6504
 X10.3042 Y13.8328
 X10.4493 Y14.0023
 X10.6183 Y14.1564
 X10.8129 Y14.2930
 X11.0346 Y14.4097
 X11.2850 Y14.5045
 X11.5659 Y14.5750
 X11.8786 Y14.6189
 X12.2249 Y14.6340
 X12.4708 Y14.6465
 X12.7097 Y14.6830
 X12.9404 Y14.7424
 X13.1616 Y14.8234
 X13.3720 Y14.9249
 X13.5705 Y15.0456
 X13.7559 Y15.1843
 X13.9269 Y15.3398
 X14.0824 Y15.5109
 X14.2211 Y15.6963
 X14.3417 Y15.8950
 X14.4432 Y16.1055
 X14.5242 Y16.3268
 X14.5836 Y16.5576
 X14.6201 Y16.7966
 X14.6326 Y17.0427
 Y147.0897
 X14.6201 Y147.3357
 X14.5836 Y147.5747
 X14.5242 Y147.8067
 X14.4432 Y148.0267
 X14.3417 Y148.2377
 X14.2211 Y148.4367
 X14.0824 Y148.6217
 X13.9269 Y148.7927
 X13.7559 Y148.9477
 X13.5705 Y149.0867
 X13.3720 Y149.2077
 X13.1616 Y149.3087
 X12.9404 Y149.3897
 X12.7097 Y149.4497
 X12.4708 Y149.4857
 X12.2249 Y149.4977
 X11.9787 Y149.4857
 X11.7396 Y149.4497
 X11.5088 Y149.3897
 X11.2875 Y149.3087
 X11.0770 Y149.2077
 X10.8784 Y149.0867
 X10.6930 Y148.9477
 X10.5219 Y148.7927
 X10.3664 Y148.6217
 X10.2277 Y148.4367
 X10.1070 Y148.2377
 X10.0055 Y148.0267
 X9.9245 Y147.8067
 X9.8651 Y147.5747
 X9.8286 Y147.3357
 X9.8161 Y147.0897
 Y19.1058
 X9.1871 Y18.8777
 X8.6074 Y18.6001
 X8.0761 Y18.2779
 X7.5917 Y17.9160
 X7.1531 Y17.5191
 X6.7590 Y17.0920
 X6.4083 Y16.6396
 X6.0997 Y16.1668
 X5.8319 Y15.6783
 X5.6039 Y15.1789
 X5.4143 Y14.6736
 X5.2619 Y14.1670
 X5.1455 Y13.6641
 X5.0638 Y13.1696
 X5.0157 Y12.6884
 X5.0000 Y12.2253
 Y7.4091
 X5.0124 Y7.1629
 X5.0489 Y6.9238
 X5.1083 Y6.6930
 X5.1893 Y6.4716
 X5.2909 Y6.2611
 X5.4115 Y6.0624
 X5.5502 Y5.8770
 X5.7057 Y5.7058
 X5.8768 Y5.5503
 X6.0623 Y5.4116
 X6.2609 Y5.2909
 X6.4714 Y5.1894
 X6.6927 Y5.1084
 X6.9235 Y5.0490
 X7.1625 Y5.0125
 X7.4087 Y5.0000
 X147.0890
 X147.3350 Y5.0125
 X147.5740 Y5.0490
 X147.8040 Y5.1084
 X148.0260 Y5.1894
 X148.2360 Y5.2909
 X148.4350 Y5.4116
 X148.6210 Y5.5503
 X148.7920 Y5.7058
 X148.9470 Y5.8770
 X149.0860 Y6.0624
 X149.2060 Y6.2611
 X149.3080 Y6.4716
 X149.3890 Y6.6930
 X149.4490 Y6.9238
 X149.4850 Y7.1629
 X149.4970 Y7.4091
 Y12.2253
 X149.4920 Y12.5016
 X149.4750 Y12.7851
 X149.4460 Y13.0748
 X149.4040 Y13.3697
 X149.3510 Y13.6687
 X149.2850 Y13.9706
 X149.2060 Y14.2747
 X149.1140 Y14.5796
 X149.0080 Y14.8844
 X148.8900 Y15.1881
 X148.7570 Y15.4896
 X148.6100 Y15.7878
 X148.4470 Y16.0816
 X148.2710 Y16.3702
 X148.0810 Y16.6523
 X147.8740 Y16.9270
 X147.6510 Y17.1931
 X147.4130 Y17.4498
 X147.1580 Y17.6957
 X146.8890 Y17.9301
 X146.6010 Y18.1517
 X146.2970 Y18.3595
 X145.9760 Y18.5526
 X145.6380 Y18.7298
 X145.2820 Y18.8900
 X144.9080 Y19.0324
 X144.5150 Y19.1557
 X144.1060 Y19.2589
 X143.6760 Y19.3410
 X143.2280 Y19.4010
 X142.7600 Y19.4376
 X142.2730 Y19.4501
G0 Z5.0000
 Y24.2665
G1 Z0.0000
 X142.5190 Y24.2790
 X142.7580 Y24.3156
 X142.9890 Y24.3750
 X143.2100 Y24.4560
 X143.4200 Y24.5574
 X143.6190 Y24.6781
 X143.8040 Y24.8168
 X143.9750 Y24.9722
 X144.1310 Y25.1433
 X144.2690 Y25.3288
 X144.3900 Y25.5274
 X144.4920 Y25.7379
 X144.5720 Y25.9592
 X144.6320 Y26.1900
 X144.6680 Y26.4292
 X144.6810 Y26.6753
 Y147.0897
 X144.6680 Y147.3357
 X144.6320 Y147.5747
 X144.5720 Y147.8067
 X144.4920 Y148.0267
 X144.3900 Y148.2377
 X144.2690 Y148.4367
 X144.1310 Y148.6217
 X143.9750 Y148.7927
 X143.8040 Y148.9477
 X143.6190 Y149.0867
 X143.4200 Y149.2077
 X143.2100 Y149.3087
 X142.9890 Y149.3897
 X142.7580 Y149.4497
 X142.5190 Y149.4857
 X142.2730 Y149.4977
 X142.0270 Y149.4857
 X141.7880 Y149.4497
 X141.5570 Y149.3897
 X141.3360 Y149.3087
 X141.1250 Y149.2077
 X140.9270 Y149.0867
 X140.7410 Y148.9477
 X140.5700 Y148.7927
 X140.4150 Y148.6217
 X140.2760 Y148.4367
 X140.1550 Y148.2377
 X140.0540 Y148.0267
 X139.9730 Y147.8067
 X139.9130 Y147.5747
 X139.8770 Y147.3357
 X139.8640 Y147.0897
 Y26.6753
 X139.8770 Y26.4292
 X139.9130 Y26.1900
 X139.9730 Y25.9592
 X140.0540 Y25.7379
 X140.1550 Y25.5274
 X140.2760 Y25.3288
 X140.4150 Y25.1433
 X140.5700 Y24.9722
 X140.7410 Y24.8168
 X140.9270 Y24.6781
 X141.1250 Y24.5574
 X141.3360 Y24.4560
 X141.5570 Y24.3750
 X141.7880 Y24.3156
 X142.0270 Y24.2790
 X142.2730 Y24.2665
G0 Z5.0000
 X113.3730 Y62.7990
G1 Z0.0000
 X113.1310 Y62.8110
 X112.8960 Y62.8460
 X112.6660 Y62.9036
 X112.4450 Y62.9835
 X112.2340 Y63.0849
 X112.0320 Y63.2074
 X111.8430 Y63.3503
 X111.6660 Y63.5131
 X111.4840 Y63.6799
 X111.2900 Y63.8246
 X111.0850 Y63.9474
 X110.8720 Y64.0482
 X110.6520 Y64.1269
 X110.4260 Y64.1836
 X110.1970 Y64.2183
 X109.9660 Y64.2311
 X109.7350 Y64.2217
 X109.5060 Y64.1904
 X109.2790 Y64.1370
 X109.0580 Y64.0615
 X108.8440 Y63.9640
 X108.6380 Y63.8445
 X108.4420 Y63.7029
 X108.2580 Y63.5392
 X108.0910 Y63.3575
 X107.9470 Y63.1636
 X107.8240 Y62.9593
 X107.7230 Y62.7463
 X107.6450 Y62.5263
 X107.5880 Y62.3010
 X107.5530 Y62.0721
 X107.5410 Y61.8414
 X107.5500 Y61.6106
 X107.5820 Y61.3813
 X107.6350 Y61.1551
 X107.7110 Y60.9343
 X107.8080 Y60.7199
 X107.9280 Y60.5140
 X108.0700 Y60.3182
 X108.2340 Y60.1342
 X108.4960 Y59.8814
 X108.7670 Y59.6433
 X109.0490 Y59.4203
 X109.3390 Y59.2126
 X109.6390 Y59.0203
 X109.9470 Y58.8438
 X110.2620 Y58.6829
 X110.5850 Y58.5382
 X110.9150 Y58.4097
 X111.2510 Y58.2978
 X111.5930 Y58.2024
 X111.9400 Y58.1240
 X112.2920 Y58.0626
 X112.6490 Y58.0185
 X113.0090 Y57.9920
 X113.3730 Y57.9829
 X113.7440 Y57.9924
 X114.1110 Y58.0204
 X114.4720 Y58.0664
 X114.8270 Y58.1301
 X115.1770 Y58.2110
 X115.5190 Y58.3085
 X115.8550 Y58.4222
 X116.1830 Y58.5518
 X116.5030 Y58.6968
 X116.8140 Y58.8565
 X117.1170 Y59.0307
 X117.4100 Y59.2189
 X117.6930 Y59.4206
 X117.9660 Y59.6353
 X118.2280 Y59.8625
 X118.4800 Y60.1020
 X118.7190 Y60.3531
 X118.9460 Y60.6154
 X119.1610 Y60.8885
 X119.3620 Y61.1718
 X119.5510 Y61.4650
 X119.7250 Y61.7675
 X119.8850 Y62.0790
 X120.0290 Y62.3989
 X120.1590 Y62.7268
 X120.2730 Y63.0622
 X120.3700 Y63.4049
 X120.4510 Y63.7540
 X120.5150 Y64.1095
 X120.5610 Y64.4704
 X120.5890 Y64.8368
 X120.5980 Y65.2079
 Y74.8419
 X120.5890 Y75.2131
 X120.5610 Y75.5793
 X120.5150 Y75.9404
 X120.4510 Y76.2958
 X120.3700 Y76.6450
 X120.2730 Y76.9875
 X120.1590 Y77.3231
 X120.0290 Y77.6510
 X119.8850 Y77.9708
 X119.7250 Y78.2824
 X119.5510 Y78.5849
 X119.3620 Y78.8781
 X119.1610 Y79.1614
 X118.9460 Y79.4345
 X118.7190 Y79.6967
 X118.4800 Y79.9478
 X118.2280 Y80.1872
 X117.9660 Y80.4145
 X117.6930 Y80.6292
 X117.4100 Y80.8308
 X117.1170 Y81.0190
 X116.8140 Y81.1932
 X116.5030 Y81.3531
 X116.1830 Y81.4979
 X115.8550 Y81.6275
 X115.5190 Y81.7413
 X115.1770 Y81.8389
 X114.8270 Y81.9197
 X114.4720 Y81.9833
 X114.1110 Y82.0294
 X113.7440 Y82.0574
 X113.3730 Y82.0668
 X113.0020 Y82.0574
 X112.6360 Y82.0294
 X112.2740 Y81.9833
 X111.9190 Y81.9197
 X111.5700 Y81.8389
 X111.2270 Y81.7413
 X110.8920 Y81.6275
 X110.5640 Y81.4979
 X110.2440 Y81.3531
 X109.9330 Y81.1932
 X109.6300 Y81.0190
 X109.3370 Y80.8308
 X109.0530 Y80.6292
 X108.7800 Y80.4145
 X108.5180 Y80.1872
 X108.2670 Y79.9478
 X108.0280 Y79.6967
 X107.8000 Y79.4345
 X107.5860 Y79.1614
 X107.3840 Y78.8781
 X107.1960 Y78.5849
 X107.0220 Y78.2824
 X106.8620 Y77.9708
 X106.7170 Y77.6510
 X106.5870 Y77.3231
 X106.4740 Y76.9875
 X106.3760 Y76.6450
 X106.2950 Y76.2958
 X106.2320 Y75.9404
 X106.1850 Y75.5793
 X106.1570 Y75.2131
 X106.1480 Y74.8419
 Y72.4331
 X74.8406
 X74.5944 Y72.4207
 X74.3556 Y72.3842
 X74.1250 Y72.3247
 X73.9037 Y72.2438
 X73.6933 Y72.1424
 X73.4949 Y72.0217
 X73.3094 Y71.8829
 X73.1383 Y71.7275
 X72.9829 Y71.5565
 X72.8443 Y71.3711
 X72.7236 Y71.1726
 X72.6221 Y70.9622
 X72.5411 Y70.7411
 X72.4817 Y70.5106
 X72.4451 Y70.2717
 X72.4328 Y70.0257
 X72.4451 Y69.7796
 X72.4817 Y69.5404
 X72.5411 Y69.3096
 X72.6221 Y69.0883
 X72.7236 Y68.8778
 X72.8443 Y68.6792
 X72.9829 Y68.4938
 X73.1383 Y68.3226
 X73.3094 Y68.1671
 X73.4949 Y68.0285
 X73.6933 Y67.9078
 X73.9037 Y67.8064
 X74.1250 Y67.7253
 X74.3556 Y67.6660
 X74.5944 Y67.6295
 X74.8406 Y67.6170
 X108.5570
 X108.8030 Y67.6295
 X109.0420 Y67.6660
 X109.2730 Y67.7253
 X109.4940 Y67.8064
 X109.7050 Y67.9078
 X109.9030 Y68.0285
 X110.0890 Y68.1671
 X110.2600 Y68.3226
 X110.4150 Y68.4938
 X110.5540 Y68.6792
 X110.6750 Y68.8778
 X110.7760 Y69.0883
 X110.8570 Y69.3096
 X110.9170 Y69.5404
 X110.9530 Y69.7796
 X110.9660 Y70.0257
 Y74.8419
 X110.9780 Y75.0876
 X111.0150 Y75.3264
 X111.0740 Y75.5569
 X111.1550 Y75.7779
 X111.2570 Y75.9883
 X111.3780 Y76.1868
 X111.5160 Y76.3722
 X111.6720 Y76.5433
 X111.8430 Y76.6988
 X112.0280 Y76.8375
 X112.2270 Y76.9582
 X112.4370 Y77.0597
 X112.6580 Y77.1408
 X112.8890 Y77.2003
 X113.1270 Y77.2368
 X113.3730 Y77.2492
 X113.6190 Y77.2368
 X113.8580 Y77.2003
 X114.0880 Y77.1408
 X114.3090 Y77.0597
 X114.5200 Y76.9582
 X114.7180 Y76.8375
 X114.9040 Y76.6988
 X115.0750 Y76.5433
 X115.2310 Y76.3722
 X115.3700 Y76.1868
 X115.4900 Y75.9883
 X115.5920 Y75.7779
 X115.6730 Y75.5569
 X115.7330 Y75.3264
 X115.7690 Y75.0876
 X115.7820 Y74.8419
 Y65.2079
 X115.7690 Y64.9622
 X115.7330 Y64.7235
 X115.6730 Y64.4929
 X115.5920 Y64.2718
 X115.4900 Y64.0613
 X115.3700 Y63.8626
 X115.2310 Y63.6772
 X115.0750 Y63.5060
 X114.9040 Y63.3503
 X114.7180 Y63.2114
 X114.5200 Y63.0906
 X114.3090 Y62.9889
 X114.0880 Y62.9076
 X113.8580 Y62.8482
 X113.6190 Y62.8115
 X113.3730 Y62.7990
G0 Z5.0000
 X132.6390 Y72.4331
G1 Z0.0000
 X127.8230
 X127.5770 Y72.4207
 X127.3380 Y72.3842
 X127.1070 Y72.3247
 X126.8860 Y72.2438
 X126.6750 Y72.1422
 X126.4770 Y72.0215
 X126.2910 Y71.8829
 X126.1200 Y71.7274
 X125.9650 Y71.5563
 X125.8260 Y71.3708
 X125.7050 Y71.1722
 X125.6040 Y70.9617
 X125.5230 Y70.7404
 X125.4630 Y70.5096
 X125.4270 Y70.2706
 X125.4140 Y70.0243
 X125.4270 Y69.7785
 X125.4630 Y69.5395
 X125.5230 Y69.3089
 X125.6040 Y69.0878
 X125.7050 Y68.8774
 X125.8260 Y68.6788
 X125.9650 Y68.4935
 X126.1200 Y68.3225
 X126.2910 Y68.1671
 X126.4770 Y68.0285
 X126.6750 Y67.9078
 X126.8860 Y67.8063
 X127.1070 Y67.7253
 X127.3380 Y67.6660
 X127.5770 Y67.6295
 X127.8230 Y67.6170
 X132.6390
 X132.8850 Y67.6295
 X133.1250 Y67.6660
 X133.3550 Y67.7253
 X133.5770 Y67.8063
 X133.7870 Y67.9078
 X133.9860 Y68.0285
 X134.1710 Y68.1671
 X134.3430 Y68.3225
 X134.4980 Y68.4935
 X134.6370 Y68.6788
 X134.7580 Y68.8774
 X134.8590 Y69.0878
 X134.9400 Y69.3089
 X134.9990 Y69.5395
 X135.0360 Y69.7785
 X135.0480 Y70.0243
 X135.0360 Y70.2706
 X134.9990 Y70.5096
 X134.9400 Y70.7404
 X134.8590 Y70.9617
 X134.7580 Y71.1722
 X134.6370 Y71.3708
 X134.4980 Y71.5563
 X134.3430 Y71.7274
 X134.1710 Y71.8829
 X133.9860 Y72.0215
 X133.7870 Y72.1422
 X133.5770 Y72.2438
 X133.3550 Y72.3247
 X133.1250 Y72.3842
 X132.8850 Y72.4207
 X132.6390 Y72.4331
G0 Z5.0000
 Y101.3320
G1 Z0.0000
 X94.1067
 X93.8607 Y101.3196
 X93.6218 Y101.2831
 X93.3911 Y101.2236
 X93.1701 Y101.1426
 X92.9596 Y101.0411
 X92.7611 Y100.9206
 X92.5758 Y100.7818
 X92.4049 Y100.6264
 X92.2494 Y100.4554
 X92.1107 Y100.2700
 X91.9901 Y100.0715
 X91.8886 Y99.8611
 X91.8076 Y99.6400
 X91.7483 Y99.4095
 X91.7118 Y99.1706
 X91.6994 Y98.9246
 X91.7118 Y98.6783
 X91.7483 Y98.4393
 X91.8076 Y98.2085
 X91.8886 Y97.9871
 X91.9901 Y97.7767
 X92.1107 Y97.5781
 X92.2494 Y97.3925
 X92.4049 Y97.2215
 X92.5758 Y97.0660
 X92.7611 Y96.9274
 X92.9596 Y96.8067
 X93.1701 Y96.7051
 X93.3911 Y96.6242
 X93.6218 Y96.5649
 X93.8607 Y96.5283
 X94.1067 Y96.5158
 X132.6390
 X132.8850 Y96.5283
 X133.1250 Y96.5649
 X133.3550 Y96.6242
 X133.5770 Y96.7051
 X133.7870 Y96.8067
 X133.9860 Y96.9274
 X134.1710 Y97.0660
 X134.3430 Y97.2215
 X134.4980 Y97.3925
 X134.6370 Y97.5781
 X134.7580 Y97.7767
 X134.8590 Y97.9871
 X134.9400 Y98.2085
 X134.9990 Y98.4393
 X135.0360 Y98.6783
 X135.0480 Y98.9246
 X135.0360 Y99.1706
 X134.9990 Y99.4095
 X134.9400 Y99.6400
 X134.8590 Y99.8611
 X134.7580 Y100.0715
 X134.6370 Y100.2700
 X134.4980 Y100.4554
 X134.3430 Y100.6264
 X134.1710 Y100.7818
 X133.9860 Y100.9206
 X133.7870 Y101.0411
 X133.5770 Y101.1426
 X133.3550 Y101.2236
 X133.1250 Y101.2831
 X132.8850 Y101.3196
 X132.6390 Y101.3320
G0 Z5.0000
 X123.0070 Y125.4157
G1 Z0.0000
 X132.6390
 X132.8850 Y125.4287
 X133.1250 Y125.4647
 X133.3550 Y125.5237
 X133.5770 Y125.6047
 X133.7870 Y125.7067
 X133.9860 Y125.8277
 X134.1710 Y125.9657
 X134.3430 Y126.1217
 X134.4980 Y126.2927
 X134.6370 Y126.4777
 X134.7580 Y126.6767
 X134.8590 Y126.8867
 X134.9400 Y127.1077
 X134.9990 Y127.3387
 X135.0360 Y127.5777
 X135.0480 Y127.8237
 X135.0360 Y128.0697
 X134.9990 Y128.3087
 X134.9400 Y128.5397
 X134.8590 Y128.7607
 X134.7580 Y128.9717
 X134.6370 Y129.1697
 X134.4980 Y129.3557
 X134.3430 Y129.5267
 X134.1710 Y129.6817
 X133.9860 Y129.8207
 X133.7870 Y129.9417
 X133.5770 Y130.0427
 X133.3550 Y130.1237
 X133.1250 Y130.1827
 X132.8850 Y130.2197
 X132.6390 Y130.2327
 X123.0070
 X122.7610 Y130.2197
 X122.5220 Y130.1827
 X122.2910 Y130.1237
 X122.0690 Y130.0427
 X121.8590 Y129.9417
 X121.6600 Y129.8207
 X121.4750 Y129.6817
 X121.3040 Y129.5267
 X121.1480 Y129.3557
 X121.0100 Y129.1697
 X120.8890 Y128.9717
 X120.7880 Y128.7607
 X120.7070 Y128.5397
 X120.6470 Y128.3087
 X120.6110 Y128.0697
 X120.5980 Y127.8237
 X120.6110 Y127.5777
 X120.6470 Y127.3387
 X120.7070 Y127.1077
 X120.7880 Y126.8867
 X120.8890 Y126.6767
 X121.0100 Y126.4777
 X121.1480 Y126.2927
 X121.3040 Y126.1217
 X121.4750 Y125.9657
 X121.6600 Y125.8277
 X121.8590 Y125.7067
 X122.0690 Y125.6047
 X122.2910 Y125.5237
 X122.5220 Y125.4647
 X122.7610 Y125.4287
 X123.0070 Y125.4157
G0 Z5.0000
 X79.6565
G1 Z0.0000
 X103.7407
 X103.9867 Y125.4287
 X104.2254 Y125.4647
 X104.4561 Y125.5237
 X104.6772 Y125.6047
 X104.8876 Y125.7067
 X105.0860 Y125.8277
 X105.2720 Y125.9657
 X105.4420 Y126.1217
 X105.5980 Y126.2927
 X105.7370 Y126.4777
 X105.8570 Y126.6767
 X105.9590 Y126.8867
 X106.0400 Y127.1077
 X106.0990 Y127.3387
 X106.1360 Y127.5777
 X106.1480 Y127.8237
 Y132.6407
 X106.1610 Y132.8867
 X106.1970 Y133.1257
 X106.2570 Y133.3557
 X106.3380 Y133.5767
 X106.4390 Y133.7877
 X106.5600 Y133.9857
 X106.6990 Y134.1717
 X106.8550 Y134.3427
 X107.0260 Y134.4977
 X107.2120 Y134.6367
 X107.4100 Y134.7577
 X107.6210 Y134.8587
 X107.8420 Y134.9397
 X108.0720 Y134.9997
 X108.3110 Y135.0357
 X108.5570 Y135.0487
 X108.8020 Y135.0357
 X109.0410 Y134.9997
 X109.2720 Y134.9397
 X109.4930 Y134.8587
 X109.7030 Y134.7577
 X109.9020 Y134.6367
 X110.0870 Y134.4977
 X110.2580 Y134.3427
 X110.4140 Y134.1717
 X110.5520 Y133.9857
 X110.6730 Y133.7877
 X110.7750 Y133.5767
 X110.8560 Y133.3557
 X110.9150 Y133.1257
 X110.9520 Y132.8867
 X110.9640 Y132.6407
 Y123.0067
 X110.9520 Y122.7617
 X110.9150 Y122.5227
 X110.8560 Y122.2917
 X110.7750 Y122.0707
 X110.6730 Y121.8607
 X110.5520 Y121.6627
 X110.4140 Y121.4767
 X110.2580 Y121.3057
 X110.0870 Y121.1507
 X109.9020 Y121.0117
 X109.7030 Y120.8907
 X109.4930 Y120.7887
 X109.2720 Y120.7077
 X109.0410 Y120.6487
 X108.8020 Y120.6117
 X108.5570 Y120.5997
 X108.3160 Y120.6117
 X108.0800 Y120.6467
 X107.8510 Y120.7037
 X107.6300 Y120.7837
 X107.4170 Y120.8847
 X107.2160 Y121.0067
 X107.0260 Y121.1497
 X106.8490 Y121.3127
 X106.6680 Y121.4787
 X106.4740 Y121.6237
 X106.2690 Y121.7467
 X106.0560 Y121.8477
 X105.8360 Y121.9267
 X105.6100 Y121.9837
 X105.3810 Y122.0187
 X105.1500 Y122.0307
 X104.9190 Y122.0217
 X104.6894 Y121.9907
 X104.4632 Y121.9367
 X104.2419 Y121.8617
 X104.0275 Y121.7637
 X103.8214 Y121.6437
 X103.6256 Y121.5027
 X103.4415 Y121.3387
 X103.2750 Y121.1567
 X103.1303 Y120.9627
 X103.0076 Y120.7587
 X102.9068 Y120.5447
 X102.8281 Y120.3247
 X102.7712 Y120.0997
 X102.7364 Y119.8707
 X102.7237 Y119.6407
 X102.7329 Y119.4097
 X102.7643 Y119.1797
 X102.8178 Y118.9537
 X102.8933 Y118.7327
 X102.9910 Y118.5187
 X103.1108 Y118.3127
 X103.2528 Y118.1167
 X103.4169 Y117.9327
 X103.6782 Y117.6807
 X103.9499 Y117.4427
 X104.2314 Y117.2197
 X104.5221 Y117.0127
 X104.8217 Y116.8207
 X105.1290 Y116.6437
 X105.4450 Y116.4827
 X105.7680 Y116.3387
 X106.0980 Y116.2097
 X106.4340 Y116.0987
 X106.7760 Y116.0027
 X107.1240 Y115.9247
 X107.4760 Y115.8627
 X107.8320 Y115.8187
 X108.1930 Y115.7927
 X108.5570 Y115.7837
 X108.9280 Y115.7927
 X109.2940 Y115.8207
 X109.6550 Y115.8667
 X110.0110 Y115.9307
 X110.3600 Y116.0117
 X110.7020 Y116.1087
 X111.0380 Y116.2227
 X111.3660 Y116.3517
 X111.6860 Y116.4967
 X111.9970 Y116.6567
 X112.3000 Y116.8307
 X112.5930 Y117.0187
 X112.8760 Y117.2207
 X113.1490 Y117.4357
 X113.4120 Y117.6627
 X113.6630 Y117.9017
 X113.9020 Y118.1527
 X114.1290 Y118.4147
 X114.3440 Y118.6877
 X114.5460 Y118.9717
 X114.7340 Y119.2647
 X114.9080 Y119.5667
 X115.0680 Y119.8787
 X115.2130 Y120.1977
 X115.3430 Y120.5257
 X115.4560 Y120.8617
 X115.5540 Y121.2037
 X115.6350 Y121.5537
 X115.6980 Y121.9087
 X115.7440 Y122.2697
 X115.7720 Y122.6357
 X115.7820 Y123.0067
 Y132.6407
 X115.7720 Y133.0117
 X115.7440 Y133.3787
 X115.6980 Y133.7397
 X115.6350 Y134.0947
 X115.5540 Y134.4437
 X115.4560 Y134.7867
 X115.3430 Y135.1217
 X115.2130 Y135.4497
 X115.0680 Y135.7697
 X114.9080 Y136.0817
 X114.7340 Y136.3837
 X114.5460 Y136.6767
 X114.3440 Y136.9607
 X114.1290 Y137.2337
 X113.9020 Y137.4957
 X113.6630 Y137.7467
 X113.4120 Y137.9867
 X113.1490 Y138.2137
 X112.8760 Y138.4287
 X112.5930 Y138.6297
 X112.3000 Y138.8187
 X111.9970 Y138.9927
 X111.6860 Y139.1517
 X111.3660 Y139.2967
 X111.0380 Y139.4267
 X110.7020 Y139.5407
 X110.3600 Y139.6377
 X110.0110 Y139.7187
 X109.6550 Y139.7827
 X109.2940 Y139.8287
 X108.9280 Y139.8567
 X108.5570 Y139.8657
 X108.1860 Y139.8567
 X107.8190 Y139.8287
 X107.4580 Y139.7827
 X107.1020 Y139.7187
 X106.7530 Y139.6377
 X106.4110 Y139.5407
 X106.0750 Y139.4267
 X105.7470 Y139.2967
 X105.4270 Y139.1517
 X105.1160 Y138.9927
 X104.8132 Y138.8187
 X104.5200 Y138.6297
 X104.2367 Y138.4287
 X103.9636 Y138.2137
 X103.7013 Y137.9867
 X103.4503 Y137.7467
 X103.2108 Y137.4957
 X102.9836 Y137.2337
 X102.7689 Y136.9607
 X102.5672 Y136.6767
 X102.3792 Y136.3837
 X102.2049 Y136.0817
 X102.0451 Y135.7697
 X101.9003 Y135.4497
 X101.7707 Y135.1217
 X101.6569 Y134.7867
 X101.5594 Y134.4437
 X101.4786 Y134.0947
 X101.4150 Y133.7397
 X101.3689 Y133.3787
 X101.3410 Y133.0117
 X101.3317 Y132.6407
 Y130.2327
 X79.6565
 X79.4106 Y130.2197
 X79.1717 Y130.1827
 X78.9410 Y130.1237
 X78.7200 Y130.0427
 X78.5094 Y129.9417
 X78.3110 Y129.8207
 X78.1257 Y129.6817
 X77.9547 Y129.5267
 X77.7993 Y129.3557
 X77.6606 Y129.1707
 X77.5400 Y128.9717
 X77.4385 Y128.7617
 X77.3575 Y128.5407
 X77.2982 Y128.3097
 X77.2617 Y128.0707
 X77.2493 Y127.8247
 X77.2617 Y127.5787
 X77.2982 Y127.3397
 X77.3575 Y127.1087
 X77.4385 Y126.8877
 X77.5400 Y126.6767
 X77.6606 Y126.4777
 X77.7993 Y126.2927
 X77.9547 Y126.1217
 X78.1257 Y125.9657
 X78.3110 Y125.8277
 X78.5094 Y125.7067
 X78.7200 Y125.6047
 X78.9410 Y125.5237
 X79.1717 Y125.4647
 X79.4106 Y125.4287
 X79.6565 Y125.4157
G0 Z5.0000
 X21.8575
G1 Z0.0000
 X60.3904
 X60.6365 Y125.4287
 X60.8756 Y125.4647
 X61.1064 Y125.5237
 X61.3276 Y125.6047
 X61.5382 Y125.7067
 X61.7368 Y125.8277
 X61.9222 Y125.9657
 X62.0933 Y126.1217
 X62.2488 Y126.2927
 X62.3875 Y126.4777
 X62.5082 Y126.6767
 X62.6097 Y126.8867
 X62.6907 Y127.1077
 X62.7501 Y127.3387
 X62.7867 Y127.5777
 X62.7992 Y127.8237
 Y132.6407
 X62.8115 Y132.8867
 X62.8481 Y133.1257
 X62.9075 Y133.3557
 X62.9886 Y133.5767
 X63.0901 Y133.7877
 X63.2108 Y133.9857
 X63.3496 Y134.1717
 X63.5051 Y134.3427
 X63.6761 Y134.4977
 X63.8615 Y134.6367
 X64.0600 Y134.7577
 X64.2704 Y134.8587
 X64.4915 Y134.9397
 X64.7219 Y134.9997
 X64.9607 Y135.0357
 X65.2065 Y135.0487
 X65.4522 Y135.0357
 X65.6910 Y134.9997
 X65.9215 Y134.9397
 X66.1428 Y134.8587
 X66.3532 Y134.7577
 X66.5518 Y134.6367
 X66.7374 Y134.4977
 X66.9085 Y134.3427
 X67.0642 Y134.1717
 X67.2031 Y133.9857
 X67.3239 Y133.7877
 X67.4254 Y133.5767
 X67.5067 Y133.3557
 X67.5661 Y133.1257
 X67.6028 Y132.8867
 X67.6153 Y132.6407
 Y123.0067
 X67.6028 Y122.7617
 X67.5661 Y122.5227
 X67.5067 Y122.2917
 X67.4254 Y122.0707
 X67.3239 Y121.8607
 X67.2031 Y121.6627
 X67.0642 Y121.4767
 X66.9085 Y121.3057
 X66.7374 Y121.1507
 X66.5518 Y121.0117
 X66.3532 Y120.8907
 X66.1428 Y120.7887
 X65.9215 Y120.7077
 X65.6910 Y120.6487
 X65.4522 Y120.6117
 X65.2065 Y120.5997
 X64.9653 Y120.6117
 X64.7296 Y120.6467
 X64.5006 Y120.7037
 X64.2793 Y120.7837
 X64.0674 Y120.8847
 X63.8658 Y121.0067
 X63.6758 Y121.1497
 X63.4990 Y121.3127
 X63.3172 Y121.4787
 X63.1232 Y121.6237
 X62.9187 Y121.7467
 X62.7056 Y121.8477
 X62.4854 Y121.9267
 X62.2599 Y121.9837
 X62.0308 Y122.0187
 X61.7999 Y122.0307
 X61.5687 Y122.0217
 X61.3392 Y121.9907
 X61.1129 Y121.9367
 X60.8917 Y121.8617
 X60.6772 Y121.7637
 X60.4711 Y121.6437
 X60.2753 Y121.5027
 X60.0913 Y121.3387
 X59.9246 Y121.1567
 X59.7800 Y120.9627
 X59.6574 Y120.7587
 X59.5567 Y120.5447
 X59.4779 Y120.3247
 X59.4213 Y120.0997
 X59.3867 Y119.8707
 X59.3740 Y119.6407
 X59.3835 Y119.4097
 X59.4150 Y119.1797
 X59.4685 Y118.9537
 X59.5442 Y118.7327
 X59.6418 Y118.5187
 X59.7618 Y118.3127
 X59.9038 Y118.1167
 X60.0679 Y117.9327
 X60.3293 Y117.6807
 X60.6010 Y117.4427
 X60.8824 Y117.2197
 X61.1731 Y117.0127
 X61.4726 Y116.8207
 X61.7806 Y116.6437
 X62.0963 Y116.4827
 X62.4192 Y116.3387
 X62.7489 Y116.2097
 X63.0850 Y116.0987
 X63.4269 Y116.0027
 X63.7742 Y115.9247
 X64.1262 Y115.8627
 X64.4826 Y115.8187
 X64.8429 Y115.7927
 X65.2065 Y115.7837
 X65.5776 Y115.7927
 X65.9442 Y115.8207
 X66.3053 Y115.8667
 X66.6607 Y115.9307
 X67.0100 Y116.0117
 X67.3526 Y116.1087
 X67.6882 Y116.2227
 X68.0161 Y116.3517
 X68.3361 Y116.4967
 X68.6476 Y116.6567
 X68.9501 Y116.8307
 X69.2433 Y117.0187
 X69.5267 Y117.2207
 X69.7997 Y117.4357
 X70.0619 Y117.6627
 X70.3131 Y117.9017
 X70.5524 Y118.1527
 X70.7797 Y118.4147
 X70.9943 Y118.6877
 X71.1960 Y118.9717
 X71.3842 Y119.2647
 X71.5583 Y119.5667
 X71.7181 Y119.8787
 X71.8629 Y120.1977
 X71.9925 Y120.5257
 X72.1062 Y120.8617
 X72.2037 Y121.2037
 X72.2846 Y121.5537
 X72.3482 Y121.9087
 X72.3943 Y122.2697
 X72.4222 Y122.6357
 X72.4317 Y123.0067
 Y132.6407
 X72.4222 Y133.0117
 X72.3943 Y133.3787
 X72.3482 Y133.7397
 X72.2846 Y134.0947
 X72.2037 Y134.4437
 X72.1062 Y134.7867
 X71.9925 Y135.1217
 X71.8629 Y135.4497
 X71.7181 Y135.7697
 X71.5583 Y136.0817
 X71.3842 Y136.3837
 X71.1960 Y136.6767
 X70.9943 Y136.9607
 X70.7797 Y137.2337
 X70.5524 Y137.4957
 X70.3131 Y137.7467
 X70.0619 Y137.9867
 X69.7997 Y138.2137
 X69.5267 Y138.4287
 X69.2433 Y138.6297
 X68.9501 Y138.8187
 X68.6476 Y138.9927
 X68.3361 Y139.1517
 X68.0161 Y139.2967
 X67.6882 Y139.4267
 X67.3526 Y139.5407
 X67.0100 Y139.6377
 X66.6607 Y139.7187
 X66.3053 Y139.7827
 X65.9442 Y139.8287
 X65.5776 Y139.8567
 X65.2065 Y139.8657
 X64.8353 Y139.8567
 X64.4690 Y139.8287
 X64.1079 Y139.7827
 X63.7526 Y139.7187
 X63.4035 Y139.6377
 X63.0610 Y139.5407
 X62.7256 Y139.4267
 X62.3976 Y139.2967
 X62.0778 Y139.1517
 X61.7664 Y138.9927
 X61.4639 Y138.8187
 X61.1707 Y138.6297
 X60.8875 Y138.4287
 X60.6144 Y138.2137
 X60.3522 Y137.9867
 X60.1013 Y137.7467
 X59.8619 Y137.4957
 X59.6347 Y137.2337
 X59.4200 Y136.9607
 X59.2185 Y136.6767
 X59.0303 Y136.3837
 X58.8561 Y136.0817
 X58.6964 Y135.7697
 X58.5517 Y135.4497
 X58.4221 Y135.1217
 X58.3083 Y134.7867
 X58.2108 Y134.4437
 X58.1300 Y134.0947
 X58.0664 Y133.7397
 X58.0203 Y133.3787
 X57.9924 Y133.0117
 X57.9829 Y132.6407
 Y130.2327
 X21.8575
 X21.6115 Y130.2197
 X21.3726 Y130.1827
 X21.1421 Y130.1237
 X20.9210 Y130.0427
 X20.7106 Y129.9417
 X20.5121 Y129.8207
 X20.3267 Y129.6817
 X20.1557 Y129.5267
 X20.0003 Y129.3557
 X19.8617 Y129.1707
 X19.7410 Y128.9717
 X19.6394 Y128.7617
 X19.5585 Y128.5407
 X19.4990 Y128.3097
 X19.4625 Y128.0707
 X19.4501 Y127.8247
 X19.4625 Y127.5787
 X19.4990 Y127.3397
 X19.5585 Y127.1087
 X19.6394 Y126.8877
 X19.7410 Y126.6767
 X19.8617 Y126.4777
 X20.0003 Y126.2927
 X20.1557 Y126.1217
 X20.3267 Y125.9657
 X20.5121 Y125.8277
 X20.7106 Y125.7067
 X20.9210 Y125.6047
 X21.1421 Y125.5237
 X21.3726 Y125.4647
 X21.6115 Y125.4287
 X21.8575 Y125.4157
G0 Z5.0000
 Y96.5158
G1 Z0.0000
 X74.8406
 X75.0867 Y96.5283
 X75.3257 Y96.5649
 X75.5565 Y96.6242
 X75.7778 Y96.7051
 X75.9883 Y96.8067
 X76.1869 Y96.9274
 X76.3724 Y97.0660
 X76.5435 Y97.2215
 X76.6989 Y97.3925
 X76.8376 Y97.5781
 X76.9583 Y97.7767
 X77.0599 Y97.9871
 X77.1408 Y98.2085
 X77.2003 Y98.4393
 X77.2368 Y98.6783
 X77.2493 Y98.9246
 Y103.7407
 X77.2617 Y103.9865
 X77.2982 Y104.2253
 X77.3576 Y104.4558
 X77.4387 Y104.6771
 X77.5403 Y104.8875
 X77.6610 Y105.0857
 X77.7997 Y105.2717
 X77.9551 Y105.4427
 X78.1262 Y105.5987
 X78.3117 Y105.7377
 X78.5101 Y105.8587
 X78.7206 Y105.9597
 X78.9415 Y106.0407
 X79.1721 Y106.1007
 X79.4108 Y106.1367
 X79.6565 Y106.1497
 X79.9022 Y106.1367
 X80.1411 Y106.1007
 X80.3717 Y106.0407
 X80.5928 Y105.9597
 X80.8033 Y105.8587
 X81.0019 Y105.7377
 X81.1875 Y105.5987
 X81.3586 Y105.4427
 X81.5143 Y105.2717
 X81.6531 Y105.0857
 X81.7740 Y104.8875
 X81.8756 Y104.6771
 X81.9568 Y104.4558
 X82.0162 Y104.2253
 X82.0529 Y103.9865
 X82.0654 Y103.7407
 Y94.1081
 X82.0529 Y93.8625
 X82.0162 Y93.6238
 X81.9568 Y93.3932
 X81.8756 Y93.1721
 X81.7740 Y92.9615
 X81.6531 Y92.7629
 X81.5143 Y92.5774
 X81.3586 Y92.4063
 X81.1875 Y92.2506
 X81.0019 Y92.1117
 X80.8033 Y91.9908
 X80.5928 Y91.8892
 X80.3717 Y91.8081
 X80.1411 Y91.7485
 X79.9022 Y91.7118
 X79.6565 Y91.6993
 X79.4158 Y91.7113
 X79.1803 Y91.7463
 X78.9513 Y91.8039
 X78.7299 Y91.8836
 X78.5178 Y91.9849
 X78.3161 Y92.1071
 X78.1261 Y92.2496
 X77.9492 Y92.4119
 X77.7674 Y92.5790
 X77.5733 Y92.7239
 X77.3689 Y92.8470
 X77.1557 Y92.9478
 X76.9356 Y93.0267
 X76.7100 Y93.0835
 X76.4810 Y93.1182
 X76.2500 Y93.1310
 X76.0189 Y93.1217
 X75.7893 Y93.0904
 X75.5631 Y93.0371
 X75.3418 Y92.9617
 X75.1274 Y92.8642
 X74.9213 Y92.7447
 X74.7254 Y92.6032
 X74.5414 Y92.4394
 X74.3747 Y92.2576
 X74.2301 Y92.0638
 X74.1075 Y91.8593
 X74.0068 Y91.6461
 X73.9281 Y91.4261
 X73.8714 Y91.2007
 X73.8368 Y90.9717
 X73.8242 Y90.7410
 X73.8336 Y90.5100
 X73.8651 Y90.2807
 X73.9186 Y90.0547
 X73.9943 Y89.8338
 X74.0921 Y89.6194
 X74.2119 Y89.4136
 X74.3539 Y89.2179
 X74.5181 Y89.0342
 X74.7794 Y88.7814
 X75.0510 Y88.5433
 X75.3324 Y88.3204
 X75.6231 Y88.1128
 X75.9225 Y87.9204
 X76.2303 Y87.7439
 X76.5458 Y87.5831
 X76.8687 Y87.4385
 X77.1985 Y87.3100
 X77.5346 Y87.1979
 X77.8765 Y87.1026
 X78.2237 Y87.0243
 X78.5758 Y86.9629
 X78.9324 Y86.9188
 X79.2928 Y86.8922
 X79.6565 Y86.8832
 X80.0278 Y86.8926
 X80.3942 Y86.9206
 X80.7554 Y86.9667
 X81.1108 Y87.0303
 X81.4601 Y87.1111
 X81.8026 Y87.2086
 X82.1382 Y87.3224
 X82.4661 Y87.4520
 X82.7861 Y87.5968
 X83.0976 Y87.7565
 X83.4001 Y87.9307
 X83.6933 Y88.1188
 X83.9767 Y88.3204
 X84.2497 Y88.5351
 X84.5119 Y88.7624
 X84.7631 Y89.0017
 X85.0024 Y89.2528
 X85.2297 Y89.5151
 X85.4443 Y89.7881
 X85.6460 Y90.0714
 X85.8340 Y90.3646
 X86.0082 Y90.6671
 X86.1679 Y90.9786
 X86.3128 Y91.2986
 X86.4424 Y91.6265
 X86.5561 Y91.9620
 X86.6536 Y92.3046
 X86.7344 Y92.6539
 X86.7981 Y93.0093
 X86.8442 Y93.3706
 X86.8721 Y93.7369
 X86.8815 Y94.1081
 Y103.7407
 X86.8721 Y104.1119
 X86.8442 Y104.4783
 X86.7981 Y104.8396
 X86.7344 Y105.1947
 X86.6536 Y105.5447
 X86.5561 Y105.8867
 X86.4424 Y106.2227
 X86.3128 Y106.5507
 X86.1679 Y106.8707
 X86.0082 Y107.1817
 X85.8340 Y107.4847
 X85.6460 Y107.7777
 X85.4443 Y108.0607
 X85.2297 Y108.3337
 X85.0024 Y108.5957
 X84.7631 Y108.8467
 X84.5119 Y109.0867
 X84.2497 Y109.3137
 X83.9767 Y109.5287
 X83.6933 Y109.7297
 X83.4001 Y109.9187
 X83.0976 Y110.0927
 X82.7861 Y110.2517
 X82.4661 Y110.3967
 X82.1382 Y110.5267
 X81.8026 Y110.6407
 X81.4601 Y110.7377
 X81.1108 Y110.8187
 X80.7554 Y110.8827
 X80.3942 Y110.9287
 X80.0278 Y110.9567
 X79.6565 Y110.9657
 X79.2854 Y110.9567
 X78.9192 Y110.9287
 X78.5581 Y110.8827
 X78.2026 Y110.8187
 X77.8535 Y110.7377
 X77.5110 Y110.6407
 X77.1754 Y110.5267
 X76.8475 Y110.3967
 X76.5276 Y110.2517
 X76.2161 Y110.0927
 X75.9136 Y109.9187
 X75.6204 Y109.7297
 X75.3371 Y109.5287
 X75.0640 Y109.3137
 X74.8018 Y109.0867
 X74.5507 Y108.8467
 X74.3113 Y108.5957
 X74.0840 Y108.3337
 X73.8693 Y108.0607
 X73.6676 Y107.7777
 X73.4794 Y107.4847
 X73.3053 Y107.1817
 X73.1454 Y106.8707
 X73.0006 Y106.5507
 X72.8710 Y106.2227
 X72.7572 Y105.8867
 X72.6596 Y105.5447
 X72.5787 Y105.1947
 X72.5151 Y104.8396
 X72.4690 Y104.4783
 X72.4411 Y104.1119
 X72.4317 Y103.7407
 Y101.3333
 X21.8575
 X21.6115 Y101.3210
 X21.3726 Y101.2845
 X21.1421 Y101.2250
 X20.9210 Y101.1440
 X20.7106 Y101.0425
 X20.5121 Y100.9218
 X20.3267 Y100.7832
 X20.1557 Y100.6276
 X20.0003 Y100.4565
 X19.8617 Y100.2711
 X19.7410 Y100.0725
 X19.6394 Y99.8619
 X19.5585 Y99.6407
 X19.4990 Y99.4099
 X19.4625 Y99.1708
 X19.4501 Y98.9246
 X19.4625 Y98.6786
 X19.4990 Y98.4397
 X19.5585 Y98.2090
 X19.6394 Y97.9878
 X19.7410 Y97.7772
 X19.8617 Y97.5786
 X20.0003 Y97.3932
 X20.1557 Y97.2220
 X20.3267 Y97.0664
 X20.5121 Y96.9278
 X20.7106 Y96.8069
 X20.9210 Y96.7054
 X21.1421 Y96.6243
 X21.3726 Y96.5649
 X21.6115 Y96.5283
 X21.8575 Y96.5158
G0 Z5.0000
G0 Z5.0000
M2 (end program)
