;PYCAM-META-DATA: Filename: /media/martoio/MARTOIO/ME43/std_lib/svg/017-bottle.svg
;PYCAM-META-DATA: Timestamp: 2017-12-06 02:02:13.818663
;PYCAM-META-DATA: Version: 0.5.1
;Estimated machine time: 10 minutes
G40 (disable tool radius compensation)
G49 (disable tool length compensation)
G80 (cancel modal motion)
G54 (select coordinate system 1)
G90 (disable incremental moves)
G21 (metric)
G61 (exact path mode)
F400.00000
S1.00000
;PYCAM_TOOLPATH_SETTINGS: START
;[Bounds]
;maxz = 0.0
;maxx = 123.7103
;maxy = 138.612775826
;minx = -5.3373
;miny = -6.6920705296
;minz = 0.0
;
;[Tool]
;torus_radius = 0.25
;speed = 1.0
;shape = CylindricalCutter
;tool_radius = 0.5
;feedrate = 400.0
;
;[Process]
;engrave_offset = 0.0
;step_down = 1.0
;generator = EngraveCutter
;postprocessor = SimpleCutter
;overlap_percent = 0
;milling_style = conventional
;material_allowance = 0.0
;pocketing_type = none
;path_direction = x
;
;PYCAM_TOOLPATH_SETTINGS: END
T1 M6
G0 Z5.0000
 X45.6396 Y122.4047
G1 Z0.0000
 X72.7333
 Y113.3747
 X45.6396
 Y122.4047
G0 Z5.0000
 X42.6316 Y92.4229
G1 Z0.0000
 X45.6396 Y93.4879
 Y108.8587
 X72.7333
 Y93.4879
 X75.7419 Y92.4229
 X77.0309 Y91.9465
 X78.3008 Y91.4368
 X79.5510 Y90.8946
 X80.7813 Y90.3203
 X81.9912 Y89.7146
 X83.1803 Y89.0781
 X84.3481 Y88.4114
 X85.4942 Y87.7153
 X86.6182 Y86.9900
 X87.7198 Y86.2364
 X88.7984 Y85.4550
 X89.8537 Y84.6465
 X90.8852 Y83.8115
 X91.8924 Y82.9504
 X92.8752 Y82.0640
 X93.8328 Y81.1529
 X94.7652 Y80.2176
 X95.6714 Y79.2589
 X96.5516 Y78.2771
 X97.4051 Y77.2731
 X98.2310 Y76.2472
 X99.0300 Y75.2004
 X99.8010 Y74.1331
 X100.5430 Y73.0457
 X101.2570 Y71.9392
 X101.9410 Y70.8138
 X102.5960 Y69.6704
 X103.2210 Y68.5096
 X103.8150 Y67.3318
 X104.3780 Y66.1378
 X104.9100 Y64.9281
 X105.4110 Y63.7033
 X12.9626
 X13.4630 Y64.9281
 X13.9951 Y66.1378
 X14.5587 Y67.3318
 X15.1530 Y68.5096
 X15.7777 Y69.6704
 X16.4326 Y70.8138
 X17.1170 Y71.9392
 X17.8307 Y73.0457
 X18.5733 Y74.1331
 X19.3441 Y75.2004
 X20.1428 Y76.2472
 X20.9691 Y77.2731
 X21.8226 Y78.2771
 X22.7027 Y79.2589
 X23.6091 Y80.2176
 X24.5413 Y81.1529
 X25.4989 Y82.0640
 X26.4816 Y82.9504
 X27.4889 Y83.8115
 X28.5205 Y84.6465
 X29.5756 Y85.4550
 X30.6542 Y86.2364
 X31.7558 Y86.9900
 X32.8796 Y87.7153
 X34.0258 Y88.4114
 X35.1935 Y89.0781
 X36.3826 Y89.7146
 X37.5923 Y90.3203
 X38.8226 Y90.8946
 X40.0727 Y91.4368
 X41.3426 Y91.9465
 X42.6316 Y92.4229
G0 Z5.0000
 X77.2492 Y50.1556
G1 Z0.0000
 X77.2259 Y49.6940
 X77.1576 Y49.2460
 X77.0462 Y48.8133
 X76.8944 Y48.3986
 X76.7042 Y48.0040
 X76.4781 Y47.6318
 X76.2181 Y47.2843
 X75.9267 Y46.9638
 X75.6060 Y46.6724
 X75.2584 Y46.4124
 X74.8860 Y46.1863
 X74.4913 Y45.9963
 X74.0763 Y45.8445
 X73.6435 Y45.7331
 X73.1951 Y45.6647
 X72.7333 Y45.6414
 X72.2716 Y45.6647
 X71.8231 Y45.7331
 X71.3903 Y45.8445
 X70.9755 Y45.9963
 X70.5806 Y46.1863
 X70.2084 Y46.4124
 X69.8607 Y46.6724
 X69.5401 Y46.9638
 X69.2485 Y47.2843
 X68.9887 Y47.6318
 X68.7624 Y48.0040
 X68.5723 Y48.3986
 X68.4205 Y48.8133
 X68.3091 Y49.2460
 X68.2406 Y49.6940
 X68.2174 Y50.1556
 X68.2406 Y50.6174
 X68.3091 Y51.0658
 X68.4205 Y51.4986
 X68.5723 Y51.9136
 X68.7624 Y52.3083
 X68.9887 Y52.6807
 X69.2485 Y53.0282
 X69.5401 Y53.3489
 X69.8607 Y53.6404
 X70.2084 Y53.9003
 X70.5806 Y54.1265
 X70.9755 Y54.3167
 X71.3903 Y54.4685
 X71.8231 Y54.5797
 X72.2716 Y54.6482
 X72.7333 Y54.6714
 X73.1951 Y54.6482
 X73.6435 Y54.5797
 X74.0763 Y54.4685
 X74.4913 Y54.3167
 X74.8860 Y54.1265
 X75.2584 Y53.9003
 X75.6060 Y53.6404
 X75.9267 Y53.3489
 X76.2181 Y53.0282
 X76.4781 Y52.6807
 X76.7042 Y52.3083
 X76.8944 Y51.9136
 X77.0462 Y51.4986
 X77.1576 Y51.0658
 X77.2259 Y50.6174
 X77.2492 Y50.1556
G0 Z5.0000
 X90.7941 Y52.4129
G1 Z0.0000
 X90.7824 Y52.1824
 X90.7482 Y51.9583
 X90.6926 Y51.7421
 X90.6167 Y51.5347
 X90.5217 Y51.3375
 X90.4087 Y51.1513
 X90.2787 Y50.9775
 X90.1330 Y50.8171
 X89.9727 Y50.6714
 X89.7989 Y50.5414
 X89.6128 Y50.4283
 X89.4155 Y50.3331
 X89.2081 Y50.2572
 X88.9917 Y50.2015
 X88.7676 Y50.1672
 X88.5367 Y50.1556
 X88.3057 Y50.1672
 X88.0816 Y50.2015
 X87.8652 Y50.2572
 X87.6577 Y50.3331
 X87.4602 Y50.4283
 X87.2741 Y50.5414
 X87.1002 Y50.6714
 X86.9398 Y50.8171
 X86.7939 Y50.9775
 X86.6639 Y51.1513
 X86.5509 Y51.3375
 X86.4556 Y51.5347
 X86.3798 Y51.7421
 X86.3241 Y51.9583
 X86.2898 Y52.1824
 X86.2782 Y52.4129
 X86.2898 Y52.6439
 X86.3241 Y52.8681
 X86.3798 Y53.0846
 X86.4556 Y53.2919
 X86.5509 Y53.4894
 X86.6639 Y53.6756
 X86.7939 Y53.8495
 X86.9398 Y54.0099
 X87.1002 Y54.1557
 X87.2741 Y54.2857
 X87.4602 Y54.3988
 X87.6577 Y54.4940
 X87.8652 Y54.5699
 X88.0816 Y54.6256
 X88.3057 Y54.6599
 X88.5367 Y54.6714
 X88.7676 Y54.6599
 X88.9917 Y54.6256
 X89.2081 Y54.5699
 X89.4155 Y54.4940
 X89.6128 Y54.3988
 X89.7989 Y54.2857
 X89.9727 Y54.1557
 X90.1330 Y54.0099
 X90.2787 Y53.8495
 X90.4087 Y53.6756
 X90.5217 Y53.4894
 X90.6167 Y53.2919
 X90.6926 Y53.0846
 X90.7482 Y52.8681
 X90.7824 Y52.6439
 X90.7941 Y52.4129
G0 Z5.0000
 X90.7952 Y32.0938
G1 Z0.0000
 X90.5648 Y32.1054
 X90.3409 Y32.1396
 X90.1249 Y32.1954
 X89.9176 Y32.2714
 X89.7203 Y32.3667
 X89.5342 Y32.4799
 X89.3605 Y32.6100
 X89.2001 Y32.7558
 X89.0542 Y32.9164
 X88.9242 Y33.0903
 X88.8109 Y33.2765
 X88.7157 Y33.4739
 X88.6398 Y33.6814
 X88.5839 Y33.8978
 X88.5498 Y34.1218
 X88.5381 Y34.3525
 X88.5498 Y34.5829
 X88.5839 Y34.8068
 X88.6398 Y35.0229
 X88.7157 Y35.2301
 X88.8109 Y35.4274
 X88.9242 Y35.6135
 X89.0542 Y35.7874
 X89.2001 Y35.9476
 X89.3605 Y36.0935
 X89.5342 Y36.2235
 X89.7203 Y36.3368
 X89.9176 Y36.4320
 X90.1249 Y36.5079
 X90.3409 Y36.5638
 X90.5648 Y36.5979
 X90.7952 Y36.6096
 X91.0259 Y36.5979
 X91.2499 Y36.5638
 X91.4663 Y36.5079
 X91.6738 Y36.4320
 X91.8712 Y36.3368
 X92.0574 Y36.2235
 X92.2313 Y36.0935
 X92.3919 Y35.9476
 X92.5377 Y35.7874
 X92.6678 Y35.6135
 X92.7810 Y35.4274
 X92.8763 Y35.2301
 X92.9523 Y35.0229
 X93.0080 Y34.8068
 X93.0423 Y34.5829
 X93.0541 Y34.3525
 X93.0423 Y34.1218
 X93.0080 Y33.8978
 X92.9523 Y33.6814
 X92.8763 Y33.4739
 X92.7810 Y33.2765
 X92.6678 Y33.0903
 X92.5377 Y32.9164
 X92.3919 Y32.7558
 X92.2313 Y32.6100
 X92.0574 Y32.4799
 X91.8712 Y32.3667
 X91.6738 Y32.2714
 X91.4663 Y32.1954
 X91.2499 Y32.1396
 X91.0259 Y32.1054
 X90.7952 Y32.0938
G0 Z5.0000
 X86.2684 Y20.8047
G1 Z0.0000
 X86.2567 Y20.5742
 X86.2224 Y20.3501
 X86.1667 Y20.1339
 X86.0909 Y19.9267
 X85.9956 Y19.7293
 X85.8826 Y19.5433
 X85.7526 Y19.3695
 X85.6067 Y19.2092
 X85.4463 Y19.0635
 X85.2724 Y18.9335
 X85.0863 Y18.8204
 X84.8888 Y18.7253
 X84.6813 Y18.6493
 X84.4649 Y18.5936
 X84.2408 Y18.5594
 X84.0099 Y18.5477
 X83.7789 Y18.5594
 X83.5548 Y18.5936
 X83.3385 Y18.6493
 X83.1310 Y18.7253
 X82.9338 Y18.8204
 X82.7477 Y18.9335
 X82.5739 Y19.0635
 X82.4137 Y19.2092
 X82.2680 Y19.3695
 X82.1381 Y19.5433
 X82.0251 Y19.7293
 X81.9301 Y19.9267
 X81.8542 Y20.1339
 X81.7985 Y20.3501
 X81.7644 Y20.5742
 X81.7528 Y20.8047
 X81.7644 Y21.0357
 X81.7985 Y21.2599
 X81.8542 Y21.4764
 X81.9301 Y21.6839
 X82.0251 Y21.8814
 X82.1381 Y22.0675
 X82.2680 Y22.2415
 X82.4137 Y22.4020
 X82.5739 Y22.5476
 X82.7477 Y22.6778
 X82.9338 Y22.7910
 X83.1310 Y22.8861
 X83.3385 Y22.9621
 X83.5548 Y23.0178
 X83.7789 Y23.0519
 X84.0099 Y23.0636
 X84.2408 Y23.0519
 X84.4649 Y23.0178
 X84.6813 Y22.9621
 X84.8888 Y22.8861
 X85.0863 Y22.7910
 X85.2724 Y22.6778
 X85.4463 Y22.5476
 X85.6067 Y22.4020
 X85.7526 Y22.2415
 X85.8826 Y22.0675
 X85.9956 Y21.8814
 X86.0909 Y21.6839
 X86.1667 Y21.4764
 X86.2224 Y21.2599
 X86.2567 Y21.0357
 X86.2684 Y20.8047
G0 Z5.0000
 X77.2492 Y29.8365
G1 Z0.0000
 X77.2376 Y29.6057
 X77.2034 Y29.3815
 X77.1477 Y29.1651
 X77.0717 Y28.9578
 X76.9766 Y28.7604
 X76.8634 Y28.5743
 X76.7334 Y28.4006
 X76.5876 Y28.2403
 X76.4271 Y28.0946
 X76.2533 Y27.9647
 X76.0671 Y27.8517
 X75.8696 Y27.7565
 X75.6623 Y27.6807
 X75.4458 Y27.6251
 X75.2216 Y27.5908
 X74.9908 Y27.5792
 X74.7598 Y27.5908
 X74.5355 Y27.6251
 X74.3192 Y27.6807
 X74.1117 Y27.7565
 X73.9144 Y27.8517
 X73.7282 Y27.9647
 X73.5545 Y28.0946
 X73.3942 Y28.2403
 X73.2485 Y28.4006
 X73.1187 Y28.5743
 X73.0056 Y28.7604
 X72.9106 Y28.9578
 X72.8346 Y29.1651
 X72.7791 Y29.3815
 X72.7449 Y29.6057
 X72.7333 Y29.8365
 X72.7449 Y30.0675
 X72.7791 Y30.2917
 X72.8346 Y30.5079
 X72.9106 Y30.7154
 X73.0056 Y30.9126
 X73.1187 Y31.0988
 X73.2485 Y31.2725
 X73.3942 Y31.4328
 X73.5545 Y31.5785
 X73.7282 Y31.7083
 X73.9144 Y31.8214
 X74.1117 Y31.9164
 X74.3192 Y31.9922
 X74.5355 Y32.0479
 X74.7598 Y32.0821
 X74.9908 Y32.0938
 X75.2216 Y32.0821
 X75.4458 Y32.0479
 X75.6623 Y31.9922
 X75.8696 Y31.9164
 X76.0671 Y31.8214
 X76.2533 Y31.7083
 X76.4271 Y31.5785
 X76.5876 Y31.4328
 X76.7334 Y31.2725
 X76.8634 Y31.0988
 X76.9766 Y30.9126
 X77.0717 Y30.7154
 X77.1477 Y30.5079
 X77.2034 Y30.2917
 X77.2376 Y30.0675
 X77.2492 Y29.8365
G0 Z5.0000
 X59.1873 Y23.0636
G1 Z0.0000
 X58.9567 Y23.0754
 X58.7326 Y23.1096
 X58.5163 Y23.1653
 X58.3088 Y23.2414
 X58.1114 Y23.3365
 X57.9252 Y23.4497
 X57.7513 Y23.5799
 X57.5907 Y23.7256
 X57.4449 Y23.8860
 X57.3148 Y24.0597
 X57.2014 Y24.2458
 X57.1062 Y24.4432
 X57.0302 Y24.6504
 X56.9745 Y24.8665
 X56.9402 Y25.0903
 X56.9285 Y25.3207
 X56.9402 Y25.5511
 X56.9745 Y25.7750
 X57.0302 Y25.9910
 X57.1062 Y26.1983
 X57.2014 Y26.3956
 X57.3148 Y26.5817
 X57.4449 Y26.7554
 X57.5907 Y26.9158
 X57.7513 Y27.0617
 X57.9252 Y27.1917
 X58.1114 Y27.3050
 X58.3088 Y27.4001
 X58.5163 Y27.4761
 X58.7326 Y27.5320
 X58.9567 Y27.5661
 X59.1873 Y27.5778
 X59.4177 Y27.5661
 X59.6416 Y27.5320
 X59.8577 Y27.4761
 X60.0649 Y27.4001
 X60.2621 Y27.3050
 X60.4483 Y27.1917
 X60.6221 Y27.0617
 X60.7824 Y26.9158
 X60.9283 Y26.7554
 X61.0584 Y26.5817
 X61.1716 Y26.3956
 X61.2667 Y26.1983
 X61.3427 Y25.9910
 X61.3985 Y25.7750
 X61.4327 Y25.5511
 X61.4445 Y25.3207
 X61.4327 Y25.0903
 X61.3985 Y24.8665
 X61.3427 Y24.6504
 X61.2667 Y24.4432
 X61.1716 Y24.2458
 X61.0584 Y24.0597
 X60.9283 Y23.8860
 X60.7824 Y23.7256
 X60.6221 Y23.5799
 X60.4483 Y23.4497
 X60.2621 Y23.3365
 X60.0649 Y23.2414
 X59.8577 Y23.1653
 X59.6416 Y23.1096
 X59.4177 Y23.0754
 X59.1873 Y23.0636
G0 Z5.0000
 X54.6714 Y41.1254
G1 Z0.0000
 X54.6481 Y40.6638
 X54.5796 Y40.2153
 X54.4684 Y39.7825
 X54.3166 Y39.3675
 X54.1264 Y38.9728
 X53.9003 Y38.6004
 X53.6403 Y38.2528
 X53.3489 Y37.9321
 X53.0282 Y37.6407
 X52.6806 Y37.3807
 X52.3083 Y37.1546
 X51.9135 Y36.9644
 X51.4985 Y36.8126
 X51.0657 Y36.7014
 X50.6173 Y36.6329
 X50.1556 Y36.6096
 X49.6938 Y36.6329
 X49.2453 Y36.7014
 X48.8126 Y36.8126
 X48.3977 Y36.9644
 X48.0030 Y37.1546
 X47.6306 Y37.3807
 X47.2830 Y37.6407
 X46.9623 Y37.9321
 X46.6707 Y38.2528
 X46.4109 Y38.6004
 X46.1846 Y38.9728
 X45.9945 Y39.3675
 X45.8427 Y39.7825
 X45.7314 Y40.2153
 X45.6630 Y40.6638
 X45.6396 Y41.1254
 X45.6630 Y41.5872
 X45.7314 Y42.0357
 X45.8427 Y42.4685
 X45.9945 Y42.8833
 X46.1846 Y43.2781
 X46.4109 Y43.6504
 X46.6707 Y43.9981
 X46.9623 Y44.3188
 X47.2830 Y44.6103
 X47.6306 Y44.8701
 X48.0030 Y45.0964
 X48.3977 Y45.2865
 X48.8126 Y45.4383
 X49.2453 Y45.5496
 X49.6938 Y45.6181
 X50.1556 Y45.6414
 X50.6173 Y45.6181
 X51.0657 Y45.5496
 X51.4985 Y45.4383
 X51.9135 Y45.2865
 X52.3083 Y45.0964
 X52.6806 Y44.8701
 X53.0282 Y44.6103
 X53.3489 Y44.3188
 X53.6403 Y43.9981
 X53.9003 Y43.6504
 X54.1264 Y43.2781
 X54.3166 Y42.8833
 X54.4684 Y42.4685
 X54.5796 Y42.0357
 X54.6481 Y41.5872
 X54.6714 Y41.1254
G0 Z5.0000
 X50.1541 Y52.4186
G1 Z0.0000
 X50.1424 Y52.1876
 X50.1082 Y51.9635
 X50.0527 Y51.7470
 X49.9767 Y51.5395
 X49.8817 Y51.3420
 X49.7688 Y51.1557
 X49.6388 Y50.9818
 X49.4932 Y50.8214
 X49.3330 Y50.6757
 X49.1592 Y50.5456
 X48.9731 Y50.4325
 X48.7758 Y50.3374
 X48.5684 Y50.2614
 X48.3520 Y50.2057
 X48.1278 Y50.1714
 X47.8970 Y50.1597
 X47.6662 Y50.1714
 X47.4420 Y50.2057
 X47.2256 Y50.2614
 X47.0182 Y50.3374
 X46.8209 Y50.4325
 X46.6348 Y50.5456
 X46.4609 Y50.6757
 X46.3006 Y50.8214
 X46.1551 Y50.9818
 X46.0251 Y51.1557
 X45.9120 Y51.3420
 X45.8170 Y51.5395
 X45.7412 Y51.7470
 X45.6855 Y51.9635
 X45.6513 Y52.1876
 X45.6396 Y52.4186
 X45.6513 Y52.6494
 X45.6855 Y52.8738
 X45.7412 Y53.0900
 X45.8170 Y53.2974
 X45.9120 Y53.4947
 X46.0251 Y53.6808
 X46.1551 Y53.8546
 X46.3006 Y54.0149
 X46.4609 Y54.1604
 X46.6348 Y54.2904
 X46.8209 Y54.4033
 X47.0182 Y54.4985
 X47.2256 Y54.5743
 X47.4420 Y54.6299
 X47.6662 Y54.6640
 X47.8970 Y54.6757
 X48.1278 Y54.6640
 X48.3520 Y54.6299
 X48.5684 Y54.5743
 X48.7758 Y54.4985
 X48.9731 Y54.4033
 X49.1592 Y54.2904
 X49.3330 Y54.1604
 X49.4932 Y54.0149
 X49.6388 Y53.8546
 X49.7688 Y53.6808
 X49.8817 Y53.4947
 X49.9767 Y53.2974
 X50.0527 Y53.0900
 X50.1082 Y52.8738
 X50.1424 Y52.6494
 X50.1541 Y52.4186
G0 Z5.0000
 X27.5777 Y45.6414
G1 Z0.0000
 X27.3473 Y45.6531
 X27.1235 Y45.6874
 X26.9074 Y45.7431
 X26.7002 Y45.8192
 X26.5028 Y45.9143
 X26.3167 Y46.0275
 X26.1430 Y46.1575
 X25.9826 Y46.3033
 X25.8369 Y46.4638
 X25.7067 Y46.6376
 X25.5935 Y46.8236
 X25.4984 Y47.0210
 X25.4223 Y47.2282
 X25.3666 Y47.4443
 X25.3324 Y47.6681
 X25.3208 Y47.8985
 X25.3324 Y48.1289
 X25.3666 Y48.3528
 X25.4223 Y48.5689
 X25.4984 Y48.7761
 X25.5935 Y48.9733
 X25.7067 Y49.1594
 X25.8369 Y49.3333
 X25.9826 Y49.4936
 X26.1430 Y49.6395
 X26.3167 Y49.7695
 X26.5028 Y49.8826
 X26.7002 Y49.9779
 X26.9074 Y50.0539
 X27.1235 Y50.1096
 X27.3473 Y50.1439
 X27.5777 Y50.1556
 X27.8084 Y50.1439
 X28.0324 Y50.1096
 X28.2488 Y50.0539
 X28.4562 Y49.9779
 X28.6535 Y49.8826
 X28.8399 Y49.7695
 X29.0138 Y49.6395
 X29.1742 Y49.4936
 X29.3202 Y49.3333
 X29.4503 Y49.1594
 X29.5635 Y48.9733
 X29.6588 Y48.7761
 X29.7349 Y48.5689
 X29.7906 Y48.3528
 X29.8249 Y48.1289
 X29.8366 Y47.8985
 X29.8249 Y47.6681
 X29.7906 Y47.4443
 X29.7349 Y47.2282
 X29.6588 Y47.0210
 X29.5635 Y46.8236
 X29.4503 Y46.6376
 X29.3202 Y46.4638
 X29.1742 Y46.3033
 X29.0138 Y46.1575
 X28.8399 Y46.0275
 X28.6535 Y45.9143
 X28.4562 Y45.8192
 X28.2488 Y45.7431
 X28.0324 Y45.6874
 X27.8084 Y45.6531
 X27.5777 Y45.6414
G0 Z5.0000
 X36.6096 Y29.8365
G1 Z0.0000
 X36.5980 Y29.6057
 X36.5637 Y29.3815
 X36.5080 Y29.1651
 X36.4320 Y28.9578
 X36.3369 Y28.7604
 X36.2238 Y28.5743
 X36.0937 Y28.4006
 X35.9480 Y28.2403
 X35.7876 Y28.0946
 X35.6137 Y27.9647
 X35.4274 Y27.8517
 X35.2299 Y27.7565
 X35.0224 Y27.6807
 X34.8059 Y27.6251
 X34.5817 Y27.5908
 X34.3507 Y27.5792
 X34.1199 Y27.5908
 X33.8956 Y27.6251
 X33.6794 Y27.6807
 X33.4720 Y27.7565
 X33.2746 Y27.8517
 X33.0885 Y27.9647
 X32.9148 Y28.0946
 X32.7545 Y28.2403
 X32.6089 Y28.4006
 X32.4789 Y28.5743
 X32.3659 Y28.7604
 X32.2709 Y28.9578
 X32.1951 Y29.1651
 X32.1395 Y29.3815
 X32.1052 Y29.6057
 X32.0937 Y29.8365
 X32.1052 Y30.0675
 X32.1395 Y30.2917
 X32.1951 Y30.5082
 X32.2709 Y30.7156
 X32.3659 Y30.9131
 X32.4789 Y31.0992
 X32.6089 Y31.2731
 X32.7545 Y31.4335
 X32.9148 Y31.5793
 X33.0885 Y31.7093
 X33.2746 Y31.8225
 X33.4720 Y31.9176
 X33.6794 Y31.9936
 X33.8956 Y32.0493
 X34.1199 Y32.0835
 X34.3507 Y32.0951
 X34.5817 Y32.0835
 X34.8059 Y32.0493
 X35.0224 Y31.9936
 X35.2299 Y31.9176
 X35.4274 Y31.8225
 X35.6137 Y31.7093
 X35.7876 Y31.5793
 X35.9480 Y31.4335
 X36.0937 Y31.2731
 X36.2238 Y31.0992
 X36.3369 Y30.9131
 X36.4320 Y30.7156
 X36.5080 Y30.5082
 X36.5637 Y30.2917
 X36.5980 Y30.0675
 X36.6096 Y29.8365
G0 Z5.0000
 Y18.5477
G1 Z0.0000
 X36.5863 Y18.0860
 X36.5178 Y17.6375
 X36.4066 Y17.2047
 X36.2546 Y16.7898
 X36.0645 Y16.3950
 X35.8384 Y16.0227
 X35.5784 Y15.6750
 X35.2869 Y15.3543
 X34.9662 Y15.0629
 X34.6185 Y14.8030
 X34.2462 Y14.5768
 X33.8514 Y14.3867
 X33.4366 Y14.2348
 X33.0038 Y14.1235
 X32.5553 Y14.0551
 X32.0937 Y14.0318
 X31.6319 Y14.0551
 X31.1835 Y14.1235
 X30.7507 Y14.2348
 X30.3358 Y14.3867
 X29.9410 Y14.5768
 X29.5687 Y14.8030
 X29.2210 Y15.0629
 X28.9003 Y15.3543
 X28.6089 Y15.6750
 X28.3489 Y16.0227
 X28.1227 Y16.3950
 X27.9326 Y16.7898
 X27.7808 Y17.2047
 X27.6695 Y17.6375
 X27.6010 Y18.0860
 X27.5777 Y18.5477
 X27.6010 Y19.0095
 X27.6695 Y19.4579
 X27.7808 Y19.8907
 X27.9326 Y20.3056
 X28.1227 Y20.7004
 X28.3489 Y21.0726
 X28.6089 Y21.4203
 X28.9003 Y21.7410
 X29.2210 Y22.0325
 X29.5687 Y22.2924
 X29.9410 Y22.5186
 X30.3358 Y22.7088
 X30.7507 Y22.8606
 X31.1835 Y22.9720
 X31.6319 Y23.0404
 X32.0937 Y23.0636
 X32.5553 Y23.0404
 X33.0038 Y22.9720
 X33.4366 Y22.8606
 X33.8514 Y22.7088
 X34.2462 Y22.5186
 X34.6185 Y22.2924
 X34.9662 Y22.0325
 X35.2869 Y21.7410
 X35.5784 Y21.4203
 X35.8384 Y21.0726
 X36.0645 Y20.7004
 X36.2546 Y20.3056
 X36.4066 Y19.8907
 X36.5178 Y19.4579
 X36.5863 Y19.0095
 X36.6096 Y18.5477
G0 Z5.0000
 X93.1987 Y9.5159
G1 Z0.0000
 X25.1760
 X24.2537 Y10.4071
 X23.3567 Y11.3192
 X22.4853 Y12.2517
 X21.6398 Y13.2041
 X20.8205 Y14.1759
 X20.0274 Y15.1664
 X19.2612 Y16.1750
 X18.5217 Y17.2013
 X17.8095 Y18.2446
 X17.1248 Y19.3043
 X16.4676 Y20.3800
 X15.8384 Y21.4710
 X15.2374 Y22.5768
 X14.6648 Y23.6968
 X14.1209 Y24.8304
 X13.6060 Y25.9771
 X13.1203 Y27.1364
 X12.6642 Y28.3075
 X12.2377 Y29.4901
 X11.8413 Y30.6835
 X11.4750 Y31.8871
 X11.1393 Y33.1004
 X10.8343 Y34.3229
 X10.5603 Y35.5538
 X10.3176 Y36.7928
 X10.1064 Y38.0392
 X9.9271 Y39.2924
 X9.7797 Y40.5518
 X9.6647 Y41.8171
 X9.5822 Y43.0875
 X9.5325 Y44.3624
 X9.5159 Y45.6414
 X9.5480 Y47.3838
 X9.6433 Y49.1139
 X9.8002 Y50.8310
 X10.0169 Y52.5342
 X10.2918 Y54.2222
 X10.6233 Y55.8945
 X11.0096 Y57.5499
 X11.4491 Y59.1874
 X106.9250
 X107.3640 Y57.5499
 X107.7510 Y55.8945
 X108.0820 Y54.2222
 X108.3570 Y52.5342
 X108.5740 Y50.8310
 X108.7310 Y49.1139
 X108.8270 Y47.3838
 X108.8590 Y45.6414
 X108.8420 Y44.3624
 X108.7920 Y43.0875
 X108.7100 Y41.8171
 X108.5950 Y40.5518
 X108.4480 Y39.2924
 X108.2680 Y38.0392
 X108.0570 Y36.7928
 X107.8140 Y35.5538
 X107.5400 Y34.3229
 X107.2350 Y33.1004
 X106.9000 Y31.8871
 X106.5330 Y30.6835
 X106.1370 Y29.4901
 X105.7100 Y28.3075
 X105.2540 Y27.1364
 X104.7690 Y25.9771
 X104.2540 Y24.8304
 X103.7100 Y23.6968
 X103.1370 Y22.5768
 X102.5360 Y21.4710
 X101.9070 Y20.3800
 X101.2500 Y19.3043
 X100.5650 Y18.2446
 X99.8530 Y17.2013
 X99.1130 Y16.1750
 X98.3470 Y15.1664
 X97.5541 Y14.1759
 X96.7348 Y13.2041
 X95.8894 Y12.2517
 X95.0180 Y11.3192
 X94.1210 Y10.4071
 X93.1987 Y9.5159
G0 Z5.0000
 X27.5777 Y54.6714
G1 Z0.0000
 X27.2292 Y54.6626
 X26.8853 Y54.6365
 X26.5464 Y54.5935
 X26.2130 Y54.5339
 X25.8853 Y54.4583
 X25.5639 Y54.3670
 X25.2494 Y54.2606
 X24.9417 Y54.1393
 X24.6417 Y54.0036
 X24.3496 Y53.8542
 X24.0660 Y53.6911
 X23.7913 Y53.5149
 X23.5258 Y53.3261
 X23.2698 Y53.1250
 X23.0241 Y52.9122
 X22.7888 Y52.6879
 X22.5645 Y52.4528
 X22.3516 Y52.2070
 X22.1506 Y51.9511
 X21.9617 Y51.6856
 X21.7855 Y51.4108
 X21.6224 Y51.1272
 X21.4728 Y50.8351
 X21.3371 Y50.5351
 X21.2159 Y50.2275
 X21.1094 Y49.9128
 X21.0181 Y49.5914
 X20.9424 Y49.2636
 X20.8828 Y48.9301
 X20.8398 Y48.5911
 X20.8135 Y48.2471
 X20.8048 Y47.8985
 X20.8135 Y47.5499
 X20.8398 Y47.2060
 X20.8828 Y46.8670
 X20.9424 Y46.5333
 X21.0181 Y46.2056
 X21.1094 Y45.8842
 X21.2159 Y45.5694
 X21.3371 Y45.2620
 X21.4728 Y44.9619
 X21.6224 Y44.6699
 X21.7855 Y44.3863
 X21.9617 Y44.1114
 X22.1506 Y43.8458
 X22.3516 Y43.5900
 X22.5645 Y43.3443
 X22.7888 Y43.1090
 X23.0241 Y42.8849
 X23.2698 Y42.6720
 X23.5258 Y42.4710
 X23.7913 Y42.2821
 X24.0660 Y42.1058
 X24.3496 Y41.9429
 X24.6417 Y41.7933
 X24.9417 Y41.6576
 X25.2494 Y41.5364
 X25.5639 Y41.4300
 X25.8853 Y41.3388
 X26.2130 Y41.2631
 X26.5464 Y41.2036
 X26.8853 Y41.1604
 X27.2292 Y41.1343
 X27.5777 Y41.1254
 X27.9263 Y41.1343
 X28.2705 Y41.1604
 X28.6095 Y41.2036
 X28.9430 Y41.2631
 X29.2707 Y41.3388
 X29.5921 Y41.4300
 X29.9069 Y41.5364
 X30.2145 Y41.6576
 X30.5145 Y41.7933
 X30.8066 Y41.9429
 X31.0902 Y42.1058
 X31.3651 Y42.2821
 X31.6305 Y42.4710
 X31.8864 Y42.6720
 X32.1321 Y42.8849
 X32.3673 Y43.1090
 X32.5916 Y43.3443
 X32.8044 Y43.5900
 X33.0055 Y43.8458
 X33.1942 Y44.1114
 X33.3703 Y44.3863
 X33.5335 Y44.6699
 X33.6830 Y44.9619
 X33.8185 Y45.2620
 X33.9398 Y45.5694
 X34.0463 Y45.8842
 X34.1376 Y46.2056
 X34.2131 Y46.5333
 X34.2727 Y46.8670
 X34.3157 Y47.2060
 X34.3419 Y47.5499
 X34.3507 Y47.8985
 X34.3419 Y48.2471
 X34.3157 Y48.5911
 X34.2727 Y48.9301
 X34.2131 Y49.2636
 X34.1376 Y49.5914
 X34.0463 Y49.9128
 X33.9398 Y50.2275
 X33.8185 Y50.5351
 X33.6830 Y50.8351
 X33.5335 Y51.1272
 X33.3703 Y51.4108
 X33.1942 Y51.6856
 X33.0055 Y51.9511
 X32.8044 Y52.2070
 X32.5916 Y52.4528
 X32.3673 Y52.6879
 X32.1321 Y52.9122
 X31.8864 Y53.1250
 X31.6305 Y53.3261
 X31.3651 Y53.5149
 X31.0902 Y53.6911
 X30.8066 Y53.8542
 X30.5145 Y54.0036
 X30.2145 Y54.1393
 X29.9069 Y54.2606
 X29.5921 Y54.3670
 X29.2707 Y54.4583
 X28.9430 Y54.5339
 X28.6095 Y54.5935
 X28.2705 Y54.6365
 X27.9263 Y54.6626
 X27.5777 Y54.6714
G0 Z5.0000
 X59.1873 Y32.0938
G1 Z0.0000
 X58.8387 Y32.0849
 X58.4946 Y32.0588
 X58.1556 Y32.0157
 X57.8220 Y31.9561
 X57.4944 Y31.8806
 X57.1730 Y31.7893
 X56.8583 Y31.6828
 X56.5506 Y31.5615
 X56.2506 Y31.4260
 X55.9585 Y31.2764
 X55.6749 Y31.1133
 X55.4001 Y30.9372
 X55.1345 Y30.7483
 X54.8787 Y30.5474
 X54.6330 Y30.3345
 X54.3978 Y30.1101
 X54.1735 Y29.8750
 X53.9606 Y29.6292
 X53.7596 Y29.3733
 X53.5708 Y29.1078
 X53.3946 Y28.8331
 X53.2316 Y28.5493
 X53.0821 Y28.2574
 X52.9464 Y27.9574
 X52.8252 Y27.6497
 X52.7188 Y27.3350
 X52.6276 Y27.0136
 X52.5519 Y26.6858
 X52.4924 Y26.3524
 X52.4494 Y26.0133
 X52.4232 Y25.6693
 X52.4144 Y25.3207
 X52.4232 Y24.9721
 X52.4494 Y24.6282
 X52.4924 Y24.2892
 X52.5519 Y23.9556
 X52.6276 Y23.6279
 X52.7188 Y23.3064
 X52.8252 Y22.9917
 X52.9464 Y22.6842
 X53.0821 Y22.3842
 X53.2316 Y22.0921
 X53.3946 Y21.8085
 X53.5708 Y21.5336
 X53.7596 Y21.2681
 X53.9606 Y21.0122
 X54.1735 Y20.7665
 X54.3978 Y20.5313
 X54.6330 Y20.3070
 X54.8787 Y20.0942
 X55.1345 Y19.8931
 X55.4001 Y19.7043
 X55.6749 Y19.5282
 X55.9585 Y19.3651
 X56.2506 Y19.2156
 X56.5506 Y19.0799
 X56.8583 Y18.9586
 X57.1730 Y18.8522
 X57.4944 Y18.7609
 X57.8220 Y18.6853
 X58.1556 Y18.6258
 X58.4946 Y18.5827
 X58.8387 Y18.5566
 X59.1873 Y18.5477
 X59.5358 Y18.5566
 X59.8796 Y18.5827
 X60.2185 Y18.6258
 X60.5521 Y18.6853
 X60.8798 Y18.7609
 X61.2010 Y18.8522
 X61.5158 Y18.9586
 X61.8233 Y19.0799
 X62.1234 Y19.2156
 X62.4153 Y19.3651
 X62.6989 Y19.5282
 X62.9738 Y19.7043
 X63.2394 Y19.8931
 X63.4952 Y20.0942
 X63.7410 Y20.3070
 X63.9763 Y20.5313
 X64.2005 Y20.7665
 X64.4134 Y21.0122
 X64.6145 Y21.2681
 X64.8034 Y21.5336
 X64.9795 Y21.8085
 X65.1427 Y22.0921
 X65.2923 Y22.3842
 X65.4280 Y22.6842
 X65.5492 Y22.9917
 X65.6558 Y23.3064
 X65.7470 Y23.6279
 X65.8227 Y23.9556
 X65.8823 Y24.2892
 X65.9253 Y24.6282
 X65.9514 Y24.9721
 X65.9603 Y25.3207
 X65.9514 Y25.6693
 X65.9253 Y26.0133
 X65.8823 Y26.3524
 X65.8227 Y26.6858
 X65.7470 Y27.0136
 X65.6558 Y27.3350
 X65.5492 Y27.6497
 X65.4280 Y27.9574
 X65.2923 Y28.2574
 X65.1427 Y28.5493
 X64.9795 Y28.8331
 X64.8034 Y29.1078
 X64.6145 Y29.3733
 X64.4134 Y29.6292
 X64.2005 Y29.8750
 X63.9763 Y30.1101
 X63.7410 Y30.3345
 X63.4952 Y30.5474
 X63.2394 Y30.7483
 X62.9738 Y30.9372
 X62.6989 Y31.1133
 X62.4153 Y31.2764
 X62.1234 Y31.4260
 X61.8233 Y31.5615
 X61.5158 Y31.6828
 X61.2010 Y31.7893
 X60.8798 Y31.8806
 X60.5521 Y31.9561
 X60.2185 Y32.0157
 X59.8796 Y32.0588
 X59.5358 Y32.0849
 X59.1873 Y32.0938
G0 Z5.0000
 X90.7952 Y41.1254
G1 Z0.0000
 X90.4467 Y41.1167
 X90.1028 Y41.0906
 X89.7639 Y41.0475
 X89.4305 Y40.9879
 X89.1027 Y40.9122
 X88.7814 Y40.8210
 X88.4667 Y40.7144
 X88.1592 Y40.5932
 X87.8592 Y40.4575
 X87.5671 Y40.3079
 X87.2835 Y40.1449
 X87.0087 Y39.9686
 X86.7431 Y39.7797
 X86.4873 Y39.5786
 X86.2414 Y39.3657
 X86.0063 Y39.1414
 X85.7820 Y38.9063
 X85.5691 Y38.6604
 X85.3680 Y38.4046
 X85.1791 Y38.1390
 X85.0030 Y37.8643
 X84.8398 Y37.5806
 X84.6902 Y37.2886
 X84.5545 Y36.9886
 X84.4333 Y36.6810
 X84.3267 Y36.3663
 X84.2355 Y36.0450
 X84.1598 Y35.7174
 X84.1002 Y35.3839
 X84.0571 Y35.0449
 X84.0310 Y34.7010
 X84.0221 Y34.3525
 X84.0310 Y34.0039
 X84.0571 Y33.6599
 X84.1002 Y33.3208
 X84.1598 Y32.9872
 X84.2355 Y32.6595
 X84.3267 Y32.3379
 X84.4333 Y32.0232
 X84.5545 Y31.7156
 X84.6902 Y31.4154
 X84.8398 Y31.1233
 X85.0030 Y30.8396
 X85.1791 Y30.5647
 X85.3680 Y30.2992
 X85.5691 Y30.0432
 X85.7820 Y29.7974
 X86.0063 Y29.5621
 X86.2414 Y29.3378
 X86.4873 Y29.1249
 X86.7431 Y28.9238
 X87.0087 Y28.7349
 X87.2835 Y28.5586
 X87.5671 Y28.3956
 X87.8592 Y28.2458
 X88.1592 Y28.1103
 X88.4667 Y27.9889
 X88.7814 Y27.8824
 X89.1027 Y27.7911
 X89.4305 Y27.7154
 X89.7639 Y27.6558
 X90.1028 Y27.6128
 X90.4467 Y27.5867
 X90.7952 Y27.5778
 X91.1438 Y27.5867
 X91.4878 Y27.6128
 X91.8269 Y27.6558
 X92.1605 Y27.7154
 X92.4883 Y27.7911
 X92.8098 Y27.8824
 X93.1245 Y27.9889
 X93.4321 Y28.1103
 X93.7323 Y28.2458
 X94.0244 Y28.3956
 X94.3081 Y28.5586
 X94.5830 Y28.7349
 X94.8485 Y28.9238
 X95.1045 Y29.1249
 X95.3503 Y29.3378
 X95.5856 Y29.5621
 X95.8099 Y29.7974
 X96.0230 Y30.0432
 X96.2241 Y30.2992
 X96.4128 Y30.5647
 X96.5891 Y30.8396
 X96.7523 Y31.1233
 X96.9019 Y31.4154
 X97.0376 Y31.7156
 X97.1588 Y32.0232
 X97.2653 Y32.3379
 X97.3566 Y32.6595
 X97.4323 Y32.9872
 X97.4919 Y33.3208
 X97.5349 Y33.6599
 X97.5610 Y34.0039
 X97.5699 Y34.3525
 X97.5610 Y34.7010
 X97.5349 Y35.0449
 X97.4919 Y35.3839
 X97.4323 Y35.7174
 X97.3566 Y36.0450
 X97.2653 Y36.3663
 X97.1588 Y36.6810
 X97.0376 Y36.9886
 X96.9019 Y37.2886
 X96.7523 Y37.5806
 X96.5891 Y37.8643
 X96.4128 Y38.1390
 X96.2241 Y38.4046
 X96.0230 Y38.6604
 X95.8099 Y38.9063
 X95.5856 Y39.1414
 X95.3503 Y39.3657
 X95.1045 Y39.5786
 X94.8485 Y39.7797
 X94.5830 Y39.9686
 X94.3081 Y40.1449
 X94.0244 Y40.3079
 X93.7323 Y40.4575
 X93.4321 Y40.5932
 X93.1245 Y40.7144
 X92.8098 Y40.8210
 X92.4883 Y40.9122
 X92.1605 Y40.9879
 X91.8269 Y41.0475
 X91.4878 Y41.0906
 X91.1438 Y41.1167
 X90.7952 Y41.1254
G0 Z5.0000
 X77.2492 Y96.6796
G1 Z0.0000
 Y108.8587
 X86.2810
 Y113.3747
 X77.2492
 Y126.9207
 X41.1255
 Y113.3747
 X32.0937
 Y108.8587
 X41.1255
 Y96.6796
 X40.1439 Y96.3214
 X39.1712 Y95.9450
 X38.2077 Y95.5507
 X37.2534 Y95.1385
 X36.3087 Y94.7088
 X35.3738 Y94.2617
 X34.4488 Y93.7974
 X33.5341 Y93.3161
 X32.6296 Y92.8182
 X31.7357 Y92.3036
 X30.8527 Y91.7728
 X29.9808 Y91.2257
 X29.1199 Y90.6626
 X28.2706 Y90.0840
 X27.4328 Y89.4897
 X26.6070 Y88.8803
 X25.7931 Y88.2556
 X24.9916 Y87.6160
 X24.2024 Y86.9618
 X23.4262 Y86.2931
 X22.6626 Y85.6100
 X21.9121 Y84.9129
 X21.1751 Y84.2018
 X20.4514 Y83.4772
 X19.7416 Y82.7390
 X19.0457 Y81.9876
 X18.3639 Y81.2232
 X17.6966 Y80.4458
 X17.0438 Y79.6560
 X16.4058 Y78.8536
 X15.7827 Y78.0389
 X15.1748 Y77.2122
 X14.5824 Y76.3739
 X14.0055 Y75.5238
 X13.4445 Y74.6622
 X12.8995 Y73.7896
 X12.3707 Y72.9060
 X11.8585 Y72.0114
 X11.3629 Y71.1064
 X10.8841 Y70.1910
 X10.4225 Y69.2653
 X9.9781 Y68.3297
 X9.5512 Y67.3844
 X9.1420 Y66.4295
 X8.7508 Y65.4653
 X8.3777 Y64.4918
 X8.0229 Y63.5094
 X7.6866 Y62.5185
 X7.3691 Y61.5188
 X7.0706 Y60.5108
 X6.7913 Y59.4949
 X6.5313 Y58.4710
 X6.2910 Y57.4393
 X6.0704 Y56.4001
 X5.8699 Y55.3536
 X5.6895 Y54.3001
 X5.5296 Y53.2397
 X5.3904 Y52.1726
 X5.2719 Y51.0990
 X5.1746 Y50.0193
 X5.0985 Y48.9333
 X5.0439 Y47.8417
 X5.0110 Y46.7443
 X5.0000 Y45.6414
 X5.0208 Y44.1271
 X5.0831 Y42.6232
 X5.1861 Y41.1304
 X5.3294 Y39.6492
 X5.5124 Y38.1800
 X5.7345 Y36.7235
 X5.9952 Y35.2800
 X6.2939 Y33.8501
 X6.6301 Y32.4346
 X7.0032 Y31.0338
 X7.4127 Y29.6481
 X7.8580 Y28.2782
 X8.3385 Y26.9246
 X8.8538 Y25.5879
 X9.4032 Y24.2685
 X9.9862 Y22.9668
 X10.6022 Y21.6838
 X11.2507 Y20.4195
 X11.9310 Y19.1746
 X12.6428 Y17.9497
 X13.3855 Y16.7453
 X14.1583 Y15.5620
 X14.9609 Y14.4002
 X15.7924 Y13.2605
 X16.6528 Y12.1433
 X17.5412 Y11.0493
 X18.4569 Y9.9789
 X19.3996 Y8.9327
 X20.3687 Y7.9111
 X21.3637 Y6.9149
 X22.3838 Y5.9443
 X23.4287 Y5.0000
 X94.9460
 X95.9909 Y5.9443
 X97.0110 Y6.9149
 X98.0059 Y7.9111
 X98.9750 Y8.9327
 X99.9180 Y9.9789
 X100.8330 Y11.0493
 X101.7220 Y12.1433
 X102.5820 Y13.2605
 X103.4140 Y14.4002
 X104.2160 Y15.5620
 X104.9890 Y16.7453
 X105.7310 Y17.9497
 X106.4430 Y19.1746
 X107.1230 Y20.4195
 X107.7720 Y21.6838
 X108.3880 Y22.9668
 X108.9700 Y24.2685
 X109.5200 Y25.5879
 X110.0350 Y26.9246
 X110.5150 Y28.2782
 X110.9610 Y29.6481
 X111.3700 Y31.0338
 X111.7430 Y32.4346
 X112.0790 Y33.8501
 X112.3780 Y35.2800
 X112.6390 Y36.7235
 X112.8610 Y38.1800
 X113.0440 Y39.6492
 X113.1870 Y41.1304
 X113.2900 Y42.6232
 X113.3520 Y44.1271
 X113.3730 Y45.6414
 X113.3620 Y46.7443
 X113.3290 Y47.8417
 X113.2740 Y48.9333
 X113.1980 Y50.0193
 X113.1010 Y51.0990
 X112.9830 Y52.1726
 X112.8430 Y53.2397
 X112.6830 Y54.3001
 X112.5030 Y55.3536
 X112.3030 Y56.4001
 X112.0820 Y57.4393
 X111.8420 Y58.4710
 X111.5820 Y59.4949
 X111.3020 Y60.5108
 X111.0040 Y61.5188
 X110.6860 Y62.5185
 X110.3500 Y63.5094
 X109.9950 Y64.4918
 X109.6220 Y65.4653
 X109.2310 Y66.4295
 X108.8220 Y67.3844
 X108.3950 Y68.3297
 X107.9510 Y69.2653
 X107.4890 Y70.1910
 X107.0100 Y71.1064
 X106.5150 Y72.0114
 X106.0020 Y72.9060
 X105.4740 Y73.7896
 X104.9290 Y74.6622
 X104.3680 Y75.5238
 X103.7910 Y76.3739
 X103.1990 Y77.2122
 X102.5910 Y78.0389
 X101.9680 Y78.8536
 X101.3290 Y79.6560
 X100.6770 Y80.4458
 X100.0090 Y81.2232
 X99.3280 Y81.9876
 X98.6320 Y82.7390
 X97.9220 Y83.4772
 X97.1985 Y84.2018
 X96.4614 Y84.9129
 X95.7110 Y85.6100
 X94.9476 Y86.2931
 X94.1712 Y86.9618
 X93.3821 Y87.6160
 X92.5806 Y88.2556
 X91.7669 Y88.8803
 X90.9410 Y89.4897
 X90.1032 Y90.0840
 X89.2539 Y90.6626
 X88.3933 Y91.2257
 X87.5213 Y91.7728
 X86.6382 Y92.3036
 X85.7445 Y92.8182
 X84.8402 Y93.3161
 X83.9255 Y93.7974
 X83.0005 Y94.2617
 X82.0656 Y94.7088
 X81.1210 Y95.1385
 X80.1669 Y95.5507
 X79.2034 Y95.9450
 X78.2308 Y96.3214
 X77.2492 Y96.6796
G0 Z5.0000
G0 Z5.0000
M2 (end program)
