;PYCAM-META-DATA: Filename: /media/martoio/MARTOIO/ME43/std_lib/svg/021-science-1.svg
;PYCAM-META-DATA: Timestamp: 2017-12-06 02:06:24.363263
;PYCAM-META-DATA: Version: 0.5.1
;Estimated machine time: 11 minutes
G40 (disable tool radius compensation)
G49 (disable tool length compensation)
G80 (cancel modal motion)
G54 (select coordinate system 1)
G90 (disable incremental moves)
G21 (metric)
G61 (exact path mode)
F400.00000
S1.00000
;PYCAM_TOOLPATH_SETTINGS: START
;[Bounds]
;maxz = 0.0
;maxx = 105.01156
;maxy = 145.4084
;minx = -9.09196
;miny = -12.7644
;minz = 0.0
;
;[Tool]
;torus_radius = 0.25
;speed = 1.0
;shape = CylindricalCutter
;tool_radius = 0.5
;feedrate = 400.0
;
;[Process]
;engrave_offset = 0.0
;step_down = 1.0
;generator = EngraveCutter
;postprocessor = SimpleCutter
;overlap_percent = 0
;milling_style = conventional
;material_allowance = 0.0
;pocketing_type = none
;path_direction = x
;
;PYCAM_TOOLPATH_SETTINGS: END
T1 M6
G0 Z5.0000
 X26.9984 Y45.7658
G1 Z0.0000
 X26.8654 Y45.6394
 X26.7448 Y45.5013
 X25.8759 Y44.5899
 X25.0218 Y43.6690
 X24.1827 Y42.7383
 X23.3597 Y41.7971
 X22.5532 Y40.8450
 X21.7639 Y39.8814
 X20.9923 Y38.9060
 X20.2393 Y37.9179
 X19.4038 Y36.7758
 X18.6001 Y35.6247
 X17.8276 Y34.4647
 X17.0864 Y33.2954
 X16.3762 Y32.1168
 X15.6970 Y30.9286
 X15.0486 Y29.7307
 X14.4308 Y28.5228
 X14.3172 Y28.3225
 X14.2254 Y28.1079
 X13.7451 Y27.0960
 X13.2859 Y26.0769
 X12.8479 Y25.0506
 X12.4311 Y24.0169
 X12.0352 Y22.9760
 X11.6604 Y21.9275
 X11.3066 Y20.8712
 X10.9737 Y19.8075
 X10.6619 Y18.7358
 X10.3708 Y17.6564
 X10.1005 Y16.5687
 X9.8511 Y15.4732
 X9.6223 Y14.3693
 X9.4144 Y13.2572
 X9.2272 Y12.1367
 X9.0605 Y11.0077
 X9.0262 Y10.7432
 X8.8334 Y9.1422
 X8.6811 Y7.5240
 X8.5694 Y5.8879
 X8.4984 Y4.2333
 X4.2637
 X4.3129 Y5.5408
 X4.3855 Y6.8379
 X4.4818 Y8.1248
 X4.6015 Y9.4016
 X4.7448 Y10.6685
 X4.9119 Y11.9255
 X5.1025 Y13.1728
 X5.3169 Y14.4104
 X5.5550 Y15.6387
 X5.8169 Y16.8576
 X6.1027 Y18.0672
 X6.4123 Y19.2676
 X6.7459 Y20.4590
 X7.1034 Y21.6415
 X7.4850 Y22.8153
 X7.8905 Y23.9804
 X8.3201 Y25.1369
 X8.7739 Y26.2850
 X9.2516 Y27.4247
 X9.7537 Y28.5563
 X10.2801 Y29.6799
 X10.8307 Y30.7953
 X11.4055 Y31.9031
 X12.0048 Y33.0029
 X12.6284 Y34.0953
 X13.2765 Y35.1801
 X13.9490 Y36.2575
 X14.6461 Y37.3278
 X15.3677 Y38.3908
 X16.1139 Y39.4468
 X16.8847 Y40.4960
 X17.6802 Y41.5382
 X18.9651 Y43.1446
 X20.2932 Y44.7190
 X21.6601 Y46.2617
 X23.0618 Y47.7733
 X24.4940 Y49.2540
 X25.9523 Y50.7044
 X27.4326 Y52.1251
 X28.9307 Y53.5162
 X30.4422 Y54.8785
 X31.9630 Y56.2121
 X33.4890 Y57.5176
 X35.0157 Y58.7956
 X36.5390 Y60.0463
 X38.0547 Y61.2701
 X39.5584 Y62.4676
 X41.0461 Y63.6393
 X44.0779 Y61.2951
 X44.5022 Y60.9671
 X43.3341 Y60.0524
 X42.1725 Y59.1357
 X41.0180 Y58.2168
 X39.8712 Y57.2947
 X38.7333 Y56.3692
 X37.6045 Y55.4393
 X36.4861 Y54.5044
 X35.3783 Y53.5640
 X34.2823 Y52.6175
 X33.1986 Y51.6642
 X32.1280 Y50.7033
 X31.0714 Y49.7344
 X30.0294 Y48.7569
 X29.0027 Y47.7701
 X27.9922 Y46.7733
 X26.9984 Y45.7658
G0 Z5.0000
 X87.4156 Y4.2333
G1 Z0.0000
 X87.3676 Y5.4569
 X87.2966 Y6.6708
 X87.2036 Y7.8752
 X87.0886 Y9.0703
 X86.9506 Y10.2560
 X86.7916 Y11.4326
 X86.6096 Y12.6001
 X86.4056 Y13.7586
 X86.1796 Y14.9083
 X85.9306 Y16.0493
 X85.6596 Y17.1817
 X85.3656 Y18.3056
 X85.0496 Y19.4210
 X84.7116 Y20.5281
 X84.3496 Y21.6271
 X83.9666 Y22.7179
 X83.5596 Y23.8008
 X83.1306 Y24.8758
 X82.6796 Y25.9431
 X82.2046 Y27.0026
 X81.7076 Y28.0547
 X81.1875 Y29.0994
 X80.6445 Y30.1367
 X80.0787 Y31.1668
 X79.4901 Y32.1899
 X78.8784 Y33.2058
 X78.2437 Y34.2150
 X77.5859 Y35.2174
 X76.9052 Y36.2131
 X76.2013 Y37.2021
 X75.4743 Y38.1849
 X74.7240 Y39.1611
 X73.2747 Y40.9546
 X71.7725 Y42.7044
 X70.2204 Y44.4143
 X68.6205 Y46.0879
 X66.9759 Y47.7286
 X65.2889 Y49.3403
 X63.5622 Y50.9264
 X61.7984 Y52.4904
 X60.0000 Y54.0363
 X58.1697 Y55.5674
 X56.3101 Y57.0874
 X54.4237 Y58.5997
 X52.5133 Y60.1083
 X50.5812 Y61.6165
 X48.6302 Y63.1281
 X46.6630 Y64.6465
 X44.7222 Y66.1450
 X42.7777 Y67.6522
 X40.8341 Y69.1710
 X38.8957 Y70.7037
 X36.9669 Y72.2529
 X35.0526 Y73.8212
 X33.1568 Y75.4110
 X31.2843 Y77.0249
 X29.4395 Y78.6654
 X27.6269 Y80.3350
 X25.8512 Y82.0364
 X24.1165 Y83.7718
 X22.4276 Y85.5440
 X20.7890 Y87.3556
 X19.2050 Y89.2087
 X17.6802 Y91.1062
 X16.8847 Y92.1486
 X16.1139 Y93.1976
 X15.3677 Y94.2538
 X14.6461 Y95.3168
 X13.9490 Y96.3869
 X13.2765 Y97.4644
 X12.6284 Y98.5493
 X12.0048 Y99.6415
 X11.4055 Y100.7420
 X10.8307 Y101.8490
 X10.2801 Y102.9650
 X9.7537 Y104.0880
 X9.2516 Y105.2200
 X8.7739 Y106.3600
 X8.3201 Y107.5080
 X7.8905 Y108.6640
 X7.4850 Y109.8290
 X7.1034 Y111.0030
 X6.7459 Y112.1850
 X6.4123 Y113.3770
 X6.1027 Y114.5770
 X5.8169 Y115.7870
 X5.5550 Y117.0060
 X5.3169 Y118.2340
 X5.1025 Y119.4720
 X4.9119 Y120.7190
 X4.7448 Y121.9760
 X4.6015 Y123.2430
 X4.4818 Y124.5200
 X4.3855 Y125.8070
 X4.3129 Y127.1040
 X4.2637 Y128.4110
 X8.4984
 X8.5472 Y127.1880
 X8.6179 Y125.9740
 X8.7108 Y124.7690
 X8.8258 Y123.5740
 X8.9630 Y122.3880
 X9.1225 Y121.2120
 X9.3043 Y120.0440
 X9.5082 Y118.8860
 X9.7345 Y117.7360
 X9.9832 Y116.5950
 X10.2543 Y115.4630
 X10.5479 Y114.3390
 X10.8639 Y113.2230
 X11.2023 Y112.1160
 X11.5634 Y111.0170
 X11.9472 Y109.9270
 X12.3534 Y108.8440
 X12.7825 Y107.7690
 X13.2341 Y106.7010
 X13.7086 Y105.6420
 X14.2058 Y104.5900
 X14.7259 Y103.5450
 X15.2688 Y102.5080
 X15.8347 Y101.4780
 X16.4233 Y100.4550
 X17.0351 Y99.4386
 X17.6698 Y98.4296
 X18.3276 Y97.4271
 X19.0084 Y96.4315
 X19.7125 Y95.4424
 X20.4397 Y94.4596
 X21.1900 Y93.4833
 X22.6394 Y91.6899
 X24.1415 Y89.9400
 X25.6937 Y88.2301
 X27.2934 Y86.5567
 X28.9380 Y84.9158
 X30.6250 Y83.3043
 X32.3518 Y81.7182
 X34.1155 Y80.1540
 X35.9138 Y78.6082
 X37.7440 Y77.0772
 X39.6036 Y75.5572
 X41.4898 Y74.0447
 X43.4001 Y72.5362
 X45.3319 Y71.0281
 X47.2826 Y69.5164
 X51.1902 Y66.4996
 X53.1347 Y64.9924
 X55.0784 Y63.4736
 X57.0169 Y61.9410
 X58.9457 Y60.3918
 X60.8601 Y58.8236
 X62.7558 Y57.2340
 X64.6283 Y55.6201
 X66.4730 Y53.9797
 X68.2855 Y52.3101
 X70.0613 Y50.6089
 X71.7959 Y48.8733
 X73.4848 Y47.1010
 X75.1236 Y45.2894
 X76.7075 Y43.4360
 X78.2323 Y41.5382
 X79.0279 Y40.4960
 X79.7988 Y39.4468
 X80.5452 Y38.3908
 X81.2669 Y37.3278
 X81.9646 Y36.2575
 X82.6366 Y35.1801
 X83.2846 Y34.0953
 X83.9086 Y33.0029
 X84.5076 Y31.9031
 X85.0826 Y30.7953
 X85.6336 Y29.6799
 X86.1596 Y28.5563
 X86.6626 Y27.4247
 X87.1406 Y26.2850
 X87.5936 Y25.1369
 X88.0236 Y23.9804
 X88.4286 Y22.8153
 X88.8106 Y21.6415
 X89.1686 Y20.4590
 X89.5016 Y19.2676
 X89.8116 Y18.0672
 X90.0976 Y16.8576
 X90.3596 Y15.6387
 X90.5976 Y14.4104
 X90.8116 Y13.1728
 X91.0026 Y11.9255
 X91.1696 Y10.6685
 X91.3126 Y9.4016
 X91.4326 Y8.1248
 X91.5286 Y6.8379
 X91.6016 Y5.5408
 X91.6506 Y4.2333
 X87.4156
G0 Z5.0000
 X19.7101 Y119.9440
G1 Z0.0000
 X82.3296
 X82.0066 Y118.2650
 X81.6355 Y116.6190
 X81.2159 Y115.0060
 X80.7490 Y113.4230
 X80.2348 Y111.8710
 X79.6743 Y110.3480
 X79.0677 Y108.8510
 X78.4158 Y107.3810
 X42.8541
 X42.6377 Y107.3700
 X42.4276 Y107.3380
 X42.2248 Y107.2860
 X42.0304 Y107.2150
 X41.8454 Y107.1260
 X41.6708 Y107.0200
 X41.5079 Y106.8980
 X41.3576 Y106.7610
 X41.2209 Y106.6110
 X41.0990 Y106.4480
 X40.9930 Y106.2740
 X40.9038 Y106.0880
 X40.8326 Y105.8940
 X40.7805 Y105.6910
 X40.7483 Y105.4810
 X40.7375 Y105.2640
 X40.7483 Y105.0480
 X40.7805 Y104.8380
 X40.8326 Y104.6350
 X40.9038 Y104.4410
 X40.9930 Y104.2550
 X41.0990 Y104.0810
 X41.2209 Y103.9180
 X41.3576 Y103.7680
 X41.5079 Y103.6310
 X41.6708 Y103.5090
 X41.8454 Y103.4030
 X42.0304 Y103.3140
 X42.2248 Y103.2430
 X42.4276 Y103.1910
 X42.6377 Y103.1590
 X42.8541 Y103.1480
 X76.2152
 X75.2202 Y101.4970
 X74.1644 Y99.8740
 X73.0486 Y98.2760
 X71.8741 Y96.7008
 X70.6416 Y95.1464
 X69.3520 Y93.6103
 X68.0065 Y92.0901
 X66.6059 Y90.5839
 X40.6976
 X40.4812 Y90.5729
 X40.2711 Y90.5410
 X40.0683 Y90.4887
 X39.8738 Y90.4176
 X39.6888 Y90.3286
 X39.5144 Y90.2226
 X39.3514 Y90.1008
 X39.2011 Y89.9643
 X39.0644 Y89.8140
 X38.9425 Y89.6511
 X38.8365 Y89.4767
 X38.7472 Y89.2915
 X38.6761 Y89.0969
 X38.6238 Y88.8942
 X38.5918 Y88.6838
 X38.5808 Y88.4671
 X38.5918 Y88.2508
 X38.6238 Y88.0407
 X38.6761 Y87.8379
 X38.7472 Y87.6435
 X38.8365 Y87.4585
 X38.9425 Y87.2840
 X39.0644 Y87.1210
 X39.2011 Y86.9707
 X39.3514 Y86.8340
 X39.5144 Y86.7121
 X39.6888 Y86.6061
 X39.8738 Y86.5169
 X40.0683 Y86.4457
 X40.2711 Y86.3936
 X40.4812 Y86.3614
 X40.6976 Y86.3504
 X62.3261
 X60.2390 Y84.4422
 X58.0682 Y82.5375
 X55.8155 Y80.6315
 X53.4829 Y78.7192
 X53.3214 Y78.5747
 X53.1782 Y78.4176
 X53.0532 Y78.2496
 X52.9466 Y78.0719
 X52.8589 Y77.8863
 X52.7898 Y77.6940
 X52.7397 Y77.4968
 X52.7087 Y77.2960
 X52.6970 Y77.0931
 X52.7048 Y76.8897
 X52.7320 Y76.6874
 X52.7790 Y76.4874
 X52.8459 Y76.2914
 X52.9329 Y76.1010
 X53.0401 Y75.9175
 X53.1676 Y75.7425
 X53.3120 Y75.5810
 X53.4690 Y75.4378
 X53.6370 Y75.3128
 X53.8147 Y75.2063
 X54.0004 Y75.1185
 X54.1926 Y75.0493
 X54.3898 Y74.9993
 X54.5907 Y74.9683
 X54.7934 Y74.9567
 X54.9968 Y74.9643
 X55.1991 Y74.9915
 X55.3990 Y75.0386
 X55.5950 Y75.1056
 X55.7854 Y75.1925
 X55.9689 Y75.2996
 X56.1439 Y75.4271
 X57.0286 Y76.1450
 X57.9148 Y76.8703
 X58.8018 Y77.6036
 X59.6887 Y78.3451
 X60.5751 Y79.0953
 X61.4598 Y79.8546
 X62.3423 Y80.6233
 X63.2218 Y81.4019
 X64.0975 Y82.1907
 X64.9687 Y82.9903
 X65.8345 Y83.8008
 X66.6944 Y84.6228
 X67.5475 Y85.4567
 X68.3930 Y86.3028
 X69.2302 Y87.1617
 X70.0583 Y88.0335
 X70.8766 Y88.9186
 X71.6843 Y89.8178
 X72.4807 Y90.7311
 X73.2650 Y91.6590
 X74.0364 Y92.6021
 X74.7943 Y93.5604
 X75.5377 Y94.5347
 X76.2659 Y95.5251
 X76.9784 Y96.5322
 X77.6741 Y97.5562
 X78.3526 Y98.5978
 X79.0129 Y99.6571
 X79.6541 Y100.7350
 X80.2758 Y101.8310
 X80.8770 Y102.9460
 X81.4572 Y104.0800
 X81.6016 Y104.3310
 X81.7126 Y104.6010
 X82.1626 Y105.5540
 X82.5986 Y106.5200
 X83.0176 Y107.5010
 X83.4216 Y108.4950
 X83.8086 Y109.5030
 X84.1776 Y110.5260
 X84.5306 Y111.5640
 X84.8646 Y112.6170
 X85.1806 Y113.6850
 X85.4776 Y114.7680
 X85.7556 Y115.8670
 X86.0146 Y116.9820
 X86.2526 Y118.1130
 X86.4706 Y119.2600
 X86.6686 Y120.4240
 X86.8436 Y121.6050
 X86.8886 Y121.9360
 X87.0786 Y123.5110
 X87.2306 Y125.1140
 X87.3426 Y126.7470
 X87.4156 Y128.4110
 X91.6506
 X91.6016 Y127.1040
 X91.5286 Y125.8070
 X91.4326 Y124.5200
 X91.3126 Y123.2430
 X91.1696 Y121.9760
 X91.0026 Y120.7190
 X90.8116 Y119.4720
 X90.5976 Y118.2340
 X90.3596 Y117.0060
 X90.0976 Y115.7870
 X89.8116 Y114.5770
 X89.5016 Y113.3770
 X89.1686 Y112.1850
 X88.8106 Y111.0030
 X88.4286 Y109.8290
 X88.0236 Y108.6640
 X87.5936 Y107.5080
 X87.1406 Y106.3600
 X86.6626 Y105.2200
 X86.1596 Y104.0880
 X85.6336 Y102.9650
 X85.0826 Y101.8490
 X84.5076 Y100.7420
 X83.9086 Y99.6415
 X83.2846 Y98.5493
 X82.6366 Y97.4644
 X81.9646 Y96.3869
 X81.2669 Y95.3168
 X80.5452 Y94.2538
 X79.7988 Y93.1976
 X79.0279 Y92.1486
 X78.2323 Y91.1062
 X77.3905 Y90.0436
 X76.5176 Y88.9806
 X75.6123 Y87.9158
 X74.6733 Y86.8485
 X73.6993 Y85.7771
 X72.6893 Y84.7006
 X71.6418 Y83.6176
 X70.5559 Y82.5271
 X69.4301 Y81.4276
 X68.2633 Y80.3182
 X67.0541 Y79.1976
 X65.8016 Y78.0644
 X64.5043 Y76.9178
 X63.1609 Y75.7561
 X61.7705 Y74.5785
 X60.3318 Y73.3835
 X60.1716 Y73.2375
 X60.0297 Y73.0792
 X59.9062 Y72.9100
 X59.8014 Y72.7314
 X59.7152 Y72.5450
 X59.6477 Y72.3522
 X59.5994 Y72.1546
 X59.5702 Y71.9536
 X59.5602 Y71.7507
 X59.5697 Y71.5475
 X59.5987 Y71.3453
 X59.6475 Y71.1458
 X59.7161 Y70.9504
 X59.8047 Y70.7607
 X59.9134 Y70.5779
 X60.0425 Y70.4039
 X60.2080 Y70.2247
 X60.3890 Y70.0689
 X60.5832 Y69.9364
 X60.7884 Y69.8275
 X61.0029 Y69.7425
 X61.2240 Y69.6814
 X61.4498 Y69.6446
 X61.6783 Y69.6324
 X62.0326 Y69.6622
 X62.3798 Y69.7521
 X62.7122 Y69.9026
 X63.0216 Y70.1146
 X64.5063 Y71.3479
 X65.9418 Y72.5643
 X67.3291 Y73.7647
 X68.6698 Y74.9507
 X69.9650 Y76.1235
 X71.2159 Y77.2842
 X72.4241 Y78.4340
 X73.5904 Y79.5746
 X74.7165 Y80.7068
 X75.8033 Y81.8319
 X76.8523 Y82.9515
 X77.8648 Y84.0665
 X78.8419 Y85.1783
 X79.7850 Y86.2883
 X80.6954 Y87.3976
 X81.5743 Y88.5074
 X82.4646 Y89.6746
 X83.3256 Y90.8497
 X84.1576 Y92.0331
 X84.9606 Y93.2246
 X85.7356 Y94.4246
 X86.4806 Y95.6331
 X87.1976 Y96.8503
 X87.8856 Y98.0764
 X88.5446 Y99.3114
 X89.1756 Y100.5560
 X89.7786 Y101.8090
 X90.3516 Y103.0720
 X90.8976 Y104.3440
 X91.4136 Y105.6270
 X91.9026 Y106.9180
 X92.3626 Y108.2200
 X92.7946 Y109.5320
 X93.1986 Y110.8550
 X93.5736 Y112.1880
 X93.9216 Y113.5310
 X94.2406 Y114.8850
 X94.5316 Y116.2500
 X94.7946 Y117.6260
 X95.0306 Y119.0130
 X95.2376 Y120.4120
 X95.4176 Y121.8210
 X95.5696 Y123.2430
 X95.6936 Y124.6760
 X95.7906 Y126.1210
 X95.8596 Y127.5770
 X95.9006 Y129.0470
 X95.9146 Y130.5280
 X95.9036 Y130.7440
 X95.8716 Y130.9540
 X95.8196 Y131.1570
 X95.7476 Y131.3510
 X95.6586 Y131.5370
 X95.5526 Y131.7110
 X95.4306 Y131.8740
 X95.2946 Y132.0240
 X95.1436 Y132.1610
 X94.9806 Y132.2830
 X94.8066 Y132.3890
 X94.6216 Y132.4780
 X94.4266 Y132.5490
 X94.2236 Y132.6010
 X94.0136 Y132.6330
 X93.7976 Y132.6440
 X85.3306
 X85.1146 Y132.6330
 X84.9046 Y132.6010
 X84.7016 Y132.5490
 X84.5076 Y132.4780
 X84.3226 Y132.3890
 X84.1476 Y132.2830
 X83.9846 Y132.1610
 X83.8346 Y132.0240
 X83.6976 Y131.8740
 X83.5756 Y131.7110
 X83.4696 Y131.5370
 X83.3806 Y131.3510
 X83.3096 Y131.1570
 X83.2576 Y130.9540
 X83.2256 Y130.7440
 X83.2146 Y130.5280
 X83.1946 Y128.8950
 X83.1376 Y127.2930
 X83.0426 Y125.7210
 X82.9096 Y124.1780
 X19.7101
 X19.4934 Y124.1670
 X19.2832 Y124.1350
 X19.0802 Y124.0830
 X18.8857 Y124.0110
 X18.7007 Y123.9220
 X18.5261 Y123.8160
 X18.3632 Y123.6940
 X18.2130 Y123.5580
 X18.0764 Y123.4070
 X17.9545 Y123.2440
 X17.8487 Y123.0700
 X17.7595 Y122.8850
 X17.6884 Y122.6900
 X17.6363 Y122.4870
 X17.6044 Y122.2780
 X17.5934 Y122.0610
 X17.6044 Y121.8450
 X17.6363 Y121.6350
 X17.6884 Y121.4320
 X17.7595 Y121.2370
 X17.8487 Y121.0530
 X17.9545 Y120.8780
 X18.0764 Y120.7150
 X18.2130 Y120.5650
 X18.3632 Y120.4280
 X18.5261 Y120.3060
 X18.7007 Y120.2000
 X18.8857 Y120.1110
 X19.0802 Y120.0400
 X19.2832 Y119.9870
 X19.4934 Y119.9550
 X19.7101 Y119.9440
G0 Z5.0000
 X25.9208 Y107.3810
G1 Z0.0000
 X25.7044 Y107.3700
 X25.4943 Y107.3380
 X25.2915 Y107.2860
 X25.0970 Y107.2150
 X24.9120 Y107.1260
 X24.7376 Y107.0200
 X24.5745 Y106.8980
 X24.4243 Y106.7610
 X24.2876 Y106.6110
 X24.1657 Y106.4480
 X24.0597 Y106.2740
 X23.9704 Y106.0880
 X23.8993 Y105.8940
 X23.8470 Y105.6910
 X23.8150 Y105.4810
 X23.8040 Y105.2640
 X23.8150 Y105.0480
 X23.8470 Y104.8380
 X23.8993 Y104.6350
 X23.9704 Y104.4410
 X24.0597 Y104.2550
 X24.1657 Y104.0810
 X24.2876 Y103.9180
 X24.4243 Y103.7680
 X24.5745 Y103.6310
 X24.7376 Y103.5090
 X24.9120 Y103.4030
 X25.0970 Y103.3140
 X25.2915 Y103.2430
 X25.4943 Y103.1910
 X25.7044 Y103.1590
 X25.9208 Y103.1480
 X34.3873
 X34.6040 Y103.1590
 X34.8143 Y103.1910
 X35.0172 Y103.2430
 X35.2118 Y103.3140
 X35.3968 Y103.4030
 X35.5714 Y103.5090
 X35.7343 Y103.6310
 X35.8845 Y103.7680
 X36.0211 Y103.9180
 X36.1429 Y104.0810
 X36.2489 Y104.2550
 X36.3379 Y104.4410
 X36.4090 Y104.6350
 X36.4611 Y104.8380
 X36.4932 Y105.0480
 X36.5041 Y105.2640
 X36.4932 Y105.4810
 X36.4611 Y105.6910
 X36.4090 Y105.8940
 X36.3379 Y106.0880
 X36.2489 Y106.2740
 X36.1429 Y106.4480
 X36.0211 Y106.6110
 X35.8845 Y106.7610
 X35.7343 Y106.8980
 X35.5714 Y107.0200
 X35.3968 Y107.1260
 X35.2118 Y107.2150
 X35.0172 Y107.2860
 X34.8143 Y107.3380
 X34.6040 Y107.3700
 X34.3873 Y107.3810
 X25.9208
G0 Z5.0000
 X76.2054 Y12.7000
G1 Z0.0000
 X36.5344
 X36.3180 Y12.6891
 X36.1080 Y12.6570
 X35.9052 Y12.6048
 X35.7108 Y12.5336
 X35.5258 Y12.4444
 X35.3512 Y12.3384
 X35.1882 Y12.2165
 X35.0379 Y12.0798
 X34.9012 Y11.9295
 X34.7794 Y11.7665
 X34.6733 Y11.5920
 X34.5841 Y11.4070
 X34.5129 Y11.2126
 X34.4608 Y11.0098
 X34.4287 Y10.7997
 X34.4177 Y10.5833
 X34.4287 Y10.3670
 X34.4608 Y10.1570
 X34.5129 Y9.9542
 X34.5841 Y9.7597
 X34.6733 Y9.5747
 X34.7794 Y9.4002
 X34.9012 Y9.2372
 X35.0379 Y9.0869
 X35.1882 Y8.9503
 X35.3512 Y8.8284
 X35.5258 Y8.7223
 X35.7108 Y8.6331
 X35.9052 Y8.5619
 X36.1080 Y8.5098
 X36.3180 Y8.4777
 X36.5344 Y8.4667
 X76.2054
 X76.4216 Y8.4777
 X76.6318 Y8.5098
 X76.8347 Y8.5619
 X77.0291 Y8.6331
 X77.2141 Y8.7223
 X77.3886 Y8.8284
 X77.5516 Y8.9503
 X77.7019 Y9.0869
 X77.8386 Y9.2372
 X77.9604 Y9.4002
 X78.0665 Y9.5747
 X78.1557 Y9.7597
 X78.2268 Y9.9542
 X78.2790 Y10.1570
 X78.3111 Y10.3670
 X78.3220 Y10.5833
 X78.3111 Y10.7997
 X78.2790 Y11.0098
 X78.2268 Y11.2126
 X78.1557 Y11.4070
 X78.0665 Y11.5920
 X77.9604 Y11.7665
 X77.8386 Y11.9295
 X77.7019 Y12.0798
 X77.5516 Y12.2165
 X77.3886 Y12.3384
 X77.2141 Y12.4444
 X77.0291 Y12.5336
 X76.8347 Y12.6048
 X76.6318 Y12.6570
 X76.4216 Y12.6891
 X76.2054 Y12.7000
G0 Z5.0000
 X95.9146 Y2.2751
G1 Z0.0000
 X95.8976 Y3.7503
 X95.8536 Y5.2132
 X95.7826 Y6.6641
 X95.6836 Y8.1031
 X95.5576 Y9.5303
 X95.4036 Y10.9459
 X95.2226 Y12.3499
 X95.0136 Y13.7427
 X94.7766 Y15.1243
 X94.5116 Y16.4947
 X94.2196 Y17.8543
 X93.8996 Y19.2032
 X93.5516 Y20.5412
 X93.1756 Y21.8690
 X92.7716 Y23.1863
 X92.3396 Y24.4935
 X91.8796 Y25.7906
 X91.3906 Y27.0776
 X90.8746 Y28.3551
 X90.3296 Y29.6229
 X89.7566 Y30.8811
 X89.1556 Y32.1301
 X88.5256 Y33.3699
 X87.8676 Y34.6006
 X87.1816 Y35.8224
 X86.4666 Y37.0353
 X85.7226 Y38.2397
 X84.9506 Y39.4356
 X84.1496 Y40.6231
 X83.3196 Y41.8025
 X82.4616 Y42.9738
 X81.5743 Y44.1371
 X80.7889 Y45.1307
 X79.9887 Y46.1115
 X79.1745 Y47.0797
 X78.3466 Y48.0358
 X77.5057 Y48.9801
 X76.6520 Y49.9132
 X75.7866 Y50.8350
 X74.9097 Y51.7461
 X74.0218 Y52.6471
 X73.1234 Y53.5379
 X72.2154 Y54.4192
 X71.2980 Y55.2911
 X70.3719 Y56.1543
 X69.4376 Y57.0090
 X68.4957 Y57.8554
 X67.5466 Y58.6942
 X66.5909 Y59.5254
 X65.6291 Y60.3497
 X64.6620 Y61.1672
 X63.6900 Y61.9785
 X62.7133 Y62.7836
 X61.7330 Y63.5832
 X60.7493 Y64.3776
 X59.7627 Y65.1671
 X58.7740 Y65.9521
 X57.7837 Y66.7329
 X56.7922 Y67.5099
 X55.8000 Y68.2835
 X54.8077 Y69.0539
 X53.8159 Y69.8218
 X52.8252 Y70.5872
 X51.8362 Y71.3507
 X50.8936 Y72.0781
 X49.9532 Y72.8044
 X49.0151 Y73.5303
 X48.0800 Y74.2558
 X47.1480 Y74.9815
 X46.2200 Y75.7078
 X45.2958 Y76.4347
 X44.3762 Y77.1629
 X43.4615 Y77.8928
 X42.5520 Y78.6243
 X41.6484 Y79.3582
 X40.7509 Y80.0944
 X39.8600 Y80.8337
 X38.9759 Y81.5763
 X38.0994 Y82.3224
 X37.2305 Y83.0725
 X36.3698 Y83.8268
 X35.5177 Y84.5858
 X34.6747 Y85.3499
 X33.8411 Y86.1192
 X33.0172 Y86.8943
 X32.2036 Y87.6753
 X31.4007 Y88.4628
 X30.6088 Y89.2569
 X29.8284 Y90.0582
 X29.0598 Y90.8668
 X28.3036 Y91.6833
 X27.5600 Y92.5079
 X26.8295 Y93.3408
 X26.1126 Y94.1828
 X25.4095 Y95.0338
 X24.7208 Y95.8942
 X24.0469 Y96.7646
 X23.3882 Y97.6451
 X22.7448 Y98.5362
 X22.1175 Y99.4382
 X21.5066 Y100.3510
 X20.9125 Y101.2760
 X20.3355 Y102.2130
 X19.7762 Y103.1620
 X19.2350 Y104.1240
 X18.7122 Y105.0980
 X18.2080 Y106.0870
 X17.7233 Y107.0880
 X17.2582 Y108.1040
 X16.8132 Y109.1340
 X16.3886 Y110.1790
 X15.9848 Y111.2380
 X15.6023 Y112.3140
 X15.2418 Y113.4050
 X14.9032 Y114.5120
 X14.5870 Y115.6350
 X14.2939 Y116.7760
 X14.0241 Y117.9330
 X13.7780 Y119.1080
 X13.5562 Y120.3010
 X13.3588 Y121.5120
 X13.1865 Y122.7420
 X13.0395 Y123.9900
 X12.9184 Y125.2580
 X12.8234 Y126.5450
 X12.7551 Y127.8520
 X12.7139 Y129.1800
 X12.7001 Y130.5280
 X12.6891 Y130.7440
 X12.6569 Y130.9540
 X12.6048 Y131.1570
 X12.5336 Y131.3510
 X12.4444 Y131.5370
 X12.3383 Y131.7110
 X12.2165 Y131.8740
 X12.0798 Y132.0240
 X11.9295 Y132.1610
 X11.7665 Y132.2830
 X11.5919 Y132.3890
 X11.4069 Y132.4780
 X11.2125 Y132.5490
 X11.0097 Y132.6010
 X10.7997 Y132.6330
 X10.5833 Y132.6440
 X2.1168
 X1.9001 Y132.6330
 X1.6897 Y132.6010
 X1.4868 Y132.5490
 X1.2923 Y132.4780
 X1.1072 Y132.3890
 X0.9327 Y132.2830
 X0.7698 Y132.1610
 X0.6195 Y132.0240
 X0.4830 Y131.8740
 X0.3612 Y131.7110
 X0.2552 Y131.5370
 X0.1661 Y131.3510
 X0.0951 Y131.1570
 X0.0429 Y130.9540
 X0.0109 Y130.7440
 X0.0000 Y130.5280
 X0.0137 Y129.0470
 X0.0550 Y127.5770
 X0.1239 Y126.1210
 X0.2204 Y124.6760
 X0.3444 Y123.2430
 X0.4963 Y121.8210
 X0.6761 Y120.4120
 X0.8834 Y119.0130
 X1.1189 Y117.6260
 X1.3822 Y116.2500
 X1.6733 Y114.8850
 X1.9926 Y113.5310
 X2.3400 Y112.1880
 X2.7154 Y110.8550
 X3.1190 Y109.5330
 X3.5508 Y108.2210
 X4.0109 Y106.9190
 X4.4994 Y105.6270
 X5.0162 Y104.3450
 X5.5614 Y103.0730
 X6.1351 Y101.8100
 X6.7372 Y100.5560
 X7.3680 Y99.3119
 X8.0273 Y98.0768
 X8.7154 Y96.8507
 X9.4322 Y95.6335
 X10.1776 Y94.4249
 X10.9519 Y93.2249
 X11.7551 Y92.0332
 X12.5872 Y90.8499
 X13.4483 Y89.6746
 X14.3383 Y88.5074
 X15.5957 Y86.9314
 X16.8897 Y85.3876
 X18.2179 Y83.8744
 X19.5783 Y82.3904
 X20.9686 Y80.9340
 X22.3865 Y79.5040
 X23.8301 Y78.0986
 X25.2970 Y76.7165
 X26.7852 Y75.3564
 X28.2922 Y74.0164
 X29.8161 Y72.6954
 X31.3545 Y71.3918
 X32.9055 Y70.1042
 X34.4666 Y68.8311
 X36.0357 Y67.5708
 X37.6108 Y66.3222
 X36.1275 Y65.1476
 X34.6301 Y63.9475
 X33.1229 Y62.7211
 X31.6093 Y61.4681
 X30.0932 Y60.1875
 X28.5783 Y58.8792
 X27.0687 Y57.5424
 X25.5679 Y56.1765
 X24.0798 Y54.7811
 X22.6082 Y53.3554
 X21.1569 Y51.8992
 X19.7298 Y50.4115
 X18.3305 Y48.8921
 X16.9630 Y47.3403
 X15.6311 Y45.7554
 X14.3383 Y44.1371
 X13.4483 Y42.9699
 X12.5872 Y41.7946
 X11.7551 Y40.6113
 X10.9519 Y39.4196
 X10.1776 Y38.2196
 X9.4322 Y37.0110
 X8.7154 Y35.7937
 X8.0273 Y34.5678
 X7.3680 Y33.3326
 X6.7372 Y32.0885
 X6.1351 Y30.8350
 X5.5614 Y29.5721
 X5.0162 Y28.2997
 X4.4994 Y27.0175
 X4.0109 Y25.7256
 X3.5508 Y24.4236
 X3.1190 Y23.1115
 X2.7154 Y21.7892
 X2.3400 Y20.4564
 X1.9926 Y19.1131
 X1.6733 Y17.7590
 X1.3822 Y16.3942
 X1.1189 Y15.0182
 X0.8834 Y13.6312
 X0.6761 Y12.2329
 X0.4963 Y10.8231
 X0.3444 Y9.4019
 X0.2204 Y7.9688
 X0.1239 Y6.5239
 X0.0550 Y5.0671
 X0.0137 Y3.5980
 X0.0000 Y2.1166
 X0.0109 Y1.9003
 X0.0429 Y1.6903
 X0.0951 Y1.4875
 X0.1661 Y1.2930
 X0.2552 Y1.1080
 X0.3612 Y0.9335
 X0.4830 Y0.7705
 X0.6195 Y0.6202
 X0.7698 Y0.4836
 X0.9327 Y0.3617
 X1.1072 Y0.2556
 X1.2923 Y0.1665
 X1.4868 Y0.0952
 X1.6897 Y0.0431
 X1.9001 Y0.0110
 X2.1168 Y0.0000
 X10.5833
 X10.7997 Y0.0110
 X11.0097 Y0.0431
 X11.2125 Y0.0952
 X11.4069 Y0.1665
 X11.5919 Y0.2556
 X11.7665 Y0.3617
 X11.9295 Y0.4836
 X12.0798 Y0.6202
 X12.2165 Y0.7705
 X12.3383 Y0.9335
 X12.4444 Y1.1080
 X12.5336 Y1.2930
 X12.6048 Y1.4875
 X12.6569 Y1.6903
 X12.6891 Y1.9003
 X12.7001 Y2.1166
 X12.7202 Y3.7495
 X12.7802 Y5.3516
 X12.8790 Y6.9238
 X13.0154 Y8.4667
 X28.0677
 X28.2843 Y8.4777
 X28.4947 Y8.5098
 X28.6976 Y8.5619
 X28.8920 Y8.6331
 X29.0772 Y8.7223
 X29.2516 Y8.8284
 X29.4147 Y8.9503
 X29.5648 Y9.0869
 X29.7014 Y9.2372
 X29.8232 Y9.4002
 X29.9291 Y9.5747
 X30.0183 Y9.7597
 X30.0893 Y9.9542
 X30.1415 Y10.1570
 X30.1734 Y10.3670
 X30.1844 Y10.5833
 X30.1734 Y10.7997
 X30.1415 Y11.0098
 X30.0893 Y11.2126
 X30.0183 Y11.4070
 X29.9291 Y11.5920
 X29.8232 Y11.7665
 X29.7014 Y11.9295
 X29.5648 Y12.0798
 X29.4147 Y12.2165
 X29.2516 Y12.3384
 X29.0772 Y12.4444
 X28.8920 Y12.5336
 X28.6976 Y12.6048
 X28.4947 Y12.6570
 X28.2843 Y12.6891
 X28.0677 Y12.7000
 X13.6066
 X13.9380 Y14.3849
 X14.3182 Y16.0344
 X14.7462 Y17.6503
 X15.2214 Y19.2335
 X15.7425 Y20.7853
 X16.3087 Y22.3067
 X16.9190 Y23.7990
 X17.5726 Y25.2635
 X69.9933
 X70.2097 Y25.2744
 X70.4198 Y25.3065
 X70.6226 Y25.3586
 X70.8170 Y25.4297
 X71.0020 Y25.5187
 X71.1765 Y25.6247
 X71.3395 Y25.7465
 X71.4898 Y25.8832
 X71.6265 Y26.0335
 X71.7483 Y26.1964
 X71.8544 Y26.3708
 X71.9436 Y26.5560
 X72.0147 Y26.7504
 X72.0669 Y26.9533
 X72.0990 Y27.1636
 X72.1100 Y27.3801
 X72.0990 Y27.5965
 X72.0669 Y27.8067
 X72.0147 Y28.0094
 X71.9436 Y28.2039
 X71.8544 Y28.3890
 X71.7483 Y28.5635
 X71.6265 Y28.7264
 X71.4898 Y28.8768
 X71.3395 Y29.0133
 X71.1765 Y29.1353
 X71.0020 Y29.2414
 X70.8170 Y29.3304
 X70.6226 Y29.4017
 X70.4198 Y29.4539
 X70.2097 Y29.4858
 X69.9933 Y29.4968
 X19.7802
 X20.7890 Y31.1669
 X21.8557 Y32.8042
 X22.9786 Y34.4108
 X24.1561 Y35.9889
 X25.3865 Y37.5408
 X26.6682 Y39.0686
 X27.9993 Y40.5744
 X29.3783 Y42.0607
 X55.2165
 X55.4329 Y42.0717
 X55.6430 Y42.1036
 X55.8458 Y42.1557
 X56.0402 Y42.2268
 X56.2252 Y42.3160
 X56.3998 Y42.4219
 X56.5627 Y42.5436
 X56.7130 Y42.6801
 X56.8497 Y42.8304
 X56.9715 Y42.9933
 X57.0776 Y43.1679
 X57.1668 Y43.3529
 X57.2379 Y43.5475
 X57.2901 Y43.7504
 X57.3222 Y43.9607
 X57.3332 Y44.1774
 X57.3222 Y44.3936
 X57.2901 Y44.6037
 X57.2379 Y44.8065
 X57.1668 Y45.0010
 X57.0776 Y45.1860
 X56.9715 Y45.3606
 X56.8497 Y45.5235
 X56.7130 Y45.6738
 X56.5627 Y45.8104
 X56.3998 Y45.9324
 X56.2252 Y46.0385
 X56.0402 Y46.1275
 X55.8458 Y46.1988
 X55.6430 Y46.2510
 X55.4329 Y46.2831
 X55.2165 Y46.2939
 X33.6505
 X35.2979 Y47.8114
 X36.9895 Y49.3186
 X38.7236 Y50.8182
 X40.4979 Y52.3129
 X42.3105 Y53.8053
 X44.1594 Y55.2978
 X46.0427 Y56.7931
 X47.9584 Y58.2937
 X48.8298 Y57.6149
 X49.6979 Y56.9354
 X50.5625 Y56.2553
 X51.4230 Y55.5742
 X52.2794 Y54.8918
 X53.1312 Y54.2078
 X53.9780 Y53.5219
 X54.8197 Y52.8340
 X55.6557 Y52.1436
 X56.4858 Y51.4504
 X57.3095 Y50.7543
 X58.1268 Y50.0550
 X58.9370 Y49.3519
 X59.7401 Y48.6451
 X60.5355 Y47.9343
 X61.3230 Y47.2189
 X62.1022 Y46.4989
 X62.8727 Y45.7739
 X63.6344 Y45.0436
 X64.3869 Y44.3078
 X65.1295 Y43.5660
 X65.8623 Y42.8182
 X66.5848 Y42.0640
 X67.2968 Y41.3031
 X67.9977 Y40.5353
 X68.6873 Y39.7601
 X69.3654 Y38.9774
 X70.0315 Y38.1869
 X70.6852 Y37.3882
 X71.3263 Y36.5813
 X71.9545 Y35.7656
 X72.5694 Y34.9408
 X73.1705 Y34.1069
 X73.7579 Y33.2635
 X74.3308 Y32.4103
 X74.8890 Y31.5469
 X75.4323 Y30.6731
 X75.9602 Y29.7888
 X76.4727 Y28.8933
 X76.9690 Y27.9867
 X77.4491 Y27.0685
 X77.9125 Y26.1386
 X78.3589 Y25.1965
 X78.7879 Y24.2421
 X79.1993 Y23.2750
 X79.5927 Y22.2950
 X79.9677 Y21.3018
 X80.3241 Y20.2950
 X80.6616 Y19.2744
 X80.9797 Y18.2397
 X81.2780 Y17.1907
 X81.5565 Y16.1271
 X81.8146 Y15.0485
 X82.0516 Y13.9546
 X82.2686 Y12.8453
 X82.4636 Y11.7202
 X82.6366 Y10.5790
 X82.7876 Y9.4214
 X82.9166 Y8.2472
 X83.0226 Y7.0561
 X83.1056 Y5.8478
 X83.1656 Y4.6220
 X83.2026 Y3.3784
 X83.2146 Y2.1166
 X83.2256 Y1.9003
 X83.2576 Y1.6903
 X83.3096 Y1.4875
 X83.3806 Y1.2930
 X83.4696 Y1.1080
 X83.5756 Y0.9335
 X83.6976 Y0.7705
 X83.8346 Y0.6202
 X83.9846 Y0.4836
 X84.1476 Y0.3617
 X84.3226 Y0.2556
 X84.5076 Y0.1665
 X84.7016 Y0.0952
 X84.9046 Y0.0431
 X85.1146 Y0.0110
 X85.3306 Y0.0000
 X93.7976
 X94.0156 Y0.0110
 X94.2266 Y0.0431
 X94.4296 Y0.0952
 X94.6256 Y0.1665
 X94.8106 Y0.2556
 X94.9856 Y0.3617
 X95.1486 Y0.4836
 X95.2996 Y0.6202
 X95.4366 Y0.7705
 X95.5586 Y0.9335
 X95.6646 Y1.1080
 X95.7536 Y1.2930
 X95.8246 Y1.4875
 X95.8766 Y1.6903
 X95.9086 Y1.9003
 X95.9196 Y2.1166
 X95.9146 Y2.2751
G0 Z5.0000
G0 Z5.0000
M2 (end program)
