;PYCAM-META-DATA: Filename: /media/martoio/MARTOIO/ME43/std_lib/svg/022-science.svg
;PYCAM-META-DATA: Timestamp: 2017-12-06 02:07:06.883039
;PYCAM-META-DATA: Version: 0.5.1
;Estimated machine time: 12 minutes
G40 (disable tool radius compensation)
G49 (disable tool length compensation)
G80 (cancel modal motion)
G54 (select coordinate system 1)
G90 (disable incremental moves)
G21 (metric)
G61 (exact path mode)
F400.00000
S1.00000
;PYCAM_TOOLPATH_SETTINGS: START
;[Bounds]
;maxz = 0.0
;maxx = 163.4456
;maxy = 162.0561229
;minx = -8.9496
;miny = -8.8232839
;minz = 0.0
;
;[Tool]
;torus_radius = 0.25
;speed = 1.0
;shape = CylindricalCutter
;tool_radius = 0.5
;feedrate = 400.0
;
;[Process]
;engrave_offset = 0.0
;step_down = 1.0
;generator = EngraveCutter
;postprocessor = SimpleCutter
;overlap_percent = 0
;milling_style = conventional
;material_allowance = 0.0
;pocketing_type = none
;path_direction = x
;
;PYCAM_TOOLPATH_SETTINGS: END
T1 M6
G0 Z5.0000
 X25.4378 Y17.8736
G1 Z0.0000
 X25.0236 Y18.3025
 X24.6249 Y18.7456
 X24.2417 Y19.2027
 X23.8738 Y19.6736
 X23.5214 Y20.1581
 X23.1844 Y20.6560
 X22.8628 Y21.1672
 X22.5565 Y21.6916
 X22.2656 Y22.2288
 X21.9899 Y22.7788
 X21.7294 Y23.3414
 X21.4844 Y23.9164
 X21.2546 Y24.5038
 X21.0400 Y25.1031
 X20.8406 Y25.7143
 X20.6563 Y26.3371
 X20.4871 Y26.9717
 X20.3331 Y27.6175
 X20.1943 Y28.2745
 X20.0704 Y28.9425
 X19.9618 Y29.6214
 X19.8681 Y30.3110
 X19.7894 Y31.0111
 X19.7258 Y31.7214
 X19.6772 Y32.4420
 X19.6435 Y33.1725
 X19.6247 Y33.9129
 X19.6210 Y34.6628
 X19.6319 Y35.4222
 X19.6579 Y36.1910
 X19.6986 Y36.9688
 X19.7542 Y37.7554
 X19.8247 Y38.5510
 X19.9099 Y39.3552
 X20.0099 Y40.1677
 X20.1244 Y40.9884
 X20.2539 Y41.8172
 X20.3981 Y42.6539
 X20.5568 Y43.4984
 X20.7303 Y44.3503
 X20.9183 Y45.2096
 X21.1210 Y46.0761
 X21.3383 Y46.9497
 X21.5701 Y47.8302
 X21.8165 Y48.7172
 X22.0775 Y49.6109
 X22.3529 Y50.5107
 X22.6428 Y51.4168
 X22.9471 Y52.3289
 X23.2658 Y53.2468
 X23.5992 Y54.1703
 X23.9467 Y55.0992
 X24.3086 Y56.0335
 X24.6850 Y56.9728
 X25.0757 Y57.9171
 X25.4806 Y58.8663
 X25.8999 Y59.8199
 X26.3333 Y60.7779
 X26.7811 Y61.7403
 X27.2431 Y62.7067
 X27.7192 Y63.6770
 X28.2096 Y64.6510
 X28.7140 Y65.6285
 X29.2326 Y66.6095
 X30.3068 Y65.0043
 X31.4075 Y63.4064
 X32.5344 Y61.8161
 X33.6876 Y60.2335
 X34.8667 Y58.6589
 X36.0717 Y57.0927
 X37.3021 Y55.5347
 X38.5581 Y53.9857
 X39.8393 Y52.4456
 X41.1456 Y50.9146
 X42.4768 Y49.3931
 X43.8328 Y47.8813
 X45.2135 Y46.3793
 X46.6185 Y44.8875
 X48.0478 Y43.4063
 X49.5011 Y41.9354
 X50.9719 Y40.4822
 X52.4536 Y39.0529
 X53.9454 Y37.6481
 X55.4475 Y36.2674
 X56.9594 Y34.9114
 X58.4810 Y33.5802
 X60.0119 Y32.2738
 X61.5522 Y30.9925
 X63.1013 Y29.7366
 X64.6590 Y28.5060
 X66.2253 Y27.3010
 X67.7997 Y26.1218
 X69.3822 Y24.9685
 X70.9722 Y23.8413
 X72.5700 Y22.7404
 X74.1749 Y21.6659
 X73.1939 Y21.1475
 X72.2162 Y20.6431
 X71.2424 Y20.1529
 X70.2719 Y19.6768
 X69.3056 Y19.2150
 X68.3432 Y18.7674
 X67.3851 Y18.3339
 X66.4315 Y17.9148
 X65.4825 Y17.5099
 X64.5382 Y17.1194
 X63.5987 Y16.7431
 X62.6646 Y16.3812
 X61.7356 Y16.0336
 X60.8121 Y15.7005
 X59.8942 Y15.3818
 X58.9822 Y15.0775
 X58.0761 Y14.7877
 X57.1761 Y14.5123
 X56.2825 Y14.2515
 X55.3954 Y14.0051
 X54.5150 Y13.7733
 X53.6414 Y13.5560
 X52.7749 Y13.3534
 X51.9156 Y13.1654
 X51.0635 Y12.9919
 X50.2192 Y12.8332
 X49.3824 Y12.6891
 X48.5536 Y12.5597
 X47.7328 Y12.4450
 X46.9203 Y12.3450
 X46.1163 Y12.2599
 X45.3207 Y12.1894
 X44.5339 Y12.1339
 X43.7561 Y12.0932
 X42.9874 Y12.0672
 X42.2279 Y12.0562
 X41.4779 Y12.0600
 X40.7376 Y12.0788
 X40.0071 Y12.1125
 X39.2865 Y12.1611
 X38.5761 Y12.2248
 X37.8760 Y12.3034
 X37.1864 Y12.3971
 X36.5075 Y12.5058
 X35.8394 Y12.6296
 X35.1824 Y12.7685
 X34.5365 Y12.9225
 X33.9021 Y13.0916
 X33.2790 Y13.2759
 X32.6678 Y13.4753
 X32.0685 Y13.6900
 X31.4811 Y13.9199
 X30.9061 Y14.1650
 X30.3435 Y14.4253
 X29.7935 Y14.7010
 X29.2561 Y14.9920
 X28.7318 Y15.2983
 X28.2206 Y15.6199
 X27.7225 Y15.9570
 X27.2379 Y16.3094
 X26.7671 Y16.6773
 X26.3100 Y17.0606
 X25.8668 Y17.4593
 X25.4378 Y17.8736
G0 Z5.0000
 X17.5113 Y95.4172
G1 Z0.0000
 X17.2300 Y95.4245
 X16.9525 Y95.4456
 X16.6789 Y95.4804
 X16.4096 Y95.5286
 X16.1451 Y95.5899
 X15.8855 Y95.6636
 X15.6314 Y95.7499
 X15.3830 Y95.8479
 X15.1406 Y95.9577
 X14.9047 Y96.0786
 X14.6756 Y96.2106
 X14.4535 Y96.3529
 X14.2389 Y96.5057
 X14.0321 Y96.6682
 X13.8335 Y96.8404
 X13.6433 Y97.0217
 X13.4620 Y97.2118
 X13.2899 Y97.4104
 X13.1273 Y97.6172
 X12.9747 Y97.8318
 X12.8322 Y98.0539
 X12.7003 Y98.2831
 X12.5793 Y98.5189
 X12.4696 Y98.7613
 X12.3715 Y99.0097
 X12.2853 Y99.2639
 X12.2115 Y99.5234
 X12.1503 Y99.7879
 X12.1021 Y100.0572
 X12.0672 Y100.3309
 X12.0461 Y100.6084
 X12.0390 Y100.8896
 X12.0461 Y101.1706
 X12.0672 Y101.4481
 X12.1021 Y101.7216
 X12.1503 Y101.9907
 X12.2115 Y102.2552
 X12.2853 Y102.5146
 X12.3715 Y102.7686
 X12.4696 Y103.0171
 X12.5793 Y103.2593
 X12.7003 Y103.4953
 X12.8322 Y103.7245
 X12.9747 Y103.9464
 X13.1273 Y104.1610
 X13.2899 Y104.3678
 X13.4620 Y104.5668
 X13.6433 Y104.7568
 X13.8335 Y104.9378
 X14.0321 Y105.1098
 X14.2389 Y105.2728
 X14.4535 Y105.4258
 X14.6756 Y105.5678
 X14.9047 Y105.6998
 X15.1406 Y105.8208
 X15.3830 Y105.9308
 X15.6314 Y106.0288
 X15.8855 Y106.1148
 X16.1451 Y106.1888
 X16.4096 Y106.2498
 X16.6789 Y106.2988
 X16.9525 Y106.3328
 X17.2300 Y106.3548
 X17.5113 Y106.3618
 X17.7924 Y106.3548
 X18.0698 Y106.3328
 X18.3433 Y106.2988
 X18.6125 Y106.2498
 X18.8770 Y106.1888
 X19.1364 Y106.1148
 X19.3906 Y106.0288
 X19.6389 Y105.9308
 X19.8812 Y105.8208
 X20.1172 Y105.6998
 X20.3463 Y105.5678
 X20.5683 Y105.4258
 X20.7831 Y105.2728
 X20.9899 Y105.1098
 X21.1885 Y104.9378
 X21.3786 Y104.7568
 X21.5600 Y104.5668
 X21.7321 Y104.3678
 X21.8947 Y104.1610
 X22.0475 Y103.9464
 X22.1900 Y103.7245
 X22.3219 Y103.4953
 X22.4429 Y103.2593
 X22.5526 Y103.0171
 X22.6508 Y102.7686
 X22.7371 Y102.5146
 X22.8110 Y102.2552
 X22.8721 Y101.9907
 X22.9204 Y101.7216
 X22.9553 Y101.4481
 X22.9764 Y101.1706
 X22.9836 Y100.8896
 X22.9764 Y100.6084
 X22.9553 Y100.3309
 X22.9204 Y100.0572
 X22.8721 Y99.7879
 X22.8110 Y99.5234
 X22.7371 Y99.2639
 X22.6508 Y99.0097
 X22.5526 Y98.7613
 X22.4429 Y98.5189
 X22.3219 Y98.2831
 X22.1900 Y98.0539
 X22.0475 Y97.8318
 X21.8947 Y97.6172
 X21.7321 Y97.4104
 X21.5600 Y97.2118
 X21.3786 Y97.0217
 X21.1885 Y96.8404
 X20.9899 Y96.6682
 X20.7831 Y96.5057
 X20.5683 Y96.3529
 X20.3463 Y96.2106
 X20.1172 Y96.0786
 X19.8812 Y95.9577
 X19.6389 Y95.8479
 X19.3906 Y95.7499
 X19.1364 Y95.6636
 X18.8770 Y95.5899
 X18.6125 Y95.5286
 X18.3433 Y95.4804
 X18.0698 Y95.4456
 X17.7924 Y95.4245
 X17.5113 Y95.4172
G0 Z5.0000
 X24.4662 Y90.4964
G1 Z0.0000
 X25.0801 Y90.9360
 X25.6660 Y91.4109
 X26.2218 Y91.9195
 X26.7462 Y92.4603
 X27.2378 Y93.0316
 X27.6947 Y93.6320
 X28.1156 Y94.2599
 X28.4989 Y94.9138
 X28.8428 Y95.5918
 X29.1461 Y96.2928
 X29.4069 Y97.0149
 X29.6238 Y97.7568
 X29.7953 Y98.5167
 X29.9197 Y99.2932
 X29.9954 Y100.0847
 X30.0211 Y100.8896
 X30.0079 Y101.4660
 X29.9690 Y102.0357
 X29.9047 Y102.5984
 X29.8158 Y103.1531
 X29.7028 Y103.6996
 X29.5663 Y104.2371
 X29.4065 Y104.7648
 X29.2246 Y105.2828
 X29.0207 Y105.7908
 X28.7956 Y106.2868
 X28.5496 Y106.7708
 X28.2836 Y107.2428
 X27.9981 Y107.7028
 X27.6935 Y108.1478
 X27.3706 Y108.5798
 X27.0296 Y108.9968
 X26.6715 Y109.3988
 X26.2967 Y109.7848
 X25.9056 Y110.1548
 X25.4990 Y110.5078
 X25.0774 Y110.8438
 X24.6414 Y111.1608
 X24.1915 Y111.4598
 X23.7283 Y111.7398
 X23.2525 Y111.9998
 X22.7644 Y112.2398
 X22.2647 Y112.4588
 X21.7540 Y112.6558
 X21.2329 Y112.8318
 X20.7019 Y112.9848
 X20.1617 Y113.1138
 X19.6128 Y113.2198
 X19.6611 Y114.4628
 X19.7525 Y115.6748
 X19.8868 Y116.8548
 X20.0636 Y118.0038
 X20.2828 Y119.1198
 X20.5443 Y120.2038
 X20.8478 Y121.2528
 X21.1932 Y122.2668
 X21.5801 Y123.2468
 X22.0086 Y124.1898
 X22.4783 Y125.0968
 X22.9890 Y125.9668
 X23.5407 Y126.7978
 X24.1332 Y127.5908
 X24.7660 Y128.3448
 X25.4393 Y129.0578
 X25.8682 Y129.4718
 X26.3113 Y129.8708
 X26.7683 Y130.2538
 X27.2390 Y130.6218
 X27.7236 Y130.9738
 X28.2215 Y131.3108
 X28.7328 Y131.6328
 X29.2571 Y131.9388
 X29.7943 Y132.2298
 X30.3443 Y132.5058
 X30.9069 Y132.7658
 X31.4819 Y133.0108
 X32.0692 Y133.2408
 X32.6685 Y133.4558
 X33.2797 Y133.6548
 X33.9026 Y133.8388
 X34.5371 Y134.0088
 X35.1829 Y134.1618
 X35.8399 Y134.3008
 X36.5079 Y134.4248
 X37.1868 Y134.5338
 X37.8764 Y134.6268
 X38.5765 Y134.7058
 X39.2868 Y134.7698
 X40.0074 Y134.8178
 X40.7379 Y134.8518
 X41.4782 Y134.8708
 X42.2282 Y134.8738
 X42.9876 Y134.8628
 X43.7562 Y134.8368
 X44.5342 Y134.7968
 X45.3208 Y134.7408
 X46.1164 Y134.6708
 X46.9204 Y134.5858
 X47.7329 Y134.4858
 X48.5538 Y134.3708
 X49.3825 Y134.2408
 X50.2192 Y134.0968
 X51.0636 Y133.9378
 X51.9156 Y133.7648
 X52.7750 Y133.5768
 X53.6415 Y133.3738
 X54.5150 Y133.1568
 X55.3954 Y132.9248
 X56.2825 Y132.6788
 X57.1761 Y132.4178
 X58.0761 Y132.1418
 X58.9822 Y131.8518
 X59.8942 Y131.5478
 X60.8121 Y131.2288
 X61.7356 Y130.8958
 X62.6646 Y130.5488
 X63.5987 Y130.1868
 X64.5382 Y129.8098
 X65.4825 Y129.4198
 X66.4315 Y129.0148
 X67.3851 Y128.5958
 X68.3432 Y128.1618
 X69.3056 Y127.7148
 X70.2719 Y127.2528
 X71.2424 Y126.7758
 X72.2162 Y126.2858
 X73.1939 Y125.7818
 X74.1749 Y125.2628
 X72.5700 Y124.1888
 X70.9722 Y123.0878
 X69.3822 Y121.9608
 X67.7997 Y120.8078
 X66.2253 Y119.6288
 X64.6592 Y118.4238
 X63.1014 Y117.1928
 X61.5524 Y115.9368
 X60.0122 Y114.6558
 X58.4812 Y113.3488
 X56.9599 Y112.0178
 X55.4479 Y110.6618
 X53.9460 Y109.2808
 X52.4543 Y107.8758
 X50.9729 Y106.4468
 X49.5022 Y104.9928
 X48.0486 Y103.5224
 X46.6192 Y102.0410
 X45.2140 Y100.5493
 X43.8332 Y99.0472
 X42.4769 Y97.5354
 X41.1456 Y96.0138
 X39.8390 Y94.4827
 X38.5576 Y92.9424
 X37.3015 Y91.3931
 X36.0710 Y89.8352
 X34.8660 Y88.2688
 X33.6868 Y86.6941
 X32.5336 Y85.1114
 X31.4065 Y83.5211
 X30.3058 Y81.9232
 X29.2317 Y80.3181
 X28.5538 Y81.6043
 X27.8993 Y82.8874
 X27.2681 Y84.1667
 X26.6603 Y85.4420
 X26.0761 Y86.7128
 X25.5157 Y87.9792
 X24.9789 Y89.2404
 X24.4662 Y90.4964
G0 Z5.0000
 X81.0318 Y61.9034
G1 Z0.0000
 X80.4375 Y61.9185
 X79.8511 Y61.9632
 X79.2731 Y62.0370
 X78.7042 Y62.1388
 X78.1453 Y62.2681
 X77.5969 Y62.4240
 X77.0600 Y62.6061
 X76.5350 Y62.8135
 X76.0231 Y63.0453
 X75.5246 Y63.3010
 X75.0403 Y63.5797
 X74.5711 Y63.8807
 X74.1176 Y64.2034
 X73.6807 Y64.5470
 X73.2610 Y64.9106
 X72.8592 Y65.2936
 X72.4761 Y65.6954
 X72.1124 Y66.1152
 X71.7688 Y66.5521
 X71.4461 Y67.0054
 X71.1450 Y67.4746
 X70.8664 Y67.9588
 X70.6107 Y68.4572
 X70.3788 Y68.9692
 X70.1715 Y69.4940
 X69.9894 Y70.0309
 X69.8333 Y70.5790
 X69.7040 Y71.1379
 X69.6022 Y71.7067
 X69.5285 Y72.2846
 X69.4838 Y72.8710
 X69.4688 Y73.4650
 X69.4838 Y74.0592
 X69.5285 Y74.6457
 X69.6022 Y75.2238
 X69.7040 Y75.7927
 X69.8333 Y76.3516
 X69.9894 Y76.9000
 X70.1715 Y77.4370
 X70.3788 Y77.9618
 X70.6107 Y78.4739
 X70.8664 Y78.9725
 X71.1450 Y79.4567
 X71.4461 Y79.9259
 X71.7688 Y80.3793
 X72.1124 Y80.8163
 X72.4761 Y81.2361
 X72.8592 Y81.6379
 X73.2610 Y82.0210
 X73.6807 Y82.3846
 X74.1176 Y82.7282
 X74.5711 Y83.0510
 X75.0403 Y83.3520
 X75.5246 Y83.6307
 X76.0231 Y83.8864
 X76.5350 Y84.1184
 X77.0600 Y84.3256
 X77.5969 Y84.5077
 X78.1453 Y84.6636
 X78.7042 Y84.7931
 X79.2731 Y84.8949
 X79.8511 Y84.9685
 X80.4375 Y85.0134
 X81.0318 Y85.0284
 X81.6257 Y85.0134
 X82.2121 Y84.9685
 X82.7901 Y84.8949
 X83.3589 Y84.7931
 X83.9178 Y84.6636
 X84.4660 Y84.5077
 X85.0029 Y84.3256
 X85.5278 Y84.1184
 X86.0397 Y83.8864
 X86.5382 Y83.6307
 X87.0224 Y83.3520
 X87.4915 Y83.0510
 X87.9450 Y82.7282
 X88.3818 Y82.3846
 X88.8015 Y82.0210
 X89.2033 Y81.6379
 X89.5864 Y81.2361
 X89.9501 Y80.8163
 X90.2936 Y80.3793
 X90.6163 Y79.9259
 X90.9174 Y79.4567
 X91.1961 Y78.9725
 X91.4517 Y78.4739
 X91.6835 Y77.9618
 X91.8908 Y77.4370
 X92.0729 Y76.9000
 X92.2289 Y76.3516
 X92.3583 Y75.7927
 X92.4601 Y75.2238
 X92.5338 Y74.6457
 X92.5786 Y74.0592
 X92.5936 Y73.4650
 X92.5786 Y72.8710
 X92.5338 Y72.2846
 X92.4601 Y71.7067
 X92.3583 Y71.1379
 X92.2289 Y70.5790
 X92.0729 Y70.0309
 X91.8908 Y69.4940
 X91.6835 Y68.9692
 X91.4517 Y68.4572
 X91.1961 Y67.9588
 X90.9174 Y67.4746
 X90.6163 Y67.0054
 X90.2936 Y66.5521
 X89.9501 Y66.1152
 X89.5864 Y65.6954
 X89.2033 Y65.2936
 X88.8015 Y64.9106
 X88.3818 Y64.5470
 X87.9450 Y64.2034
 X87.4915 Y63.8807
 X87.0224 Y63.5797
 X86.5382 Y63.3010
 X86.0397 Y63.0453
 X85.5278 Y62.8135
 X85.0029 Y62.6061
 X84.4660 Y62.4240
 X83.9178 Y62.2681
 X83.3589 Y62.1388
 X82.7901 Y62.0370
 X82.2121 Y61.9632
 X81.6257 Y61.9185
 X81.0318 Y61.9034
G0 Z5.0000
 X54.4785 Y46.9132
G1 Z0.0000
 X52.9210 Y48.4914
 X51.3925 Y50.0820
 X49.8935 Y51.6846
 X48.4242 Y53.2989
 X46.9846 Y54.9246
 X45.5751 Y56.5613
 X44.1962 Y58.2088
 X42.8478 Y59.8665
 X41.5303 Y61.5345
 X40.2439 Y63.2121
 X38.9889 Y64.8993
 X37.7656 Y66.5954
 X36.5740 Y68.3006
 X35.4147 Y70.0139
 X34.2876 Y71.7356
 X33.1933 Y73.4650
 X34.2875 Y75.1945
 X35.4142 Y76.9161
 X36.5735 Y78.6296
 X37.7649 Y80.3346
 X38.9883 Y82.0309
 X40.2433 Y83.7179
 X41.5297 Y85.3957
 X42.8472 Y87.0636
 X44.1957 Y88.7214
 X45.5749 Y90.3689
 X46.9843 Y92.0057
 X48.4239 Y93.6313
 X49.8933 Y95.2456
 X51.3925 Y96.8482
 X52.9210 Y98.4389
 X54.4785 Y100.0171
 X56.0569 Y101.5750
 X57.6476 Y103.1036
 X59.2504 Y104.6028
 X60.8649 Y106.0728
 X62.4904 Y107.5118
 X64.1272 Y108.9218
 X65.7746 Y110.3008
 X67.4324 Y111.6488
 X69.1003 Y112.9668
 X70.7779 Y114.2528
 X72.4650 Y115.5078
 X74.1611 Y116.7308
 X75.8661 Y117.9218
 X77.5796 Y119.0818
 X79.3011 Y120.2078
 X81.0307 Y121.3028
 X82.7600 Y120.2078
 X84.4817 Y119.0818
 X86.1951 Y117.9218
 X87.9001 Y116.7308
 X89.5964 Y115.5078
 X91.2835 Y114.2528
 X92.9611 Y112.9668
 X94.6290 Y111.6488
 X96.2869 Y110.3008
 X97.9343 Y108.9218
 X99.5711 Y107.5118
 X101.1967 Y106.0728
 X102.8111 Y104.6028
 X104.4136 Y103.1036
 X106.0040 Y101.5750
 X107.5820 Y100.0171
 X109.1410 Y98.4385
 X110.6700 Y96.8475
 X112.1690 Y95.2445
 X113.6390 Y93.6299
 X115.0790 Y92.0039
 X116.4880 Y90.3671
 X117.8670 Y88.7195
 X119.2150 Y87.0617
 X120.5330 Y85.3938
 X121.8190 Y83.7161
 X123.0730 Y82.0292
 X124.2960 Y80.3331
 X125.4870 Y78.6284
 X126.6450 Y76.9152
 X127.7720 Y75.1939
 X128.8650 Y73.4650
 X127.7720 Y71.7361
 X126.6450 Y70.0149
 X125.4870 Y68.3020
 X124.2960 Y66.5972
 X123.0730 Y64.9014
 X121.8190 Y63.2145
 X120.5330 Y61.5370
 X119.2150 Y59.8692
 X117.8670 Y58.2114
 X116.4880 Y56.5639
 X115.0790 Y54.9270
 X113.6390 Y53.3011
 X112.1690 Y51.6864
 X110.6700 Y50.0834
 X109.1410 Y48.4921
 X107.5820 Y46.9132
 X106.0040 Y45.3557
 X104.4136 Y43.8271
 X102.8111 Y42.3281
 X101.1967 Y40.8586
 X99.5711 Y39.4190
 X97.9343 Y38.0095
 X96.2869 Y36.6304
 X94.6290 Y35.2820
 X92.9611 Y33.9645
 X91.2835 Y32.6779
 X89.5964 Y31.4229
 X87.9001 Y30.1996
 X86.1951 Y29.0082
 X84.4817 Y27.8489
 X82.7600 Y26.7221
 X81.0307 Y25.6279
 X79.3014 Y26.7221
 X77.5800 Y27.8489
 X75.8665 Y29.0082
 X74.1617 Y30.1996
 X72.4656 Y31.4229
 X70.7785 Y32.6779
 X69.1008 Y33.9645
 X67.4329 Y35.2820
 X65.7750 Y36.6304
 X64.1275 Y38.0095
 X62.4908 Y39.4190
 X60.8650 Y40.8586
 X59.2506 Y42.3281
 X57.6478 Y43.8271
 X56.0569 Y45.3557
 X54.4785 Y46.9132
G0 Z5.0000
 X136.6260 Y17.8721
G1 Z0.0000
 X136.1970 Y17.4581
 X135.7540 Y17.0594
 X135.2970 Y16.6762
 X134.8260 Y16.3085
 X134.3410 Y15.9562
 X133.8430 Y15.6192
 X133.3320 Y15.2976
 X132.8070 Y14.9914
 X132.2700 Y14.7005
 X131.7200 Y14.4249
 X131.1570 Y14.1647
 X130.5820 Y13.9196
 X129.9940 Y13.6898
 X129.3950 Y13.4752
 X128.7840 Y13.2758
 X128.1610 Y13.0916
 X127.5260 Y12.9225
 X126.8800 Y12.7686
 X126.2230 Y12.6298
 X125.5550 Y12.5060
 X124.8760 Y12.3973
 X124.1860 Y12.3037
 X123.4860 Y12.2251
 X122.7760 Y12.1615
 X122.0550 Y12.1128
 X121.3240 Y12.0792
 X120.5840 Y12.0604
 X119.8340 Y12.0566
 X119.0750 Y12.0677
 X118.3060 Y12.0936
 X117.5280 Y12.1344
 X116.7410 Y12.1900
 X115.9460 Y12.2604
 X115.1410 Y12.3456
 X114.3290 Y12.4456
 X113.5080 Y12.5603
 X112.6790 Y12.6897
 X111.8420 Y12.8338
 X110.9980 Y12.9926
 X110.1460 Y13.1660
 X109.2870 Y13.3541
 X108.4200 Y13.5568
 X107.5460 Y13.7740
 X106.6660 Y14.0058
 X105.7790 Y14.2522
 X104.8851 Y14.5130
 X103.9851 Y14.7884
 X103.0790 Y15.0782
 X102.1669 Y15.3826
 X101.2490 Y15.7014
 X100.3256 Y16.0345
 X99.3965 Y16.3821
 X98.4622 Y16.7440
 X97.5228 Y17.1203
 X96.5786 Y17.5109
 X95.6294 Y17.9158
 X94.6758 Y18.3350
 X93.7176 Y18.7684
 X92.7554 Y19.2161
 X91.7889 Y19.6781
 X90.8188 Y20.1540
 X89.8447 Y20.6443
 X88.8671 Y21.1488
 X87.8861 Y21.6674
 X89.4911 Y22.7416
 X91.0888 Y23.8422
 X92.6789 Y24.9692
 X94.2614 Y26.1224
 X95.8358 Y27.3015
 X97.4019 Y28.5064
 X98.9599 Y29.7370
 X100.5089 Y30.9929
 X102.0492 Y32.2742
 X103.5801 Y33.5806
 X105.1020 Y34.9120
 X106.6140 Y36.2681
 X108.1160 Y37.6488
 X109.6080 Y39.0539
 X111.0890 Y40.4834
 X112.5600 Y41.9368
 X114.0140 Y43.4079
 X115.4430 Y44.8895
 X116.8480 Y46.3814
 X118.2290 Y47.8835
 X119.5850 Y49.3953
 X120.9160 Y50.9168
 X122.2220 Y52.4477
 X123.5030 Y53.9878
 X124.7590 Y55.5367
 X125.9890 Y57.0943
 X127.1940 Y58.6603
 X128.3730 Y60.2345
 X129.5250 Y61.8167
 X130.6520 Y63.4064
 X131.7520 Y65.0036
 X132.8260 Y66.6081
 X133.3440 Y65.6272
 X133.8490 Y64.6497
 X134.3390 Y63.6757
 X134.8150 Y62.7056
 X135.2770 Y61.7392
 X135.7250 Y60.7770
 X136.1590 Y59.8189
 X136.5780 Y58.8653
 X136.9830 Y57.9163
 X137.3740 Y56.9720
 X137.7500 Y56.0327
 X138.1120 Y55.0985
 X138.4600 Y54.1696
 X138.7930 Y53.2461
 X139.1120 Y52.3282
 X139.4170 Y51.4163
 X139.7070 Y50.5102
 X139.9820 Y49.6103
 X140.2430 Y48.7167
 X140.4900 Y47.8296
 X140.7220 Y46.9492
 X140.9390 Y46.0757
 X141.1420 Y45.2092
 X141.3300 Y44.3499
 X141.5030 Y43.4979
 X141.6620 Y42.6535
 X141.8070 Y41.8168
 X141.9360 Y40.9879
 X142.0510 Y40.1672
 X142.1510 Y39.3547
 X142.2360 Y38.5506
 X142.3070 Y37.7552
 X142.3620 Y36.9684
 X142.4030 Y36.1906
 X142.4290 Y35.4218
 X142.4400 Y34.6624
 X142.4370 Y33.9125
 X142.4180 Y33.1721
 X142.3840 Y32.4417
 X142.3360 Y31.7210
 X142.2720 Y31.0107
 X142.1940 Y30.3106
 X142.1000 Y29.6210
 X141.9920 Y28.9421
 X141.8680 Y28.2741
 X141.7290 Y27.6170
 X141.5750 Y26.9710
 X141.4060 Y26.3366
 X141.2220 Y25.7136
 X141.0230 Y25.1024
 X140.8080 Y24.5029
 X140.5780 Y23.9157
 X140.3330 Y23.3406
 X140.0730 Y22.7781
 X139.7970 Y22.2279
 X139.5070 Y21.6906
 X139.2000 Y21.1661
 X138.8790 Y20.6550
 X138.5420 Y20.1570
 X138.1900 Y19.6724
 X137.8220 Y19.2014
 X137.4390 Y18.7443
 X137.0400 Y18.3011
 X136.6260 Y17.8721
G0 Z5.0000
 X120.5880 Y134.8928
G1 Z0.0000
 X120.6430 Y134.2858
 X120.7270 Y133.6878
 X120.8380 Y133.0998
 X120.9770 Y132.5208
 X121.1420 Y131.9528
 X121.3330 Y131.3958
 X121.5490 Y130.8518
 X121.7890 Y130.3198
 X122.0530 Y129.8018
 X122.3400 Y129.2978
 X122.6500 Y128.8088
 X122.9810 Y128.3348
 X123.3330 Y127.8778
 X123.7050 Y127.4368
 X124.0970 Y127.0148
 X124.5080 Y126.6098
 X124.9360 Y126.2248
 X125.3830 Y125.8598
 X125.8460 Y125.5148
 X126.3240 Y125.1908
 X126.8190 Y124.8888
 X127.3280 Y124.6098
 X127.8510 Y124.3538
 X128.3870 Y124.1218
 X128.9360 Y123.9138
 X129.4960 Y123.7318
 X130.0680 Y123.5758
 X130.6500 Y123.4468
 X131.2420 Y123.3458
 X131.8430 Y123.2718
 X132.4520 Y123.2268
 X133.0690 Y123.2118
 X133.9600 Y123.2438
 X134.8340 Y123.3368
 X135.6900 Y123.4888
 X136.5240 Y123.6978
 X137.3350 Y123.9628
 X138.1210 Y124.2798
 X138.8800 Y124.6478
 X139.6090 Y125.0648
 X140.0770 Y124.1588
 X140.5040 Y123.2168
 X140.8890 Y122.2398
 X141.2320 Y121.2278
 X141.5330 Y120.1808
 X141.7920 Y119.0998
 X142.0090 Y117.9858
 X142.1840 Y116.8398
 X142.3160 Y115.6618
 X142.4060 Y114.4528
 X142.4530 Y113.2128
 X142.4570 Y111.9428
 X142.4180 Y110.6428
 X142.3370 Y109.3148
 X142.2120 Y107.9588
 X142.0430 Y106.5748
 X141.8150 Y105.0638
 X141.5380 Y103.5304
 X141.2140 Y101.9759
 X140.8420 Y100.4013
 X140.4230 Y98.8077
 X139.9570 Y97.1960
 X139.4450 Y95.5675
 X138.8870 Y93.9231
 X138.2840 Y92.2638
 X137.6360 Y90.5907
 X136.9430 Y88.9049
 X136.2060 Y87.2074
 X135.4260 Y85.4991
 X134.6020 Y83.7813
 X133.7360 Y82.0549
 X132.8270 Y80.3209
 X131.7530 Y81.9256
 X130.6530 Y83.5229
 X129.5260 Y85.1128
 X128.3730 Y86.6952
 X127.1940 Y88.2693
 X125.9900 Y89.8356
 X124.7590 Y91.3932
 X123.5040 Y92.9422
 X122.2220 Y94.4824
 X120.9160 Y96.0132
 X119.5850 Y97.5349
 X118.2290 Y99.0467
 X116.8480 Y100.5488
 X115.4430 Y102.0406
 X114.0140 Y103.5222
 X112.5600 Y104.9928
 X111.0890 Y106.4468
 X109.6080 Y107.8768
 X108.1150 Y109.2818
 X106.6130 Y110.6628
 X105.1010 Y112.0198
 X103.5790 Y113.3508
 X102.0478 Y114.6578
 X100.5072 Y115.9398
 X98.9576 Y117.1958
 X97.3996 Y118.4258
 X95.8328 Y119.6318
 X94.2579 Y120.8108
 X92.6750 Y121.9638
 X91.0844 Y123.0918
 X89.4862 Y124.1928
 X87.8810 Y125.2668
 X89.0053 Y125.8618
 X90.1256 Y126.4388
 X91.2414 Y126.9968
 X92.3525 Y127.5368
 X93.4589 Y128.0578
 X94.5600 Y128.5608
 X95.6558 Y129.0458
 X96.7460 Y129.5108
 X97.8303 Y129.9578
 X98.9085 Y130.3858
 X99.9803 Y130.7958
 X101.0456 Y131.1858
 X102.1039 Y131.5568
 X103.1551 Y131.9088
 X104.1992 Y132.2418
 X105.2360 Y132.5548
 X106.2640 Y132.8498
 X107.2850 Y133.1238
 X108.2970 Y133.3798
 X109.3000 Y133.6158
 X110.2950 Y133.8318
 X111.2810 Y134.0278
 X112.2580 Y134.2048
 X113.2250 Y134.3618
 X114.1820 Y134.4978
 X115.1290 Y134.6148
 X116.0660 Y134.7118
 X116.9930 Y134.7888
 X117.9080 Y134.8448
 X118.8130 Y134.8808
 X119.7060 Y134.8968
 X120.5880 Y134.8928
G0 Z5.0000
 X133.0690 Y141.1958
G1 Z0.0000
 X133.3500 Y141.1888
 X133.6280 Y141.1678
 X133.9010 Y141.1328
 X134.1700 Y141.0848
 X134.4350 Y141.0228
 X134.6940 Y140.9498
 X134.9490 Y140.8628
 X135.1970 Y140.7648
 X135.4390 Y140.6558
 X135.6750 Y140.5338
 X135.9040 Y140.4018
 X136.1260 Y140.2598
 X136.3410 Y140.1068
 X136.5480 Y139.9448
 X136.7460 Y139.7718
 X136.9370 Y139.5908
 X137.1180 Y139.4008
 X137.2900 Y139.2018
 X137.4530 Y138.9948
 X137.6050 Y138.7808
 X137.7480 Y138.5588
 X137.8800 Y138.3298
 X138.0010 Y138.0938
 X138.1110 Y137.8508
 X138.2090 Y137.6028
 X138.2950 Y137.3488
 X138.3690 Y137.0898
 X138.4300 Y136.8248
 X138.4780 Y136.5558
 X138.5130 Y136.2818
 X138.5340 Y136.0048
 X138.5420 Y135.7238
 X138.5340 Y135.4428
 X138.5130 Y135.1648
 X138.4780 Y134.8908
 X138.4300 Y134.6218
 X138.3690 Y134.3578
 X138.2950 Y134.0978
 X138.2090 Y133.8438
 X138.1110 Y133.5948
 X138.0010 Y133.3528
 X137.8800 Y133.1168
 X137.7480 Y132.8878
 X137.6050 Y132.6658
 X137.4530 Y132.4508
 X137.2900 Y132.2448
 X137.1180 Y132.0458
 X136.9370 Y131.8558
 X136.7460 Y131.6748
 X136.5480 Y131.5018
 X136.3410 Y131.3398
 X136.1260 Y131.1868
 X135.9040 Y131.0448
 X135.6750 Y130.9128
 X135.4390 Y130.7918
 X135.1970 Y130.6818
 X134.9490 Y130.5838
 X134.6940 Y130.4978
 X134.4350 Y130.4238
 X134.1700 Y130.3628
 X133.9010 Y130.3148
 X133.6280 Y130.2798
 X133.3500 Y130.2588
 X133.0690 Y130.2508
 X132.7880 Y130.2588
 X132.5110 Y130.2798
 X132.2370 Y130.3148
 X131.9680 Y130.3628
 X131.7030 Y130.4238
 X131.4440 Y130.4978
 X131.1900 Y130.5838
 X130.9410 Y130.6818
 X130.6990 Y130.7918
 X130.4630 Y130.9128
 X130.2340 Y131.0448
 X130.0120 Y131.1868
 X129.7970 Y131.3398
 X129.5900 Y131.5018
 X129.3920 Y131.6748
 X129.2020 Y131.8558
 X129.0200 Y132.0458
 X128.8480 Y132.2448
 X128.6860 Y132.4508
 X128.5330 Y132.6658
 X128.3910 Y132.8878
 X128.2590 Y133.1168
 X128.1380 Y133.3528
 X128.0280 Y133.5948
 X127.9300 Y133.8438
 X127.8440 Y134.0978
 X127.7700 Y134.3578
 X127.7090 Y134.6218
 X127.6600 Y134.8908
 X127.6260 Y135.1648
 X127.6040 Y135.4428
 X127.5970 Y135.7238
 X127.6040 Y136.0048
 X127.6260 Y136.2818
 X127.6600 Y136.5558
 X127.7090 Y136.8248
 X127.7700 Y137.0898
 X127.8440 Y137.3488
 X127.9300 Y137.6028
 X128.0280 Y137.8508
 X128.1380 Y138.0938
 X128.2590 Y138.3298
 X128.3910 Y138.5588
 X128.5330 Y138.7808
 X128.6860 Y138.9948
 X128.8480 Y139.2018
 X129.0200 Y139.4008
 X129.2020 Y139.5908
 X129.3920 Y139.7718
 X129.5900 Y139.9448
 X129.7970 Y140.1068
 X130.0120 Y140.2598
 X130.2340 Y140.4018
 X130.4630 Y140.5338
 X130.6990 Y140.6558
 X130.9410 Y140.7648
 X131.1900 Y140.8628
 X131.4440 Y140.9498
 X131.7030 Y141.0228
 X131.9680 Y141.0848
 X132.2370 Y141.1328
 X132.5110 Y141.1678
 X132.7880 Y141.1888
 X133.0690 Y141.1958
G0 Z5.0000
 X81.0318 Y92.0659
G1 Z0.0000
 X80.0760 Y92.0417
 X79.1326 Y91.9697
 X78.2028 Y91.8511
 X77.2876 Y91.6874
 X76.3885 Y91.4793
 X75.5064 Y91.2282
 X74.6426 Y90.9354
 X73.7983 Y90.6020
 X72.9746 Y90.2289
 X72.1728 Y89.8177
 X71.3939 Y89.3693
 X70.6390 Y88.8849
 X69.9096 Y88.3659
 X69.2067 Y87.8132
 X68.5315 Y87.2281
 X67.8851 Y86.6118
 X67.2689 Y85.9654
 X66.6838 Y85.2903
 X66.1311 Y84.5874
 X65.6121 Y83.8579
 X65.1278 Y83.1032
 X64.6793 Y82.3242
 X64.2681 Y81.5222
 X63.8951 Y80.6986
 X63.5617 Y79.8542
 X63.2688 Y78.9904
 X63.0178 Y78.1084
 X62.8097 Y77.2090
 X62.6458 Y76.2940
 X62.5274 Y75.3642
 X62.4554 Y74.4209
 X62.4311 Y73.4650
 X62.4554 Y72.5092
 X62.5274 Y71.5659
 X62.6458 Y70.6360
 X62.8097 Y69.7210
 X63.0178 Y68.8218
 X63.2688 Y67.9397
 X63.5617 Y67.0760
 X63.8951 Y66.2317
 X64.2681 Y65.4079
 X64.6793 Y64.6060
 X65.1278 Y63.8271
 X65.6121 Y63.0724
 X66.1311 Y62.3429
 X66.6838 Y61.6400
 X67.2689 Y60.9647
 X67.8851 Y60.3185
 X68.5315 Y59.7021
 X69.2067 Y59.1171
 X69.9096 Y58.5645
 X70.6390 Y58.0453
 X71.3939 Y57.5610
 X72.1728 Y57.1127
 X72.9746 Y56.7014
 X73.7983 Y56.3284
 X74.6426 Y55.9949
 X75.5064 Y55.7021
 X76.3885 Y55.4510
 X77.2876 Y55.2429
 X78.2028 Y55.0790
 X79.1326 Y54.9606
 X80.0760 Y54.8886
 X81.0318 Y54.8643
 X81.9875 Y54.8886
 X82.9310 Y54.9606
 X83.8607 Y55.0792
 X84.7758 Y55.2431
 X85.6750 Y55.4511
 X86.5571 Y55.7021
 X87.4208 Y55.9950
 X88.2653 Y56.3286
 X89.0890 Y56.7017
 X89.8908 Y57.1129
 X90.6699 Y57.5614
 X91.4246 Y58.0457
 X92.1540 Y58.5649
 X92.8569 Y59.1175
 X93.5322 Y59.7027
 X94.1786 Y60.3189
 X94.7949 Y60.9653
 X95.3800 Y61.6406
 X95.9325 Y62.3435
 X96.4517 Y63.0729
 X96.9360 Y63.8277
 X97.3844 Y64.6067
 X97.7957 Y65.4085
 X98.1686 Y66.2322
 X98.5021 Y67.0765
 X98.7950 Y67.9403
 X99.0460 Y68.8222
 X99.2540 Y69.7214
 X99.4179 Y70.6364
 X99.5364 Y71.5661
 X99.6085 Y72.5093
 X99.6326 Y73.4650
 X99.6085 Y74.4209
 X99.5364 Y75.3642
 X99.4179 Y76.2940
 X99.2540 Y77.2090
 X99.0460 Y78.1084
 X98.7950 Y78.9904
 X98.5021 Y79.8542
 X98.1686 Y80.6986
 X97.7957 Y81.5222
 X97.3844 Y82.3242
 X96.9360 Y83.1032
 X96.4517 Y83.8579
 X95.9325 Y84.5874
 X95.3800 Y85.2903
 X94.7949 Y85.9654
 X94.1786 Y86.6118
 X93.5322 Y87.2281
 X92.8569 Y87.8132
 X92.1540 Y88.3659
 X91.4246 Y88.8849
 X90.6699 Y89.3693
 X89.8908 Y89.8177
 X89.0890 Y90.2289
 X88.2653 Y90.6020
 X87.4208 Y90.9354
 X86.5571 Y91.2282
 X85.6750 Y91.4793
 X84.7758 Y91.6874
 X83.8607 Y91.8511
 X82.9310 Y91.9697
 X81.9875 Y92.0417
 X81.0318 Y92.0659
G0 Z5.0000
 X149.0170 Y105.6258
G1 Z0.0000
 X149.1380 Y106.5648
 X149.2400 Y107.4958
 X149.3250 Y108.4168
 X149.3930 Y109.3288
 X149.4440 Y110.2318
 X149.4790 Y111.1248
 X149.4960 Y112.0088
 Y112.8828
 X149.4790 Y113.7458
 X149.4440 Y114.6008
 X149.3940 Y115.4438
 X149.3260 Y116.2778
 X149.2420 Y117.1008
 X149.1400 Y117.9138
 X149.0220 Y118.7148
 X148.8860 Y119.5058
 X148.7350 Y120.2868
 X148.5670 Y121.0558
 X148.3810 Y121.8128
 X148.1790 Y122.5598
 X147.9610 Y123.2948
 X147.7250 Y124.0178
 X147.4740 Y124.7288
 X147.2060 Y125.4288
 X146.9210 Y126.1158
 X146.6190 Y126.7918
 X146.3010 Y127.4548
 X145.9680 Y128.1048
 X145.6180 Y128.7438
 X145.2510 Y129.3688
 X144.8680 Y129.9808
 X144.4680 Y130.5808
 X144.7210 Y131.1768
 X144.9430 Y131.7888
 X145.1330 Y132.4148
 X145.2900 Y133.0538
 X145.4150 Y133.7048
 X145.5060 Y134.3678
 X145.5610 Y135.0408
 X145.5790 Y135.7238
 X145.5630 Y136.3668
 X145.5140 Y137.0008
 X145.4350 Y137.6258
 X145.3250 Y138.2418
 X145.1850 Y138.8468
 X145.0150 Y139.4398
 X144.8190 Y140.0208
 X144.5940 Y140.5888
 X144.3430 Y141.1428
 X144.0670 Y141.6818
 X143.7660 Y142.2058
 X143.4400 Y142.7138
 X143.0910 Y143.2038
 X142.7190 Y143.6758
 X142.3260 Y144.1308
 X141.9110 Y144.5648
 X141.4760 Y144.9798
 X141.0220 Y145.3738
 X140.5500 Y145.7458
 X140.0590 Y146.0938
 X139.5510 Y146.4208
 X139.0280 Y146.7218
 X138.4880 Y146.9988
 X137.9340 Y147.2488
 X137.3660 Y147.4738
 X136.7850 Y147.6708
 X136.1920 Y147.8388
 X135.5870 Y147.9788
 X134.9720 Y148.0888
 X134.3470 Y148.1688
 X133.7120 Y148.2178
 X133.0690 Y148.2328
 X132.2020 Y148.2038
 X131.3510 Y148.1168
 X130.5180 Y147.9718
 X129.7040 Y147.7738
 X128.9120 Y147.5238
 X128.1440 Y147.2218
 X127.4010 Y146.8738
 X126.6850 Y146.4778
 X125.9990 Y146.0368
 X125.3440 Y145.5558
 X124.7220 Y145.0318
 X124.1360 Y144.4708
 X123.5870 Y143.8718
 X123.0770 Y143.2398
 X122.6090 Y142.5738
 X122.1830 Y141.8778
 X121.0700 Y141.9188
 X119.9430 Y141.9308
 X118.8000 Y141.9148
 X117.6440 Y141.8698
 X116.4730 Y141.7958
 X115.2890 Y141.6948
 X114.0920 Y141.5648
 X112.8820 Y141.4068
 X111.6590 Y141.2218
 X110.4250 Y141.0078
 X109.1790 Y140.7668
 X107.9210 Y140.4978
 X106.6530 Y140.2018
 X105.3750 Y139.8788
 X104.0865 Y139.5278
 X102.7885 Y139.1498
 X101.4812 Y138.7448
 X100.1651 Y138.3128
 X98.8406 Y137.8548
 X97.5079 Y137.3688
 X96.1676 Y136.8568
 X94.8200 Y136.3188
 X93.4656 Y135.7548
 X92.1047 Y135.1638
 X90.7376 Y134.5468
 X89.3649 Y133.9038
 X87.9868 Y133.2348
 X86.6039 Y132.5408
 X85.2164 Y131.8208
 X83.8247 Y131.0748
 X82.4293 Y130.3038
 X81.0307 Y129.5068
 X79.8371 Y130.1888
 X78.6471 Y130.8508
 X77.4611 Y131.4938
 X76.2793 Y132.1188
 X75.1019 Y132.7238
 X73.9289 Y133.3098
 X72.7607 Y133.8768
 X71.5974 Y134.4248
 X70.4393 Y134.9538
 X69.2864 Y135.4628
 X68.1390 Y135.9538
 X66.9975 Y136.4248
 X65.8618 Y136.8768
 X64.7322 Y137.3098
 X63.6090 Y137.7228
 X62.4924 Y138.1168
 X61.3824 Y138.4918
 X60.2793 Y138.8478
 X59.1833 Y139.1838
 X58.0947 Y139.5008
 X57.0136 Y139.7988
 X55.9403 Y140.0768
 X54.8747 Y140.3358
 X53.8174 Y140.5758
 X52.7683 Y140.7958
 X51.7278 Y140.9958
 X50.6960 Y141.1778
 X49.6731 Y141.3388
 X48.6592 Y141.4818
 X47.6547 Y141.6038
 X46.6597 Y141.7068
 X45.6744 Y141.7908
 X44.6990 Y141.8548
 X43.7338 Y141.8988
 X42.7788 Y141.9238
 X41.8343 Y141.9288
 X40.9006 Y141.9148
 X39.9776 Y141.8808
 X39.0660 Y141.8268
 X38.1654 Y141.7538
 X37.2765 Y141.6598
 X36.3992 Y141.5468
 X35.5337 Y141.4148
 X34.6806 Y141.2618
 X33.8396 Y141.0898
 X33.0111 Y140.8978
 X32.1953 Y140.6858
 X31.3924 Y140.4548
 X30.6025 Y140.2028
 X29.8260 Y139.9308
 X29.0629 Y139.6398
 X28.3136 Y139.3288
 X27.5782 Y138.9978
 X26.8568 Y138.6468
 X26.1497 Y138.2748
 X25.4571 Y137.8838
 X24.7792 Y137.4728
 X24.1161 Y137.0418
 X23.4681 Y136.5908
 X22.8354 Y136.1198
 X22.2182 Y135.6288
 X21.6167 Y135.1168
 X21.0311 Y134.5858
 X20.4615 Y134.0338
 X19.9808 Y133.5398
 X19.5149 Y133.0318
 X19.0636 Y132.5118
 X18.6272 Y131.9788
 X18.2057 Y131.4328
 X17.7991 Y130.8748
 X17.4074 Y130.3038
 X17.0307 Y129.7208
 X16.6689 Y129.1258
 X16.3223 Y128.5188
 X15.9907 Y127.8998
 X15.6742 Y127.2688
 X15.3728 Y126.6268
 X15.0866 Y125.9728
 X14.8156 Y125.3078
 X14.5599 Y124.6308
 X14.3195 Y123.9438
 X14.0944 Y123.2448
 X13.8847 Y122.5348
 X13.6903 Y121.8148
 X13.5114 Y121.0848
 X13.3480 Y120.3428
 X13.2001 Y119.5918
 X13.0677 Y118.8298
 X12.9508 Y118.0578
 X12.8497 Y117.2758
 X12.7641 Y116.4848
 X12.6942 Y115.6828
 X12.6401 Y114.8718
 X12.6017 Y114.0508
 X12.5791 Y113.2218
 X12.5724 Y112.3828
 X12.1591 Y112.1948
 X11.7540 Y111.9938
 X11.3574 Y111.7778
 X10.9695 Y111.5488
 X10.5906 Y111.3058
 X10.2213 Y111.0498
 X9.8615 Y110.7808
 X9.5120 Y110.5008
 X9.1728 Y110.2068
 X8.8444 Y109.9028
 X8.5270 Y109.5858
 X8.2210 Y109.2588
 X7.9268 Y108.9208
 X7.6445 Y108.5728
 X7.3747 Y108.2138
 X7.1176 Y107.8458
 X6.8735 Y107.4678
 X6.6427 Y107.0808
 X6.4257 Y106.6848
 X6.2227 Y106.2808
 X6.0340 Y105.8688
 X5.8600 Y105.4488
 X5.7011 Y105.0208
 X5.5575 Y104.5858
 X5.4295 Y104.1446
 X5.3175 Y103.6964
 X5.2218 Y103.2421
 X5.1429 Y102.7820
 X5.0808 Y102.3164
 X5.0361 Y101.8456
 X5.0091 Y101.3699
 X5.0000 Y100.8896
 X5.0163 Y100.2468
 X5.0647 Y99.6122
 X5.1444 Y98.9868
 X5.2546 Y98.3713
 X5.3945 Y97.7666
 X5.5634 Y97.1734
 X5.7604 Y96.5922
 X5.9848 Y96.0243
 X6.2356 Y95.4703
 X6.5123 Y94.9310
 X6.8139 Y94.4070
 X7.1396 Y93.8993
 X7.4888 Y93.4088
 X7.8606 Y92.9359
 X8.2541 Y92.4817
 X8.6686 Y92.0470
 X9.1034 Y91.6324
 X9.5576 Y91.2389
 X10.0304 Y90.8671
 X10.5210 Y90.5179
 X11.0286 Y90.1922
 X11.5526 Y89.8906
 X12.0920 Y89.6139
 X12.6460 Y89.3631
 X13.2139 Y89.1388
 X13.7949 Y88.9417
 X14.3882 Y88.7728
 X14.9930 Y88.6329
 X15.6085 Y88.5228
 X16.2339 Y88.4429
 X16.8684 Y88.3946
 X17.5113 Y88.3782
 X17.7261 Y88.3836
 X18.4718 Y86.5438
 X19.2647 Y84.6949
 X20.1044 Y82.8379
 X20.9904 Y80.9739
 X21.9222 Y79.1036
 X22.8994 Y77.2281
 X23.9217 Y75.3482
 X24.9883 Y73.4650
 X24.3071 Y72.2714
 X23.6447 Y71.0816
 X23.0014 Y69.8956
 X22.3771 Y68.7138
 X21.7719 Y67.5363
 X21.1858 Y66.3634
 X20.6189 Y65.1952
 X20.0710 Y64.0318
 X19.5422 Y62.8738
 X19.0326 Y61.7209
 X18.5423 Y60.5736
 X18.0710 Y59.4320
 X17.6190 Y58.2963
 X17.1862 Y57.1668
 X16.7727 Y56.0436
 X16.3785 Y54.9268
 X16.0035 Y53.8170
 X15.6478 Y52.7138
 X15.3114 Y51.6179
 X14.9944 Y50.5293
 X14.6967 Y49.4482
 X14.4185 Y48.3747
 X14.1595 Y47.3093
 X13.9200 Y46.2520
 X13.7000 Y45.2029
 X13.4993 Y44.1624
 X13.3181 Y43.1306
 X13.1565 Y42.1077
 X13.0143 Y41.0938
 X12.8916 Y40.0893
 X12.7885 Y39.0943
 X12.7049 Y38.1091
 X12.6409 Y37.1336
 X12.5965 Y36.1684
 X12.5716 Y35.2135
 X12.5665 Y34.2690
 X12.5809 Y33.3352
 X12.6150 Y32.4124
 X12.6688 Y31.5006
 X12.7422 Y30.6002
 X12.8354 Y29.7111
 X12.9484 Y28.8339
 X13.0811 Y27.9685
 X13.2335 Y27.1153
 X13.4058 Y26.2743
 X13.5978 Y25.4457
 X13.8096 Y24.6300
 X14.0413 Y23.8271
 X14.2929 Y23.0372
 X14.5643 Y22.2607
 X14.8557 Y21.4977
 X15.1669 Y20.7484
 X15.4981 Y20.0129
 X15.8492 Y19.2914
 X16.2203 Y18.5843
 X16.6114 Y17.8918
 X17.0224 Y17.2139
 X17.4535 Y16.5508
 X17.9047 Y15.9028
 X18.3758 Y15.2702
 X18.8671 Y14.6530
 X19.3785 Y14.0515
 X19.9100 Y13.4659
 X20.4615 Y12.8963
 X20.9633 Y12.4086
 X21.4776 Y11.9365
 X22.0043 Y11.4801
 X22.5432 Y11.0393
 X23.0943 Y10.6142
 X23.6574 Y10.2047
 X24.2324 Y9.8108
 X24.8189 Y9.4324
 X25.4172 Y9.0697
 X26.0268 Y8.7225
 X26.6478 Y8.3909
 X27.2799 Y8.0749
 X27.9231 Y7.7744
 X28.5771 Y7.4894
 X29.2419 Y7.2199
 X29.9174 Y6.9659
 X30.6033 Y6.7274
 X31.2996 Y6.5043
 X32.0061 Y6.2968
 X32.7226 Y6.1047
 X33.4492 Y5.9280
 X34.1856 Y5.7668
 X34.9315 Y5.6209
 X35.6871 Y5.4904
 X36.4519 Y5.3754
 X37.2263 Y5.2758
 X38.0094 Y5.1915
 X38.8018 Y5.1225
 X39.6029 Y5.0689
 X40.4129 Y5.0307
 X41.2314 Y5.0076
 X42.0583 Y5.0000
 X43.1172 Y5.0123
 X44.1893 Y5.0491
 X45.2740 Y5.1104
 X46.3713 Y5.1961
 X47.4808 Y5.3063
 X48.6022 Y5.4409
 X49.7351 Y5.5999
 X50.8796 Y5.7833
 X52.0351 Y5.9909
 X53.2014 Y6.2229
 X54.3782 Y6.4792
 X55.5653 Y6.7597
 X56.7624 Y7.0645
 X57.9690 Y7.3934
 X59.1853 Y7.7466
 X60.4106 Y8.1239
 X61.6447 Y8.5253
 X62.8875 Y8.9508
 X64.1385 Y9.4003
 X65.3976 Y9.8740
 X66.6643 Y10.3716
 X67.9386 Y10.8932
 X69.2201 Y11.4388
 X70.5085 Y12.0083
 X71.8035 Y12.6018
 X73.1049 Y13.2191
 X74.4122 Y13.8603
 X75.7254 Y14.5252
 X77.0442 Y15.2140
 X78.3681 Y15.9267
 X79.6971 Y16.6630
 X81.0307 Y17.4230
 X82.3643 Y16.6629
 X83.6933 Y15.9264
 X85.0174 Y15.2137
 X86.3361 Y14.5249
 X87.6493 Y13.8598
 X88.9568 Y13.2186
 X90.2582 Y12.6012
 X91.5532 Y12.0078
 X92.8415 Y11.4382
 X94.1231 Y10.8926
 X95.3974 Y10.3710
 X96.6640 Y9.8734
 X97.9232 Y9.3997
 X99.1740 Y8.9502
 X100.4168 Y8.5247
 X101.6510 Y8.1233
 X102.8762 Y7.7461
 X104.0924 Y7.3930
 X105.2990 Y7.0641
 X106.4960 Y6.7594
 X107.6830 Y6.4789
 X108.8600 Y6.2227
 X110.0260 Y5.9907
 X111.1820 Y5.7830
 X112.3260 Y5.5997
 X113.4590 Y5.4408
 X114.5800 Y5.3062
 X115.6900 Y5.1961
 X116.7870 Y5.1104
 X117.8720 Y5.0490
 X118.9440 Y5.0123
 X120.0030 Y5.0000
 X120.8300 Y5.0076
 X121.6480 Y5.0307
 X122.4580 Y5.0689
 X123.2590 Y5.1225
 X124.0520 Y5.1915
 X124.8350 Y5.2758
 X125.6090 Y5.3754
 X126.3740 Y5.4904
 X127.1300 Y5.6209
 X127.8760 Y5.7668
 X128.6130 Y5.9280
 X129.3390 Y6.1047
 X130.0560 Y6.2968
 X130.7630 Y6.5043
 X131.4590 Y6.7274
 X132.1450 Y6.9659
 X132.8210 Y7.2199
 X133.4860 Y7.4894
 X134.1400 Y7.7744
 X134.7830 Y8.0749
 X135.4160 Y8.3909
 X136.0370 Y8.7225
 X136.6470 Y9.0697
 X137.2450 Y9.4324
 X137.8320 Y9.8108
 X138.4070 Y10.2047
 X138.9700 Y10.6142
 X139.5210 Y11.0393
 X140.0600 Y11.4801
 X140.5870 Y11.9365
 X141.1020 Y12.4086
 X141.6040 Y12.8963
 X142.1550 Y13.4660
 X142.6870 Y14.0518
 X143.1980 Y14.6534
 X143.6890 Y15.2707
 X144.1600 Y15.9035
 X144.6110 Y16.5516
 X145.0420 Y17.2147
 X145.4530 Y17.8928
 X145.8440 Y18.5856
 X146.2150 Y19.2927
 X146.5650 Y20.0142
 X146.8970 Y20.7497
 X147.2080 Y21.4992
 X147.4990 Y22.2624
 X147.7710 Y23.0389
 X148.0220 Y23.8289
 X148.2540 Y24.6320
 X148.4650 Y25.4478
 X148.6570 Y26.2764
 X148.8290 Y27.1174
 X148.9820 Y27.9709
 X149.1140 Y28.8363
 X149.2260 Y29.7136
 X149.3190 Y30.6027
 X149.3930 Y31.5032
 X149.4470 Y32.4150
 X149.4810 Y33.3379
 X149.4960 Y34.2718
 X149.4900 Y35.2163
 X149.4650 Y36.1714
 X149.4210 Y37.1367
 X149.3570 Y38.1121
 X149.2720 Y39.0974
 X149.1690 Y40.0925
 X149.0470 Y41.0970
 X148.9040 Y42.1109
 X148.7430 Y43.1338
 X148.5610 Y44.1657
 X148.3610 Y45.2061
 X148.1400 Y46.2553
 X147.9010 Y47.3127
 X147.6420 Y48.3782
 X147.3640 Y49.4516
 X147.0650 Y50.5327
 X146.7490 Y51.6213
 X146.4130 Y52.7172
 X146.0560 Y53.8203
 X145.6810 Y54.9303
 X145.2860 Y56.0470
 X144.8720 Y57.1702
 X144.4400 Y58.2996
 X143.9870 Y59.4353
 X143.5160 Y60.5768
 X143.0260 Y61.7242
 X142.5160 Y62.8770
 X141.9870 Y64.0350
 X141.4390 Y65.1984
 X140.8720 Y66.3666
 X140.2860 Y67.5395
 X139.6800 Y68.7168
 X139.0560 Y69.8985
 X138.4120 Y71.0845
 X137.7500 Y72.2743
 X137.0680 Y73.4678
 X138.2560 Y75.5704
 X139.3880 Y77.6682
 X140.4640 Y79.7593
 X141.4820 Y81.8424
 X142.4430 Y83.9157
 X143.3450 Y85.9778
 X144.1880 Y88.0270
 X144.9710 Y90.0616
 X145.6940 Y92.0802
 X146.3570 Y94.0810
 X146.9580 Y96.0627
 X147.4960 Y98.0234
 X147.9720 Y99.9616
 X148.3850 Y101.8759
 X148.7330 Y103.7643
 X149.0170 Y105.6258
G0 Z5.0000
G0 Z5.0000
M2 (end program)
