;PYCAM-META-DATA: Filename: /media/martoio/MARTOIO/ME43/std_lib/svg/023-avatar.svg
;PYCAM-META-DATA: Timestamp: 2017-12-06 02:08:14.766187
;PYCAM-META-DATA: Version: 0.5.1
;Estimated machine time: 13 minutes
G40 (disable tool radius compensation)
G49 (disable tool length compensation)
G80 (cancel modal motion)
G54 (select coordinate system 1)
G90 (disable incremental moves)
G21 (metric)
G61 (exact path mode)
F400.00000
S1.00000
;PYCAM_TOOLPATH_SETTINGS: START
;[Bounds]
;maxz = 0.0
;maxx = 148.546067
;maxy = 151.091175826
;minx = -7.595097
;miny = -7.8264705296
;minz = 0.0
;
;[Tool]
;torus_radius = 0.25
;speed = 1.0
;shape = CylindricalCutter
;tool_radius = 0.5
;feedrate = 400.0
;
;[Process]
;engrave_offset = 0.0
;step_down = 1.0
;generator = EngraveCutter
;postprocessor = SimpleCutter
;overlap_percent = 0
;milling_style = conventional
;material_allowance = 0.0
;pocketing_type = none
;path_direction = x
;
;PYCAM_TOOLPATH_SETTINGS: END
T1 M6
G0 Z5.0000
 X65.9604 Y133.7487
G1 Z0.0000
 X66.8091 Y133.7417
 X67.6609 Y133.7217
 X68.5157 Y133.6887
 X69.3726 Y133.6417
 X70.2319 Y133.5817
 X71.0929 Y133.5077
 X71.9555 Y133.4207
 X72.8193 Y133.3197
 X73.6840 Y133.2057
 X74.5493 Y133.0777
 X75.4148 Y132.9367
 X76.2804 Y132.7817
 X77.1455 Y132.6127
 X78.0101 Y132.4307
 X78.8737 Y132.2337
 X79.7361 Y132.0237
 X80.5968 Y131.8007
 X81.4557 Y131.5627
 X82.3123 Y131.3117
 X83.1665 Y131.0457
 X84.0179 Y130.7667
 X84.8661 Y130.4737
 X85.7108 Y130.1667
 X86.5518 Y129.8457
 X87.3887 Y129.5097
 X88.2214 Y129.1607
 X89.0493 Y128.7977
 X89.8722 Y128.4197
 X90.6897 Y128.0287
 X91.5018 Y127.6227
 X92.3078 Y127.2027
 X93.1076 Y126.7677
 X93.9009 Y126.3197
 X94.6873 Y125.8567
 X95.4666 Y125.3797
 X96.2383 Y124.8877
 X97.0023 Y124.3817
 X97.7583 Y123.8617
 X98.5058 Y123.3267
 X99.2446 Y122.7767
 X99.9743 Y122.2127
 X100.6947 Y121.6347
 X101.4054 Y121.0417
 X102.1062 Y120.4337
 X102.7968 Y119.8117
 X103.4766 Y119.1747
 X104.1460 Y118.5237
 X104.8040 Y117.8567
 X105.4500 Y117.1757
 X106.0840 Y116.4797
 X106.7070 Y115.7687
 X107.3170 Y115.0437
 X107.9140 Y114.3027
 X108.4980 Y113.5477
 X109.0690 Y112.7777
 X109.6260 Y111.9917
 X110.1690 Y111.1917
 X110.6980 Y110.3767
 X111.2120 Y109.5457
 X111.7110 Y108.7007
 X112.1950 Y107.8397
 X112.6630 Y106.9637
 X113.1160 Y106.0737
 X113.5520 Y105.1667
 X112.7370 Y104.7542
 X111.9500 Y104.2960
 X111.0500 Y105.0167
 X110.1160 Y105.7097
 X109.1480 Y106.3757
 X108.1480 Y107.0147
 X107.1160 Y107.6277
 X106.0550 Y108.2137
 X104.9640 Y108.7757
 X103.8450 Y109.3117
 X102.6987 Y109.8227
 X101.5268 Y110.3107
 X100.3300 Y110.7737
 X99.1094 Y111.2137
 X97.8661 Y111.6307
 X96.6011 Y112.0247
 X95.3155 Y112.3977
 X94.0104 Y112.7477
 X92.6871 Y113.0767
 X91.3462 Y113.3857
 X89.9891 Y113.6727
 X88.6169 Y113.9407
 X87.2305 Y114.1887
 X85.8312 Y114.4177
 X84.4198 Y114.6277
 X82.9976 Y114.8197
 X81.5657 Y114.9927
 X80.1248 Y115.1487
 X78.6765 Y115.2877
 X77.2215 Y115.4097
 X75.7611 Y115.5157
 X74.2961 Y115.6057
 X72.8279 Y115.6797
 X71.3575 Y115.7397
 X69.8858 Y115.7837
 X68.4140 Y115.8147
 X66.9432 Y115.8317
 X65.4743 Y115.8347
 X64.0086 Y115.8247
 X62.5471 Y115.8027
 X61.0908 Y115.7687
 X59.6409 Y115.7227
 X58.1984 Y115.6647
 X56.7644 Y115.5967
 X55.3401 Y115.5177
 X53.9264 Y115.4287
 X52.5243 Y115.3307
 X51.1350 Y115.2227
 X49.7597 Y115.1067
 X48.3993 Y114.9817
 X47.0548 Y114.8487
 X45.7276 Y114.7087
 X44.4184 Y114.5607
 X43.1287 Y114.4067
 X41.8591 Y114.2467
 X40.6111 Y114.0797
 X39.3854 Y113.9077
 X38.1834 Y113.7317
 X37.0059 Y113.5497
 X35.8543 Y113.3637
 X34.7294 Y113.1747
 X33.6325 Y112.9817
 X32.5643 Y112.7857
 X31.5264 Y112.5877
 X30.5194 Y112.3877
 X29.5446 Y112.1847
 X30.3400 Y113.6397
 X31.1796 Y115.0347
 X32.0612 Y116.3737
 X32.9823 Y117.6547
 X33.9412 Y118.8807
 X34.9353 Y120.0517
 X35.9625 Y121.1677
 X37.0205 Y122.2307
 X38.1073 Y123.2407
 X39.2208 Y124.1987
 X40.3584 Y125.1057
 X41.5182 Y125.9617
 X42.6976 Y126.7687
 X43.8950 Y127.5277
 X45.1079 Y128.2377
 X46.3339 Y128.9007
 X47.5711 Y129.5177
 X48.8171 Y130.0887
 X50.0698 Y130.6157
 X51.3271 Y131.0987
 X52.5865 Y131.5377
 X53.8459 Y131.9347
 X55.1034 Y132.2897
 X56.3565 Y132.6047
 X57.6030 Y132.8797
 X58.8408 Y133.1147
 X60.0676 Y133.3117
 X61.2812 Y133.4717
 X62.4796 Y133.5937
 X63.6604 Y133.6807
 X64.8214 Y133.7317
 X65.9604 Y133.7487
G0 Z5.0000
 X18.5478 Y102.9551
G1 Z0.0000
 X18.5548 Y103.1400
 X18.5761 Y103.3211
 X18.6108 Y103.4979
 X18.6584 Y103.6696
 X18.7189 Y103.8356
 X18.7914 Y103.9953
 X18.8755 Y104.1479
 X18.9709 Y104.2931
 X19.0771 Y104.4297
 X19.1934 Y104.5576
 X19.3197 Y104.6758
 X19.4551 Y104.7839
 X19.5996 Y104.8811
 X19.7523 Y104.9667
 X19.9130 Y105.0397
 X20.0814 Y105.1007
 X21.1326 Y105.4217
 X22.2209 Y105.7377
 X23.3450 Y106.0487
 X24.5033 Y106.3537
 X25.6947 Y106.6537
 X26.9182 Y106.9467
 X28.1719 Y107.2337
 X29.4551 Y107.5137
 X30.7662 Y107.7857
 X32.1040 Y108.0517
 X33.4672 Y108.3087
 X34.8546 Y108.5577
 X36.2648 Y108.7977
 X37.6965 Y109.0287
 X39.1486 Y109.2507
 X40.6197 Y109.4627
 X42.1084 Y109.6657
 X43.6137 Y109.8567
 X45.1341 Y110.0377
 X46.6683 Y110.2077
 X48.2151 Y110.3667
 X49.7733 Y110.5127
 X51.3415 Y110.6477
 X52.9184 Y110.7697
 X54.5027 Y110.8787
 X56.0933 Y110.9747
 X57.6887 Y111.0577
 X59.2879 Y111.1257
 X60.8893 Y111.1807
 X62.4916 Y111.2197
 X64.0939 Y111.2447
 X65.6946 Y111.2537
 X67.2925 Y111.2477
 X68.8862 Y111.2257
 X70.4747 Y111.1867
 X72.0565 Y111.1317
 X73.6304 Y111.0587
 X75.1950 Y110.9687
 X76.7491 Y110.8617
 X78.2915 Y110.7357
 X79.8208 Y110.5917
 X81.3358 Y110.4287
 X82.8351 Y110.2467
 X84.3175 Y110.0447
 X85.7818 Y109.8227
 X87.2265 Y109.5807
 X88.6505 Y109.3187
 X90.0525 Y109.0357
 X91.4311 Y108.7307
 X92.7851 Y108.4047
 X94.1133 Y108.0567
 X95.4141 Y107.6857
 X96.6868 Y107.2927
 X97.9296 Y106.8767
 X99.1414 Y106.4367
 X100.3208 Y105.9727
 X101.4666 Y105.4857
 X102.5776 Y104.9736
 X103.6525 Y104.4370
 X104.6900 Y103.8750
 X105.6890 Y103.2876
 X106.6470 Y102.6744
 X107.5650 Y102.0350
 X108.4400 Y101.3690
 X107.9790 Y100.8338
 X107.5410 Y100.2790
 X107.1260 Y99.7056
 X106.7370 Y99.1138
 X106.3730 Y98.5047
 X106.0370 Y97.8789
 X105.7270 Y97.2369
 X105.4470 Y96.5797
 X105.1960 Y95.9079
 X104.9750 Y95.2220
 X104.7860 Y94.5228
 X104.6290 Y93.8111
 X104.5050 Y93.0875
 X104.4160 Y92.3526
 X104.3610 Y91.6072
 X104.3430 Y90.8520
 X104.3730 Y89.9097
 X104.4620 Y88.9843
 X104.6060 Y88.0765
 X104.8040 Y87.1872
 X105.0510 Y86.3170
 X105.3450 Y85.4667
 X105.6830 Y84.6372
 X106.0630 Y83.8293
 X105.1240 Y84.0524
 X104.1620 Y84.2750
 X103.1775 Y84.4967
 X102.1701 Y84.7172
 X101.1404 Y84.9360
 X100.0886 Y85.1526
 X99.0150 Y85.3667
 X97.9200 Y85.5776
 X96.8039 Y85.7851
 X95.6668 Y85.9888
 X94.5091 Y86.1879
 X93.3312 Y86.3824
 X92.1332 Y86.5717
 X90.9155 Y86.7553
 X89.6786 Y86.9328
 X88.4223 Y87.1036
 X87.1473 Y87.2676
 X85.8537 Y87.4242
 X84.5419 Y87.5729
 X83.2122 Y87.7133
 X81.8647 Y87.8450
 X80.4998 Y87.9676
 X79.1180 Y88.0806
 X77.7193 Y88.1835
 X76.3041 Y88.2760
 X74.8727 Y88.3575
 X73.4254 Y88.4276
 X71.9625 Y88.4861
 X70.4843 Y88.5322
 X68.9909 Y88.5658
 X67.4829 Y88.5863
 X65.9604 Y88.5932
 X64.0284 Y88.5846
 X62.1312 Y88.5592
 X60.2684 Y88.5176
 X58.4404 Y88.4606
 X56.6471 Y88.3886
 X54.8884 Y88.3022
 X53.1646 Y88.2024
 X51.4755 Y88.0896
 X49.8212 Y87.9643
 X48.2018 Y87.8274
 X46.6172 Y87.6793
 X45.0676 Y87.5207
 X43.5529 Y87.3524
 X42.0730 Y87.1747
 X40.6282 Y86.9886
 X39.2184 Y86.7943
 X37.8437 Y86.5929
 X36.5041 Y86.3849
 X35.1996 Y86.1707
 X33.9301 Y85.9511
 X32.6958 Y85.7267
 X31.4968 Y85.4982
 X30.3329 Y85.2663
 X29.2044 Y85.0313
 X28.1111 Y84.7942
 X27.0530 Y84.5553
 X26.0304 Y84.3154
 X25.0432 Y84.0753
 X24.0912 Y83.8354
 X23.1748 Y83.5964
 X22.2939 Y83.3590
 X21.4483 Y83.1238
 X21.1687 Y83.0628
 X20.8932 Y83.0357
 X20.6239 Y83.0410
 X20.3626 Y83.0768
 X20.1112 Y83.1415
 X19.8716 Y83.2336
 X19.6459 Y83.3513
 X19.4358 Y83.4928
 X19.2433 Y83.6567
 X19.0703 Y83.8410
 X18.9184 Y84.0443
 X18.7901 Y84.2649
 X18.6869 Y84.5010
 X18.6108 Y84.7510
 X18.5639 Y85.0131
 X18.5478 Y85.2858
 Y102.9551
G0 Z5.0000
 X56.9290 Y68.2742
G1 Z0.0000
 Y67.3700
 X56.9207 Y67.0453
 X56.8962 Y66.7247
 X56.8559 Y66.4089
 X56.8003 Y66.0979
 X56.7296 Y65.7924
 X56.6443 Y65.4926
 X56.5447 Y65.1990
 X56.4314 Y64.9122
 X56.3046 Y64.6322
 X56.1648 Y64.3597
 X56.0125 Y64.0950
 X55.8478 Y63.8385
 X55.6714 Y63.5907
 X55.4836 Y63.3518
 X55.2847 Y63.1222
 X55.0752 Y62.9026
 X54.8557 Y62.6932
 X54.6262 Y62.4943
 X54.3873 Y62.3065
 X54.1394 Y62.1301
 X53.8829 Y61.9656
 X53.6182 Y61.8132
 X53.3458 Y61.6733
 X53.0658 Y61.5465
 X52.7789 Y61.4332
 X52.4854 Y61.3338
 X52.1857 Y61.2483
 X51.8801 Y61.1776
 X51.5691 Y61.1220
 X51.2532 Y61.0817
 X50.9326 Y61.0572
 X50.6079 Y61.0490
 X45.1893
 X44.8643 Y61.0572
 X44.5437 Y61.0817
 X44.2276 Y61.1220
 X43.9165 Y61.1776
 X43.6108 Y61.2483
 X43.3111 Y61.3338
 X43.0175 Y61.4332
 X42.7304 Y61.5465
 X42.4504 Y61.6733
 X42.1779 Y61.8132
 X41.9132 Y61.9656
 X41.6565 Y62.1301
 X41.4086 Y62.3065
 X41.1697 Y62.4943
 X40.9402 Y62.6932
 X40.7205 Y62.9026
 X40.5111 Y63.1222
 X40.3122 Y63.3518
 X40.1243 Y63.5907
 X39.9479 Y63.8385
 X39.7833 Y64.0950
 X39.6309 Y64.3597
 X39.4911 Y64.6322
 X39.3643 Y64.9122
 X39.2509 Y65.1990
 X39.1514 Y65.4926
 X39.0661 Y65.7924
 X38.9954 Y66.0979
 X38.9397 Y66.4089
 X38.8994 Y66.7247
 X38.8750 Y67.0453
 X38.8668 Y67.3700
 Y68.2742
 X56.9290
G0 Z5.0000
 X61.4444 Y59.2424
G1 Z0.0000
 X61.4678 Y59.7033
 X61.5364 Y60.1510
 X61.6478 Y60.5833
 X61.7997 Y60.9979
 X61.9901 Y61.3926
 X62.2165 Y61.7650
 X62.4766 Y62.1128
 X62.7682 Y62.4338
 X63.0890 Y62.7254
 X63.4368 Y62.9857
 X63.8090 Y63.2122
 X64.2037 Y63.4028
 X64.6186 Y63.5549
 X65.0511 Y63.6664
 X65.4991 Y63.7350
 X65.9604 Y63.7583
 X66.4218 Y63.7350
 X66.8698 Y63.6664
 X67.3023 Y63.5549
 X67.7172 Y63.4028
 X68.1119 Y63.2122
 X68.4843 Y62.9857
 X68.8319 Y62.7254
 X69.1528 Y62.4338
 X69.4443 Y62.1128
 X69.7044 Y61.7650
 X69.9308 Y61.3926
 X70.1211 Y60.9979
 X70.2730 Y60.5833
 X70.3844 Y60.1510
 X70.4529 Y59.7033
 X70.4764 Y59.2424
 X70.4529 Y58.7815
 X70.3844 Y58.3338
 X70.2730 Y57.9015
 X70.1211 Y57.4868
 X69.9308 Y57.0922
 X69.7044 Y56.7199
 X69.4443 Y56.3721
 X69.1528 Y56.0511
 X68.8319 Y55.7594
 X68.4843 Y55.4992
 X68.1119 Y55.2726
 X67.7172 Y55.0821
 X67.3023 Y54.9300
 X66.8698 Y54.8185
 X66.4218 Y54.7499
 X65.9604 Y54.7265
 X65.4991 Y54.7499
 X65.0511 Y54.8185
 X64.6186 Y54.9300
 X64.2037 Y55.0821
 X63.8090 Y55.2726
 X63.4368 Y55.4992
 X63.0890 Y55.7594
 X62.7682 Y56.0511
 X62.4766 Y56.3721
 X62.2165 Y56.7199
 X61.9901 Y57.0922
 X61.7997 Y57.4868
 X61.6478 Y57.9015
 X61.5364 Y58.3338
 X61.4678 Y58.7815
 X61.4444 Y59.2424
G0 Z5.0000
 X63.1121 Y50.1503
G1 Z0.0000
 X62.8026 Y49.2251
 X62.4505 Y48.3221
 X62.0568 Y47.4424
 X61.6221 Y46.5875
 X61.1475 Y45.7586
 X60.6337 Y44.9571
 X60.0819 Y44.1843
 X59.4927 Y43.4415
 X58.8672 Y42.7301
 X58.2061 Y42.0514
 X57.5104 Y41.4067
 X56.7808 Y40.7972
 X56.0186 Y40.2245
 X55.2243 Y39.6897
 X54.3989 Y39.1942
 X53.5433 Y38.7393
 X52.6584 Y38.3265
 X51.7451 Y37.9568
 X50.8043 Y37.6318
 X49.8369 Y37.3528
 X48.8437 Y37.1210
 X47.8257 Y36.9376
 X46.7836 Y36.8043
 X45.7184 Y36.7222
 X44.6312 Y36.6926
 X43.5226 Y36.7170
 X42.3936 Y36.7965
 X41.2450 Y36.9326
 X40.0778 Y37.1265
 X38.8928 Y37.3797
 X37.6909 Y37.6932
 X36.4732 Y38.0686
 X36.8083 Y38.2340
 X37.1357 Y38.4057
 X37.4557 Y38.5832
 X37.7687 Y38.7664
 X38.0754 Y38.9549
 X38.3762 Y39.1486
 X38.6718 Y39.3472
 X38.9625 Y39.5504
 X39.2487 Y39.7579
 X39.5312 Y39.9696
 X39.8104 Y40.1850
 X40.0866 Y40.4040
 X40.3607 Y40.6263
 X40.6329 Y40.8517
 X40.9037 Y41.0797
 X41.1739 Y41.3103
 X41.4436 Y41.5431
 X41.7136 Y41.7779
 X41.9844 Y42.0143
 X42.2562 Y42.2524
 X42.5300 Y42.4915
 X42.8058 Y42.7315
 X43.0846 Y42.9722
 X43.3664 Y43.2133
 X43.6521 Y43.4546
 X43.9419 Y43.6956
 X44.2366 Y43.9363
 X44.5365 Y44.1763
 X44.8422 Y44.4154
 X45.1543 Y44.6532
 X45.4730 Y44.8897
 X45.7991 Y45.1244
 X46.1329 Y45.3572
 X46.4751 Y45.5876
 X46.8261 Y45.8157
 X47.1865 Y46.0408
 X47.5565 Y46.2631
 X47.9371 Y46.4819
 X48.3283 Y46.6972
 X48.7309 Y46.9088
 X49.1454 Y47.1161
 X49.5723 Y47.3192
 X50.0119 Y47.5175
 X50.4650 Y47.7111
 X50.9321 Y47.8994
 X51.4133 Y48.0825
 X51.9094 Y48.2597
 X52.4211 Y48.4311
 X52.9486 Y48.5963
 X53.4925 Y48.7550
 X54.0532 Y48.9070
 X54.6314 Y49.0519
 X55.2275 Y49.1897
 X55.8421 Y49.3199
 X56.4755 Y49.4422
 X57.1284 Y49.5567
 X57.8012 Y49.6626
 X58.4946 Y49.7601
 X59.2089 Y49.8489
 X59.9444 Y49.9283
 X60.7022 Y49.9986
 X61.4823 Y50.0592
 X62.2855 Y50.1099
 X63.1121 Y50.1503
G0 Z5.0000
 X65.9604 Y45.3365
G1 Z0.0000
 X66.3386 Y44.6003
 X66.7394 Y43.8807
 X67.1628 Y43.1783
 X67.6083 Y42.4933
 X68.0764 Y41.8261
 X68.5666 Y41.1768
 X69.0791 Y40.5458
 X69.6139 Y39.9335
 X69.1551 Y39.7033
 X68.6978 Y39.5013
 X68.2414 Y39.3279
 X67.7855 Y39.1843
 X67.3298 Y39.0713
 X66.8740 Y38.9896
 X66.4176 Y38.9399
 X65.9604 Y38.9231
 X65.4440 Y38.9414
 X64.9429 Y38.9943
 X64.4569 Y39.0789
 X63.9857 Y39.1921
 X63.5293 Y39.3308
 X63.0873 Y39.4924
 X62.6600 Y39.6736
 X62.2468 Y39.8714
 X62.7905 Y40.4897
 X63.3121 Y41.1272
 X63.8111 Y41.7835
 X64.2875 Y42.4582
 X64.7407 Y43.1513
 X65.1708 Y43.8621
 X65.5773 Y44.5907
 X65.9604 Y45.3365
G0 Z5.0000
 X68.8087 Y50.1503
G1 Z0.0000
 X69.6351 Y50.1099
 X70.4380 Y50.0592
 X71.2179 Y49.9986
 X71.9754 Y49.9283
 X72.7108 Y49.8489
 X73.4248 Y49.7601
 X74.1180 Y49.6626
 X74.7907 Y49.5565
 X75.4434 Y49.4422
 X76.0766 Y49.3197
 X76.6911 Y49.1896
 X77.2871 Y49.0518
 X77.8651 Y48.9068
 X78.4258 Y48.7549
 X78.9696 Y48.5961
 X79.4968 Y48.4310
 X80.0083 Y48.2596
 X80.5044 Y48.0822
 X80.9857 Y47.8992
 X81.4525 Y47.7108
 X81.9054 Y47.5172
 X82.3450 Y47.3188
 X82.7718 Y47.1158
 X83.1862 Y46.9083
 X83.5889 Y46.6968
 X83.9800 Y46.4815
 X84.3604 Y46.2626
 X84.7305 Y46.0404
 X85.0908 Y45.8151
 X85.4418 Y45.5872
 X85.7839 Y45.3567
 X86.1178 Y45.1239
 X86.4437 Y44.8892
 X86.7625 Y44.6528
 X87.0744 Y44.4149
 X87.3801 Y44.1757
 X87.6801 Y43.9357
 X87.9747 Y43.6950
 X88.2647 Y43.4539
 X88.5503 Y43.2126
 X88.8321 Y42.9715
 X89.1108 Y42.7308
 X89.3866 Y42.4908
 X89.6603 Y42.2517
 X89.9322 Y42.0138
 X90.2029 Y41.7772
 X90.4730 Y41.5425
 X90.7428 Y41.3097
 X91.0129 Y41.0792
 X91.2837 Y40.8511
 X91.5559 Y40.6257
 X91.8298 Y40.4035
 X92.1062 Y40.1844
 X92.3854 Y39.9692
 X92.6679 Y39.7575
 X92.9541 Y39.5500
 X93.2448 Y39.3469
 X93.5402 Y39.1483
 X93.8412 Y38.9546
 X94.1479 Y38.7661
 X94.4609 Y38.5831
 X94.7809 Y38.4056
 X95.1082 Y38.2340
 X95.4434 Y38.0686
 X94.2319 Y37.6946
 X93.0358 Y37.3818
 X91.8559 Y37.1290
 X90.6932 Y36.9351
 X89.5483 Y36.7986
 X88.4226 Y36.7185
 X87.3166 Y36.6932
 X86.2316 Y36.7214
 X85.1682 Y36.8021
 X84.1273 Y36.9339
 X83.1101 Y37.1154
 X82.1173 Y37.3454
 X81.1498 Y37.6228
 X80.2089 Y37.9458
 X79.2948 Y38.3138
 X78.4090 Y38.7249
 X77.5523 Y39.1781
 X76.7255 Y39.6721
 X75.9296 Y40.2056
 X75.1654 Y40.7772
 X74.4340 Y41.3858
 X73.7362 Y42.0301
 X73.0729 Y42.7088
 X72.4451 Y43.4206
 X71.8536 Y44.1640
 X71.2994 Y44.9379
 X70.7834 Y45.7411
 X70.3066 Y46.5722
 X69.8698 Y47.4300
 X69.4740 Y48.3132
 X69.1200 Y49.2203
 X68.8087 Y50.1503
G0 Z5.0000
 X74.9922 Y67.3700
G1 Z0.0000
 Y68.2742
 X93.0541
 Y67.3700
 X93.0458 Y67.0453
 X93.0214 Y66.7247
 X92.9811 Y66.4089
 X92.9254 Y66.0979
 X92.8547 Y65.7924
 X92.7694 Y65.4926
 X92.6698 Y65.1990
 X92.5565 Y64.9122
 X92.4297 Y64.6322
 X92.2900 Y64.3597
 X92.1375 Y64.0950
 X91.9729 Y63.8385
 X91.7964 Y63.5907
 X91.6086 Y63.3518
 X91.4097 Y63.1222
 X91.2002 Y62.9026
 X90.9805 Y62.6932
 X90.7511 Y62.4943
 X90.5122 Y62.3065
 X90.2641 Y62.1301
 X90.0078 Y61.9656
 X89.7429 Y61.8132
 X89.4702 Y61.6733
 X89.1904 Y61.5465
 X88.9033 Y61.4332
 X88.6097 Y61.3338
 X88.3098 Y61.2483
 X88.0043 Y61.1776
 X87.6932 Y61.1220
 X87.3772 Y61.0817
 X87.0565 Y61.0572
 X86.7316 Y61.0490
 X81.3133
 X80.9883 Y61.0572
 X80.6678 Y61.0817
 X80.3516 Y61.1220
 X80.0407 Y61.1776
 X79.7351 Y61.2483
 X79.4352 Y61.3338
 X79.1416 Y61.4332
 X78.8547 Y61.5465
 X78.5748 Y61.6733
 X78.3023 Y61.8132
 X78.0376 Y61.9656
 X77.7811 Y62.1301
 X77.5333 Y62.3065
 X77.2944 Y62.4943
 X77.0650 Y62.6932
 X76.8452 Y62.9026
 X76.6359 Y63.1222
 X76.4371 Y63.3518
 X76.2493 Y63.5907
 X76.0729 Y63.8385
 X75.9084 Y64.0950
 X75.7559 Y64.3597
 X75.6164 Y64.6322
 X75.4896 Y64.9122
 X75.3762 Y65.1990
 X75.2768 Y65.4926
 X75.1915 Y65.7924
 X75.1208 Y66.0979
 X75.0651 Y66.4089
 X75.0248 Y66.7247
 X75.0004 Y67.0453
 X74.9922 Y67.3700
G0 Z5.0000
 X94.1001 Y44.4120
G1 Z0.0000
 X93.6771 Y44.7678
 X93.2540 Y45.1276
 X92.8293 Y45.4911
 X92.4016 Y45.8574
 X91.9696 Y46.2256
 X91.5316 Y46.5951
 X91.0865 Y46.9653
 X90.6328 Y47.3351
 X90.1690 Y47.7040
 X89.6937 Y48.0714
 X89.2057 Y48.4365
 X88.7032 Y48.7983
 X88.1850 Y49.1563
 X87.6498 Y49.5096
 X87.0959 Y49.8578
 X86.5222 Y50.1997
 X85.9271 Y50.5350
 X85.3091 Y50.8626
 X84.6671 Y51.1821
 X83.9994 Y51.4925
 X83.3047 Y51.7931
 X82.5815 Y52.0833
 X81.8286 Y52.3622
 X81.0443 Y52.6293
 X80.2273 Y52.8836
 X79.3762 Y53.1246
 X78.4897 Y53.3514
 X77.5662 Y53.5632
 X76.6044 Y53.7594
 X75.6029 Y53.9393
 X74.5602 Y54.1021
 X73.4750 Y54.2471
 X73.7772 Y54.7363
 X74.0461 Y55.2460
 X74.2809 Y55.7747
 X74.4816 Y56.3207
 X74.6475 Y56.8828
 X74.7780 Y57.4593
 X74.8729 Y58.0488
 X74.9315 Y58.6497
 X75.2726 Y58.4094
 X75.6226 Y58.1814
 X75.9815 Y57.9663
 X76.3489 Y57.7645
 X76.7243 Y57.5764
 X77.1078 Y57.4024
 X77.4987 Y57.2431
 X77.8971 Y57.0985
 X78.3025 Y56.9695
 X78.7147 Y56.8563
 X79.1332 Y56.7593
 X79.5580 Y56.6790
 X79.9887 Y56.6158
 X80.4250 Y56.5701
 X80.8666 Y56.5424
 X81.3133 Y56.5331
 X86.7316
 X87.2891 Y56.5472
 X87.8396 Y56.5890
 X88.3819 Y56.6579
 X88.9157 Y56.7533
 X89.4400 Y56.8743
 X89.9541 Y57.0203
 X90.4577 Y57.1907
 X90.9500 Y57.3849
 X91.4301 Y57.6018
 X91.8973 Y57.8413
 X92.3512 Y58.1021
 X92.7909 Y58.3840
 X93.2159 Y58.6863
 X93.6254 Y59.0079
 X94.0187 Y59.3486
 X94.3951 Y59.7075
 X94.7540 Y60.0839
 X95.0947 Y60.4771
 X95.4165 Y60.8865
 X95.7187 Y61.3115
 X96.0007 Y61.7513
 X96.2616 Y62.2051
 X96.5011 Y62.6724
 X96.7182 Y63.1525
 X96.9122 Y63.6447
 X97.0826 Y64.1483
 X97.2287 Y64.6626
 X97.3497 Y65.1871
 X97.4451 Y65.7208
 X97.5140 Y66.2633
 X97.5559 Y66.8138
 X97.5700 Y67.3715
 Y70.5313
 X97.5583 Y70.7622
 X97.5240 Y70.9864
 X97.4684 Y71.2026
 X97.3923 Y71.4101
 X97.2973 Y71.6074
 X97.1841 Y71.7935
 X97.0540 Y71.9672
 X96.9083 Y72.1275
 X96.7477 Y72.2732
 X96.5739 Y72.4031
 X96.3876 Y72.5161
 X96.1903 Y72.6111
 X95.9826 Y72.6870
 X95.7662 Y72.7425
 X95.5421 Y72.7768
 X95.3112 Y72.7883
 X88.5382
 X88.5148 Y73.2501
 X88.4465 Y73.6986
 X88.3351 Y74.1314
 X88.1833 Y74.5464
 X87.9932 Y74.9411
 X87.7671 Y75.3135
 X87.5071 Y75.6611
 X87.2157 Y75.9818
 X86.8950 Y76.2732
 X86.5473 Y76.5332
 X86.1750 Y76.7593
 X85.7803 Y76.9495
 X85.3654 Y77.1013
 X84.9325 Y77.2125
 X84.4840 Y77.2810
 X84.0223 Y77.3043
 X83.5608 Y77.2810
 X83.1126 Y77.2125
 X82.6798 Y77.1013
 X82.2651 Y76.9495
 X81.8704 Y76.7593
 X81.4980 Y76.5332
 X81.1504 Y76.2732
 X80.8297 Y75.9818
 X80.5382 Y75.6611
 X80.2782 Y75.3135
 X80.0519 Y74.9411
 X79.8616 Y74.5464
 X79.7098 Y74.1314
 X79.5984 Y73.6986
 X79.5300 Y73.2501
 X79.5066 Y72.7883
 X72.7334
 X72.5025 Y72.7768
 X72.2783 Y72.7425
 X72.0621 Y72.6870
 X71.8546 Y72.6111
 X71.6572 Y72.5161
 X71.4712 Y72.4031
 X71.2975 Y72.2732
 X71.1372 Y72.1275
 X70.9915 Y71.9672
 X70.8616 Y71.7935
 X70.7486 Y71.6074
 X70.6536 Y71.4101
 X70.5778 Y71.2026
 X70.5221 Y70.9864
 X70.4879 Y70.7622
 X70.4764 Y70.5313
 Y67.3700
 X70.4933 Y67.1829
 X70.5134 Y66.9965
 X70.0008 Y67.2786
 X69.4702 Y67.5300
 X68.9227 Y67.7485
 X68.3590 Y67.9321
 X67.7800 Y68.0786
 X67.1865 Y68.1858
 X66.5797 Y68.2518
 X65.9604 Y68.2742
 X65.3415 Y68.2518
 X64.7348 Y68.1858
 X64.1415 Y68.0786
 X63.5625 Y67.9321
 X62.9986 Y67.7485
 X62.4508 Y67.5300
 X61.9201 Y67.2786
 X61.4075 Y66.9965
 X61.4276 Y67.1829
 X61.4444 Y67.3700
 Y70.5313
 X61.4328 Y70.7622
 X61.3986 Y70.9864
 X61.3430 Y71.2026
 X61.2672 Y71.4101
 X61.1722 Y71.6074
 X61.0591 Y71.7935
 X60.9293 Y71.9672
 X60.7836 Y72.1275
 X60.6233 Y72.2732
 X60.4496 Y72.4031
 X60.2634 Y72.5161
 X60.0662 Y72.6111
 X59.8587 Y72.6870
 X59.6425 Y72.7425
 X59.4183 Y72.7768
 X59.1875 Y72.7883
 X52.4144
 X52.3911 Y73.2501
 X52.3226 Y73.6986
 X52.2112 Y74.1314
 X52.0593 Y74.5464
 X51.8690 Y74.9411
 X51.6428 Y75.3135
 X51.3828 Y75.6611
 X51.0912 Y75.9818
 X50.7705 Y76.2732
 X50.4227 Y76.5332
 X50.0504 Y76.7593
 X49.6558 Y76.9495
 X49.2409 Y77.1013
 X48.8083 Y77.2125
 X48.3600 Y77.2810
 X47.8986 Y77.3043
 X47.4368 Y77.2810
 X46.9883 Y77.2125
 X46.5555 Y77.1013
 X46.1407 Y76.9495
 X45.7459 Y76.7593
 X45.3736 Y76.5332
 X45.0259 Y76.2732
 X44.7053 Y75.9818
 X44.4137 Y75.6611
 X44.1539 Y75.3135
 X43.9276 Y74.9411
 X43.7375 Y74.5464
 X43.5857 Y74.1314
 X43.4744 Y73.6986
 X43.4059 Y73.2501
 X43.3826 Y72.7883
 X36.6097
 X36.3787 Y72.7768
 X36.1546 Y72.7425
 X35.9380 Y72.6870
 X35.7307 Y72.6111
 X35.5332 Y72.5161
 X35.3469 Y72.4031
 X35.1732 Y72.2732
 X35.0127 Y72.1275
 X34.8669 Y71.9672
 X34.7369 Y71.7935
 X34.6237 Y71.6074
 X34.5286 Y71.4101
 X34.4526 Y71.2026
 X34.3971 Y70.9864
 X34.3628 Y70.7622
 X34.3512 Y70.5313
 Y67.3700
 X34.3653 Y66.8125
 X34.4071 Y66.2621
 X34.4759 Y65.7197
 X34.5714 Y65.1861
 X34.6923 Y64.6618
 X34.8383 Y64.1475
 X35.0087 Y63.6440
 X35.2028 Y63.1520
 X35.4197 Y62.6720
 X35.6590 Y62.2046
 X35.9200 Y61.7508
 X36.2019 Y61.3111
 X36.5040 Y60.8863
 X36.8257 Y60.4770
 X37.1664 Y60.0836
 X37.5251 Y59.7074
 X37.9015 Y59.3485
 X38.2947 Y59.0078
 X38.7041 Y58.6861
 X39.1290 Y58.3839
 X39.5686 Y58.1021
 X40.0223 Y57.8411
 X40.4897 Y57.6018
 X40.9697 Y57.3847
 X41.4618 Y57.1907
 X41.9653 Y57.0203
 X42.4796 Y56.8743
 X43.0039 Y56.7533
 X43.5375 Y56.6579
 X44.0798 Y56.5890
 X44.6301 Y56.5472
 X45.1878 Y56.5331
 X50.6065
 X51.0533 Y56.5424
 X51.4951 Y56.5701
 X51.9316 Y56.6158
 X52.3623 Y56.6790
 X52.7873 Y56.7593
 X53.2061 Y56.8564
 X53.6182 Y56.9696
 X54.0236 Y57.0986
 X54.4221 Y57.2432
 X54.8130 Y57.4028
 X55.1965 Y57.5768
 X55.5719 Y57.7651
 X55.9393 Y57.9671
 X56.2982 Y58.1824
 X56.6482 Y58.4106
 X56.9893 Y58.6511
 X57.0479 Y58.0497
 X57.1426 Y57.4600
 X57.2733 Y56.8832
 X57.4391 Y56.3211
 X57.6397 Y55.7750
 X57.8747 Y55.2467
 X58.1436 Y54.7372
 X58.4459 Y54.2485
 X57.3621 Y54.1039
 X56.3207 Y53.9413
 X55.3201 Y53.7617
 X54.3591 Y53.5657
 X53.4365 Y53.3542
 X52.5504 Y53.1276
 X51.6998 Y52.8871
 X50.8830 Y52.6331
 X50.0989 Y52.3663
 X49.3459 Y52.0876
 X48.6226 Y51.7976
 X47.9276 Y51.4972
 X47.2597 Y51.1871
 X46.6171 Y50.8678
 X45.9987 Y50.5404
 X45.4032 Y50.2053
 X44.8289 Y49.8633
 X44.2744 Y49.5154
 X43.7386 Y49.1620
 X43.2197 Y48.8040
 X42.7166 Y48.4421
 X42.2279 Y48.0771
 X41.7521 Y47.7096
 X41.2877 Y47.3404
 X40.8334 Y46.9701
 X40.3879 Y46.5997
 X39.9496 Y46.2299
 X39.5171 Y45.8613
 X39.0891 Y45.4945
 X38.6643 Y45.1304
 X38.2411 Y44.7699
 X37.8183 Y44.4133
 X37.2583 Y44.6263
 X36.7094 Y44.8593
 X36.1722 Y45.1120
 X35.6468 Y45.3839
 X35.1340 Y45.6746
 X34.6340 Y45.9836
 X34.1472 Y46.3107
 X33.6741 Y46.6554
 X33.2152 Y47.0172
 X32.7709 Y47.3957
 X32.3418 Y47.7904
 X31.9280 Y48.2010
 X31.5303 Y48.6271
 X31.1487 Y49.0681
 X30.7841 Y49.5238
 X30.4366 Y49.9935
 X30.1069 Y50.4771
 X29.7951 Y50.9739
 X29.5021 Y51.4836
 X29.2279 Y52.0058
 X28.9732 Y52.5401
 X28.7383 Y53.0860
 X28.5237 Y53.6431
 X28.3298 Y54.2110
 X28.1572 Y54.7892
 X28.0061 Y55.3772
 X27.8771 Y55.9749
 X27.7705 Y56.5815
 X27.6868 Y57.1969
 X27.6265 Y57.8206
 X27.5900 Y58.4520
 X27.5779 Y59.0907
 X27.5986 Y59.7679
 X27.6590 Y60.4604
 X27.7566 Y61.1660
 X27.8887 Y61.8826
 X28.0526 Y62.6079
 X28.2459 Y63.3397
 X28.4658 Y64.0760
 X28.7098 Y64.8142
 X28.9752 Y65.5524
 X29.2596 Y66.2882
 X29.5601 Y67.0196
 X29.8743 Y67.7442
 X30.1994 Y68.4599
 X30.5329 Y69.1645
 X30.8721 Y69.8557
 X31.2146 Y70.5313
 X31.3491 Y70.8172
 X31.4619 Y71.1082
 X31.5532 Y71.4036
 X31.6230 Y71.7024
 X31.6719 Y72.0036
 X31.6997 Y72.3064
 X31.7069 Y72.6096
 X31.6934 Y72.9126
 X31.6596 Y73.2143
 X31.6057 Y73.5136
 X31.5318 Y73.8100
 X31.4382 Y74.1021
 X31.3248 Y74.3893
 X31.1923 Y74.6704
 X31.0407 Y74.9449
 X30.8700 Y75.2113
 X30.7641 Y75.3696
 X30.6309 Y75.5851
 X30.5146 Y75.8047
 X30.4147 Y76.0279
 X30.3311 Y76.2542
 X30.2634 Y76.4826
 X30.2114 Y76.7128
 X30.1747 Y76.9439
 X30.1530 Y77.1757
 X30.1461 Y77.4071
 X30.1536 Y77.6378
 X30.1751 Y77.8671
 X30.2105 Y78.0942
 X30.2594 Y78.3188
 X30.3215 Y78.5399
 X30.3966 Y78.7572
 X30.4841 Y78.9700
 X30.5841 Y79.1775
 X30.6959 Y79.3792
 X30.8194 Y79.5745
 X30.9544 Y79.7628
 X31.1004 Y79.9433
 X31.2572 Y80.1156
 X31.4244 Y80.2789
 X31.6019 Y80.4326
 X31.7891 Y80.5763
 X31.9859 Y80.7090
 X32.1921 Y80.8304
 X32.4071 Y80.9399
 X32.6308 Y81.0364
 X32.8629 Y81.1197
 X33.1029 Y81.1892
 X33.3507 Y81.2440
 X34.9355 Y81.5332
 X36.5805 Y81.8142
 X38.2857 Y82.0854
 X40.0509 Y82.3456
 X41.8765 Y82.5931
 X43.7626 Y82.8267
 X45.7090 Y83.0449
 X47.7161 Y83.2463
 X49.7836 Y83.4293
 X51.9119 Y83.5925
 X54.1009 Y83.7346
 X56.3508 Y83.8542
 X58.6616 Y83.9496
 X61.0334 Y84.0196
 X63.4664 Y84.0626
 X65.9604 Y84.0772
 X68.3203 Y84.0603
 X70.6439 Y84.0103
 X72.9304 Y83.9290
 X75.1784 Y83.8183
 X77.3869 Y83.6799
 X79.5547 Y83.5154
 X81.6805 Y83.3267
 X83.7633 Y83.1154
 X85.8018 Y82.8833
 X87.7950 Y82.6324
 X89.7415 Y82.3639
 X91.6401 Y82.0799
 X93.4900 Y81.7820
 X95.2897 Y81.4720
 X97.0382 Y81.1515
 X98.7341 Y80.8225
 X99.1768 Y80.7049
 X99.5965 Y80.5351
 X99.9893 Y80.3167
 X100.3511 Y80.0525
 X100.6779 Y79.7463
 X100.9657 Y79.4010
 X101.2103 Y79.0200
 X101.4079 Y78.6067
 X101.5526 Y78.1724
 X101.6412 Y77.7283
 X101.6743 Y77.2800
 X101.6521 Y76.8325
 X101.5754 Y76.3911
 X101.4447 Y75.9608
 X101.2605 Y75.5470
 X101.0233 Y75.1544
 X100.8564 Y74.8972
 X100.7071 Y74.6325
 X100.5758 Y74.3613
 X100.4629 Y74.0843
 X100.3687 Y73.8024
 X100.2933 Y73.5167
 X100.2372 Y73.2279
 X100.2007 Y72.9368
 X100.1840 Y72.6446
 X100.1875 Y72.3520
 X100.2114 Y72.0599
 X100.2559 Y71.7690
 X100.3218 Y71.4806
 X100.4089 Y71.1951
 X100.5176 Y70.9139
 X100.6483 Y70.6375
 X100.9958 Y69.9564
 X101.3400 Y69.2571
 X101.6786 Y68.5424
 X102.0087 Y67.8149
 X102.3278 Y67.0774
 X102.6330 Y66.3326
 X102.9219 Y65.5835
 X103.1918 Y64.8325
 X103.4397 Y64.0824
 X103.6634 Y63.3360
 X103.8600 Y62.5963
 X104.0270 Y61.8654
 X104.1610 Y61.1467
 X104.2600 Y60.4426
 X104.3220 Y59.7558
 X104.3430 Y59.0893
 X104.3310 Y58.4506
 X104.2940 Y57.8192
 X104.2340 Y57.1957
 X104.1500 Y56.5803
 X104.0440 Y55.9736
 X103.9150 Y55.3760
 X103.7634 Y54.7879
 X103.5907 Y54.2097
 X103.3968 Y53.6418
 X103.1821 Y53.0847
 X102.9472 Y52.5389
 X102.6923 Y52.0046
 X102.4182 Y51.4824
 X102.1250 Y50.9726
 X101.8132 Y50.4758
 X101.4833 Y49.9922
 X101.1358 Y49.5225
 X100.7709 Y49.0668
 X100.3894 Y48.6257
 X99.9915 Y48.1997
 X99.5776 Y47.7890
 X99.1483 Y47.3943
 X98.7040 Y47.0158
 X98.2451 Y46.6540
 X97.7719 Y46.3095
 X97.2850 Y45.9824
 X96.7848 Y45.6732
 X96.2718 Y45.3825
 X95.7465 Y45.1106
 X95.2090 Y44.8579
 X94.6601 Y44.6250
 X94.1001 Y44.4120
G0 Z5.0000
 X122.4050 Y50.2106
G1 Z0.0000
 X122.3900 Y49.3713
 X122.3460 Y48.5371
 X122.2730 Y47.7082
 X122.1710 Y46.8849
 X122.0400 Y46.0668
 X121.8800 Y45.2545
 X121.6910 Y44.4475
 X121.4730 Y43.6463
 X121.2260 Y42.8507
 X120.9510 Y42.0610
 X120.6480 Y41.2769
 X120.3160 Y40.4989
 X119.9550 Y39.7268
 X119.5670 Y38.9606
 X119.1500 Y38.2006
 X118.7050 Y37.4465
 X118.2320 Y36.6988
 X117.7310 Y35.9572
 X117.2030 Y35.2219
 X116.6460 Y34.4931
 X116.0620 Y33.7706
 X115.4510 Y33.0545
 X114.8110 Y32.3450
 X114.1450 Y31.6422
 X113.4510 Y30.9460
 X112.7300 Y30.2564
 X111.9810 Y29.5738
 X111.2060 Y28.8978
 X110.4030 Y28.2289
 X109.5740 Y27.5668
 X108.7180 Y26.9118
 X107.8350 Y26.2639
 X106.9250 Y25.6231
 X105.9890 Y24.9894
 X105.0270 Y24.3631
 X104.0370 Y23.7442
 X103.0221 Y23.1325
 X101.9804 Y22.5282
 X100.9125 Y21.9315
 X99.8187 Y21.3424
 X98.6987 Y20.7608
 X97.5529 Y20.1870
 X96.3814 Y19.6208
 X95.1840 Y19.0625
 X93.9609 Y18.5121
 X92.7123 Y17.9695
 X91.4383 Y17.4349
 X90.1387 Y16.9084
 X88.8140 Y16.3900
 X87.4639 Y15.8797
 X86.0887 Y15.3777
 X84.6884 Y14.8839
 X83.2632 Y14.3984
 X81.8130 Y13.9214
 X80.3380 Y13.4528
 X78.8383 Y12.9927
 X77.3140 Y12.5412
 X75.7651 Y12.0984
 X74.1916 Y11.6642
 X72.5939 Y11.2388
 X70.9718 Y10.8223
 X69.3254 Y10.4146
 X67.6550 Y10.0158
 X65.9604 Y9.6260
 X64.2659 Y10.0158
 X62.5954 Y10.4146
 X60.9490 Y10.8223
 X59.3269 Y11.2388
 X57.7291 Y11.6642
 X56.1558 Y12.0984
 X54.6068 Y12.5412
 X53.0825 Y12.9927
 X51.5827 Y13.4528
 X50.1078 Y13.9214
 X48.6576 Y14.3984
 X47.2323 Y14.8839
 X45.8321 Y15.3777
 X44.4569 Y15.8797
 X43.1069 Y16.3900
 X41.7821 Y16.9084
 X40.4825 Y17.4349
 X39.2084 Y17.9695
 X37.9598 Y18.5121
 X36.7369 Y19.0625
 X35.5394 Y19.6208
 X34.3677 Y20.1870
 X33.2221 Y20.7608
 X32.1022 Y21.3424
 X31.0082 Y21.9315
 X29.9404 Y22.5282
 X28.8987 Y23.1325
 X27.8833 Y23.7442
 X26.8943 Y24.3631
 X25.9315 Y24.9894
 X24.9954 Y25.6231
 X24.0858 Y26.2639
 X23.2029 Y26.9118
 X22.3466 Y27.5668
 X21.5173 Y28.2289
 X20.7148 Y28.8978
 X19.9394 Y29.5738
 X19.1911 Y30.2564
 X18.4700 Y30.9460
 X17.7761 Y31.6422
 X17.1094 Y32.3450
 X16.4703 Y33.0545
 X15.8586 Y33.7706
 X15.2745 Y34.4931
 X14.7181 Y35.2219
 X14.1894 Y35.9572
 X13.6886 Y36.6988
 X13.2157 Y37.4465
 X12.7708 Y38.2006
 X12.3541 Y38.9606
 X11.9654 Y39.7268
 X11.6052 Y40.4989
 X11.2731 Y41.2769
 X10.9696 Y42.0610
 X10.6945 Y42.8507
 X10.4480 Y43.6463
 X10.2302 Y44.4475
 X10.0412 Y45.2545
 X9.8811 Y46.0668
 X9.7498 Y46.8849
 X9.6476 Y47.7082
 X9.5745 Y48.5371
 X9.5306 Y49.3713
 X9.5160 Y50.2106
 X9.5382 Y51.2744
 X9.6041 Y52.3199
 X9.7116 Y53.3475
 X9.8590 Y54.3579
 X10.0444 Y55.3518
 X10.2662 Y56.3300
 X10.5224 Y57.2931
 X10.8112 Y58.2415
 X11.1309 Y59.1763
 X11.4796 Y60.0981
 X11.8556 Y61.0072
 X12.2570 Y61.9047
 X12.6821 Y62.7911
 X13.1290 Y63.6671
 X13.5959 Y64.5332
 X14.0810 Y65.3903
 X14.5826 Y66.2390
 X15.0987 Y67.0801
 X15.6277 Y67.9140
 X16.1676 Y68.7415
 X16.7168 Y69.5635
 X17.2734 Y70.3803
 X17.8355 Y71.1926
 X18.4014 Y72.0014
 X18.9693 Y72.8072
 X19.5375 Y73.6106
 X20.1039 Y74.4122
 X20.6669 Y75.2129
 X21.2247 Y76.0133
 X21.7754 Y76.8139
 X22.3172 Y77.6157
 X22.8484 Y78.4190
 X23.0246 Y78.6407
 X23.2373 Y78.8250
 X23.4812 Y78.9679
 X23.7512 Y79.0653
 X23.8390 Y79.0790
 X23.9254 Y79.0757
 X24.0083 Y79.0563
 X24.0855 Y79.0219
 X24.1553 Y78.9739
 X24.2152 Y78.9135
 X24.2636 Y78.8415
 X24.2980 Y78.7594
 X24.4686 Y78.2301
 X24.6443 Y77.7192
 X24.8243 Y77.2271
 X25.0076 Y76.7538
 X25.1934 Y76.2994
 X25.3811 Y75.8640
 X25.5696 Y75.4481
 X25.7580 Y75.0513
 X25.9457 Y74.6738
 X26.1315 Y74.3160
 X26.3148 Y73.9778
 X26.4948 Y73.6595
 X26.6704 Y73.3608
 X26.8411 Y73.0824
 X27.0055 Y72.8240
 X27.1633 Y72.5858
 X27.0327 Y72.3315
 X26.8948 Y72.0586
 X26.7503 Y71.7675
 X26.5997 Y71.4594
 X26.4440 Y71.1350
 X26.2837 Y70.7950
 X26.1200 Y70.4401
 X25.9533 Y70.0714
 X25.7844 Y69.6894
 X25.6141 Y69.2951
 X25.4434 Y68.8892
 X25.2728 Y68.4724
 X25.1029 Y68.0457
 X24.9348 Y67.6097
 X24.7691 Y67.1653
 X24.6068 Y66.7133
 X24.4482 Y66.2545
 X24.2944 Y65.7896
 X24.1461 Y65.3195
 X24.0040 Y64.8449
 X23.8690 Y64.3665
 X23.7416 Y63.8854
 X23.6227 Y63.4022
 X23.5133 Y62.9178
 X23.4137 Y62.4328
 X23.3251 Y61.9481
 X23.2479 Y61.4644
 X23.1830 Y60.9828
 X23.1314 Y60.5038
 X23.0934 Y60.0282
 X23.0703 Y59.5570
 X23.0622 Y59.0907
 X23.0741 Y58.3958
 X23.1096 Y57.7071
 X23.1680 Y57.0246
 X23.2493 Y56.3490
 X23.3528 Y55.6806
 X23.4783 Y55.0195
 X23.6253 Y54.3664
 X23.7934 Y53.7215
 X23.9825 Y53.0853
 X24.1919 Y52.4581
 X24.4212 Y51.8401
 X24.6703 Y51.2319
 X24.9384 Y50.6339
 X25.2254 Y50.0464
 X25.5309 Y49.4697
 X25.8544 Y48.9042
 X26.1955 Y48.3503
 X26.5540 Y47.8083
 X26.9293 Y47.2788
 X27.3211 Y46.7618
 X27.7290 Y46.2581
 X28.1526 Y45.7676
 X28.5915 Y45.2911
 X29.0454 Y44.8286
 X29.5139 Y44.3808
 X29.9964 Y43.9479
 X30.4927 Y43.5303
 X31.0025 Y43.1283
 X31.5251 Y42.7425
 X32.0604 Y42.3729
 X32.6079 Y42.0203
 X33.1672 Y41.6847
 X32.7962 Y41.5767
 X32.4157 Y41.4786
 X32.0240 Y41.3919
 X31.6193 Y41.3179
 X31.2000 Y41.2581
 X30.7641 Y41.2135
 X30.3104 Y41.1858
 X29.8366 Y41.1763
 X29.4815 Y41.1483
 X29.1412 Y41.0665
 X28.8209 Y40.9349
 X28.5259 Y40.7568
 X28.2612 Y40.5361
 X28.0322 Y40.2765
 X27.8441 Y39.9817
 X27.7021 Y39.6551
 X27.6129 Y39.3099
 X27.5790 Y38.9614
 X27.5989 Y38.6157
 X27.6705 Y38.2789
 X27.7925 Y37.9571
 X27.9630 Y37.6561
 X28.1805 Y37.3824
 X28.4432 Y37.1415
 X28.6616 Y36.9746
 X28.8939 Y36.8051
 X29.1393 Y36.6338
 X29.3979 Y36.4606
 X29.6693 Y36.2861
 X29.9532 Y36.1107
 X30.2494 Y35.9347
 X30.5576 Y35.7585
 X30.8775 Y35.5824
 X31.2090 Y35.4068
 X31.5516 Y35.2321
 X31.9051 Y35.0585
 X32.2693 Y34.8867
 X32.6439 Y34.7167
 X33.0287 Y34.5489
 X33.4233 Y34.3839
 X33.8273 Y34.2219
 X34.2409 Y34.0633
 X34.6634 Y33.9086
 X35.0947 Y33.7579
 X35.5346 Y33.6117
 X35.9828 Y33.4703
 X36.4387 Y33.3340
 X36.9025 Y33.2035
 X37.3737 Y33.0789
 X37.8521 Y32.9606
 X38.3373 Y32.8488
 X38.8293 Y32.7440
 X39.3276 Y32.6468
 X39.8319 Y32.5572
 X40.3421 Y32.4757
 X40.8579 Y32.4028
 X41.3789 Y32.3386
 X41.9050 Y32.2836
 X42.4357 Y32.2382
 X42.9709 Y32.2028
 X43.5105 Y32.1775
 X44.0539 Y32.1629
 X44.6011 Y32.1595
 X45.1515 Y32.1672
 X45.7053 Y32.1867
 X46.2618 Y32.2183
 X46.8208 Y32.2625
 X47.3823 Y32.3194
 X47.9458 Y32.3895
 X48.5112 Y32.4731
 X49.0780 Y32.5707
 X49.6461 Y32.6824
 X50.2151 Y32.8089
 X50.7850 Y32.9503
 X51.3553 Y33.1071
 X51.9257 Y33.2796
 X52.4961 Y33.4681
 X53.0659 Y33.6731
 X53.6354 Y33.8950
 X54.2039 Y34.1339
 X54.7711 Y34.3904
 X55.3371 Y34.6649
 X55.9012 Y34.9575
 X56.4634 Y35.2688
 X57.0233 Y35.5990
 X57.5808 Y35.9486
 X58.1355 Y36.3179
 X58.6872 Y36.7074
 X59.0501 Y36.4745
 X59.4254 Y36.2478
 X59.8133 Y36.0285
 X60.2136 Y35.8179
 X60.6262 Y35.6171
 X61.0511 Y35.4275
 X61.4882 Y35.2501
 X61.9373 Y35.0863
 X62.3986 Y34.9371
 X62.8719 Y34.8039
 X63.3572 Y34.6879
 X63.8544 Y34.5903
 X64.3633 Y34.5121
 X64.8840 Y34.4549
 X65.4164 Y34.4196
 X65.9604 Y34.4075
 X66.8743 Y34.4464
 X67.7808 Y34.5617
 X68.6805 Y34.7526
 X69.5744 Y35.0179
 X70.4630 Y35.3564
 X71.3473 Y35.7667
 X72.2279 Y36.2478
 X73.1055 Y36.7983
 X73.6533 Y36.4063
 X74.2046 Y36.0343
 X74.7587 Y35.6818
 X75.3158 Y35.3488
 X75.8754 Y35.0346
 X76.4371 Y34.7390
 X77.0008 Y34.4615
 X77.5662 Y34.2021
 X78.1332 Y33.9600
 X78.7011 Y33.7351
 X79.2700 Y33.5271
 X79.8394 Y33.3354
 X80.4091 Y33.1599
 X80.9790 Y33.0000
 X81.5486 Y32.8554
 X82.1176 Y32.7258
 X82.6859 Y32.6110
 X83.2532 Y32.5104
 X83.8191 Y32.4238
 X84.3834 Y32.3506
 X84.9459 Y32.2907
 X85.5062 Y32.2436
 X86.0641 Y32.2090
 X86.6194 Y32.1867
 X87.1716 Y32.1760
 X87.7207 Y32.1768
 X88.2661 Y32.1888
 X88.8078 Y32.2113
 X89.3454 Y32.2442
 X89.8787 Y32.2871
 X90.4075 Y32.3396
 X90.9312 Y32.4015
 X91.4498 Y32.4722
 X91.9630 Y32.5515
 X92.4705 Y32.6390
 X92.9722 Y32.7343
 X93.4673 Y32.8372
 X93.9561 Y32.9472
 X94.4380 Y33.0639
 X94.9129 Y33.1871
 X95.3804 Y33.3164
 X95.8404 Y33.4513
 X96.2923 Y33.5915
 X96.7362 Y33.7368
 X97.1716 Y33.8867
 X97.5982 Y34.0408
 X98.0159 Y34.1990
 X98.4243 Y34.3606
 X98.8232 Y34.5254
 X99.2122 Y34.6932
 X99.5911 Y34.8633
 X99.9597 Y35.0356
 X100.3177 Y35.2096
 X100.6647 Y35.3851
 X101.0005 Y35.5617
 X101.3250 Y35.7389
 X101.6376 Y35.9164
 X101.9383 Y36.0939
 X102.2266 Y36.2711
 X102.5025 Y36.4476
 X102.7655 Y36.6229
 X103.0154 Y36.7968
 X103.2519 Y36.9689
 X103.4748 Y37.1388
 X103.7372 Y37.3799
 X103.9550 Y37.6539
 X104.1260 Y37.9549
 X104.2490 Y38.2767
 X104.3220 Y38.6133
 X104.3420 Y38.9588
 X104.3090 Y39.3071
 X104.2200 Y39.6522
 X104.0780 Y39.9797
 X103.8900 Y40.2753
 X103.6615 Y40.5354
 X103.3975 Y40.7564
 X103.1027 Y40.9347
 X102.7825 Y41.0665
 X102.4418 Y41.1483
 X102.0855 Y41.1763
 X101.6114 Y41.1858
 X101.1572 Y41.2135
 X100.7212 Y41.2579
 X100.3016 Y41.3178
 X99.8966 Y41.3917
 X99.5047 Y41.4782
 X99.1237 Y41.5760
 X98.7522 Y41.6836
 X99.3116 Y42.0193
 X99.8594 Y42.3721
 X100.3948 Y42.7417
 X100.9178 Y43.1276
 X101.4276 Y43.5297
 X101.9241 Y43.9474
 X102.4068 Y44.3803
 X102.8754 Y44.8282
 X103.3294 Y45.2907
 X103.7683 Y45.7672
 X104.1920 Y46.2576
 X104.6000 Y46.7615
 X104.9920 Y47.2785
 X105.3670 Y47.8082
 X105.7260 Y48.3501
 X106.0670 Y48.9040
 X106.3900 Y49.4696
 X106.6960 Y50.0464
 X106.9830 Y50.6339
 X107.2510 Y51.2319
 X107.5000 Y51.8401
 X107.7290 Y52.4581
 X107.9390 Y53.0853
 X108.1280 Y53.7215
 X108.2960 Y54.3664
 X108.4430 Y55.0195
 X108.5680 Y55.6806
 X108.6720 Y56.3490
 X108.7530 Y57.0246
 X108.8120 Y57.7071
 X108.8470 Y58.3958
 X108.8590 Y59.0907
 X108.8510 Y59.5570
 X108.8280 Y60.0282
 X108.7900 Y60.5038
 X108.7380 Y60.9828
 X108.6730 Y61.4644
 X108.5960 Y61.9481
 X108.5070 Y62.4328
 X108.4080 Y62.9178
 X108.2980 Y63.4022
 X108.1790 Y63.8854
 X108.0520 Y64.3665
 X107.9170 Y64.8449
 X107.7750 Y65.3195
 X107.6260 Y65.7896
 X107.4730 Y66.2545
 X107.3140 Y66.7133
 X107.1520 Y67.1653
 X106.9860 Y67.6097
 X106.8180 Y68.0457
 X106.6480 Y68.4724
 X106.4780 Y68.8892
 X106.3070 Y69.2951
 X106.1370 Y69.6894
 X105.9680 Y70.0714
 X105.8010 Y70.4401
 X105.6370 Y70.7950
 X105.4770 Y71.1350
 X105.3210 Y71.4594
 X105.1710 Y71.7675
 X105.0260 Y72.0586
 X104.8880 Y72.3315
 X104.7580 Y72.5858
 X105.0660 Y73.0607
 X105.3960 Y73.6099
 X105.7420 Y74.2325
 X106.0980 Y74.9276
 X106.4590 Y75.6942
 X106.8180 Y76.5311
 X107.1690 Y77.4375
 X107.5070 Y78.4124
 X107.5400 Y78.4885
 X107.5860 Y78.5551
 X107.6430 Y78.6111
 X107.7090 Y78.6556
 X107.7820 Y78.6874
 X107.8590 Y78.7054
 X107.9400 Y78.7088
 X108.0220 Y78.6964
 X108.3260 Y78.6190
 X108.5000 Y78.5661
 X108.6680 Y78.4978
 X108.8290 Y78.4145
 X108.9810 Y78.3171
 X109.1230 Y78.2063
 X109.2560 Y78.0825
 X109.3760 Y77.9467
 X109.4840 Y77.7992
 X110.0150 Y77.0108
 X110.5540 Y76.2243
 X111.0990 Y75.4388
 X111.6500 Y74.6535
 X112.2040 Y73.8681
 X112.7590 Y73.0818
 X113.3150 Y72.2939
 X113.8690 Y71.5039
 X114.4200 Y70.7110
 X114.9660 Y69.9146
 X115.5060 Y69.1142
 X116.0370 Y68.3090
 X116.5590 Y67.4983
 X117.0690 Y66.6817
 X117.5660 Y65.8583
 X118.0480 Y65.0275
 X118.5140 Y64.1888
 X118.9610 Y63.3415
 X119.3890 Y62.4849
 X119.7960 Y61.6182
 X120.1790 Y60.7411
 X120.5380 Y59.8529
 X120.8700 Y58.9526
 X121.1750 Y58.0399
 X121.4500 Y57.1140
 X121.6930 Y56.1745
 X121.9040 Y55.2203
 X122.0800 Y54.2511
 X122.2200 Y53.2663
 X122.3210 Y52.2649
 X122.3840 Y51.2467
 X122.4050 Y50.2106
G0 Z5.0000
 X108.8590 Y90.8520
G1 Z0.0000
 X108.8740 Y91.4319
 X108.9170 Y92.0043
 X108.9890 Y92.5685
 X109.0880 Y93.1238
 X109.2150 Y93.6693
 X109.3670 Y94.2046
 X109.5450 Y94.7289
 X109.7470 Y95.2413
 X109.9730 Y95.7411
 X110.2230 Y96.2278
 X110.4950 Y96.7006
 X110.7890 Y97.1586
 X111.1040 Y97.6014
 X111.4390 Y98.0279
 X111.7940 Y98.4378
 X112.1680 Y98.8300
 X112.5600 Y99.2042
 X112.9700 Y99.5593
 X113.3960 Y99.8949
 X113.8390 Y100.2099
 X114.2970 Y100.5039
 X114.7700 Y100.7760
 X115.2570 Y101.0257
 X115.7570 Y101.2521
 X116.2690 Y101.4546
 X116.7930 Y101.6324
 X117.3290 Y101.7847
 X117.8750 Y101.9111
 X118.4300 Y102.0106
 X118.9950 Y102.0825
 X119.5670 Y102.1263
 X120.1480 Y102.1408
 X120.7280 Y102.1263
 X121.3010 Y102.0825
 X121.8650 Y102.0106
 X122.4200 Y101.9111
 X122.9660 Y101.7847
 X123.5010 Y101.6324
 X124.0260 Y101.4546
 X124.5380 Y101.2521
 X125.0380 Y101.0257
 X125.5250 Y100.7760
 X125.9970 Y100.5039
 X126.4560 Y100.2099
 X126.8980 Y99.8949
 X127.3250 Y99.5593
 X127.7350 Y99.2042
 X128.1270 Y98.8300
 X128.5010 Y98.4378
 X128.8560 Y98.0279
 X129.1910 Y97.6014
 X129.5060 Y97.1586
 X129.8000 Y96.7006
 X130.0720 Y96.2278
 X130.3220 Y95.7411
 X130.5480 Y95.2413
 X130.7510 Y94.7289
 X130.9280 Y94.2046
 X131.0810 Y93.6693
 X131.2070 Y93.1238
 X131.3060 Y92.5685
 X131.3780 Y92.0043
 X131.4220 Y91.4319
 X131.4370 Y90.8520
 X131.4220 Y90.2719
 X131.3780 Y89.6995
 X131.3060 Y89.1351
 X131.2070 Y88.5797
 X131.0810 Y88.0340
 X130.9280 Y87.4988
 X130.7510 Y86.9744
 X130.5480 Y86.4621
 X130.3220 Y85.9621
 X130.0720 Y85.4754
 X129.8000 Y85.0026
 X129.5060 Y84.5446
 X129.1910 Y84.1020
 X128.8560 Y83.6753
 X128.5010 Y83.2656
 X128.1270 Y82.8732
 X127.7350 Y82.4992
 X127.3250 Y82.1442
 X126.8980 Y81.8088
 X126.4560 Y81.4938
 X125.9970 Y81.1997
 X125.5250 Y80.9276
 X125.0380 Y80.6781
 X124.5380 Y80.4517
 X124.0260 Y80.2492
 X123.5010 Y80.0715
 X122.9660 Y79.9192
 X122.4200 Y79.7929
 X121.8650 Y79.6935
 X121.3010 Y79.6215
 X120.7280 Y79.5778
 X120.1480 Y79.5631
 X119.5670 Y79.5778
 X118.9950 Y79.6215
 X118.4300 Y79.6935
 X117.8750 Y79.7929
 X117.3290 Y79.9192
 X116.7930 Y80.0715
 X116.2690 Y80.2492
 X115.7570 Y80.4517
 X115.2570 Y80.6781
 X114.7700 Y80.9276
 X114.2970 Y81.1997
 X113.8390 Y81.4938
 X113.3960 Y81.8088
 X112.9700 Y82.1442
 X112.5600 Y82.4992
 X112.1680 Y82.8732
 X111.7940 Y83.2656
 X111.4390 Y83.6753
 X111.1040 Y84.1020
 X110.7890 Y84.5446
 X110.4950 Y85.0026
 X110.2230 Y85.4754
 X109.9730 Y85.9621
 X109.7470 Y86.4621
 X109.5450 Y86.9744
 X109.3670 Y87.4988
 X109.2150 Y88.0340
 X109.0880 Y88.5797
 X108.9890 Y89.1351
 X108.9170 Y89.6995
 X108.8740 Y90.2719
 X108.8590 Y90.8520
G0 Z5.0000
 X76.8841 Y29.5238
G1 Z0.0000
 X76.7283 Y29.7220
 X76.5565 Y29.8997
 X76.3705 Y30.0570
 X76.1722 Y30.1932
 X75.9630 Y30.3085
 X75.7450 Y30.4025
 X75.5196 Y30.4749
 X75.2889 Y30.5253
 X75.0543 Y30.5538
 X74.8176 Y30.5597
 X74.5807 Y30.5431
 X74.3452 Y30.5036
 X74.1130 Y30.4411
 X73.8857 Y30.3551
 X73.6650 Y30.2456
 X73.4528 Y30.1121
 X73.0372 Y29.8325
 X72.6084 Y29.5717
 X72.1675 Y29.3299
 X71.7150 Y29.1068
 X71.2522 Y28.9024
 X70.7800 Y28.7167
 X70.2994 Y28.5493
 X69.8112 Y28.4006
 X69.3166 Y28.2699
 X68.8165 Y28.1575
 X68.3119 Y28.0632
 X67.8036 Y27.9870
 X67.2928 Y27.9286
 X66.7803 Y27.8881
 X66.2669 Y27.8651
 X65.7541 Y27.8599
 X65.2425 Y27.8721
 X64.7330 Y27.9018
 X64.2269 Y27.9488
 X63.7248 Y28.0129
 X63.2280 Y28.0943
 X62.7372 Y28.1926
 X62.2536 Y28.3078
 X61.7780 Y28.4399
 X61.3115 Y28.5886
 X60.8548 Y28.7540
 X60.4093 Y28.9360
 X59.9757 Y29.1343
 X59.5548 Y29.3489
 X59.1480 Y29.5799
 X58.7561 Y29.8268
 X58.3800 Y30.0899
 X58.1693 Y30.2281
 X57.9501 Y30.3422
 X57.7239 Y30.4328
 X57.4926 Y30.4997
 X57.2578 Y30.5436
 X57.0212 Y30.5646
 X56.7847 Y30.5628
 X56.5500 Y30.5386
 X56.3186 Y30.4921
 X56.0923 Y30.4236
 X55.8730 Y30.3335
 X55.6623 Y30.2218
 X55.4621 Y30.0889
 X55.2737 Y29.9349
 X55.0993 Y29.7603
 X54.9404 Y29.5650
 X54.8014 Y29.3551
 X54.6865 Y29.1364
 X54.5954 Y28.9107
 X54.5280 Y28.6796
 X54.4839 Y28.4450
 X54.4628 Y28.2086
 X54.4644 Y27.9721
 X54.4887 Y27.7371
 X54.5351 Y27.5056
 X54.6036 Y27.2792
 X54.6937 Y27.0596
 X54.8054 Y26.8486
 X54.9382 Y26.6481
 X55.0919 Y26.4595
 X55.2662 Y26.2846
 X55.4611 Y26.1254
 X56.0058 Y25.7435
 X56.5682 Y25.3849
 X57.1475 Y25.0499
 X57.7430 Y24.7386
 X58.3544 Y24.4511
 X58.9811 Y24.1876
 X59.6223 Y23.9483
 X60.2778 Y23.7336
 X60.9466 Y23.5433
 X61.6284 Y23.3779
 X62.3228 Y23.2375
 X63.0289 Y23.1222
 X63.7462 Y23.0322
 X64.4744 Y22.9676
 X65.2126 Y22.9288
 X65.9604 Y22.9158
 X66.6818 Y22.9283
 X67.3939 Y22.9660
 X68.0965 Y23.0285
 X68.7894 Y23.1160
 X69.4725 Y23.2283
 X70.1455 Y23.3656
 X70.8084 Y23.5275
 X71.4611 Y23.7143
 X72.1032 Y23.9258
 X72.7348 Y24.1621
 X73.3557 Y24.4229
 X73.9655 Y24.7083
 X74.5644 Y25.0183
 X75.1521 Y25.3528
 X75.7282 Y25.7118
 X76.2929 Y26.0950
 X76.4911 Y26.2507
 X76.6693 Y26.4221
 X76.8268 Y26.6076
 X76.9636 Y26.8056
 X77.0794 Y27.0143
 X77.1739 Y27.2321
 X77.2466 Y27.4569
 X77.2976 Y27.6875
 X77.3264 Y27.9217
 X77.3327 Y28.1581
 X77.3164 Y28.3949
 X77.2771 Y28.6301
 X77.2144 Y28.8625
 X77.1282 Y29.0900
 X77.0182 Y29.3110
 X76.8841 Y29.5238
G0 Z5.0000
 X135.9510 Y90.8520
G1 Z0.0000
 X135.9310 Y91.6639
 X135.8690 Y92.4654
 X135.7690 Y93.2553
 X135.6290 Y94.0326
 X135.4530 Y94.7965
 X135.2390 Y95.5460
 X134.9910 Y96.2799
 X134.7070 Y96.9972
 X134.3900 Y97.6969
 X134.0410 Y98.3782
 X133.6600 Y99.0400
 X133.2480 Y99.6813
 X132.8070 Y100.3010
 X132.3380 Y100.8982
 X131.8410 Y101.4718
 X131.3170 Y102.0210
 X130.7680 Y102.5446
 X130.1940 Y103.0417
 X129.5970 Y103.5113
 X128.9770 Y103.9524
 X128.3360 Y104.3638
 X127.6740 Y104.7447
 X126.9930 Y105.0937
 X126.2930 Y105.4107
 X125.5760 Y105.6947
 X124.8420 Y105.9437
 X124.0920 Y106.1567
 X123.3280 Y106.3337
 X122.5510 Y106.4727
 X121.7610 Y106.5737
 X120.9600 Y106.6347
 X120.1480 Y106.6547
 X119.5860 Y106.6347
 X119.0320 Y106.5827
 X118.4840 Y106.5107
 X117.9370 Y106.4317
 X117.4700 Y107.4417
 X116.9850 Y108.4337
 X116.4810 Y109.4087
 X115.9610 Y110.3677
 X115.4230 Y111.3087
 X114.8690 Y112.2337
 X114.2980 Y113.1417
 X113.7110 Y114.0337
 X113.1090 Y114.9077
 X112.4910 Y115.7657
 X111.8580 Y116.6077
 X111.2110 Y117.4317
 X110.5490 Y118.2397
 X109.8730 Y119.0317
 X109.1840 Y119.8067
 X108.4810 Y120.5657
 X107.7660 Y121.3077
 X107.0370 Y122.0327
 X106.2970 Y122.7427
 X105.5450 Y123.4357
 X104.7810 Y124.1127
 X104.0060 Y124.7727
 X103.2204 Y125.4167
 X102.4241 Y126.0447
 X101.6178 Y126.6567
 X100.8015 Y127.2527
 X99.9759 Y127.8327
 X99.1412 Y128.3957
 X98.2976 Y128.9437
 X97.4458 Y129.4747
 X96.5858 Y129.9907
 X95.7182 Y130.4897
 X94.8432 Y130.9737
 X93.9612 Y131.4417
 X93.0725 Y131.8937
 X92.1775 Y132.3297
 X91.2765 Y132.7497
 X90.3698 Y133.1547
 X89.4579 Y133.5437
 X88.5411 Y133.9177
 X87.6197 Y134.2747
 X86.6940 Y134.6167
 X85.7646 Y134.9437
 X84.8314 Y135.2547
 X83.8951 Y135.5497
 X82.9561 Y135.8297
 X82.0144 Y136.0947
 X81.0707 Y136.3437
 X80.1250 Y136.5777
 X79.1780 Y136.7967
 X78.2298 Y136.9997
 X77.2808 Y137.1877
 X76.3315 Y137.3607
 X75.3821 Y137.5177
 X74.4330 Y137.6597
 X73.4844 Y137.7877
 X72.5369 Y137.8997
 X71.5907 Y137.9967
 X70.6461 Y138.0787
 X69.7036 Y138.1457
 X68.7634 Y138.1977
 X67.8259 Y138.2347
 X66.8914 Y138.2577
 X65.9604 Y138.2647
 X65.2930 Y138.2597
 X64.6184 Y138.2437
 X63.9371 Y138.2167
 X63.2493 Y138.1787
 X62.5554 Y138.1297
 X61.8558 Y138.0697
 X61.1509 Y137.9977
 X60.4411 Y137.9147
 X59.7266 Y137.8207
 X59.0079 Y137.7137
 X58.2854 Y137.5957
 X57.5593 Y137.4657
 X56.8301 Y137.3227
 X56.0980 Y137.1677
 X55.3636 Y137.0007
 X54.6271 Y136.8207
 X53.8889 Y136.6287
 X53.1494 Y136.4237
 X52.4089 Y136.2057
 X51.6678 Y135.9747
 X50.9265 Y135.7297
 X50.1853 Y135.4727
 X49.4446 Y135.2007
 X48.7047 Y134.9167
 X47.9661 Y134.6177
 X47.2290 Y134.3057
 X46.4939 Y133.9797
 X45.7611 Y133.6387
 X45.0309 Y133.2847
 X44.3039 Y132.9157
 X43.5801 Y132.5317
 X42.8601 Y132.1337
 X42.1444 Y131.7207
 X41.4330 Y131.2927
 X40.7266 Y130.8497
 X40.0254 Y130.3927
 X39.3297 Y129.9187
 X38.6401 Y129.4307
 X37.9566 Y128.9257
 X37.2800 Y128.4057
 X36.6102 Y127.8707
 X35.9480 Y127.3187
 X35.2936 Y126.7507
 X34.6472 Y126.1667
 X34.0093 Y125.5667
 X33.3803 Y124.9497
 X32.7605 Y124.3167
 X32.1504 Y123.6667
 X31.5501 Y122.9997
 X30.9603 Y122.3157
 X30.3809 Y121.6147
 X29.8128 Y120.8967
 X29.2559 Y120.1607
 X28.7109 Y119.4077
 X28.1780 Y118.6367
 X27.6577 Y117.8487
 X27.1501 Y117.0417
 X26.6558 Y116.2177
 X26.1751 Y115.3747
 X25.7084 Y114.5137
 X25.2559 Y113.6347
 X24.8183 Y112.7367
 X24.3955 Y111.8197
 X23.9883 Y110.8847
 X23.5609 Y110.7757
 X23.1296 Y110.6667
 X22.6953 Y110.5587
 X22.2591 Y110.4487
 X21.8225 Y110.3377
 X21.3864 Y110.2227
 X20.9519 Y110.1037
 X20.5204 Y109.9807
 X20.0930 Y109.8507
 X19.6707 Y109.7137
 X19.2547 Y109.5697
 X18.8462 Y109.4157
 X18.4464 Y109.2527
 X18.0564 Y109.0777
 X17.6773 Y108.8917
 X17.3104 Y108.6927
 X16.9567 Y108.4797
 X16.6175 Y108.2517
 X16.2939 Y108.0077
 X15.9870 Y107.7477
 X15.6981 Y107.4697
 X15.4282 Y107.1727
 X15.1785 Y106.8557
 X14.9502 Y106.5187
 X14.7444 Y106.1597
 X14.5623 Y105.7777
 X14.4050 Y105.3727
 X14.2737 Y104.9425
 X14.1697 Y104.4868
 X14.0939 Y104.0047
 X14.0476 Y103.4949
 X14.0319 Y102.9565
 Y85.2858
 X14.0476 Y84.8135
 X14.0948 Y84.3465
 X14.1730 Y83.8864
 X14.2822 Y83.4347
 X14.4218 Y82.9929
 X14.5917 Y82.5622
 X14.7916 Y82.1443
 X15.0213 Y81.7406
 X15.2804 Y81.3524
 X15.5687 Y80.9813
 X15.8858 Y80.6286
 X16.2317 Y80.2960
 X16.6059 Y79.9847
 X17.0081 Y79.6963
 X17.4382 Y79.4321
 X17.8958 Y79.1938
 X17.3739 Y78.4299
 X16.8426 Y77.6622
 X16.3038 Y76.8903
 X15.7592 Y76.1136
 X15.2103 Y75.3315
 X14.6589 Y74.5436
 X14.1067 Y73.7492
 X13.5554 Y72.9478
 X13.0067 Y72.1389
 X12.4623 Y71.3219
 X11.9239 Y70.4964
 X11.3932 Y69.6617
 X10.8718 Y68.8172
 X10.3615 Y67.9626
 X9.8639 Y67.0972
 X9.3809 Y66.2204
 X8.9139 Y65.3320
 X8.4648 Y64.4308
 X8.0352 Y63.5169
 X7.6269 Y62.5895
 X7.2415 Y61.6481
 X6.8807 Y60.6920
 X6.5463 Y59.7208
 X6.2398 Y58.7340
 X5.9630 Y57.7310
 X5.7177 Y56.7113
 X5.5055 Y55.6742
 X5.3280 Y54.6193
 X5.1870 Y53.5461
 X5.0843 Y52.4539
 X5.0213 Y51.3422
 X5.0000 Y50.2106
 X5.0157 Y49.2586
 X5.0628 Y48.3132
 X5.1411 Y47.3742
 X5.2507 Y46.4418
 X5.3913 Y45.5160
 X5.5629 Y44.5969
 X5.7655 Y43.6847
 X5.9989 Y42.7795
 X6.2630 Y41.8810
 X6.5578 Y40.9894
 X6.8831 Y40.1051
 X7.2389 Y39.2278
 X7.6250 Y38.3578
 X8.0415 Y37.4949
 X8.4880 Y36.6395
 X8.9647 Y35.7914
 X9.4715 Y34.9507
 X10.0081 Y34.1176
 X10.5746 Y33.2922
 X11.1708 Y32.4745
 X11.7966 Y31.6643
 X12.4520 Y30.8621
 X13.1369 Y30.0676
 X13.8512 Y29.2813
 X14.5947 Y28.5028
 X15.3674 Y27.7324
 X16.1692 Y26.9701
 X17.0000 Y26.2161
 X17.8598 Y25.4704
 X18.7483 Y24.7331
 X19.6657 Y24.0040
 X20.6116 Y23.2835
 X21.5862 Y22.5715
 X22.5891 Y21.8682
 X23.6205 Y21.1736
 X24.6802 Y20.4876
 X25.7682 Y19.8106
 X26.8840 Y19.1424
 X28.0280 Y18.4832
 X29.2000 Y17.8330
 X30.3997 Y17.1918
 X31.6272 Y16.5599
 X32.8822 Y15.9371
 X34.1650 Y15.3237
 X35.4751 Y14.7196
 X36.8126 Y14.1249
 X38.1775 Y13.5398
 X39.5696 Y12.9642
 X40.9886 Y12.3982
 X42.4348 Y11.8420
 X43.9079 Y11.2955
 X45.4078 Y10.7588
 X46.9346 Y10.2320
 X48.4879 Y9.7152
 X50.0678 Y9.2084
 X51.6741 Y8.7118
 X53.3068 Y8.2253
 X54.9658 Y7.7491
 X56.6511 Y7.2831
 X58.3625 Y6.8276
 X60.0998 Y6.3824
 X61.8632 Y5.9479
 X63.6523 Y5.5238
 X65.4672 Y5.1104
 X65.9604 Y5.0000
 X66.4540 Y5.1104
 X68.2689 Y5.5238
 X70.0580 Y5.9479
 X71.8212 Y6.3824
 X73.5586 Y6.8276
 X75.2700 Y7.2831
 X76.9551 Y7.7491
 X78.6141 Y8.2253
 X80.2469 Y8.7118
 X81.8533 Y9.2084
 X83.4332 Y9.7152
 X84.9865 Y10.2320
 X86.5132 Y10.7588
 X88.0130 Y11.2955
 X89.4861 Y11.8420
 X90.9323 Y12.3982
 X92.3514 Y12.9642
 X93.7434 Y13.5398
 X95.1082 Y14.1249
 X96.4458 Y14.7196
 X97.7559 Y15.3237
 X99.0386 Y15.9371
 X100.2937 Y16.5599
 X101.5212 Y17.1918
 X102.7209 Y17.8330
 X103.8930 Y18.4832
 X105.0370 Y19.1424
 X106.1530 Y19.8106
 X107.2410 Y20.4876
 X108.3000 Y21.1736
 X109.3320 Y21.8682
 X110.3350 Y22.5715
 X111.3090 Y23.2835
 X112.2550 Y24.0040
 X113.1720 Y24.7331
 X114.0610 Y25.4704
 X114.9210 Y26.2161
 X115.7510 Y26.9701
 X116.5530 Y27.7324
 X117.3260 Y28.5028
 X118.0700 Y29.2813
 X118.7840 Y30.0676
 X119.4690 Y30.8621
 X120.1240 Y31.6643
 X120.7500 Y32.4745
 X121.3460 Y33.2922
 X121.9130 Y34.1176
 X122.4490 Y34.9507
 X122.9560 Y35.7914
 X123.4330 Y36.6395
 X123.8790 Y37.4949
 X124.2960 Y38.3578
 X124.6820 Y39.2278
 X125.0380 Y40.1051
 X125.3630 Y40.9894
 X125.6580 Y41.8810
 X125.9220 Y42.7795
 X126.1550 Y43.6847
 X126.3580 Y44.5969
 X126.5290 Y45.5160
 X126.6700 Y46.4418
 X126.7800 Y47.3742
 X126.8580 Y48.3132
 X126.9050 Y49.2586
 X126.9210 Y50.2106
 X126.9050 Y51.1743
 X126.8590 Y52.1240
 X126.7840 Y53.0603
 X126.6800 Y53.9829
 X126.5490 Y54.8925
 X126.3910 Y55.7893
 X126.2090 Y56.6735
 X126.0030 Y57.5453
 X125.7730 Y58.4053
 X125.5220 Y59.2533
 X125.2490 Y60.0900
 X124.9570 Y60.9154
 X124.6460 Y61.7299
 X124.3170 Y62.5338
 X123.9710 Y63.3271
 X123.6100 Y64.1104
 X123.2350 Y64.8839
 X122.8450 Y65.6478
 X122.4440 Y66.4024
 X122.0310 Y67.1481
 X121.6080 Y67.8847
 X121.1750 Y68.6131
 X120.7350 Y69.3332
 X120.2870 Y70.0454
 X119.8330 Y70.7499
 X119.3740 Y71.4469
 X118.9120 Y72.1370
 X118.4460 Y72.8201
 X117.9780 Y73.4967
 X117.5100 Y74.1670
 X117.0420 Y74.8311
 X116.5760 Y75.4896
 X117.4460 Y75.3076
 X118.3310 Y75.1681
 X119.2310 Y75.0788
 X120.1480 Y75.0472
 X120.9600 Y75.0678
 X121.7610 Y75.1289
 X122.5510 Y75.2296
 X123.3280 Y75.3689
 X124.0920 Y75.5456
 X124.8420 Y75.7589
 X125.5760 Y76.0078
 X126.2930 Y76.2911
 X126.9930 Y76.6081
 X127.6740 Y76.9575
 X128.3360 Y77.3385
 X128.9770 Y77.7500
 X129.5970 Y78.1911
 X130.1940 Y78.6607
 X130.7680 Y79.1578
 X131.3170 Y79.6815
 X131.8410 Y80.2307
 X132.3380 Y80.8045
 X132.8070 Y81.4017
 X133.2480 Y82.0214
 X133.6600 Y82.6628
 X134.0410 Y83.3246
 X134.3900 Y84.0060
 X134.7070 Y84.7058
 X134.9910 Y85.4233
 X135.2390 Y86.1572
 X135.4530 Y86.9067
 X135.6290 Y87.6707
 X135.7690 Y88.4483
 X135.8690 Y89.2383
 X135.9310 Y90.0399
 X135.9510 Y90.8520
G0 Z5.0000
G0 Z5.0000
M2 (end program)
