;PYCAM-META-DATA: Filename: /media/martoio/MARTOIO/ME43/std_lib/svg/024-cold.svg
;PYCAM-META-DATA: Timestamp: 2017-12-06 02:09:22.064654
;PYCAM-META-DATA: Version: 0.5.1
;Estimated machine time: 14 minutes
G40 (disable tool radius compensation)
G49 (disable tool length compensation)
G80 (cancel modal motion)
G54 (select coordinate system 1)
G90 (disable incremental moves)
G21 (metric)
G61 (exact path mode)
F400.00000
S1.00000
;PYCAM_TOOLPATH_SETTINGS: START
;[Bounds]
;maxz = 0.0
;maxx = 158.428470734
;maxy = 163.447475826
;minx = -13.948042794
;miny = -8.9497705296
;minz = 0.0
;
;[Tool]
;torus_radius = 0.25
;speed = 1.0
;shape = CylindricalCutter
;tool_radius = 0.5
;feedrate = 400.0
;
;[Process]
;engrave_offset = 0.0
;step_down = 1.0
;generator = EngraveCutter
;postprocessor = SimpleCutter
;overlap_percent = 0
;milling_style = conventional
;material_allowance = 0.0
;pocketing_type = none
;path_direction = x
;
;PYCAM_TOOLPATH_SETTINGS: END
T1 M6
G0 Z5.0000
 X97.2974 Y20.9717
G1 Z0.0000
 X96.6618 Y20.3556
 X96.0138 Y19.7572
 X95.3535 Y19.1767
 X94.6814 Y18.6141
 X93.9978 Y18.0697
 X93.3029 Y17.5434
 X92.5971 Y17.0355
 X91.8804 Y16.5460
 X91.1535 Y16.0750
 X90.4165 Y15.6228
 X89.6696 Y15.1893
 X88.9133 Y14.7748
 X88.1477 Y14.3793
 X87.3732 Y14.0030
 X86.5901 Y13.6461
 X85.7988 Y13.3084
 X84.9992 Y12.9903
 X84.1921 Y12.6919
 X83.3774 Y12.4132
 X82.5556 Y12.1545
 X81.7270 Y11.9157
 X80.8917 Y11.6971
 X80.0502 Y11.4987
 X79.2028 Y11.3207
 X78.3496 Y11.1632
 X77.4911 Y11.0263
 X76.6275 Y10.9101
 X75.7592 Y10.8148
 X74.8863 Y10.7405
 X74.0090 Y10.6872
 X73.1281 Y10.6552
 X72.2435 Y10.6444
 X71.9913 Y10.6458
 X71.0971 Y10.6634
 X70.2079 Y10.7034
 X69.3242 Y10.7656
 X68.4461 Y10.8497
 X67.5740 Y10.9555
 X66.7082 Y11.0826
 X65.8488 Y11.2308
 X64.9961 Y11.3999
 X64.1506 Y11.5895
 X63.3124 Y11.7993
 X62.4817 Y12.0292
 X61.6590 Y12.2787
 X60.8445 Y12.5477
 X60.0385 Y12.8358
 X59.2411 Y13.1428
 X58.4528 Y13.4685
 X57.6738 Y13.8124
 X56.9043 Y14.1744
 X56.1447 Y14.5542
 X55.3952 Y14.9514
 X54.6561 Y15.3659
 X53.9276 Y15.7974
 X53.2103 Y16.2455
 X52.5042 Y16.7100
 X51.8096 Y17.1906
 X51.1268 Y17.6871
 X50.4560 Y18.1992
 X49.7977 Y18.7265
 X49.1520 Y19.2688
 X48.5192 Y19.8258
 X47.8996 Y20.3975
 X47.2935 Y20.9831
 X46.7011 Y21.5828
 X46.1228 Y22.1960
 X45.5589 Y22.8226
 X45.0096 Y23.4624
 X44.4750 Y24.1147
 X43.9557 Y24.7799
 X43.4520 Y25.4571
 X42.9638 Y26.1463
 X42.4917 Y26.8472
 X42.0358 Y27.5596
 X41.5964 Y28.2831
 X41.1739 Y29.0175
 X40.7686 Y29.7624
 X40.3807 Y30.5176
 X40.0104 Y31.2829
 X39.6581 Y32.0581
 X39.3240 Y32.8426
 X39.0085 Y33.6364
 X38.7117 Y34.4390
 X38.4340 Y35.2504
 X38.1757 Y36.0701
 X37.9370 Y36.8981
 X37.7181 Y37.7336
 X37.5196 Y38.5770
 X37.3414 Y39.4274
 X37.1840 Y40.2849
 X37.0477 Y41.1490
 X36.9327 Y42.0197
 X36.8392 Y42.8965
 X36.7676 Y43.7793
 X36.7182 Y44.6676
 X36.6913 Y45.5613
 X36.6963 Y47.0671
 X36.7640 Y48.5650
 X36.8940 Y50.0532
 X37.0856 Y51.5300
 X37.3379 Y52.9936
 X37.6507 Y54.4426
 X38.0231 Y55.8750
 X38.4545 Y57.2892
 X38.9442 Y58.6832
 X39.4917 Y60.0557
 X40.0964 Y61.4049
 X40.7576 Y62.7289
 X41.4747 Y64.0260
 X42.2471 Y65.2947
 X43.0740 Y66.5331
 X43.9550 Y67.7394
 X44.5120 Y67.4747
 X45.0857 Y67.2414
 X45.6752 Y67.0407
 X46.2792 Y66.8738
 X46.8967 Y66.7418
 X47.5265 Y66.6463
 X48.1678 Y66.5879
 X48.8193 Y66.5682
 X69.4570
 Y52.3868
 X69.4649 Y52.0715
 X69.4886 Y51.7601
 X69.5276 Y51.4533
 X69.5818 Y51.1514
 X69.6504 Y50.8547
 X69.7332 Y50.5636
 X69.8300 Y50.2786
 X69.9400 Y50.0000
 X70.0631 Y49.7282
 X70.1988 Y49.4635
 X70.3467 Y49.2065
 X70.5065 Y48.9575
 X70.6778 Y48.7167
 X70.8601 Y48.4849
 X71.0532 Y48.2620
 X71.2567 Y48.0488
 X71.4699 Y47.8453
 X71.6928 Y47.6522
 X71.9247 Y47.4699
 X72.1654 Y47.2986
 X72.4145 Y47.1388
 X72.6714 Y46.9908
 X72.9361 Y46.8551
 X73.2079 Y46.7321
 X73.4865 Y46.6220
 X73.7715 Y46.5253
 X74.0626 Y46.4425
 X74.3593 Y46.3739
 X74.6613 Y46.3197
 X74.9681 Y46.2807
 X75.2795 Y46.2569
 X75.5949 Y46.2489
 X78.8743
 Y38.6642
 X78.8822 Y38.3488
 X78.9060 Y38.0375
 X78.9450 Y37.7307
 X78.9992 Y37.4288
 X79.0678 Y37.1321
 X79.1506 Y36.8410
 X79.2474 Y36.5560
 X79.3574 Y36.2774
 X79.4804 Y36.0056
 X79.6161 Y35.7410
 X79.7640 Y35.4839
 X79.9239 Y35.2349
 X80.0952 Y34.9942
 X80.2776 Y34.7622
 X80.4706 Y34.5395
 X80.6740 Y34.3261
 X80.8872 Y34.1228
 X81.1101 Y33.9297
 X81.3421 Y33.7474
 X81.5828 Y33.5761
 X81.8318 Y33.4164
 X82.0889 Y33.2683
 X82.3535 Y33.1326
 X82.6253 Y33.0096
 X82.9039 Y32.8996
 X83.1889 Y32.8029
 X83.4800 Y32.7201
 X83.7767 Y32.6515
 X84.0788 Y32.5974
 X84.3856 Y32.5583
 X84.6968 Y32.5346
 X85.0122 Y32.5265
 X91.9260
 X92.2413 Y32.5346
 X92.5527 Y32.5583
 X92.8595 Y32.5974
 X93.1613 Y32.6515
 X93.4579 Y32.7201
 X93.7490 Y32.8029
 X94.0340 Y32.8996
 X94.3126 Y33.0096
 X94.5845 Y33.1326
 X94.8490 Y33.2683
 X95.1061 Y33.4164
 X95.3551 Y33.5761
 X95.5958 Y33.7474
 X95.8278 Y33.9297
 X96.0506 Y34.1228
 X96.2639 Y34.3261
 X96.4672 Y34.5395
 X96.6603 Y34.7622
 X96.8427 Y34.9942
 X97.0139 Y35.2349
 X97.1738 Y35.4839
 X97.3217 Y35.7410
 X97.4574 Y36.0056
 X97.5804 Y36.2774
 X97.6906 Y36.5560
 X97.7872 Y36.8410
 X97.8700 Y37.1321
 X97.9386 Y37.4288
 X97.9928 Y37.7307
 X98.0318 Y38.0375
 X98.0556 Y38.3488
 X98.0636 Y38.6642
 Y66.8408
 X98.7057 Y67.0101
 X99.3314 Y67.2169
 X99.9395 Y67.4603
 X100.5294 Y67.7394
 X101.3854 Y66.5663
 X102.1924 Y65.3622
 X102.9464 Y64.1292
 X103.6494 Y62.8685
 X104.2994 Y61.5821
 X104.8964 Y60.2715
 X105.4394 Y58.9386
 X105.9284 Y57.5847
 X106.3614 Y56.2117
 X106.7394 Y54.8210
 X107.0604 Y53.4146
 X107.3254 Y51.9939
 X107.5314 Y50.5606
 X107.6804 Y49.1164
 X107.7694 Y47.6631
 X107.7994 Y46.2020
 X107.7884 Y45.3090
 X107.7564 Y44.4197
 X107.7014 Y43.5344
 X107.6264 Y42.6536
 X107.5294 Y41.7772
 X107.4104 Y40.9060
 X107.2714 Y40.0399
 X107.1114 Y39.1792
 X106.9294 Y38.3245
 X106.7284 Y37.4758
 X106.5054 Y36.6336
 X106.2624 Y35.7983
 X105.9994 Y34.9699
 X105.7154 Y34.1489
 X105.4124 Y33.3356
 X105.0884 Y32.5301
 X104.7444 Y31.7329
 X104.3814 Y30.9443
 X103.9994 Y30.1646
 X103.5964 Y29.3940
 X103.1754 Y28.6329
 X102.7344 Y27.8815
 X102.2744 Y27.1403
 X101.7954 Y26.4093
 X101.2984 Y25.6892
 X100.7814 Y24.9799
 X100.2464 Y24.2818
 X99.6932 Y23.5954
 X99.1214 Y22.9210
 X98.5314 Y22.2586
 X97.9233 Y21.6088
 X97.2974 Y20.9717
G0 Z5.0000
 X92.4206 Y66.5682
G1 Z0.0000
 Y38.6642
 X92.4106 Y38.5651
 X92.3817 Y38.4726
 X92.3360 Y38.3889
 X92.2756 Y38.3158
 X92.2022 Y38.2556
 X92.1183 Y38.2100
 X92.0256 Y38.1811
 X91.9260 Y38.1710
 X85.0122
 X84.9127 Y38.1811
 X84.8199 Y38.2100
 X84.7361 Y38.2556
 X84.6631 Y38.3158
 X84.6029 Y38.3889
 X84.5574 Y38.4726
 X84.5288 Y38.5651
 X84.5188 Y38.6642
 Y46.5893
 X84.9604 Y46.7626
 X85.3849 Y46.9682
 X85.7906 Y47.2047
 X86.1758 Y47.4706
 X86.5392 Y47.7642
 X86.8790 Y48.0839
 X87.1939 Y48.4285
 X87.4822 Y48.7961
 X87.7424 Y49.1854
 X87.9728 Y49.5947
 X88.1721 Y50.0228
 X88.3386 Y50.4676
 X88.4708 Y50.9281
 X88.5672 Y51.4025
 X88.6263 Y51.8893
 X88.6463 Y52.3868
 Y66.5682
 X92.4206
G0 Z5.0000
 X83.0018
G1 Z0.0000
 Y52.3868
 X82.9917 Y52.2876
 X82.9628 Y52.1951
 X82.9172 Y52.1114
 X82.8568 Y52.0382
 X82.7838 Y51.9779
 X82.6999 Y51.9322
 X82.6074 Y51.9035
 X82.5082 Y51.8933
 X75.5949
 X75.4952 Y51.9035
 X75.4024 Y51.9322
 X75.3182 Y51.9779
 X75.2450 Y52.0382
 X75.1845 Y52.1114
 X75.1388 Y52.1951
 X75.1100 Y52.2876
 X75.0999 Y52.3868
 Y66.5682
 X83.0018
G0 Z5.0000
 X48.8193 Y82.3715
G1 Z0.0000
 X95.6643
 X96.1832 Y82.3453
 X96.6871 Y82.2682
 X97.1736 Y82.1428
 X97.6402 Y81.9717
 X98.0843 Y81.7575
 X98.5032 Y81.5028
 X98.8945 Y81.2100
 X99.2556 Y80.8820
 X99.5836 Y80.5210
 X99.8764 Y80.1299
 X100.1314 Y79.7110
 X100.3454 Y79.2671
 X100.5164 Y78.8006
 X100.6424 Y78.3142
 X100.7194 Y77.8104
 X100.7454 Y77.2920
 X100.7194 Y76.7732
 X100.6424 Y76.2693
 X100.5164 Y75.7828
 X100.3454 Y75.3163
 X100.1314 Y74.8722
 X99.8764 Y74.4533
 X99.5836 Y74.0621
 X99.2556 Y73.7011
 X98.8945 Y73.3729
 X98.5032 Y73.0801
 X98.0843 Y72.8254
 X97.6402 Y72.6111
 X97.1736 Y72.4400
 X96.6871 Y72.3147
 X96.1832 Y72.2375
 X95.6643 Y72.2113
 X48.8193
 X48.3008 Y72.2375
 X47.7972 Y72.3147
 X47.3108 Y72.4400
 X46.8445 Y72.6111
 X46.4006 Y72.8254
 X45.9817 Y73.0801
 X45.5906 Y73.3729
 X45.2297 Y73.7011
 X44.9017 Y74.0621
 X44.6089 Y74.4533
 X44.3542 Y74.8722
 X44.1400 Y75.3163
 X43.9689 Y75.7828
 X43.8435 Y76.2693
 X43.7664 Y76.7732
 X43.7401 Y77.2920
 X43.7664 Y77.8104
 X43.8435 Y78.3142
 X43.9689 Y78.8006
 X44.1400 Y79.2671
 X44.3542 Y79.7110
 X44.6089 Y80.1299
 X44.9017 Y80.5210
 X45.2297 Y80.8820
 X45.5906 Y81.2100
 X45.9817 Y81.5028
 X46.4006 Y81.7575
 X46.8445 Y81.9717
 X47.3108 Y82.1428
 X47.7972 Y82.2682
 X48.3008 Y82.3453
 X48.8193 Y82.3715
G0 Z5.0000
 X70.5967 Y96.5624
G1 Z0.0000
 X65.3217 Y97.7075
 X70.8239 Y100.1039
 X70.9288 Y99.7185
 X71.0103 Y99.3285
 X71.0631 Y98.9401
 X71.0818 Y98.5592
 X71.0715 Y98.3207
 X71.0425 Y98.0747
 X70.9970 Y97.8236
 X70.9368 Y97.5692
 X70.8646 Y97.3138
 X70.7824 Y97.0593
 X70.6922 Y96.8082
 X70.5967 Y96.5624
G0 Z5.0000
 X96.4942 Y104.3651
G1 Z0.0000
 X96.4679 Y103.2238
 X96.3897 Y102.0919
 X96.2600 Y100.9710
 X96.0795 Y99.8624
 X95.8486 Y98.7674
 X95.5681 Y97.6874
 X95.2385 Y96.6238
 X94.8601 Y95.5779
 X94.4339 Y94.5513
 X93.9602 Y93.5450
 X93.4396 Y92.5606
 X92.8727 Y91.5994
 X92.2600 Y90.6629
 X91.6022 Y89.7524
 X90.8999 Y88.8692
 X90.1536 Y88.0146
 X54.3315
 X53.5852 Y88.8692
 X52.8828 Y89.7524
 X52.2250 Y90.6629
 X51.6124 Y91.5994
 X51.0456 Y92.5606
 X50.5250 Y93.5450
 X50.0513 Y94.5513
 X49.6250 Y95.5779
 X49.2467 Y96.6238
 X48.9170 Y97.6874
 X48.6365 Y98.7674
 X48.4056 Y99.8624
 X48.2252 Y100.9710
 X48.0954 Y102.0919
 X48.0172 Y103.2238
 X47.9911 Y104.3651
 X48.0132 Y105.4047
 X48.0795 Y106.4387
 X48.1892 Y107.4657
 X48.3421 Y108.4837
 X48.5375 Y109.4927
 X48.7751 Y110.4897
 X49.0545 Y111.4757
 X49.3749 Y112.4467
 X49.7360 Y113.4037
 X50.1374 Y114.3447
 X50.5785 Y115.2687
 X51.0590 Y116.1737
 X51.5782 Y117.0597
 X52.1358 Y117.9247
 X52.7313 Y118.7667
 X53.3642 Y119.5857
 X91.1210
 X91.7538 Y118.7667
 X92.3493 Y117.9247
 X92.9068 Y117.0597
 X93.4261 Y116.1737
 X93.9067 Y115.2687
 X94.3478 Y114.3447
 X94.7492 Y113.4037
 X95.1103 Y112.4467
 X95.4307 Y111.4757
 X95.7100 Y110.4897
 X95.9477 Y109.4927
 X96.1431 Y108.4837
 X96.2960 Y107.4657
 X96.4057 Y106.4387
 X96.4720 Y105.4047
 X96.4942 Y104.3651
G0 Z5.0000
 X54.7464 Y142.1617
G1 Z0.0000
 X54.7552 Y142.3347
 X54.7808 Y142.5027
 X54.8225 Y142.6647
 X54.8796 Y142.8197
 X54.9510 Y142.9677
 X55.0358 Y143.1077
 X55.1333 Y143.2377
 X55.2428 Y143.3577
 X55.3631 Y143.4667
 X55.4935 Y143.5647
 X55.6331 Y143.6497
 X55.7811 Y143.7207
 X55.9367 Y143.7777
 X56.0990 Y143.8197
 X56.2670 Y143.8457
 X56.4400 Y143.8537
 X88.0465
 X88.2193 Y143.8457
 X88.3871 Y143.8197
 X88.5492 Y143.7777
 X88.7046 Y143.7207
 X88.8525 Y143.6497
 X88.9920 Y143.5647
 X89.1224 Y143.4667
 X89.2425 Y143.3577
 X89.3518 Y143.2377
 X89.4493 Y143.1077
 X89.5342 Y142.9677
 X89.6056 Y142.8197
 X89.6625 Y142.6647
 X89.7043 Y142.5027
 X89.7300 Y142.3347
 X89.7388 Y142.1617
 Y134.2607
 X54.7464
 Y142.1617
G0 Z5.0000
 X47.9733 Y128.6157
G1 Z0.0000
 X96.5121
 Y125.2297
 X47.9733
 Y128.6157
G0 Z5.0000
 X143.0704 Y21.0324
G1 Z0.0000
 X139.6494 Y23.0057
 X143.0704 Y24.9803
 X143.3124 Y25.1371
 X143.5344 Y25.3142
 X143.7334 Y25.5095
 X143.9104 Y25.7213
 X144.0654 Y25.9475
 X144.1954 Y26.1863
 X144.3024 Y26.4357
 X144.3844 Y26.6936
 X144.4424 Y26.9582
 X144.4744 Y27.2276
 X144.4804 Y27.4999
 X144.4594 Y27.7728
 X144.4124 Y28.0449
 X144.3374 Y28.3138
 X144.2344 Y28.5776
 X144.1024 Y28.8347
 X143.9454 Y29.0775
 X143.7694 Y29.2988
 X143.5734 Y29.4983
 X143.3604 Y29.6754
 X143.1354 Y29.8297
 X142.8974 Y29.9606
 X142.6474 Y30.0675
 X142.3884 Y30.1500
 X142.1244 Y30.2075
 X141.8554 Y30.2396
 X141.5834 Y30.2457
 X141.3094 Y30.2253
 X141.0384 Y30.1778
 X140.7694 Y30.1029
 X140.5054 Y30.0000
 X140.2484 Y29.8683
 X136.8284 Y27.8935
 Y31.8429
 X136.8134 Y32.1314
 X136.7704 Y32.4117
 X136.7014 Y32.6821
 X136.6064 Y32.9414
 X136.4874 Y33.1881
 X136.3464 Y33.4208
 X136.1834 Y33.6381
 X136.0014 Y33.8385
 X135.8014 Y34.0206
 X135.5844 Y34.1831
 X135.3514 Y34.3245
 X135.1044 Y34.4433
 X134.8454 Y34.5382
 X134.5754 Y34.6078
 X134.2954 Y34.6506
 X134.0074 Y34.6651
 X133.7184 Y34.6506
 X133.4384 Y34.6078
 X133.1674 Y34.5382
 X132.9084 Y34.4433
 X132.6614 Y34.3245
 X132.4284 Y34.1831
 X132.2114 Y34.0206
 X132.0114 Y33.8385
 X131.8284 Y33.6381
 X131.6664 Y33.4208
 X131.5254 Y33.1881
 X131.4064 Y32.9414
 X131.3114 Y32.6821
 X131.2424 Y32.4117
 X131.1994 Y32.1314
 X131.1844 Y31.8429
 Y27.8935
 X127.7644 Y29.8683
 X127.5074 Y30.0000
 X127.2434 Y30.1029
 X126.9744 Y30.1778
 X126.7024 Y30.2253
 X126.4294 Y30.2457
 X126.1574 Y30.2396
 X125.8884 Y30.2075
 X125.6234 Y30.1500
 X125.3654 Y30.0675
 X125.1164 Y29.9606
 X124.8774 Y29.8297
 X124.6514 Y29.6754
 X124.4394 Y29.4983
 X124.2444 Y29.2988
 X124.0674 Y29.0775
 X123.9104 Y28.8347
 X123.7784 Y28.5776
 X123.6754 Y28.3138
 X123.6004 Y28.0449
 X123.5524 Y27.7728
 X123.5324 Y27.4999
 X123.5384 Y27.2276
 X123.5704 Y26.9582
 X123.6274 Y26.6936
 X123.7104 Y26.4357
 X123.8174 Y26.1863
 X123.9484 Y25.9475
 X124.1024 Y25.7213
 X124.2794 Y25.5095
 X124.4784 Y25.3142
 X124.6994 Y25.1371
 X124.9424 Y24.9803
 X128.3624 Y23.0057
 X124.9424 Y21.0324
 X124.6994 Y20.8754
 X124.4784 Y20.6981
 X124.2794 Y20.5026
 X124.1024 Y20.2907
 X123.9484 Y20.0644
 X123.8174 Y19.8256
 X123.7104 Y19.5763
 X123.6274 Y19.3183
 X123.5704 Y19.0538
 X123.5384 Y18.7843
 X123.5324 Y18.5121
 X123.5524 Y18.2390
 X123.6004 Y17.9670
 X123.6754 Y17.6979
 X123.7784 Y17.4338
 X123.9104 Y17.1765
 X124.1254 Y16.8560
 X124.3754 Y16.5741
 X124.6564 Y16.3322
 X124.9634 Y16.1315
 X125.2914 Y15.9732
 X125.6354 Y15.8586
 X125.9924 Y15.7889
 X126.3564 Y15.7654
 X126.7154 Y15.7886
 X127.0734 Y15.8588
 X127.4244 Y15.9770
 X127.7644 Y16.1443
 X131.1844 Y18.1191
 Y14.1698
 X131.1994 Y13.8812
 X131.2424 Y13.6010
 X131.3114 Y13.3306
 X131.4064 Y13.0713
 X131.5254 Y12.8246
 X131.6664 Y12.5919
 X131.8294 Y12.3746
 X132.0114 Y12.1742
 X132.2124 Y11.9921
 X132.4294 Y11.8296
 X132.6614 Y11.6882
 X132.9084 Y11.5694
 X133.1674 Y11.4744
 X133.4384 Y11.4049
 X133.7184 Y11.3621
 X134.0074 Y11.3476
 X134.2954 Y11.3621
 X134.5754 Y11.4049
 X134.8464 Y11.4744
 X135.1054 Y11.5694
 X135.3524 Y11.6882
 X135.5844 Y11.8296
 X135.8014 Y11.9921
 X136.0024 Y12.1742
 X136.1844 Y12.3746
 X136.3464 Y12.5919
 X136.4874 Y12.8246
 X136.6064 Y13.0713
 X136.7014 Y13.3306
 X136.7704 Y13.6010
 X136.8134 Y13.8812
 X136.8284 Y14.1698
 Y18.1191
 X140.2484 Y16.1443
 X140.5874 Y15.9770
 X140.9384 Y15.8588
 X141.2974 Y15.7886
 X141.6564 Y15.7654
 X142.0204 Y15.7889
 X142.3764 Y15.8586
 X142.7224 Y15.9732
 X143.0494 Y16.1315
 X143.3564 Y16.3322
 X143.6374 Y16.5741
 X143.8874 Y16.8560
 X144.1024 Y17.1765
 X144.2344 Y17.4338
 X144.3374 Y17.6979
 X144.4124 Y17.9670
 X144.4594 Y18.2390
 X144.4804 Y18.5121
 X144.4744 Y18.7843
 X144.4424 Y19.0538
 X144.3844 Y19.3183
 X144.3024 Y19.5763
 X144.1954 Y19.8256
 X144.0654 Y20.0644
 X143.9104 Y20.2907
 X143.7334 Y20.5026
 X143.5344 Y20.6981
 X143.3124 Y20.8754
 X143.0704 Y21.0324
G0 Z5.0000
 X62.0100 Y23.9618
G1 Z0.0000
 X61.0004 Y24.4697
 X60.0199 Y25.0211
 X59.0696 Y25.6149
 X58.1507 Y26.2496
 X57.2642 Y26.9242
 X56.4115 Y27.6374
 X55.5935 Y28.3879
 X54.8115 Y29.1747
 X54.0665 Y29.9965
 X53.3600 Y30.8520
 X52.6928 Y31.7400
 X52.0661 Y32.6595
 X51.4811 Y33.6090
 X50.9390 Y34.5875
 X50.4410 Y35.5936
 X49.9882 Y36.6263
 X49.8649 Y36.8875
 X49.7188 Y37.1304
 X49.5517 Y37.3542
 X49.3654 Y37.5579
 X49.1618 Y37.7410
 X48.9427 Y37.9025
 X48.7099 Y38.0417
 X48.4653 Y38.1579
 X48.2107 Y38.2501
 X47.9481 Y38.3179
 X47.6792 Y38.3603
 X47.4060 Y38.3764
 X47.1302 Y38.3657
 X46.8536 Y38.3272
 X46.5782 Y38.2601
 X46.3058 Y38.1639
 X46.0445 Y38.0408
 X45.8015 Y37.8947
 X45.5779 Y37.7276
 X45.3740 Y37.5413
 X45.1911 Y37.3375
 X45.0296 Y37.1183
 X44.8903 Y36.8854
 X44.7742 Y36.6407
 X44.6818 Y36.3861
 X44.6142 Y36.1233
 X44.5718 Y35.8543
 X44.5556 Y35.5810
 X44.5664 Y35.3050
 X44.6049 Y35.0285
 X44.6718 Y34.7529
 X44.7681 Y34.4806
 X45.0403 Y33.8397
 X45.3265 Y33.2068
 X45.6268 Y32.5822
 X45.9407 Y31.9658
 X46.2682 Y31.3581
 X46.6092 Y30.7590
 X46.9632 Y30.1689
 X47.3304 Y29.5878
 X47.7104 Y29.0161
 X48.1031 Y28.4539
 X48.5083 Y27.9013
 X48.9257 Y27.3586
 X49.3554 Y26.8258
 X49.7971 Y26.3035
 X50.2504 Y25.7915
 X50.7154 Y25.2901
 X51.1920 Y24.7995
 X51.6796 Y24.3199
 X52.1783 Y23.8514
 X52.6881 Y23.3943
 X53.2085 Y22.9488
 X53.7395 Y22.5149
 X54.2808 Y22.0931
 X54.8324 Y21.6832
 X55.3939 Y21.2857
 X55.9653 Y20.9007
 X56.5463 Y20.5283
 X57.1367 Y20.1689
 X57.7365 Y19.8224
 X58.3456 Y19.4892
 X58.9633 Y19.1693
 X59.5900 Y18.8631
 X59.8863 Y18.7421
 X60.1881 Y18.6571
 X60.4926 Y18.6069
 X60.7972 Y18.5904
 X61.1906 Y18.6179
 X61.5740 Y18.6993
 X61.9420 Y18.8324
 X62.2888 Y19.0151
 X62.6086 Y19.2456
 X62.8958 Y19.5217
 X63.1447 Y19.8413
 X63.3496 Y20.2026
 X63.4602 Y20.4696
 X63.5415 Y20.7411
 X63.5946 Y21.0153
 X63.6200 Y21.2904
 X63.6183 Y21.5642
 X63.5903 Y21.8351
 X63.5367 Y22.1011
 X63.4579 Y22.3603
 X63.3550 Y22.6108
 X63.2283 Y22.8507
 X63.0788 Y23.0781
 X62.9068 Y23.2911
 X62.7133 Y23.4881
 X62.4989 Y23.6667
 X62.2643 Y23.8251
 X62.0100 Y23.9618
G0 Z5.0000
 X48.2063 Y45.2829
G1 Z0.0000
 X48.1853 Y45.5711
 X48.1364 Y45.8504
 X48.0610 Y46.1197
 X47.9606 Y46.3774
 X47.8364 Y46.6221
 X47.6902 Y46.8524
 X47.5231 Y47.0668
 X47.3367 Y47.2640
 X47.1322 Y47.4426
 X46.9115 Y47.6013
 X46.6758 Y47.7383
 X46.4264 Y47.8524
 X46.1649 Y47.9422
 X45.8926 Y48.0064
 X45.6113 Y48.0433
 X45.3220 Y48.0515
 X45.0336 Y48.0307
 X44.7545 Y47.9821
 X44.4856 Y47.9072
 X44.2285 Y47.8072
 X43.9845 Y47.6838
 X43.7550 Y47.5382
 X43.5414 Y47.3720
 X43.3451 Y47.1864
 X43.1675 Y46.9831
 X43.0099 Y46.7632
 X42.8738 Y46.5283
 X42.7606 Y46.2799
 X42.6714 Y46.0192
 X42.6079 Y45.7478
 X42.5714 Y45.4670
 X42.5632 Y45.1782
 Y45.1383
 X42.5836 Y44.8538
 X42.6315 Y44.5778
 X42.7051 Y44.3115
 X42.8032 Y44.0567
 X42.9245 Y43.8143
 X43.0674 Y43.5860
 X43.2307 Y43.3729
 X43.4128 Y43.1765
 X43.6125 Y42.9982
 X43.8282 Y42.8393
 X44.0589 Y42.7010
 X44.3026 Y42.5849
 X44.5586 Y42.4922
 X44.8250 Y42.4243
 X45.1006 Y42.3825
 X45.3840 Y42.3683
 X45.4475
 X45.7357 Y42.3892
 X46.0150 Y42.4378
 X46.2838 Y42.5128
 X46.5410 Y42.6128
 X46.7849 Y42.7361
 X47.0145 Y42.8817
 X47.2279 Y43.0481
 X47.4243 Y43.2336
 X47.6020 Y43.4369
 X47.7595 Y43.6568
 X47.8956 Y43.8917
 X48.0089 Y44.1401
 X48.0981 Y44.4007
 X48.1615 Y44.6722
 X48.1981 Y44.9531
 X48.2063 Y45.2417
 Y45.2829
G0 Z5.0000
 X128.0834 Y108.5807
G1 Z0.0000
 X124.6634 Y110.5547
 X128.0834 Y112.5287
 X128.3254 Y112.6857
 X128.5474 Y112.8627
 X128.7464 Y113.0587
 X128.9234 Y113.2697
 X129.0774 Y113.4967
 X129.2084 Y113.7347
 X129.3154 Y113.9847
 X129.3984 Y114.2427
 X129.4554 Y114.5067
 X129.4874 Y114.7767
 X129.4934 Y115.0487
 X129.4734 Y115.3217
 X129.4254 Y115.5937
 X129.3504 Y115.8627
 X129.2474 Y116.1267
 X129.1164 Y116.3847
 X128.9594 Y116.6267
 X128.7824 Y116.8477
 X128.5864 Y117.0477
 X128.3744 Y117.2247
 X128.1484 Y117.3787
 X127.9094 Y117.5097
 X127.6604 Y117.6167
 X127.4024 Y117.6987
 X127.1384 Y117.7567
 X126.8684 Y117.7887
 X126.5964 Y117.7947
 X126.3234 Y117.7737
 X126.0514 Y117.7267
 X125.7834 Y117.6517
 X125.5194 Y117.5487
 X125.2624 Y117.4167
 X121.8414 Y115.4427
 Y119.3907
 X121.8274 Y119.6797
 X121.7844 Y119.9597
 X121.7144 Y120.2307
 X121.6194 Y120.4897
 X121.5004 Y120.7367
 X121.3594 Y120.9687
 X121.1974 Y121.1867
 X121.0144 Y121.3867
 X120.8144 Y121.5687
 X120.5974 Y121.7317
 X120.3644 Y121.8727
 X120.1174 Y121.9917
 X119.8584 Y122.0867
 X119.5884 Y122.1557
 X119.3084 Y122.1987
 X119.0194 Y122.2127
 X118.7304 Y122.1987
 X118.4504 Y122.1557
 X118.1804 Y122.0867
 X117.9204 Y121.9917
 X117.6744 Y121.8727
 X117.4414 Y121.7317
 X117.2244 Y121.5687
 X117.0234 Y121.3867
 X116.8414 Y121.1867
 X116.6794 Y120.9687
 X116.5374 Y120.7367
 X116.4194 Y120.4897
 X116.3244 Y120.2307
 X116.2544 Y119.9597
 X116.2114 Y119.6797
 X116.1974 Y119.3907
 Y115.4427
 X112.7784 Y117.4167
 X112.5214 Y117.5487
 X112.2574 Y117.6517
 X111.9884 Y117.7267
 X111.7154 Y117.7737
 X111.4424 Y117.7947
 X111.1704 Y117.7887
 X110.9014 Y117.7567
 X110.6364 Y117.6987
 X110.3784 Y117.6167
 X110.1294 Y117.5097
 X109.8904 Y117.3787
 X109.6644 Y117.2247
 X109.4524 Y117.0477
 X109.2564 Y116.8477
 X109.0794 Y116.6267
 X108.9224 Y116.3847
 X108.7914 Y116.1267
 X108.6884 Y115.8627
 X108.6134 Y115.5937
 X108.5654 Y115.3217
 X108.5454 Y115.0487
 X108.5514 Y114.7767
 X108.5834 Y114.5067
 X108.6414 Y114.2427
 X108.7244 Y113.9847
 X108.8314 Y113.7347
 X108.9614 Y113.4967
 X109.1164 Y113.2697
 X109.2934 Y113.0587
 X109.4924 Y112.8627
 X109.7134 Y112.6857
 X109.9564 Y112.5287
 X113.3764 Y110.5547
 X109.9564 Y108.5807
 X109.7134 Y108.4237
 X109.4924 Y108.2467
 X109.2934 Y108.0517
 X109.1164 Y107.8397
 X108.9614 Y107.6137
 X108.8314 Y107.3747
 X108.7244 Y107.1247
 X108.6414 Y106.8677
 X108.5834 Y106.6027
 X108.5514 Y106.3327
 X108.5454 Y106.0607
 X108.5654 Y105.7877
 X108.6134 Y105.5157
 X108.6884 Y105.2467
 X108.7914 Y104.9831
 X108.9224 Y104.7260
 X109.1384 Y104.4056
 X109.3884 Y104.1238
 X109.6694 Y103.8818
 X109.9764 Y103.6810
 X110.3044 Y103.5228
 X110.6494 Y103.4082
 X111.0064 Y103.3385
 X111.3704 Y103.3150
 X111.7294 Y103.3379
 X112.0864 Y103.4076
 X112.4374 Y103.5254
 X112.7784 Y103.6924
 X116.1974 Y105.6677
 Y101.7179
 X116.2114 Y101.4295
 X116.2544 Y101.1493
 X116.3244 Y100.8789
 X116.4194 Y100.6196
 X116.5374 Y100.3731
 X116.6794 Y100.1404
 X116.8414 Y99.9233
 X117.0234 Y99.7231
 X117.2244 Y99.5410
 X117.4414 Y99.3786
 X117.6744 Y99.2374
 X117.9204 Y99.1188
 X118.1804 Y99.0239
 X118.4504 Y98.9543
 X118.7304 Y98.9117
 X119.0194 Y98.8971
 X119.3084 Y98.9117
 X119.5884 Y98.9543
 X119.8584 Y99.0239
 X120.1174 Y99.1188
 X120.3644 Y99.2374
 X120.5974 Y99.3786
 X120.8144 Y99.5410
 X121.0144 Y99.7231
 X121.1974 Y99.9233
 X121.3594 Y100.1404
 X121.5004 Y100.3731
 X121.6194 Y100.6196
 X121.7144 Y100.8789
 X121.7844 Y101.1493
 X121.8274 Y101.4295
 X121.8414 Y101.7179
 Y105.6677
 X125.2624 Y103.6924
 X125.6014 Y103.5254
 X125.9524 Y103.4076
 X126.3104 Y103.3379
 X126.6704 Y103.3150
 X127.0344 Y103.3385
 X127.3904 Y103.4082
 X127.7354 Y103.5228
 X128.0634 Y103.6810
 X128.3704 Y103.8818
 X128.6504 Y104.1238
 X128.9014 Y104.4056
 X129.1164 Y104.7260
 X129.2484 Y104.9831
 X129.3514 Y105.2467
 X129.4264 Y105.5157
 X129.4734 Y105.7877
 X129.4944 Y106.0607
 X129.4884 Y106.3327
 X129.4564 Y106.6027
 X129.3984 Y106.8677
 X129.3154 Y107.1247
 X129.2094 Y107.3747
 X129.0784 Y107.6137
 X128.9234 Y107.8397
 X128.7464 Y108.0517
 X128.5474 Y108.2467
 X128.3254 Y108.4237
 X128.0834 Y108.5807
G0 Z5.0000
 X83.1492 Y112.5727
G1 Z0.0000
 X82.9349 Y112.7667
 X82.7064 Y112.9347
 X82.4660 Y113.0767
 X82.2156 Y113.1927
 X81.9571 Y113.2827
 X81.6927 Y113.3477
 X81.4242 Y113.3867
 X81.1538 Y113.3997
 X80.8832 Y113.3867
 X80.6149 Y113.3477
 X80.3503 Y113.2827
 X80.0918 Y113.1927
 X79.8414 Y113.0767
 X79.6010 Y112.9347
 X79.3727 Y112.7667
 X79.1583 Y112.5727
 X79.1364 Y112.5507
 X78.9427 Y112.3367
 X78.7746 Y112.1077
 X78.6325 Y111.8677
 X78.5163 Y111.6167
 X78.4258 Y111.3587
 X78.3613 Y111.0937
 X78.3225 Y110.8257
 X78.3096 Y110.5547
 X78.3225 Y110.2847
 X78.3613 Y110.0167
 X78.4258 Y109.7517
 X78.5163 Y109.4937
 X78.6325 Y109.2427
 X78.7746 Y109.0027
 X78.9427 Y108.7737
 X79.1364 Y108.5597
 X79.3507 Y108.3657
 X79.5790 Y108.1977
 X79.8195 Y108.0557
 X80.0699 Y107.9397
 X80.3283 Y107.8487
 X80.5928 Y107.7847
 X80.8613 Y107.7457
 X81.1317 Y107.7327
 X81.4021 Y107.7457
 X81.6706 Y107.7847
 X81.9350 Y107.8487
 X82.1935 Y107.9397
 X82.4439 Y108.0557
 X82.6843 Y108.1977
 X82.9127 Y108.3657
 X83.1271 Y108.5597
 X83.1492 Y108.5817
 X83.3429 Y108.7967
 X83.5110 Y109.0247
 X83.6531 Y109.2647
 X83.7693 Y109.5157
 X83.8597 Y109.7737
 X83.9243 Y110.0387
 X83.9631 Y110.3067
 X83.9760 Y110.5777
 X83.9631 Y110.8477
 X83.9243 Y111.1157
 X83.8597 Y111.3807
 X83.7693 Y111.6387
 X83.6531 Y111.8897
 X83.5110 Y112.1297
 X83.3429 Y112.3587
 X83.1492 Y112.5727
G0 Z5.0000
 X74.6247 Y105.3127
G1 Z0.0000
 X74.4764 Y105.5247
 X74.3121 Y105.7187
 X74.1332 Y105.8957
 X73.9411 Y106.0547
 X73.7372 Y106.1947
 X73.5229 Y106.3157
 X73.2996 Y106.4177
 X73.0688 Y106.4987
 X72.8317 Y106.5607
 X72.5897 Y106.6017
 X72.3445 Y106.6217
 X72.0972 Y106.6197
 X71.8493 Y106.5957
 X71.6022 Y106.5497
 X71.3572 Y106.4807
 X71.1160 Y106.3877
 X55.0536 Y99.3931
 X54.8483 Y99.2938
 X54.6539 Y99.1796
 X54.4710 Y99.0514
 X54.3000 Y98.9104
 X54.1415 Y98.7572
 X53.9961 Y98.5928
 X53.8642 Y98.4181
 X53.7464 Y98.2340
 X53.6431 Y98.0414
 X53.5549 Y97.8410
 X53.4824 Y97.6339
 X53.4260 Y97.4210
 X53.3863 Y97.2031
 X53.3638 Y96.9810
 X53.3589 Y96.7557
 X53.3724 Y96.5282
 X53.4038 Y96.3025
 X53.4526 Y96.0825
 X53.5182 Y95.8693
 X53.5999 Y95.6633
 X53.6970 Y95.4656
 X53.8086 Y95.2768
 X53.9343 Y95.0975
 X54.0733 Y94.9288
 X54.2250 Y94.7713
 X54.3885 Y94.6258
 X54.5632 Y94.4931
 X54.7486 Y94.3738
 X54.9438 Y94.2688
 X55.1481 Y94.1790
 X55.3608 Y94.1049
 X55.5814 Y94.0475
 X71.6438 Y90.5599
 X71.9431 Y90.5121
 X72.2435 Y90.4964
 X72.4820 Y90.5065
 X72.7181 Y90.5367
 X72.9507 Y90.5864
 X73.1783 Y90.6556
 X73.3999 Y90.7439
 X73.6138 Y90.8511
 X73.8190 Y90.9768
 X74.0140 Y91.1208
 X74.1808 Y91.2663
 X74.3345 Y91.4231
 X74.4746 Y91.5904
 X74.6010 Y91.7675
 X74.7129 Y91.9532
 X74.8103 Y92.1468
 X74.8927 Y92.3472
 X74.9595 Y92.5538
 X75.0239 Y92.6863
 X75.0985 Y92.8392
 X75.2106 Y93.0683
 X75.3320 Y93.3197
 X75.4602 Y93.5924
 X75.5931 Y93.8851
 X75.7282 Y94.1968
 X75.8636 Y94.5264
 X75.9970 Y94.8728
 X76.1258 Y95.2347
 X76.2481 Y95.6113
 X76.3613 Y96.0011
 X76.4633 Y96.4032
 X76.5520 Y96.8165
 X76.6247 Y97.2399
 X76.6796 Y97.6722
 X76.7142 Y98.1124
 X76.7263 Y98.5592
 X76.7050 Y99.1832
 X76.6447 Y99.7970
 X76.5507 Y100.3969
 X76.4281 Y100.9796
 X76.2821 Y101.5413
 X76.1179 Y102.0785
 X75.9408 Y102.5875
 X75.7560 Y103.0649
 X75.5686 Y103.5070
 X75.3840 Y103.9101
 X75.2072 Y104.2710
 X75.0436 Y104.5857
 X74.8983 Y104.8508
 X74.7767 Y105.0627
 X74.6836 Y105.2187
 X74.6247 Y105.3127
G0 Z5.0000
 X64.7840 Y112.5727
G1 Z0.0000
 X64.5697 Y112.7667
 X64.3415 Y112.9347
 X64.1013 Y113.0767
 X63.8510 Y113.1927
 X63.5927 Y113.2827
 X63.3282 Y113.3477
 X63.0596 Y113.3867
 X62.7892 Y113.3997
 X62.5186 Y113.3867
 X62.2501 Y113.3477
 X61.9857 Y113.2827
 X61.7271 Y113.1927
 X61.4767 Y113.0767
 X61.2363 Y112.9347
 X61.0078 Y112.7667
 X60.7933 Y112.5727
 X60.7711 Y112.5507
 X60.5774 Y112.3367
 X60.4093 Y112.1077
 X60.2672 Y111.8677
 X60.1510 Y111.6167
 X60.0606 Y111.3587
 X59.9960 Y111.0937
 X59.9572 Y110.8257
 X59.9443 Y110.5547
 X59.9572 Y110.2847
 X59.9960 Y110.0167
 X60.0606 Y109.7517
 X60.1510 Y109.4937
 X60.2672 Y109.2427
 X60.4093 Y109.0027
 X60.5774 Y108.7737
 X60.7711 Y108.5597
 X60.9856 Y108.3657
 X61.2139 Y108.1977
 X61.4543 Y108.0557
 X61.7047 Y107.9397
 X61.9631 Y107.8487
 X62.2275 Y107.7847
 X62.4960 Y107.7457
 X62.7664 Y107.7327
 X63.0370 Y107.7457
 X63.3056 Y107.7847
 X63.5701 Y107.8487
 X63.8288 Y107.9397
 X64.0793 Y108.0557
 X64.3197 Y108.1977
 X64.5481 Y108.3657
 X64.7621 Y108.5597
 X64.7840 Y108.5817
 X64.9778 Y108.7967
 X65.1457 Y109.0247
 X65.2878 Y109.2647
 X65.4040 Y109.5157
 X65.4945 Y109.7737
 X65.5592 Y110.0387
 X65.5978 Y110.3067
 X65.6108 Y110.5777
 X65.5978 Y110.8477
 X65.5592 Y111.1157
 X65.4945 Y111.3807
 X65.4040 Y111.6387
 X65.2878 Y111.8897
 X65.1457 Y112.1297
 X64.9778 Y112.3587
 X64.7840 Y112.5727
G0 Z5.0000
 X19.5374 Y129.5537
G1 Z0.0000
 X16.1186 Y131.5287
 X19.5374 Y133.5037
 X19.7802 Y133.6607
 X20.0014 Y133.8377
 X20.2010 Y134.0327
 X20.3781 Y134.2447
 X20.5324 Y134.4707
 X20.6632 Y134.7087
 X20.7701 Y134.9587
 X20.8525 Y135.2167
 X20.9102 Y135.4807
 X20.9422 Y135.7507
 X20.9482 Y136.0227
 X20.9279 Y136.2957
 X20.8804 Y136.5677
 X20.8056 Y136.8367
 X20.7025 Y137.1007
 X20.5710 Y137.3577
 X20.4140 Y137.6007
 X20.2368 Y137.8217
 X20.0413 Y138.0207
 X19.8295 Y138.1977
 X19.6031 Y138.3527
 X19.3643 Y138.4827
 X19.1149 Y138.5897
 X18.8570 Y138.6727
 X18.5924 Y138.7297
 X18.3229 Y138.7617
 X18.0507 Y138.7677
 X17.7776 Y138.7477
 X17.5056 Y138.6997
 X17.2365 Y138.6247
 X16.9725 Y138.5217
 X16.7151 Y138.3897
 X13.2964 Y136.4167
 Y140.3647
 X13.2818 Y140.6537
 X13.2391 Y140.9337
 X13.1695 Y141.2047
 X13.0746 Y141.4637
 X12.9558 Y141.7107
 X12.8144 Y141.9437
 X12.6519 Y142.1607
 X12.4697 Y142.3607
 X12.2693 Y142.5427
 X12.0521 Y142.7057
 X11.8194 Y142.8467
 X11.5727 Y142.9657
 X11.3134 Y143.0607
 X11.0429 Y143.1297
 X10.7627 Y143.1727
 X10.4742 Y143.1867
 X10.1856 Y143.1727
 X9.9054 Y143.1297
 X9.6350 Y143.0597
 X9.3757 Y142.9647
 X9.1290 Y142.8467
 X8.8963 Y142.7047
 X8.6790 Y142.5427
 X8.4786 Y142.3607
 X8.2965 Y142.1597
 X8.1340 Y141.9427
 X7.9926 Y141.7097
 X7.8738 Y141.4627
 X7.7789 Y141.2037
 X7.7093 Y140.9337
 X7.6666 Y140.6537
 X7.6520 Y140.3647
 Y136.4167
 X4.2329 Y138.3917
 X3.9758 Y138.5237
 X3.7119 Y138.6257
 X3.4429 Y138.7007
 X3.1710 Y138.7487
 X2.8980 Y138.7687
 X2.6258 Y138.7627
 X2.3565 Y138.7307
 X2.0918 Y138.6727
 X1.8339 Y138.5907
 X1.5846 Y138.4837
 X1.3459 Y138.3527
 X1.1197 Y138.1987
 X0.9079 Y138.0217
 X0.7126 Y137.8217
 X0.5355 Y137.6007
 X0.3788 Y137.3577
 X0.2470 Y137.1007
 X0.1438 Y136.8367
 X0.0687 Y136.5677
 X0.0212 Y136.2957
 X0.0008 Y136.0227
 X0.0068 Y135.7507
 X0.0388 Y135.4817
 X0.0963 Y135.2167
 X0.1788 Y134.9587
 X0.2856 Y134.7097
 X0.4164 Y134.4707
 X0.5706 Y134.2447
 X0.7476 Y134.0327
 X0.9470 Y133.8377
 X1.1681 Y133.6607
 X1.4106 Y133.5037
 X4.8312 Y131.5287
 X1.4106 Y129.5537
 X1.1679 Y129.3977
 X0.9466 Y129.2207
 X0.7471 Y129.0247
 X0.5700 Y128.8137
 X0.4157 Y128.5877
 X0.2849 Y128.3487
 X0.1781 Y128.0997
 X0.0956 Y127.8417
 X0.0381 Y127.5767
 X0.0061 Y127.3077
 X0.0000 Y127.0357
 X0.0205 Y126.7627
 X0.0679 Y126.4907
 X0.1428 Y126.2217
 X0.2458 Y125.9567
 X0.3774 Y125.6997
 X0.5928 Y125.3787
 X0.8434 Y125.0977
 X1.1245 Y124.8557
 X1.4315 Y124.6547
 X1.7597 Y124.4967
 X2.1043 Y124.3817
 X2.4608 Y124.3127
 X2.8246 Y124.2887
 X3.1839 Y124.3117
 X3.5413 Y124.3817
 X3.8924 Y124.4987
 X4.2329 Y124.6657
 X7.6520 Y126.6407
 Y122.6917
 X7.6666 Y122.4027
 X7.7093 Y122.1227
 X7.7789 Y121.8527
 X7.8738 Y121.5937
 X7.9926 Y121.3467
 X8.1340 Y121.1137
 X8.2965 Y120.8967
 X8.4786 Y120.6967
 X8.6790 Y120.5147
 X8.8963 Y120.3527
 X9.1290 Y120.2107
 X9.3757 Y120.0927
 X9.6350 Y119.9977
 X9.9054 Y119.9277
 X10.1856 Y119.8857
 X10.4742 Y119.8707
 X10.7627 Y119.8857
 X11.0429 Y119.9277
 X11.3134 Y119.9977
 X11.5727 Y120.0927
 X11.8194 Y120.2117
 X12.0521 Y120.3527
 X12.2693 Y120.5147
 X12.4697 Y120.6977
 X12.6519 Y120.8977
 X12.8144 Y121.1147
 X12.9558 Y121.3477
 X13.0746 Y121.5937
 X13.1695 Y121.8527
 X13.2391 Y122.1237
 X13.2818 Y122.4037
 X13.2964 Y122.6917
 Y126.6407
 X16.7151 Y124.6677
 X17.0558 Y124.5007
 X17.4071 Y124.3817
 X17.7643 Y124.3117
 X18.1235 Y124.2887
 X18.4872 Y124.3127
 X18.8439 Y124.3817
 X19.1886 Y124.4967
 X19.5168 Y124.6547
 X19.8238 Y124.8557
 X20.1050 Y125.0977
 X20.3556 Y125.3787
 X20.5710 Y125.6997
 X20.7025 Y125.9567
 X20.8056 Y126.2217
 X20.8804 Y126.4907
 X20.9279 Y126.7627
 X20.9482 Y127.0357
 X20.9422 Y127.3077
 X20.9102 Y127.5767
 X20.8525 Y127.8417
 X20.7701 Y128.0997
 X20.6632 Y128.3487
 X20.5324 Y128.5877
 X20.3781 Y128.8137
 X20.2010 Y129.0247
 X20.0014 Y129.2207
 X19.7802 Y129.3977
 X19.5374 Y129.5537
G0 Z5.0000
 X130.7064 Y83.0800
G1 Z0.0000
 X130.5494 Y83.3226
 X130.3724 Y83.5440
 X130.1774 Y83.7435
 X129.9654 Y83.9206
 X129.7394 Y84.0749
 X129.5004 Y84.2057
 X129.2514 Y84.3125
 X128.9934 Y84.3950
 X128.7294 Y84.4525
 X128.4594 Y84.4846
 X128.1874 Y84.4906
 X127.9144 Y84.4701
 X127.6424 Y84.4228
 X127.3734 Y84.3478
 X127.1094 Y84.2447
 X126.8524 Y84.1132
 X122.8444 Y81.7997
 X123.2414 Y83.2810
 X123.3024 Y83.5635
 X123.3334 Y83.8451
 X123.3364 Y84.1242
 X123.3124 Y84.3992
 X123.2614 Y84.6682
 X123.1854 Y84.9295
 X123.0844 Y85.1813
 X122.9604 Y85.4221
 X122.8134 Y85.6499
 X122.6464 Y85.8629
 X122.4584 Y86.0597
 X122.2504 Y86.2385
 X122.0244 Y86.3972
 X121.7814 Y86.5345
 X121.5214 Y86.6483
 X121.2464 Y86.7372
 X120.9644 Y86.7978
 X120.6824 Y86.8290
 X120.4034 Y86.8318
 X120.1284 Y86.8072
 X119.8594 Y86.7564
 X119.5984 Y86.6800
 X119.3464 Y86.5792
 X119.1054 Y86.4551
 X118.8774 Y86.3086
 X118.6644 Y86.1408
 X118.4674 Y85.9526
 X118.2884 Y85.7451
 X118.1304 Y85.5193
 X117.9934 Y85.2761
 X117.8794 Y85.0167
 X117.7904 Y84.7418
 X115.9324 Y77.8088
 X104.8324 Y71.4008
 X104.7154 Y71.5497
 X105.0904 Y72.1871
 X105.4224 Y72.8513
 X105.7094 Y73.5404
 X105.9484 Y74.2525
 X106.1374 Y74.9856
 X106.2754 Y75.7378
 X106.3604 Y76.5072
 X106.3884 Y77.2920
 X106.3764 Y77.7944
 X106.3424 Y78.2911
 X106.2854 Y78.7813
 X106.2064 Y79.2646
 X106.1064 Y79.7404
 X105.9854 Y80.2083
 X105.8444 Y80.6678
 X105.6824 Y81.1182
 X105.5024 Y81.5592
 X105.3034 Y81.9903
 X105.0854 Y82.4107
 X104.8504 Y82.8201
 X104.5974 Y83.2181
 X104.3284 Y83.6039
 X104.0424 Y83.9772
 X103.7414 Y84.3374
 X103.4254 Y84.6840
 X103.0944 Y85.0165
 X102.7494 Y85.3343
 X102.3904 Y85.6371
 X102.0184 Y85.9243
 X101.6334 Y86.1951
 X101.2364 Y86.4495
 X100.8284 Y86.6865
 X100.4084 Y86.9058
 X99.9789 Y87.1071
 X99.5389 Y87.2895
 X99.0895 Y87.4526
 X98.6308 Y87.5961
 X98.1638 Y87.7193
 X97.6888 Y87.8217
 X97.2064 Y87.9028
 X97.7904 Y88.8204
 X98.3393 Y89.7567
 X98.8526 Y90.7110
 X99.3302 Y91.6822
 X99.7715 Y92.6696
 X100.1764 Y93.6725
 X100.5444 Y94.6900
 X100.8744 Y95.7211
 X101.1674 Y96.7651
 X101.4234 Y97.8213
 X101.6394 Y98.8886
 X101.8174 Y99.9665
 X101.9574 Y101.0538
 X102.0564 Y102.1500
 X102.1174 Y103.2540
 X102.1374 Y104.3651
 X102.1204 Y105.3777
 X102.0694 Y106.3847
 X101.9844 Y107.3877
 X101.8654 Y108.3847
 X101.7144 Y109.3747
 X101.5304 Y110.3567
 X101.3144 Y111.3317
 X101.0654 Y112.2967
 X100.7844 Y113.2527
 X100.4724 Y114.1987
 X100.1294 Y115.1327
 X99.7552 Y116.0547
 X99.3502 Y116.9637
 X98.9149 Y117.8597
 X98.4496 Y118.7417
 X97.9546 Y119.6087
 X98.3896 Y119.6717
 X98.8108 Y119.7747
 X99.2163 Y119.9147
 X99.6039 Y120.0907
 X99.9718 Y120.2987
 X100.3184 Y120.5397
 X100.6404 Y120.8087
 X100.9374 Y121.1067
 X101.2064 Y121.4287
 X101.4464 Y121.7757
 X101.6554 Y122.1437
 X101.8294 Y122.5317
 X101.9694 Y122.9377
 X102.0714 Y123.3587
 X102.1334 Y123.7947
 X102.1554 Y124.2417
 Y129.6037
 X102.1314 Y130.0787
 X102.0604 Y130.5407
 X101.9454 Y130.9867
 X101.7884 Y131.4147
 X101.5924 Y131.8217
 X101.3594 Y132.2057
 X101.0904 Y132.5637
 X100.7904 Y132.8947
 X100.4594 Y133.1957
 X100.1004 Y133.4637
 X99.7168 Y133.6977
 X99.3099 Y133.8937
 X98.8821 Y134.0507
 X98.4361 Y134.1657
 X97.9740 Y134.2357
 X97.4985 Y134.2607
 X95.3832
 Y142.1617
 X95.3736 Y142.5387
 X95.3453 Y142.9107
 X95.2985 Y143.2777
 X95.2339 Y143.6387
 X95.1518 Y143.9927
 X95.0527 Y144.3407
 X94.9371 Y144.6817
 X94.8056 Y145.0147
 X94.6585 Y145.3397
 X94.4961 Y145.6567
 X94.3193 Y145.9627
 X94.1282 Y146.2607
 X93.9235 Y146.5477
 X93.7054 Y146.8257
 X93.4746 Y147.0927
 X93.2314 Y147.3467
 X92.9764 Y147.5897
 X92.7102 Y147.8197
 X92.4328 Y148.0387
 X92.1450 Y148.2437
 X91.8472 Y148.4337
 X91.5400 Y148.6117
 X91.2236 Y148.7747
 X90.8988 Y148.9217
 X90.5656 Y149.0517
 X90.2249 Y149.1677
 X89.8770 Y149.2677
 X89.5222 Y149.3497
 X89.1613 Y149.4137
 X88.7945 Y149.4607
 X88.4224 Y149.4897
 X88.0454 Y149.4977
 X56.4386
 X56.0618 Y149.4897
 X55.6897 Y149.4607
 X55.3231 Y149.4137
 X54.9621 Y149.3497
 X54.6075 Y149.2677
 X54.2597 Y149.1677
 X53.9189 Y149.0517
 X53.5860 Y148.9217
 X53.2611 Y148.7747
 X52.9447 Y148.6117
 X52.6375 Y148.4337
 X52.3399 Y148.2437
 X52.0521 Y148.0387
 X51.7749 Y147.8197
 X51.5085 Y147.5897
 X51.2536 Y147.3467
 X51.0104 Y147.0927
 X50.7796 Y146.8257
 X50.5617 Y146.5477
 X50.3568 Y146.2607
 X50.1658 Y145.9627
 X49.9889 Y145.6567
 X49.8267 Y145.3397
 X49.6796 Y145.0147
 X49.5479 Y144.6817
 X49.4324 Y144.3407
 X49.3333 Y143.9927
 X49.2513 Y143.6387
 X49.1867 Y143.2777
 X49.1399 Y142.9107
 X49.1115 Y142.5387
 X49.1020 Y142.1617
 Y134.2607
 X46.9853
 X46.5099 Y134.2357
 X46.0481 Y134.1657
 X45.6022 Y134.0507
 X45.1747 Y133.8937
 X44.7676 Y133.6977
 X44.3838 Y133.4637
 X44.0253 Y133.1957
 X43.6945 Y132.8947
 X43.3936 Y132.5637
 X43.1253 Y132.2057
 X42.8918 Y131.8217
 X42.6956 Y131.4147
 X42.5386 Y130.9867
 X42.4238 Y130.5407
 X42.3531 Y130.0787
 X42.3289 Y129.6037
 Y124.2417
 X42.3503 Y123.7947
 X42.4129 Y123.3587
 X42.5149 Y122.9377
 X42.6543 Y122.5317
 X42.8290 Y122.1437
 X43.0374 Y121.7757
 X43.2772 Y121.4287
 X43.5465 Y121.1057
 X43.8436 Y120.8087
 X44.1661 Y120.5387
 X44.5125 Y120.2987
 X44.8804 Y120.0897
 X45.2682 Y119.9147
 X45.6738 Y119.7747
 X46.0953 Y119.6717
 X46.5306 Y119.6087
 X46.0353 Y118.7417
 X45.5697 Y117.8597
 X45.1343 Y116.9637
 X44.7292 Y116.0537
 X44.3547 Y115.1317
 X44.0113 Y114.1977
 X43.6990 Y113.2527
 X43.4185 Y112.2967
 X43.1697 Y111.3307
 X42.9532 Y110.3567
 X42.7690 Y109.3737
 X42.6178 Y108.3847
 X42.4996 Y107.3877
 X42.4147 Y106.3847
 X42.3636 Y105.3777
 X42.3465 Y104.3651
 X42.3667 Y103.2540
 X42.4270 Y102.1500
 X42.5268 Y101.0538
 X42.6661 Y99.9665
 X42.8443 Y98.8886
 X43.0613 Y97.8213
 X43.3164 Y96.7651
 X43.6096 Y95.7211
 X43.9403 Y94.6900
 X44.3083 Y93.6725
 X44.7132 Y92.6696
 X45.1546 Y91.6822
 X45.6322 Y90.7110
 X46.1457 Y89.7567
 X46.6947 Y88.8204
 X47.2788 Y87.9028
 X46.7963 Y87.8217
 X46.3211 Y87.7192
 X45.8540 Y87.5958
 X45.3954 Y87.4524
 X44.9458 Y87.2890
 X44.5058 Y87.1065
 X44.0758 Y86.9053
 X43.6565 Y86.6858
 X43.2481 Y86.4488
 X42.8514 Y86.1945
 X42.4668 Y85.9233
 X42.0949 Y85.6363
 X41.7360 Y85.3335
 X41.3907 Y85.0156
 X41.0597 Y84.6829
 X40.7433 Y84.3363
 X40.4421 Y83.9761
 X40.1567 Y83.6028
 X39.8874 Y83.2168
 X39.6349 Y82.8189
 X39.3996 Y82.4095
 X39.1821 Y81.9889
 X38.9829 Y81.5579
 X38.8024 Y81.1170
 X38.6413 Y80.6664
 X38.5000 Y80.2070
 X38.3790 Y79.7390
 X38.2789 Y79.2632
 X38.2000 Y78.7799
 X38.1432 Y78.2896
 X38.1086 Y77.7931
 X38.0971 Y77.2906
 X38.1256 Y76.5060
 X38.2097 Y75.7367
 X38.3476 Y74.9846
 X38.5371 Y74.2517
 X38.7761 Y73.5399
 X39.0626 Y72.8510
 X39.3946 Y72.1870
 X39.7699 Y71.5497
 X39.7092 Y71.4725
 X28.7332 Y77.8088
 X26.8756 Y84.7418
 X26.7867 Y85.0167
 X26.6728 Y85.2761
 X26.5356 Y85.5193
 X26.3768 Y85.7451
 X26.1983 Y85.9526
 X26.0017 Y86.1408
 X25.7885 Y86.3086
 X25.5608 Y86.4551
 X25.3202 Y86.5792
 X25.0683 Y86.6800
 X24.8071 Y86.7564
 X24.5381 Y86.8072
 X24.2631 Y86.8318
 X23.9838 Y86.8290
 X23.7020 Y86.7978
 X23.4193 Y86.7372
 X23.1446 Y86.6483
 X22.8850 Y86.5345
 X22.6420 Y86.3972
 X22.4160 Y86.2383
 X22.2085 Y86.0597
 X22.0203 Y85.8629
 X21.8525 Y85.6497
 X21.7060 Y85.4218
 X21.5820 Y85.1811
 X21.4811 Y84.9290
 X21.4049 Y84.6676
 X21.3538 Y84.3986
 X21.3292 Y84.1235
 X21.3321 Y83.8442
 X21.3633 Y83.5622
 X21.4240 Y83.2796
 X21.8210 Y81.7997
 X17.8149 Y84.1118
 X17.5575 Y84.2436
 X17.2933 Y84.3468
 X17.0243 Y84.4218
 X16.7524 Y84.4695
 X16.4793 Y84.4899
 X16.2071 Y84.4839
 X15.9378 Y84.4518
 X15.6731 Y84.3943
 X15.4152 Y84.3118
 X15.1658 Y84.2050
 X14.9271 Y84.0742
 X14.7008 Y83.9200
 X14.4889 Y83.7431
 X14.2935 Y83.5436
 X14.1163 Y83.3225
 X13.9593 Y83.0800
 X13.8277 Y82.8226
 X13.7247 Y82.5585
 X13.6498 Y82.2895
 X13.6023 Y82.0174
 X13.5819 Y81.7443
 X13.5880 Y81.4721
 X13.6200 Y81.2028
 X13.6775 Y80.9382
 X13.7600 Y80.6803
 X13.8668 Y80.4311
 X13.9977 Y80.1924
 X14.1518 Y79.9663
 X14.3290 Y79.7546
 X14.5285 Y79.5592
 X14.7499 Y79.3822
 X14.9926 Y79.2254
 X18.9988 Y76.9117
 X17.5174 Y76.5147
 X17.2425 Y76.4260
 X16.9831 Y76.3122
 X16.7399 Y76.1750
 X16.5140 Y76.0164
 X16.3067 Y75.8378
 X16.1185 Y75.6411
 X15.9507 Y75.4279
 X15.8045 Y75.2003
 X15.6803 Y74.9596
 X15.5796 Y74.7078
 X15.5032 Y74.4464
 X15.4522 Y74.1774
 X15.4275 Y73.9024
 X15.4303 Y73.6231
 X15.4613 Y73.3413
 X15.5217 Y73.0586
 X15.5943 Y72.8274
 X15.6846 Y72.6068
 X15.7918 Y72.3974
 X15.9147 Y72.1999
 X16.0524 Y72.0149
 X16.2038 Y71.8428
 X16.3676 Y71.6842
 X16.5435 Y71.5400
 X16.7297 Y71.4104
 X16.9257 Y71.2964
 X17.1303 Y71.1981
 X17.3425 Y71.1165
 X17.5611 Y71.0519
 X17.7853 Y71.0051
 X18.0140 Y70.9767
 X18.2463 Y70.9669
 X18.6113 Y70.9904
 X18.9793 Y71.0632
 X25.9110 Y72.9210
 X36.5495 Y66.7792
 X35.8747 Y65.5638
 X35.2424 Y64.3278
 X34.6528 Y63.0725
 X34.1061 Y61.7988
 X33.6029 Y60.5078
 X33.1436 Y59.2006
 X32.7285 Y57.8779
 X32.3579 Y56.5413
 X32.0325 Y55.1914
 X31.7525 Y53.8294
 X31.5182 Y52.4564
 X31.3301 Y51.0733
 X31.1888 Y49.6814
 X31.0945 Y48.2815
 X31.0474 Y46.8747
 X31.0482 Y45.4622
 X31.0781 Y44.4546
 X31.1321 Y43.4511
 X31.2103 Y42.4521
 X31.3125 Y41.4578
 X31.4383 Y40.4686
 X31.5879 Y39.4849
 X31.7610 Y38.5069
 X31.9575 Y37.5351
 X32.1772 Y36.5697
 X32.4199 Y35.6113
 X32.6854 Y34.6599
 X32.9739 Y33.7161
 X33.2849 Y32.7800
 X33.6183 Y31.8522
 X33.9742 Y30.9329
 X34.3522 Y30.0225
 X34.7522 Y29.1213
 X35.1740 Y28.2296
 X35.6177 Y27.3478
 X36.0829 Y26.4763
 X36.5696 Y25.6153
 X37.0776 Y24.7651
 X37.6067 Y23.9263
 X38.1568 Y23.0990
 X38.7278 Y22.2838
 X39.3196 Y21.4807
 X39.9318 Y20.6903
 X40.5645 Y19.9129
 X41.2174 Y19.1488
 X41.8904 Y18.3982
 X42.5835 Y17.6616
 X43.2963 Y16.9394
 X44.0261 Y16.2347
 X44.7702 Y15.5499
 X45.5279 Y14.8853
 X46.2990 Y14.2408
 X47.0833 Y13.6168
 X47.8803 Y13.0133
 X48.6897 Y12.4306
 X49.5113 Y11.8685
 X50.3445 Y11.3276
 X51.1890 Y10.8077
 X52.0446 Y10.3090
 X52.9108 Y9.8318
 X53.7875 Y9.3761
 X54.6742 Y8.9421
 X55.5704 Y8.5299
 X56.4760 Y8.1396
 X57.3907 Y7.7715
 X58.3138 Y7.4257
 X59.2453 Y7.1023
 X60.1847 Y6.8014
 X61.1318 Y6.5232
 X62.0861 Y6.2678
 X63.0472 Y6.0354
 X64.0150 Y5.8261
 X64.9890 Y5.6401
 X65.9689 Y5.4775
 X66.9543 Y5.3385
 X67.9449 Y5.2231
 X68.9403 Y5.1316
 X69.9403 Y5.0640
 X70.9445 Y5.0206
 X71.9525 Y5.0014
 X72.2460 Y5.0000
 X73.2707 Y5.0124
 X74.2915 Y5.0496
 X75.3077 Y5.1113
 X76.3189 Y5.1974
 X77.3250 Y5.3079
 X78.3256 Y5.4425
 X79.3203 Y5.6012
 X80.3088 Y5.7837
 X81.2907 Y5.9900
 X82.2657 Y6.2199
 X83.2335 Y6.4732
 X84.1936 Y6.7499
 X85.1458 Y7.0497
 X86.0899 Y7.3727
 X87.0252 Y7.7185
 X87.9515 Y8.0871
 X88.8686 Y8.4783
 X89.7761 Y8.8920
 X90.6735 Y9.3281
 X91.5606 Y9.7863
 X92.4371 Y10.2666
 X93.3025 Y10.7689
 X94.1565 Y11.2930
 X94.9989 Y11.8386
 X95.8292 Y12.4059
 X96.6472 Y12.9945
 X97.4525 Y13.6043
 X98.2446 Y14.2352
 X99.0233 Y14.8870
 X99.7883 Y15.5597
 X100.5394 Y16.2530
 X101.2754 Y16.9669
 X102.0014 Y17.7050
 X102.7054 Y18.4580
 X103.3894 Y19.2254
 X104.0514 Y20.0069
 X104.6924 Y20.8022
 X105.3124 Y21.6108
 X105.9104 Y22.4328
 X106.4874 Y23.2672
 X107.0424 Y24.1140
 X107.5754 Y24.9731
 X108.0854 Y25.8436
 X108.5744 Y26.7254
 X109.0404 Y27.6183
 X109.4834 Y28.5218
 X109.9044 Y29.4356
 X110.3024 Y30.3593
 X110.6774 Y31.2926
 X111.0294 Y32.2351
 X111.3574 Y33.1864
 X111.6624 Y34.1463
 X111.9444 Y35.1143
 X112.2024 Y36.0901
 X112.4364 Y37.0735
 X112.6464 Y38.0639
 X112.8324 Y39.0613
 X112.9934 Y40.0649
 X113.1304 Y41.0746
 X113.2434 Y42.0900
 X113.3304 Y43.1108
 X113.3934 Y44.1367
 X113.4314 Y45.1672
 X113.4444 Y46.2020
 X113.4214 Y47.5581
 X113.3554 Y48.9086
 X113.2444 Y50.2529
 X113.0904 Y51.5897
 X112.8934 Y52.9183
 X112.6534 Y54.2375
 X112.3704 Y55.5464
 X112.0464 Y56.8440
 X111.6794 Y58.1295
 X111.2724 Y59.4015
 X110.8234 Y60.6593
 X110.3344 Y61.9020
 X109.8054 Y63.1283
 X109.2364 Y64.3375
 X108.6274 Y65.5286
 X107.9794 Y66.7004
 X118.7544 Y72.9210
 X125.6884 Y71.0632
 X126.0554 Y70.9904
 X126.4194 Y70.9669
 X126.6524 Y70.9767
 X126.8804 Y71.0051
 X127.1054 Y71.0519
 X127.3244 Y71.1165
 X127.5364 Y71.1981
 X127.7404 Y71.2964
 X127.9364 Y71.4104
 X128.1224 Y71.5400
 X128.2984 Y71.6842
 X128.4624 Y71.8428
 X128.6134 Y72.0149
 X128.7514 Y72.1999
 X128.8744 Y72.3974
 X128.9814 Y72.6068
 X129.0714 Y72.8274
 X129.1444 Y73.0586
 X129.2044 Y73.3410
 X129.2364 Y73.6226
 X129.2384 Y73.9018
 X129.2144 Y74.1768
 X129.1634 Y74.4458
 X129.0874 Y74.7071
 X128.9864 Y74.9590
 X128.8624 Y75.1997
 X128.7164 Y75.4275
 X128.5484 Y75.6407
 X128.3604 Y75.8375
 X128.1524 Y76.0161
 X127.9264 Y76.1749
 X127.6834 Y76.3121
 X127.4234 Y76.4260
 X127.1484 Y76.5147
 X125.6674 Y76.9117
 X129.6744 Y79.2254
 X129.9164 Y79.3822
 X130.1384 Y79.5593
 X130.3374 Y79.7547
 X130.5144 Y79.9665
 X130.6684 Y80.1926
 X130.7994 Y80.4314
 X130.9064 Y80.6807
 X130.9894 Y80.9388
 X131.0464 Y81.2033
 X131.0784 Y81.4726
 X131.0844 Y81.7449
 X131.0644 Y82.0179
 X131.0164 Y82.2899
 X130.9414 Y82.5589
 X130.8384 Y82.8229
 X130.7064 Y83.0800
G0 Z5.0000
G0 Z5.0000
M2 (end program)
