;PYCAM-META-DATA: Filename: /media/martoio/MARTOIO/ME43/std_lib/svg/026-nature.svg
;PYCAM-META-DATA: Timestamp: 2017-12-06 02:11:33.451115
;PYCAM-META-DATA: Version: 0.5.1
;Estimated machine time: 9 minutes
G40 (disable tool radius compensation)
G49 (disable tool length compensation)
G80 (cancel modal motion)
G54 (select coordinate system 1)
G90 (disable incremental moves)
G21 (metric)
G61 (exact path mode)
F400.00000
S1.00000
;PYCAM_TOOLPATH_SETTINGS: START
;[Bounds]
;maxz = 0.0
;maxx = 103.88874
;maxy = 153.308417752
;minx = -3.53534
;miny = -8.0280379775
;minz = 0.0
;
;[Tool]
;torus_radius = 0.25
;speed = 1.0
;shape = CylindricalCutter
;tool_radius = 0.5
;feedrate = 400.0
;
;[Process]
;engrave_offset = 0.0
;step_down = 1.0
;generator = EngraveCutter
;postprocessor = SimpleCutter
;overlap_percent = 0
;milling_style = conventional
;material_allowance = 0.0
;pocketing_type = none
;path_direction = x
;
;PYCAM_TOOLPATH_SETTINGS: END
T1 M6
G0 Z5.0000
 X54.4190 Y115.5284
G1 Z0.0000
 X54.1578 Y115.7184
 X53.9168 Y115.8924
 X53.6953 Y116.0534
 X53.4918 Y116.2014
 X53.3050 Y116.3374
 X53.1339 Y116.4614
 X52.9771 Y116.5754
 X52.8335 Y116.6804
 X52.7018 Y116.7754
 X52.5808 Y116.8634
 X52.4695 Y116.9444
 X52.3664 Y117.0194
 X52.2704 Y117.0894
 X52.1803 Y117.1544
 X52.0949 Y117.2164
 X52.0128 Y117.2764
 X51.9329 Y117.3344
 X51.8542 Y117.3914
 X51.7751 Y117.4484
 X51.6947 Y117.5074
 X51.6117 Y117.5674
 X51.5247 Y117.6304
 X51.4328 Y117.6974
 X51.3345 Y117.7684
 X51.2286 Y117.8454
 X51.1142 Y117.9284
 X50.9897 Y118.0184
 X50.8542 Y118.1174
 X50.7061 Y118.2244
 X50.5446 Y118.3424
 X50.3682 Y118.4704
 X50.1758 Y118.6094
 X49.9840 Y118.4704
 X49.8082 Y118.3424
 X49.6471 Y118.2254
 X49.4996 Y118.1184
 X49.3645 Y118.0204
 X49.2404 Y117.9304
 X49.1263 Y117.8474
 X49.0208 Y117.7704
 X48.9228 Y117.6994
 X48.8311 Y117.6324
 X48.7445 Y117.5694
 X48.6617 Y117.5094
 X48.5813 Y117.4514
 X48.5025 Y117.3934
 X48.4238 Y117.3364
 X48.3440 Y117.2784
 X48.2621 Y117.2194
 X48.1767 Y117.1574
 X48.0865 Y117.0914
 X47.9904 Y117.0214
 X47.8874 Y116.9474
 X47.7757 Y116.8664
 X47.6547 Y116.7784
 X47.5229 Y116.6824
 X47.3790 Y116.5774
 X47.2220 Y116.4634
 X47.0506 Y116.3394
 X46.8635 Y116.2034
 X46.6596 Y116.0554
 X46.4375 Y115.8934
 X46.1963 Y115.7184
 X45.9345 Y115.5284
 X46.0342 Y115.8354
 X46.1263 Y116.1184
 X46.2110 Y116.3784
 X46.2886 Y116.6184
 X46.3600 Y116.8374
 X46.4254 Y117.0384
 X46.4853 Y117.2234
 X46.5402 Y117.3914
 X46.5904 Y117.5464
 X46.6367 Y117.6884
 X46.6792 Y117.8194
 X46.7186 Y117.9404
 X46.7553 Y118.0534
 X46.7896 Y118.1594
 X46.8222 Y118.2594
 X46.8536 Y118.3564
 X46.8840 Y118.4494
 X46.9142 Y118.5424
 X46.9443 Y118.6354
 X46.9749 Y118.7294
 X47.0067 Y118.8274
 X47.0397 Y118.9294
 X47.0749 Y119.0374
 X47.1122 Y119.1524
 X47.1525 Y119.2774
 X47.1961 Y119.4114
 X47.2436 Y119.5574
 X47.2953 Y119.7174
 X47.3517 Y119.8914
 X47.4132 Y120.0804
 X47.4804 Y120.2884
 X47.5538 Y120.5144
 X47.3620 Y120.6534
 X47.1863 Y120.7814
 X47.0251 Y120.8984
 X46.8776 Y121.0054
 X46.7425 Y121.1034
 X46.6185 Y121.1934
 X46.5043 Y121.2764
 X46.3989 Y121.3534
 X46.3008 Y121.4244
 X46.2090 Y121.4914
 X46.1224 Y121.5544
 X46.0395 Y121.6144
 X45.9592 Y121.6724
 X45.8803 Y121.7304
 X45.8015 Y121.7874
 X45.7217 Y121.8454
 X45.6396 Y121.9054
 X45.5542 Y121.9674
 X45.4639 Y122.0324
 X45.3678 Y122.1024
 X45.2646 Y122.1774
 X45.1531 Y122.2584
 X45.0320 Y122.3464
 X44.9000 Y122.4424
 X44.7563 Y122.5474
 X44.5992 Y122.6614
 X44.4278 Y122.7854
 X44.2407 Y122.9214
 X44.0368 Y123.0694
 X43.8149 Y123.2314
 X43.5736 Y123.4064
 X43.3120 Y123.5964
 X45.6833
 X46.0190 Y123.5974
 X48.5556
 X48.6292 Y123.8244
 X48.6967 Y124.0324
 X48.7586 Y124.2224
 X48.8153 Y124.3964
 X48.8672 Y124.5564
 X48.9149 Y124.7024
 X48.9588 Y124.8374
 X48.9992 Y124.9624
 X49.0370 Y125.0774
 X49.0721 Y125.1864
 X49.1054 Y125.2884
 X49.1372 Y125.3864
 X49.1679 Y125.4804
 X49.1982 Y125.5734
 X49.2283 Y125.6664
 X49.2589 Y125.7604
 X49.2902 Y125.8564
 X49.3228 Y125.9574
 X49.3572 Y126.0634
 X49.3938 Y126.1754
 X49.4332 Y126.2964
 X49.4756 Y126.4274
 X49.5217 Y126.5694
 X49.5718 Y126.7234
 X49.6265 Y126.8924
 X49.6863 Y127.0764
 X49.7515 Y127.2774
 X49.8226 Y127.4964
 X49.9001 Y127.7344
 X49.9846 Y127.9944
 X50.0764 Y128.2774
 X50.1758 Y128.5834
 X50.2757 Y128.2764
 X50.3677 Y127.9934
 X50.4524 Y127.7334
 X50.5300 Y127.4934
 X50.6014 Y127.2744
 X50.6668 Y127.0734
 X50.7267 Y126.8884
 X50.7814 Y126.7204
 X50.8318 Y126.5654
 X50.8779 Y126.4234
 X50.9204 Y126.2924
 X50.9597 Y126.1714
 X50.9965 Y126.0584
 X51.0308 Y125.9524
 X51.0635 Y125.8524
 X51.0949 Y125.7554
 X51.1253 Y125.6614
 X51.1554 Y125.5694
 X51.1856 Y125.4764
 X51.2163 Y125.3814
 X51.2479 Y125.2844
 X51.2813 Y125.1824
 X51.3163 Y125.0744
 X51.3539 Y124.9584
 X51.3943 Y124.8344
 X51.4379 Y124.6994
 X51.4856 Y124.5534
 X51.5374 Y124.3944
 X51.5939 Y124.2204
 X51.6556 Y124.0314
 X51.7231 Y123.8234
 X51.7965 Y123.5974
 X54.3320
 X54.6674 Y123.5964
 X57.0413
 X56.7796 Y123.4064
 X56.5383 Y123.2314
 X56.3164 Y123.0694
 X56.1125 Y122.9214
 X55.9256 Y122.7854
 X55.7542 Y122.6614
 X55.5971 Y122.5474
 X55.4533 Y122.4424
 X55.3214 Y122.3464
 X55.2003 Y122.2584
 X55.0888 Y122.1774
 X54.9856 Y122.1024
 X54.8895 Y122.0324
 X54.7993 Y121.9674
 X54.7138 Y121.9054
 X54.6318 Y121.8454
 X54.5520 Y121.7874
 X54.4732 Y121.7304
 X54.3943 Y121.6724
 X54.3140 Y121.6144
 X54.2311 Y121.5544
 X54.1445 Y121.4914
 X54.0526 Y121.4244
 X53.9546 Y121.3534
 X53.8492 Y121.2764
 X53.7350 Y121.1934
 X53.6110 Y121.1034
 X53.4758 Y121.0054
 X53.3283 Y120.8984
 X53.1674 Y120.7814
 X52.9915 Y120.6534
 X52.7999 Y120.5144
 X52.8731 Y120.2884
 X52.9403 Y120.0804
 X53.0018 Y119.8914
 X53.0582 Y119.7174
 X53.1099 Y119.5574
 X53.1572 Y119.4114
 X53.2008 Y119.2774
 X53.2411 Y119.1524
 X53.2786 Y119.0374
 X53.3136 Y118.9294
 X53.3468 Y118.8274
 X53.3785 Y118.7294
 X53.4092 Y118.6354
 X53.4392 Y118.5424
 X53.4693 Y118.4494
 X53.4997 Y118.3564
 X53.5311 Y118.2594
 X53.5638 Y118.1594
 X53.5982 Y118.0534
 X53.6349 Y117.9404
 X53.6743 Y117.8194
 X53.7168 Y117.6884
 X53.7631 Y117.5464
 X53.8133 Y117.3914
 X53.8682 Y117.2234
 X53.9281 Y117.0384
 X53.9935 Y116.8374
 X54.0649 Y116.6184
 X54.1425 Y116.3784
 X54.2272 Y116.1184
 X54.3193 Y115.8354
 X54.4190 Y115.5284
G0 Z5.0000
 X55.8218 Y88.7654
G1 Z0.0000
 X55.8043 Y88.4190
 X55.7529 Y88.0825
 X55.6696 Y87.7579
 X55.5557 Y87.4466
 X55.4131 Y87.1504
 X55.2435 Y86.8712
 X55.0486 Y86.6104
 X54.8300 Y86.3700
 X54.5897 Y86.1514
 X54.3290 Y85.9564
 X54.0499 Y85.7868
 X53.7539 Y85.6442
 X53.4429 Y85.5303
 X53.1185 Y85.4468
 X52.7822 Y85.3955
 X52.4361 Y85.3780
 X52.0899 Y85.3955
 X51.7536 Y85.4468
 X51.4290 Y85.5303
 X51.1179 Y85.6442
 X50.8218 Y85.7868
 X50.5425 Y85.9564
 X50.2817 Y86.1514
 X50.0411 Y86.3700
 X49.8225 Y86.6104
 X49.6274 Y86.8712
 X49.4578 Y87.1504
 X49.3150 Y87.4466
 X49.2011 Y87.7579
 X49.1177 Y88.0825
 X49.0663 Y88.4190
 X49.0488 Y88.7654
 X49.0663 Y89.1116
 X49.1177 Y89.4478
 X49.2011 Y89.7723
 X49.3150 Y90.0835
 X49.4578 Y90.3794
 X49.6274 Y90.6586
 X49.8225 Y90.9191
 X50.0411 Y91.1596
 X50.2817 Y91.3782
 X50.5425 Y91.5730
 X50.8218 Y91.7428
 X51.1179 Y91.8853
 X51.4290 Y91.9992
 X51.7536 Y92.0826
 X52.0899 Y92.1339
 X52.4361 Y92.1514
 X52.7822 Y92.1339
 X53.1185 Y92.0826
 X53.4429 Y91.9992
 X53.7539 Y91.8853
 X54.0499 Y91.7428
 X54.3290 Y91.5730
 X54.5897 Y91.3782
 X54.8300 Y91.1596
 X55.0486 Y90.9191
 X55.2435 Y90.6586
 X55.4131 Y90.3794
 X55.5557 Y90.0835
 X55.6696 Y89.7723
 X55.7529 Y89.4478
 X55.8043 Y89.1116
 X55.8218 Y88.7654
G0 Z5.0000
 X40.0183 Y72.9605
G1 Z0.0000
 X40.0008 Y72.6144
 X39.9496 Y72.2782
 X39.8660 Y71.9536
 X39.7521 Y71.6425
 X39.6095 Y71.3464
 X39.4397 Y71.0671
 X39.2447 Y70.8064
 X39.0261 Y70.5658
 X38.7856 Y70.3472
 X38.5247 Y70.1522
 X38.2456 Y69.9825
 X37.9495 Y69.8398
 X37.6383 Y69.7258
 X37.3138 Y69.6423
 X36.9775 Y69.5911
 X36.6314 Y69.5736
 X36.2851 Y69.5911
 X35.9489 Y69.6423
 X35.6243 Y69.7258
 X35.3131 Y69.8398
 X35.0171 Y69.9825
 X34.7378 Y70.1522
 X34.4770 Y70.3472
 X34.2364 Y70.5658
 X34.0176 Y70.8064
 X33.8227 Y71.0671
 X33.6529 Y71.3464
 X33.5103 Y71.6425
 X33.3963 Y71.9536
 X33.3128 Y72.2782
 X33.2614 Y72.6144
 X33.2440 Y72.9605
 X33.2614 Y73.3068
 X33.3128 Y73.6430
 X33.3963 Y73.9675
 X33.5103 Y74.2786
 X33.6529 Y74.5746
 X33.8227 Y74.8537
 X34.0176 Y75.1144
 X34.2364 Y75.3548
 X34.4770 Y75.5733
 X34.7378 Y75.7683
 X35.0171 Y75.9379
 X35.3131 Y76.0805
 X35.6243 Y76.1943
 X35.9489 Y76.2778
 X36.2851 Y76.3290
 X36.6314 Y76.3465
 X36.9775 Y76.3290
 X37.3138 Y76.2778
 X37.6383 Y76.1943
 X37.9495 Y76.0805
 X38.2456 Y75.9379
 X38.5247 Y75.7683
 X38.7856 Y75.5733
 X39.0261 Y75.3548
 X39.2447 Y75.1144
 X39.4397 Y74.8537
 X39.6095 Y74.5746
 X39.7521 Y74.2786
 X39.8660 Y73.9675
 X39.9496 Y73.6430
 X40.0008 Y73.3068
 X40.0183 Y72.9605
G0 Z5.0000
 X19.2860 Y67.0473
G1 Z0.0000
 X19.1495 Y67.0865
 X19.0275 Y67.1425
 X18.9197 Y67.2122
 X18.8263 Y67.2922
 X18.7468 Y67.3793
 X18.6815 Y67.4701
 X18.6302 Y67.5612
 X18.5928 Y67.6494
 X18.5557 Y67.8000
 X18.5582 Y67.9528
 X18.6121 Y68.1135
 X18.7293 Y68.2876
 X49.3133 Y104.0780
 X49.4203 Y104.1889
 X49.5345 Y104.2761
 X49.6524 Y104.3423
 X49.7704 Y104.3904
 X49.8853 Y104.4230
 X49.9935 Y104.4429
 X50.0914 Y104.4529
 X50.1758 Y104.4555
 X50.2608 Y104.4528
 X50.3596 Y104.4422
 X50.4692 Y104.4207
 X50.5868 Y104.3848
 X50.7093 Y104.3315
 X50.8338 Y104.2575
 X50.9575 Y104.1593
 X51.0772 Y104.0339
 X81.5868 Y68.3332
 X81.6664 Y68.2290
 X81.7257 Y68.1326
 X81.7664 Y68.0429
 X81.7906 Y67.9585
 X81.8003 Y67.8782
 X81.7971 Y67.8007
 X81.7833 Y67.7248
 X81.7608 Y67.6494
 X81.7232 Y67.5612
 X81.6715 Y67.4700
 X81.6050 Y67.3789
 X81.5235 Y67.2914
 X81.4264 Y67.2105
 X81.3132 Y67.1397
 X81.1836 Y67.0819
 X81.0372 Y67.0405
 X79.2761 Y66.6815
 X77.4849 Y66.3444
 X75.6649 Y66.0294
 X73.8182 Y65.7368
 X71.9463 Y65.4665
 X70.0508 Y65.2189
 X68.1335 Y64.9941
 X66.1961 Y64.7923
 X64.2404 Y64.6136
 X62.2678 Y64.4582
 X60.2803 Y64.3262
 X58.2793 Y64.2179
 X56.2668 Y64.1333
 X54.2442 Y64.0728
 X52.2133 Y64.0362
 X50.1758 Y64.0240
 X48.1388 Y64.0362
 X46.1081 Y64.0728
 X44.0856 Y64.1333
 X42.0729 Y64.2179
 X40.0717 Y64.3264
 X38.0836 Y64.4585
 X36.1103 Y64.6141
 X34.1533 Y64.7932
 X32.2145 Y64.9954
 X30.2953 Y65.2205
 X28.3974 Y65.4687
 X26.5225 Y65.7396
 X24.6724 Y66.0330
 X22.8483 Y66.3489
 X21.0524 Y66.6871
 X19.2860 Y67.0473
G0 Z5.0000
 X71.6265 Y45.8669
G1 Z0.0000
 X71.6090 Y45.5207
 X71.5578 Y45.1846
 X71.4743 Y44.8600
 X71.3604 Y44.5489
 X71.2179 Y44.2529
 X71.0483 Y43.9736
 X70.8533 Y43.7128
 X70.6349 Y43.4722
 X70.3943 Y43.2536
 X70.1338 Y43.0586
 X69.8546 Y42.8889
 X69.5586 Y42.7462
 X69.2475 Y42.6322
 X68.9231 Y42.5487
 X68.5868 Y42.4973
 X68.2406 Y42.4798
 X67.8942 Y42.4973
 X67.5578 Y42.5487
 X67.2332 Y42.6322
 X66.9220 Y42.7462
 X66.6258 Y42.8889
 X66.3467 Y43.0586
 X66.0858 Y43.2536
 X65.8454 Y43.4722
 X65.6268 Y43.7128
 X65.4318 Y43.9736
 X65.2622 Y44.2529
 X65.1196 Y44.5489
 X65.0057 Y44.8600
 X64.9224 Y45.1846
 X64.8710 Y45.5207
 X64.8536 Y45.8669
 X64.8710 Y46.2132
 X64.9224 Y46.5494
 X65.0057 Y46.8739
 X65.1196 Y47.1851
 X65.2622 Y47.4812
 X65.4318 Y47.7605
 X65.6268 Y48.0212
 X65.8454 Y48.2618
 X66.0858 Y48.4805
 X66.3467 Y48.6755
 X66.6258 Y48.8453
 X66.9220 Y48.9880
 X67.2332 Y49.1019
 X67.5578 Y49.1854
 X67.8942 Y49.2368
 X68.2406 Y49.2543
 X68.5868 Y49.2368
 X68.9231 Y49.1854
 X69.2475 Y49.1019
 X69.5586 Y48.9880
 X69.8546 Y48.8453
 X70.1338 Y48.6755
 X70.3943 Y48.4805
 X70.6349 Y48.2618
 X70.8533 Y48.0212
 X71.0483 Y47.7605
 X71.2179 Y47.4812
 X71.3604 Y47.1851
 X71.4743 Y46.8739
 X71.5578 Y46.5494
 X71.6090 Y46.2132
 X71.6265 Y45.8669
G0 Z5.0000
 X53.5647 Y36.8354
G1 Z0.0000
 X53.5471 Y36.4893
 X53.4958 Y36.1530
 X53.4124 Y35.8286
 X53.2986 Y35.5175
 X53.1560 Y35.2215
 X52.9863 Y34.9423
 X52.7914 Y34.6817
 X52.5728 Y34.4412
 X52.3322 Y34.2226
 X52.0715 Y34.0278
 X51.7922 Y33.8582
 X51.4961 Y33.7155
 X51.1849 Y33.6017
 X50.8602 Y33.5183
 X50.5238 Y33.4669
 X50.1772 Y33.4494
 X49.8311 Y33.4669
 X49.4950 Y33.5183
 X49.1706 Y33.6017
 X48.8595 Y33.7155
 X48.5636 Y33.8582
 X48.2845 Y34.0278
 X48.0238 Y34.2226
 X47.7833 Y34.4412
 X47.5649 Y34.6817
 X47.3700 Y34.9423
 X47.2003 Y35.2215
 X47.0578 Y35.5175
 X46.9439 Y35.8286
 X46.8604 Y36.1530
 X46.8092 Y36.4893
 X46.7917 Y36.8354
 X46.8092 Y37.1818
 X46.8604 Y37.5182
 X46.9439 Y37.8429
 X47.0578 Y38.1540
 X47.2003 Y38.4501
 X47.3700 Y38.7294
 X47.5649 Y38.9901
 X47.7833 Y39.2307
 X48.0238 Y39.4493
 X48.2845 Y39.6442
 X48.5636 Y39.8139
 X48.8595 Y39.9564
 X49.1706 Y40.0703
 X49.4950 Y40.1537
 X49.8311 Y40.2050
 X50.1772 Y40.2225
 X50.5238 Y40.2050
 X50.8602 Y40.1537
 X51.1849 Y40.0703
 X51.4961 Y39.9564
 X51.7922 Y39.8139
 X52.0715 Y39.6442
 X52.3322 Y39.4493
 X52.5728 Y39.2307
 X52.7914 Y38.9901
 X52.9863 Y38.7294
 X53.1560 Y38.4501
 X53.2986 Y38.1540
 X53.4124 Y37.8429
 X53.4958 Y37.5182
 X53.5471 Y37.1818
 X53.5647 Y36.8354
G0 Z5.0000
 X30.9870 Y41.3514
G1 Z0.0000
 X30.9695 Y41.0051
 X30.9181 Y40.6689
 X30.8347 Y40.3444
 X30.7208 Y40.0333
 X30.5782 Y39.7373
 X30.4086 Y39.4582
 X30.2136 Y39.1976
 X29.9950 Y38.9571
 X29.7545 Y38.7386
 X29.4938 Y38.5436
 X29.2145 Y38.3740
 X28.9183 Y38.2315
 X28.6071 Y38.1176
 X28.2824 Y38.0341
 X27.9460 Y37.9829
 X27.5996 Y37.9654
 X27.2533 Y37.9829
 X26.9172 Y38.0341
 X26.5928 Y38.1176
 X26.2817 Y38.2315
 X25.9858 Y38.3740
 X25.7067 Y38.5436
 X25.4460 Y38.7386
 X25.2056 Y38.9571
 X24.9871 Y39.1976
 X24.7921 Y39.4582
 X24.6225 Y39.7373
 X24.4800 Y40.0333
 X24.3661 Y40.3444
 X24.2827 Y40.6689
 X24.2314 Y41.0051
 X24.2139 Y41.3514
 X24.2314 Y41.6978
 X24.2827 Y42.0341
 X24.3661 Y42.3587
 X24.4800 Y42.6700
 X24.6225 Y42.9661
 X24.7921 Y43.2453
 X24.9871 Y43.5061
 X25.2056 Y43.7465
 X25.4460 Y43.9651
 X25.7067 Y44.1601
 X25.9858 Y44.3297
 X26.2817 Y44.4723
 X26.5928 Y44.5862
 X26.9172 Y44.6696
 X27.2533 Y44.7210
 X27.5996 Y44.7383
 X27.9460 Y44.7210
 X28.2824 Y44.6696
 X28.6071 Y44.5862
 X28.9183 Y44.4723
 X29.2145 Y44.3297
 X29.4938 Y44.1601
 X29.7545 Y43.9651
 X29.9950 Y43.7465
 X30.2136 Y43.5061
 X30.4086 Y43.2453
 X30.5782 Y42.9661
 X30.7208 Y42.6700
 X30.8347 Y42.3587
 X30.9181 Y42.0341
 X30.9695 Y41.6978
 X30.9870 Y41.3514
G0 Z5.0000
 X45.6604 Y16.7613
G1 Z0.0000
 Y23.4821
 X47.9089 Y23.4297
 X50.1758 Y23.4062
 X52.4438 Y23.4297
 X54.6918 Y23.4821
 Y16.7613
 X54.2749 Y16.6909
 X53.8142 Y16.6246
 X53.3104 Y16.5639
 X52.7647 Y16.5104
 X52.1775 Y16.4661
 X51.5497 Y16.4323
 X50.8822 Y16.4108
 X50.1758 Y16.4032
 X49.4696 Y16.4104
 X48.8024 Y16.4317
 X48.1749 Y16.4654
 X47.5879 Y16.5100
 X47.0422 Y16.5635
 X46.5385 Y16.6244
 X46.0777 Y16.6909
 X45.6604 Y16.7613
G0 Z5.0000
 X84.5694 Y14.0315
G1 Z0.0000
 X84.1064 Y13.8436
 X83.6014 Y13.6530
 X83.0564 Y13.4605
 X82.4689 Y13.2665
 X81.8411 Y13.0716
 X81.1725 Y12.8763
 X80.4633 Y12.6812
 X79.7140 Y12.4869
 X78.9245 Y12.2940
 X78.0950 Y12.1029
 X77.2260 Y11.9143
 X76.3174 Y11.7287
 X75.3696 Y11.5467
 X74.3827 Y11.3689
 X73.3570 Y11.1957
 X72.2927 Y11.0278
 X71.1899 Y10.8658
 X70.0488 Y10.7101
 X68.8697 Y10.5614
 X67.6528 Y10.4201
 X66.3983 Y10.2869
 X65.1064 Y10.1624
 X63.7774 Y10.0471
 X62.4113 Y9.9416
 X61.0083 Y9.8463
 X59.5689 Y9.7619
 X58.0932 Y9.6890
 X56.5811 Y9.6281
 X55.0332 Y9.5797
 X53.4496 Y9.5445
 X51.8304 Y9.5229
 X50.1758 Y9.5156
 X48.5215 Y9.5229
 X46.9025 Y9.5445
 X45.3189 Y9.5797
 X43.7711 Y9.6281
 X42.2593 Y9.6890
 X40.7836 Y9.7619
 X39.3442 Y9.8463
 X37.9414 Y9.9416
 X36.5754 Y10.0471
 X35.2464 Y10.1624
 X33.9546 Y10.2869
 X32.7002 Y10.4201
 X31.4833 Y10.5614
 X30.3043 Y10.7101
 X29.1633 Y10.8658
 X28.0606 Y11.0278
 X26.9963 Y11.1957
 X25.9704 Y11.3689
 X24.9836 Y11.5467
 X24.0358 Y11.7287
 X23.1274 Y11.9143
 X22.2582 Y12.1029
 X21.4289 Y12.2940
 X20.6393 Y12.4869
 X19.8900 Y12.6812
 X19.1808 Y12.8763
 X18.5124 Y13.0716
 X17.8845 Y13.2665
 X17.2975 Y13.4605
 X16.7517 Y13.6530
 X16.2472 Y13.8436
 X15.7843 Y14.0315
 X16.1604 Y14.1850
 X16.5649 Y14.3402
 X16.9974 Y14.4968
 X17.4578 Y14.6545
 X17.9461 Y14.8130
 X18.4622 Y14.9720
 X19.0058 Y15.1312
 X19.5768 Y15.2903
 X20.1750 Y15.4490
 X20.8006 Y15.6069
 X21.4529 Y15.7639
 X22.1322 Y15.9195
 X22.8382 Y16.0735
 X23.5708 Y16.2256
 X24.3299 Y16.3755
 X25.1153 Y16.5229
 X25.9268 Y16.6674
 X26.7643 Y16.8089
 X27.6278 Y16.9470
 X28.5171 Y17.0813
 X29.4318 Y17.2116
 X30.3722 Y17.3376
 X31.3378 Y17.4590
 X32.3286 Y17.5754
 X33.3445 Y17.6866
 X34.3854 Y17.7923
 X35.4510 Y17.8922
 X36.5411 Y17.9860
 X37.6560 Y18.0733
 X38.7950 Y18.1539
 X39.9583 Y18.2275
 X41.1458 Y18.2937
 Y14.1444
 X41.1575 Y14.0282
 X41.1924 Y13.9135
 X41.2499 Y13.8006
 X41.3293 Y13.6893
 X41.4302 Y13.5801
 X41.5518 Y13.4730
 X41.6938 Y13.3681
 X41.8554 Y13.2656
 X42.0363 Y13.1656
 X42.2357 Y13.0683
 X42.4532 Y12.9738
 X42.6881 Y12.8822
 X42.9399 Y12.7937
 X43.2079 Y12.7085
 X43.4918 Y12.6266
 X43.7907 Y12.5482
 X44.1043 Y12.4735
 X44.4320 Y12.4026
 X44.7732 Y12.3356
 X45.1272 Y12.2727
 X45.4936 Y12.2140
 X45.8717 Y12.1597
 X46.2611 Y12.1098
 X46.6611 Y12.0646
 X47.0711 Y12.0242
 X47.4907 Y11.9888
 X47.9192 Y11.9584
 X48.3561 Y11.9332
 X48.8007 Y11.9133
 X49.2526 Y11.8990
 X49.7113 Y11.8903
 X50.1758 Y11.8873
 X50.6407 Y11.8903
 X51.0995 Y11.8990
 X51.5514 Y11.9133
 X51.9963 Y11.9332
 X52.4332 Y11.9584
 X52.8618 Y11.9888
 X53.2815 Y12.0242
 X53.6917 Y12.0646
 X54.0917 Y12.1098
 X54.4813 Y12.1597
 X54.8595 Y12.2140
 X55.2258 Y12.2727
 X55.5800 Y12.3356
 X55.9211 Y12.4026
 X56.2489 Y12.4735
 X56.5625 Y12.5482
 X56.8615 Y12.6266
 X57.1454 Y12.7085
 X57.4136 Y12.7937
 X57.6654 Y12.8822
 X57.9003 Y12.9738
 X58.1178 Y13.0683
 X58.3171 Y13.1656
 X58.4979 Y13.2656
 X58.6597 Y13.3681
 X58.8017 Y13.4730
 X58.9233 Y13.5801
 X59.0243 Y13.6893
 X59.1036 Y13.8006
 X59.1611 Y13.9135
 X59.1960 Y14.0282
 X59.2078 Y14.1444
 Y18.2937
 X60.3952 Y18.2275
 X61.5585 Y18.1539
 X62.6976 Y18.0733
 X63.8124 Y17.9860
 X64.9025 Y17.8922
 X65.9682 Y17.7923
 X67.0089 Y17.6866
 X68.0249 Y17.5754
 X69.0156 Y17.4590
 X69.9813 Y17.3376
 X70.9215 Y17.2116
 X71.8364 Y17.0813
 X72.7256 Y16.9470
 X73.5890 Y16.8089
 X74.4265 Y16.6674
 X75.2381 Y16.5229
 X76.0235 Y16.3755
 X76.7825 Y16.2256
 X77.5150 Y16.0735
 X78.2211 Y15.9195
 X78.9004 Y15.7639
 X79.5528 Y15.6069
 X80.1782 Y15.4490
 X80.7765 Y15.2903
 X81.3475 Y15.1312
 X81.8911 Y14.9720
 X82.4072 Y14.8130
 X82.8954 Y14.6545
 X83.3564 Y14.4968
 X83.7884 Y14.3402
 X84.1934 Y14.1850
 X84.5694 Y14.0315
G0 Z5.0000
 X90.8064 Y33.8643
G1 Z0.0000
 X90.7494 Y33.7232
 X90.6574 Y33.5812
 X90.5284 Y33.4583
 X90.3614 Y33.3736
 X89.3134 Y33.0487
 X88.2474 Y32.7330
 X87.1644 Y32.4269
 X86.0634 Y32.1301
 X84.9454 Y31.8429
 X83.8114 Y31.5651
 X82.6614 Y31.2971
 X81.4964 Y31.0387
 X80.3164 Y30.7903
 X79.1220 Y30.5515
 X77.9136 Y30.3228
 X76.6918 Y30.1039
 X75.4571 Y29.8951
 X74.2099 Y29.6964
 X72.9507 Y29.5079
 X71.6800 Y29.3296
 X70.3982 Y29.1616
 X69.1060 Y29.0040
 X67.8038 Y28.8568
 X66.4918 Y28.7201
 X65.1708 Y28.5940
 X63.8413 Y28.4785
 X62.5035 Y28.3737
 X61.1581 Y28.2796
 X59.8056 Y28.1964
 X58.4463 Y28.1240
 X57.0808 Y28.0626
 X55.7096 Y28.0122
 X54.3332 Y27.9729
 X52.9521 Y27.9447
 X51.5665 Y27.9278
 X50.1772 Y27.9221
 X48.7881 Y27.9278
 X47.4025 Y27.9447
 X46.0214 Y27.9729
 X44.6449 Y28.0122
 X43.2738 Y28.0626
 X41.9082 Y28.1240
 X40.5489 Y28.1964
 X39.1961 Y28.2797
 X37.8507 Y28.3737
 X36.5128 Y28.4786
 X35.1829 Y28.5942
 X33.8617 Y28.7204
 X32.5496 Y28.8572
 X31.2470 Y29.0044
 X29.9543 Y29.1622
 X28.6721 Y29.3303
 X27.4010 Y29.5087
 X26.1413 Y29.6973
 X24.8935 Y29.8962
 X23.6581 Y30.1053
 X22.4356 Y30.3243
 X21.2265 Y30.5533
 X20.0313 Y30.7923
 X18.8503 Y31.0411
 X17.6840 Y31.2997
 X16.5332 Y31.5682
 X15.3981 Y31.8462
 X14.2792 Y32.1339
 X13.1771 Y32.4311
 X12.0922 Y32.7378
 X11.0249 Y33.0539
 X9.9758 Y33.3793
 X9.8179 Y33.4610
 X9.6939 Y33.5825
 X9.6036 Y33.7239
 X9.5472 Y33.8643
 X9.5161 Y34.0461
 X9.5350 Y34.2205
 X9.6049 Y34.3929
 X9.7264 Y34.5685
 X31.3602 Y60.5844
 X33.6096 Y60.3439
 X35.8896 Y60.1308
 X38.1995 Y59.9465
 X40.5388 Y59.7926
 X42.9068 Y59.6703
 X45.3029 Y59.5811
 X47.7267 Y59.5266
 X50.1772 Y59.5080
 X52.6275 Y59.5266
 X55.0510 Y59.5811
 X57.4471 Y59.6703
 X59.8150 Y59.7926
 X62.1543 Y59.9465
 X64.4642 Y60.1308
 X66.7440 Y60.3439
 X68.9931 Y60.5844
 X90.6264 Y34.5685
 X90.7484 Y34.3929
 X90.8184 Y34.2205
 X90.8374 Y34.0461
 X90.8064 Y33.8643
G0 Z5.0000
 X68.2381 Y127.1544
G1 Z0.0000
 X54.4396 Y127.1584
 X50.1758 Y140.2804
 X45.9111 Y127.1584
 X32.1140 Y127.1564
 X43.2763 Y119.0464
 X39.0140 Y105.9234
 X50.1758 Y114.0334
 X61.3382 Y105.9234
 X57.0758 Y119.0454
 X68.2381 Y127.1544
G0 Z5.0000
 X94.0984 Y37.4555
G1 Z0.0000
 X74.3083 Y61.2529
 X76.2782 Y61.5621
 X78.2147 Y61.8929
 X80.1145 Y62.2465
 X81.9742 Y62.6239
 X82.3225 Y62.7072
 X82.6604 Y62.8118
 X82.9864 Y62.9365
 X83.3014 Y63.0805
 X83.6034 Y63.2429
 X83.8934 Y63.4228
 X84.1694 Y63.6191
 X84.4314 Y63.8312
 X84.6784 Y64.0580
 X84.9114 Y64.2986
 X85.1274 Y64.5521
 X85.3284 Y64.8175
 X85.5114 Y65.0939
 X85.6774 Y65.3804
 X85.8264 Y65.6762
 X85.9554 Y65.9801
 X86.0664 Y66.2915
 X86.1574 Y66.6094
 X86.2284 Y66.9328
 X86.2784 Y67.2607
 X86.3074 Y67.5923
 X86.3144 Y67.9268
 X86.2984 Y68.2630
 X86.2604 Y68.6003
 X86.1984 Y68.9375
 X86.1114 Y69.2739
 X86.0004 Y69.6083
 X85.8644 Y69.9401
 X85.7024 Y70.2683
 X85.5144 Y70.5918
 X85.2994 Y70.9098
 X85.0564 Y71.2214
 X54.5101 Y106.9684
 X54.0706 Y107.4374
 X53.5903 Y107.8444
 X53.0747 Y108.1884
 X52.5300 Y108.4704
 X51.9620 Y108.6894
 X51.3764 Y108.8464
 X50.7790 Y108.9404
 X50.1758 Y108.9714
 X49.5732 Y108.9404
 X48.9764 Y108.8464
 X48.3910 Y108.6904
 X47.8231 Y108.4714
 X47.2785 Y108.1894
 X46.7631 Y107.8454
 X46.2828 Y107.4384
 X45.8435 Y106.9684
 X15.2950 Y71.2214
 X15.0524 Y70.9098
 X14.8374 Y70.5916
 X14.6492 Y70.2682
 X14.4874 Y69.9401
 X14.3514 Y69.6083
 X14.2406 Y69.2737
 X14.1545 Y68.9373
 X14.0925 Y68.6001
 X14.0540 Y68.2628
 X14.0385 Y67.9265
 X14.0454 Y67.5921
 X14.0742 Y67.2604
 X14.1243 Y66.9323
 X14.1951 Y66.6090
 X14.2863 Y66.2911
 X14.3968 Y65.9797
 X14.5265 Y65.6755
 X14.6749 Y65.3798
 X14.8410 Y65.0933
 X15.0246 Y64.8168
 X15.2249 Y64.5515
 X15.4417 Y64.2980
 X15.6739 Y64.0575
 X15.9214 Y63.8307
 X16.1835 Y63.6187
 X16.4596 Y63.4223
 X16.7492 Y63.2425
 X17.0517 Y63.0801
 X17.3664 Y62.9362
 X17.6931 Y62.8115
 X18.0308 Y62.7071
 X18.3793 Y62.6239
 X20.2385 Y62.2465
 X22.1381 Y61.8929
 X24.0745 Y61.5621
 X26.0438 Y61.2529
 X6.2550 Y37.4555
 X6.0289 Y37.1660
 X5.8265 Y36.8698
 X5.6474 Y36.5682
 X5.4911 Y36.2617
 X5.3572 Y35.9512
 X5.2453 Y35.6376
 X5.1549 Y35.3216
 X5.0856 Y35.0043
 X5.0370 Y34.6862
 X5.0086 Y34.3682
 X5.0000 Y34.0512
 X5.0108 Y33.7360
 X5.0404 Y33.4233
 X5.0888 Y33.1141
 X5.1550 Y32.8091
 X5.2389 Y32.5093
 X5.3400 Y32.2154
 X5.4578 Y31.9280
 X5.5920 Y31.6483
 X5.7421 Y31.3769
 X5.9076 Y31.1147
 X6.0882 Y30.8623
 X6.2835 Y30.6210
 X6.4928 Y30.3911
 X6.7158 Y30.1737
 X6.9522 Y29.9697
 X7.2014 Y29.7797
 X7.4631 Y29.6047
 X7.7368 Y29.4454
 X8.0220 Y29.3026
 X8.3183 Y29.1772
 X8.6254 Y29.0701
 X10.3324 Y28.5475
 X12.0906 Y28.0472
 X13.8981 Y27.5697
 X15.7532 Y27.1155
 X17.6546 Y26.6850
 X19.6004 Y26.2789
 X21.5890 Y25.8975
 X23.6189 Y25.5414
 X25.6883 Y25.2111
 X27.7958 Y24.9071
 X29.9395 Y24.6300
 X32.1179 Y24.3801
 X34.3293 Y24.1582
 X36.5722 Y23.9644
 X38.8449 Y23.7996
 X41.1458 Y23.6642
 Y22.8191
 X39.4639 Y22.7258
 X37.8104 Y22.6172
 X36.1870 Y22.4936
 X34.5950 Y22.3555
 X33.0365 Y22.2032
 X31.5128 Y22.0371
 X30.0258 Y21.8575
 X28.5770 Y21.6647
 X27.1681 Y21.4593
 X25.8006 Y21.2414
 X24.4761 Y21.0114
 X23.1967 Y20.7698
 X21.9635 Y20.5168
 X20.7783 Y20.2529
 X19.6431 Y19.9783
 X18.5590 Y19.6936
 X17.5279 Y19.3987
 X16.5515 Y19.0946
 X15.6313 Y18.7811
 X14.7690 Y18.4587
 X13.9664 Y18.1280
 X13.2249 Y17.7890
 X12.5461 Y17.4423
 X11.9320 Y17.0882
 X11.3839 Y16.7271
 X10.9035 Y16.3593
 X10.4925 Y15.9851
 X10.1527 Y15.6049
 X9.8854 Y15.2191
 X9.6925 Y14.8280
 X9.5756 Y14.4320
 X9.5363 Y14.0315
 X9.5495 Y13.7983
 X9.5890 Y13.5667
 X9.6547 Y13.3365
 X9.7460 Y13.1080
 X9.8628 Y12.8811
 X10.0045 Y12.6559
 X10.1710 Y12.4326
 X10.3618 Y12.2112
 X10.5768 Y11.9916
 X10.8157 Y11.7741
 X11.0779 Y11.5588
 X11.3633 Y11.3455
 X11.6715 Y11.1346
 X12.0022 Y10.9259
 X12.3551 Y10.7196
 X12.7300 Y10.5157
 X13.1263 Y10.3144
 X13.5439 Y10.1157
 X13.9822 Y9.9196
 X14.4413 Y9.7263
 X14.9206 Y9.5357
 X15.4199 Y9.3480
 X15.9388 Y9.1633
 X16.4770 Y8.9816
 X17.0342 Y8.8030
 X17.6100 Y8.6275
 X18.2043 Y8.4553
 X18.8165 Y8.2863
 X19.4465 Y8.1208
 X20.0939 Y7.9587
 X20.7583 Y7.8001
 X21.4395 Y7.6450
 X22.1371 Y7.4937
 X22.8508 Y7.3460
 X23.5804 Y7.2021
 X24.3256 Y7.0622
 X25.0857 Y6.9261
 X25.8608 Y6.7941
 X26.6503 Y6.6661
 X27.4540 Y6.5423
 X28.2718 Y6.4227
 X29.1029 Y6.3074
 X29.9475 Y6.1964
 X30.8049 Y6.0899
 X31.6749 Y5.9880
 X32.5571 Y5.8905
 X33.4514 Y5.7977
 X34.3574 Y5.7097
 X35.2746 Y5.6264
 X36.2028 Y5.5480
 X37.1418 Y5.4745
 X38.0911 Y5.4060
 X39.0504 Y5.3426
 X40.0196 Y5.2843
 X40.9981 Y5.2313
 X41.9857 Y5.1835
 X42.9821 Y5.1411
 X43.9870 Y5.1041
 X45.0000 Y5.0726
 X46.0208 Y5.0467
 X47.0490 Y5.0264
 X48.0846 Y5.0118
 X49.1270 Y5.0030
 X50.1758 Y5.0000
 X51.2247 Y5.0030
 X52.2671 Y5.0118
 X53.3026 Y5.0264
 X54.3310 Y5.0467
 X55.3518 Y5.0726
 X56.3647 Y5.1041
 X57.3696 Y5.1411
 X58.3660 Y5.1835
 X59.3536 Y5.2313
 X60.3322 Y5.2843
 X61.3013 Y5.3426
 X62.2607 Y5.4060
 X63.2100 Y5.4745
 X64.1489 Y5.5480
 X65.0772 Y5.6264
 X65.9945 Y5.7097
 X66.9004 Y5.7977
 X67.7946 Y5.8905
 X68.6770 Y5.9880
 X69.5470 Y6.0899
 X70.4043 Y6.1964
 X71.2489 Y6.3074
 X72.0800 Y6.4227
 X72.8978 Y6.5423
 X73.7015 Y6.6661
 X74.4911 Y6.7941
 X75.2661 Y6.9261
 X76.0264 Y7.0622
 X76.7714 Y7.2021
 X77.5010 Y7.3460
 X78.2147 Y7.4937
 X78.9124 Y7.6450
 X79.5936 Y7.8001
 X80.2581 Y7.9587
 X80.9054 Y8.1208
 X81.5354 Y8.2863
 X82.1476 Y8.4553
 X82.7424 Y8.6275
 X83.3174 Y8.8030
 X83.8754 Y8.9816
 X84.4134 Y9.1633
 X84.9324 Y9.3480
 X85.4314 Y9.5357
 X85.9104 Y9.7263
 X86.3694 Y9.9196
 X86.8084 Y10.1157
 X87.2254 Y10.3144
 X87.6224 Y10.5157
 X87.9964 Y10.7196
 X88.3494 Y10.9259
 X88.6804 Y11.1346
 X88.9884 Y11.3455
 X89.2744 Y11.5588
 X89.5364 Y11.7741
 X89.7754 Y11.9916
 X89.9904 Y12.2112
 X90.1814 Y12.4326
 X90.3474 Y12.6559
 X90.4894 Y12.8811
 X90.6064 Y13.1080
 X90.6974 Y13.3365
 X90.7634 Y13.5667
 X90.8024 Y13.7983
 X90.8164 Y14.0315
 X90.7764 Y14.4320
 X90.6594 Y14.8280
 X90.4664 Y15.2191
 X90.1994 Y15.6049
 X89.8594 Y15.9851
 X89.4484 Y16.3593
 X88.9684 Y16.7271
 X88.4204 Y17.0882
 X87.8064 Y17.4423
 X87.1274 Y17.7890
 X86.3854 Y18.1280
 X85.5834 Y18.4587
 X84.7214 Y18.7811
 X83.8004 Y19.0946
 X82.8244 Y19.3987
 X81.7933 Y19.6936
 X80.7093 Y19.9783
 X79.5740 Y20.2529
 X78.3889 Y20.5168
 X77.1558 Y20.7698
 X75.8764 Y21.0114
 X74.5521 Y21.2414
 X73.1846 Y21.4593
 X71.7757 Y21.6647
 X70.3270 Y21.8575
 X68.8400 Y22.0371
 X67.3164 Y22.2032
 X65.7579 Y22.3555
 X64.1663 Y22.4936
 X62.5428 Y22.6172
 X60.8895 Y22.7258
 X59.2078 Y22.8191
 Y23.6642
 X61.5085 Y23.7996
 X63.7811 Y23.9644
 X66.0240 Y24.1582
 X68.2354 Y24.3801
 X70.4138 Y24.6300
 X72.5574 Y24.9071
 X74.6647 Y25.2111
 X76.7342 Y25.5414
 X78.7640 Y25.8975
 X80.7525 Y26.2789
 X82.6984 Y26.6850
 X84.5994 Y27.1155
 X86.4544 Y27.5697
 X88.2624 Y28.0472
 X90.0194 Y28.5475
 X91.7264 Y29.0701
 X92.0334 Y29.1772
 X92.3304 Y29.3026
 X92.6154 Y29.4454
 X92.8894 Y29.6047
 X93.1514 Y29.7797
 X93.4004 Y29.9697
 X93.6374 Y30.1737
 X93.8604 Y30.3911
 X94.0694 Y30.6210
 X94.2644 Y30.8623
 X94.4454 Y31.1147
 X94.6114 Y31.3769
 X94.7614 Y31.6483
 X94.8954 Y31.9280
 X95.0134 Y32.2154
 X95.1144 Y32.5093
 X95.1984 Y32.8091
 X95.2644 Y33.1141
 X95.3124 Y33.4233
 X95.3424 Y33.7360
 X95.3534 Y34.0512
 X95.3444 Y34.3682
 X95.3164 Y34.6862
 X95.2674 Y35.0043
 X95.1984 Y35.3216
 X95.1084 Y35.6376
 X94.9964 Y35.9512
 X94.8624 Y36.2617
 X94.7054 Y36.5682
 X94.5264 Y36.8698
 X94.3244 Y37.1660
 X94.0984 Y37.4555
G0 Z5.0000
G0 Z5.0000
M2 (end program)
